P2
320 240
255
0 255 158 124 255 42 164 150 4 218 214 255 255 122 22 104 255 42 166 58 16 255 68 255 36 130 118 255 58 72 112 255 174 212 244 92 16 118 48 30 52 236 222 254 150 255 204 160 86 144 255 230 255 204 170 214 255 255 255 255 255 250 76 70 52 2 58 140 255 94
112 220 202 80 188 192 255 184 22 118 194 106 146 255 94 12 255 18 128 255 76 126 118 126 255 255 244 30 94 58 255 156 255 42 255 138 128 22 255 42 16 220 156 86 222 255 240 255 20 60 255 255 255 255 255 68 96 255 164 170 14 156 174 24 188 202 24 255 226 178
120 12 255 212 84 255 255 46 146 178 60 122 255 66 106 14 198 236 255 190 32 2 154 12 104 82 208 14 255 255 98 255 255 240 255 38 2 4 255 255 220 226 150 158 58 104 68 255 136 255 146 178 255 248 34 170 214 56 4 14 10 40 255 10 182 192 124 64 2 100
110 110 236 38 38 198 122 255 104 52 54 118 198 100 236 94 255 86 158 84 94 128 130 68 122 255 14 255 255 255 255 255 50 50 255 118 60 18 104 86 82 160 102 70 122 214 255 164 212 112 164 176 192 54 255 238 255 28 16 255 255 72 154 64 60 52 130 126 10 255
58 142 88 255 156 255 255 26 188 150 32 20 74 108 26 14 12 230 62 252 38 74 6 46 106 166 110 18 40 255 255 166 112 164 142 8 226 128 255 0 12 255 140 142 255 72 134 230 255 255 255 255 255 255 188 238 255 255 255 104 194 255 58 255 242 255 255 255 102 176
90 255 255 255 255 255 255 255 80 232 150 192 100 255 136 255 255 226 104 236 255 255 255 255 196 188 255 255 255 255 255 255 178 255 160 122 182 142 255 114 220 255 255 255 255 255 255 255 124 178 254 134 255 255 255 194 158 255 255 255 46 255 254 252 255 255 255 255 196 50
255 156 255 94 255 255 255 104 255 180 122 236 255 255 255 255 255 255 210 172 255 192 255 255 255 114 220 255 255 255 254 160 178 84 248 255 198 255 255 255 255 128 255 124 204 208 255 188 100 255 146 208 206 152 150 255 255 120 255 220 26 52 116 148 255 255 255 122 255 255
126 255 255 255 255 66 255 255 255 255 255 255 255 255 255 164 128 255 166 255 190 222 255 255 255 255 255 244 192 120 144 174 255 252 255 255 255 148 86 255 255 255 255 236 168 255 255 188 44 255 255 255 202 222 255 250 255 224 254 14 255 255 210 148 112 255 255 255 255 255
255 255 126 38 244 255 255 255 255 255 122 255 118 86 196 140 255 255 255 200 255 130 255 124 255 174 255 255 255 255 255 255 255 255 255 222 236 210 94 255 66 150 128 254 255 255 255 170 255 184 20 36 130 224 204 192 124 255 74 255 104 140 72 94 154 255 206 130 200 255
255 160 118 214 160 52 182 146 255 255 134 94 255 140 230 118 96 82 124 88 255 255 255 255 80 196 255 255 255 255 255 160 188 88 255 255 255 255 255 255 255 146 255 162 255 255 255 255 255 255 28 62 114 234 255 255 255 134 86 50 218 84 232 255 210 136 255 255 208 255
255 255 255 255 236 255 255 255 255 255 214 178 106 255 184 255 255 210 152 186 126 255 255 240 255 134 216 82 132 102 80 138 68 255 255 218 120 76 110 184 122 255 255 118 255 52 244 255 255 162 202 28 158 248 255 132 255 255 255 174 255 255 146 60 255 255 255 255 134 32
140 126 210 62 255 255 52 104 255 255 212 188 255 148 222 116 255 255 255 255 176 116 84 255 188 255 255 255 184 192 146 84 238 255 255 255 190 200 255 255 255 255 255 255 255 192 255 144 84 202 255 255 168 250 255 242 172 194 255 166 202 134 255 255 158 222 224 255 255 154
82 206 255 255 255 255 56 142 236 255 255 255 255 255 255 255 168 22 70 255 124 238 200 255 202 255 216 255 255 255 184 152 192 255 255 255 255 255 255 255 255 255 220 170 255 255 255 255 228 255 255 255 144 102 202 255 255 255 255 152 255 255 255 255 176 255 255 255 255 255
86 170 138 174 222 172 114 108 255 98 255 255 44 252 255 255 255 255 255 118 255 255 226 24 255 255 42 255 255 255 216 206 68 120 130 255 255 255 255 190 255 255 255 34 228 162 174 210 56 28 255 255 80 134 144 186 255 224 196 232 132 255 102 255 255 255 255 255 255 255
255 255 138 98 40 255 180 255 255 255 254 255 255 255 255 255 255 255 220 255 255 255 124 255 255 255 226 100 255 255 66 200 142 255 255 255 255 255 84 120 120 202 50 255 180 255 96 255 255 236 128 40 244 255 216 218 192 255 255 248 86 255 166 204 255 184 162 255 255 242
90 134 255 255 230 255 255 228 108 242 255 255 255 255 255 128 255 255 255 162 122 120 255 255 255 208 134 114 42 255 255 170 234 255 255 255 255 255 182 128 128 255 255 255 255 255 150 178 116 255 192 154 255 255 144 255 255 255 255 88 124 22 178 255 160 255 255 255 254 104
255 112 74 210 62 255 198 162 216 156 130 202 255 255 255 240 236 130 208 250 255 255 206 255 164 198 188 168 122 80 194 90 255 255 255 255 255 255 92 255 246 190 120 120 40 230 222 255 124 240 255 255 255 255 146 252 255 142 50 230 255 255 255 70 255 128 240 255 255 76
126 198 255 56 168 26 112 112 255 218 255 255 255 255 255 200 146 100 226 136 140 246 72 250 255 255 250 255 255 110 102 152 110 228 86 255 166 62 92 142 255 60 222 255 255 255 182 126 255 198 168 108 154 255 255 70 252 255 255 176 255 114 255 255 255 220 255 188 255 255
94 255 182 234 150 144 154 176 122 242 255 255 255 70 142 68 255 198 255 255 178 255 255 174 72 144 255 255 255 255 255 178 138 232 255 255 255 255 255 255 180 255 52 255 255 242 255 184 255 255 42 152 198 255 255 255 238 196 255 255 255 255 126 240 255 114 104 210 255 122
255 166 176 212 158 76 232 212 255 255 240 255 255 255 255 255 255 255 255 255 180 84 144 124 224 255 255 255 214 255 174 154 255 255 255 56 60 255 255 142 220 56 255 255 255 255 118 250 238 134 255 255 255 255 255 255 255 255 255 240 126 154 255 226 126 222 196 242 252 16
255 255 92 242 136 250 92 80 114 124 202 255 255 255 102 255 254 255 255 255 100 255 114 122 118 255 255 144 255 58 206 236 128 244 255 208 255 136 255 255 255 12 50 118 202 212 255 255 255 255 255 172 255 255 255 255 255 255 255 255 255 138 255 234 255 108 174 255 255 255
232 48 244 255 114 255 255 255 255 160 158 196 44 152 188 166 96 212 28 102 50 50 126 255 255 236 144 118 78 116 214 255 255 255 255 255 242 204 255 198 20 94 216 255 214 210 255 255 255 176 255 255 78 255 255 255 255 255 198 255 255 240 118 182 172 104 255 255 152 255
255 255 255 255 255 255 255 255 255 184 104 120 255 254 198 255 255 106 230 88 134 116 22 106 250 255 255 255 255 255 255 224 80 46 220 255 192 255 224 150 255 40 255 255 255 255 255 255 255 255 255 255 255 255 180 255 208 172 228 160 40 212 178 166 120 226 255 232 234 255
255 226 254 255 255 234 236 255 255 255 255 255 255 255 150 255 216 255 170 246 230 172 54 255 182 130 255 255 150 255 255 255 64 166 255 255 255 255 182 202 124 255 182 255 255 250 255 112 168 250 255 255 248 122 255 255 255 255 255 255 255 146 126 98 255 232 238 198 252 255
255 206 254 255 246 156 255 255 184 184 56 144 244 255 246 255 255 202 98 202 232 202 255 255 255 255 146 255 255 130 150 216 255 255 255 255 38 106 128 255 255 255 255 172 120 146 116 84 96 178 120 255 126 226 180 255 148 128 64 255 240 255 255 255 255 255 255 255 106 98
110 80 255 194 222 54 255 70 228 224 178 132 170 206 255 255 246 88 138 206 255 198 255 186 218 255 90 255 255 255 88 255 246 58 202 84 238 214 198 198 158 60 255 255 255 255 255 255 255 152 90 170 64 90 60 80 62 148 78 66 128 128 206 255 202 182 180 156 70 128
152 104 172 32 200 212 255 255 164 52 210 182 114 240 130 255 255 255 252 255 255 255 255 255 255 110 52 212 186 190 255 255 98 255 255 214 255 176 255 255 255 255 242 210 255 255 148 255 196 255 48 238 152 255 255 255 56 255 255 120 180 184 202 194 140 204 255 255 255 255
255 255 255 202 196 124 84 146 220 134 98 254 166 255 152 255 255 255 255 255 255 255 200 246 255 100 255 114 184 248 14 226 88 66 252 255 188 86 255 255 248 68 255 255 124 52 110 190 255 255 255 255 4 255 255 130 148 94 134 255 255 202 84 202 255 184 64 188 255 255
204 212 48 255 106 22 192 255 154 160 142 188 255 255 88 34 255 255 255 255 234 188 255 255 255 228 255 255 255 255 255 18 68 255 252 230 255 184 58 255 255 255 84 255 114 104 255 98 255 212 190 252 100 255 80 230 140 255 255 234 255 255 255 255 255 255 80 84 54 164
142 202 100 252 255 112 74 255 114 176 255 255 255 216 64 136 255 255 255 16 255 255 158 212 214 255 224 255 255 255 255 70 132 188 184 255 255 255 236 166 30 164 180 190 218 216 210 56 94 152 138 124 22 255 255 186 255 178 238 255 255 255 255 216 196 236 255 210 64 214
255 255 255 255 255 112 98 255 255 255 255 255 255 140 255 255 255 104 142 76 144 112 90 124 76 122 122 178 255 255 255 255 78 255 255 255 208 134 106 38 174 255 255 255 134 160 238 255 255 154 255 254 90 158 255 255 255 188 255 96 255 255 196 255 255 255 182 40 255 255
248 210 255 255 255 255 255 255 202 154 220 255 218 80 252 222 128 255 156 255 255 172 116 86 140 198 255 196 255 255 168 42 255 255 255 54 238 194 44 134 152 118 216 62 138 52 26 96 255 160 255 130 255 255 255 255 255 255 255 128 255 255 128 102 255 255 255 255 232 255
166 255 248 226 255 255 255 255 255 255 255 255 255 255 220 255 255 255 255 232 138 255 255 144 255 255 92 255 222 255 255 136 255 216 168 206 208 236 255 152 255 255 255 255 174 156 36 255 255 255 102 56 176 255 255 255 255 255 218 255 166 44 140 254 36 90 255 255 255 242
255 255 232 255 222 188 194 218 255 255 255 255 136 255 214 255 255 255 212 255 172 160 255 255 96 255 255 255 255 255 255 255 255 178 114 190 88 255 255 255 255 255 104 114 168 255 255 255 255 255 255 246 126 52 80 114 126 58 162 255 255 136 255 232 96 206 226 255 110 70
176 24 80 78 255 252 118 250 90 238 90 104 255 40 138 255 204 162 216 148 108 92 118 192 255 255 255 255 74 184 255 255 174 255 102 126 178 208 255 255 255 255 100 255 255 255 254 116 238 255 254 255 255 232 46 138 150 232 214 136 255 255 118 100 80 64 136 126 112 122
82 76 242 255 255 255 255 255 255 184 190 255 255 255 128 255 160 96 108 176 208 90 142 252 255 30 255 255 255 108 86 48 255 74 255 226 106 136 126 156 128 52 255 230 255 128 255 255 238 212 255 255 255 236 150 255 226 255 186 255 255 126 228 198 224 230 206 68 255 124
170 52 255 255 255 132 160 218 255 255 255 76 255 126 164 180 154 198 255 202 220 255 255 255 255 255 255 255 255 252 214 246 255 210 255 96 255 86 156 102 146 255 255 255 255 104 255 255 255 30 255 180 255 255 255 255 255 54 255 255 255 254 174 255 44 255 255 255 128 255
255 255 116 255 230 96 94 112 188 255 255 255 255 255 255 255 255 255 126 255 240 255 204 255 255 190 255 255 232 255 150 72 92 255 255 178 236 255 255 255 154 255 154 255 92 255 255 255 255 255 255 90 178 255 50 255 136 255 220 150 226 178 255 255 238 148 212 254 150 150
255 255 255 136 110 214 182 255 128 192 186 255 255 232 204 222 255 255 250 255 124 255 76 58 255 255 255 255 188 255 255 152 164 255 128 36 12 92 160 100 248 112 64 114 255 28 212 158 114 180 154 158 255 32 255 80 62 52 52 64 76 132 42 60 148 202 196 255 234 116
234 160 180 255 255 255 255 255 255 255 202 126 162 255 255 130 186 220 255 250 114 120 208 255 66 172 70 230 196 118 192 142 102 148 242 226 255 232 166 162 92 182 255 255 255 255 152 108 240 216 168 255 72 130 188 255 170 86 154 200 142 255 228 166 200 255 255 152 44 84
148 255 124 255 255 255 206 154 244 255 255 82 255 186 255 255 255 255 255 255 255 126 178 224 255 255 178 104 255 255 255 255 255 255 255 72 58 162 246 50 96 180 196 204 144 42 255 255 255 255 255 154 50 255 230 186 204 14 255 255 98 52 255 255 255 230 216 148 132 208
255 255 194 255 190 255 255 255 206 60 102 255 255 255 255 255 186 255 255 212 218 172 172 255 214 255 255 232 172 202 178 56 48 242 255 124 255 255 174 108 255 255 116 182 148 88 130 128 120 104 255 255 255 255 255 255 255 255 255 255 64 192 216 255 255 188 255 255 244 255
255 176 144 186 210 255 255 42 208 50 198 255 180 255 248 186 126 255 252 255 255 255 255 158 176 255 255 255 255 255 255 255 255 180 200 92 250 255 198 255 255 248 182 38 118 255 246 255 156 112 100 96 52 130 255 255 255 255 255 255 192 255 255 255 255 255 255 255 255 255
255 56 184 255 146 62 38 78 255 138 255 96 122 128 255 132 250 255 255 255 255 255 192 50 254 230 255 255 255 255 255 194 42 62 16 68 255 255 255 255 255 255 255 255 255 255 162 194 255 255 138 72 216 238 255 255 255 255 168 255 228 168 254 255 150 255 255 184 200 255
255 206 226 86 142 248 255 216 255 206 255 255 68 210 255 78 220 255 68 194 114 255 86 232 176 142 180 140 255 180 204 128 218 134 96 86 124 255 232 252 255 255 52 255 255 222 136 6 242 255 84 255 26 72 182 152 255 255 255 255 255 255 255 255 255 188 255 255 255 106
236 255 255 255 128 255 255 255 134 250 134 255 255 255 198 180 255 255 132 255 255 255 255 255 255 255 200 130 248 255 182 62 248 255 198 116 255 255 240 255 255 232 255 190 255 255 154 214 255 132 30 132 255 255 238 96 26 255 152 255 255 255 255 242 255 255 255 255 144 214
190 255 255 178 255 252 126 255 255 146 192 255 124 255 74 80 122 120 238 174 150 255 255 255 164 44 236 255 132 250 244 255 118 202 255 255 255 116 255 255 128 52 255 255 224 255 255 255 255 255 255 162 234 255 206 132 255 255 255 255 255 255 154 162 244 255 255 160 255 142
94 255 255 255 255 255 255 255 232 248 255 244 255 255 86 255 255 255 255 194 24 114 20 20 212 255 236 4 118 148 146 190 255 255 214 150 146 126 60 88 114 198 206 12 170 112 24 188 255 144 255 255 255 220 66 220 138 170 255 255 255 255 194 162 255 255 246 255 255 255
255 255 255 255 255 255 255 255 255 255 255 255 174 255 255 196 144 254 178 48 134 204 142 170 255 252 90 255 100 198 194 255 255 255 114 152 255 255 255 110 136 148 202 255 255 255 255 255 226 88 106 212 255 124 232 116 96 68 196 255 36 140 255 255 255 62 192 255 255 255
218 204 226 255 255 192 255 255 146 170 255 82 82 255 255 230 156 24 142 230 250 255 240 178 204 100 236 255 255 255 255 255 255 255 192 255 228 255 255 252 142 255 202 204 255 234 255 134 255 255 255 188 80 255 194 128 255 255 255 182 255 255 255 236 214 255 136 212 255 255
132 92 134 158 28 70 132 204 230 255 255 164 255 255 255 58 232 196 68 100 6 146 255 124 255 74 196 255 92 255 232 255 158 255 42 255 255 255 255 226 36 142 255 255 255 255 174 255 255 255 186 255 255 122 255 98 166 76 144 255 255 255 255 108 188 96 40 110 100 160
240 202 252 178 198 255 255 112 255 156 255 218 102 174 240 255 255 255 255 255 255 255 255 255 248 138 255 255 255 212 255 255 255 134 56 86 255 178 255 74 238 255 255 255 255 255 218 255 214 182 255 255 114 255 184 255 255 220 255 255 255 230 146 124 48 36 108 158 218 255
178 204 230 174 110 236 255 255 255 255 255 208 196 255 255 255 142 230 38 122 234 248 252 244 186 255 52 70 166 232 255 255 232 190 255 255 18 255 112 230 118 138 255 255 255 255 204 236 74 255 255 218 32 248 68 190 126 234 170 196 255 208 254 58 255 255 255 255 204 255
72 255 255 255 100 255 255 255 255 166 234 222 36 255 255 66 180 255 94 94 28 244 208 255 100 164 255 255 255 255 255 255 196 110 100 255 255 255 255 208 82 228 72 100 255 255 226 104 228 214 146 116 255 98 255 40 64 100 255 255 138 242 255 255 228 255 255 255 255 255
255 174 255 255 212 255 255 255 255 255 140 255 255 255 255 230 255 116 255 255 150 255 255 255 242 154 166 186 255 255 104 138 255 255 255 240 222 232 202 166 216 218 255 204 84 30 70 255 255 246 255 228 236 122 255 255 255 178 150 24 118 142 120 255 255 174 166 255 180 255
96 255 255 255 255 186 255 255 255 198 248 255 255 190 255 108 255 168 152 255 255 188 255 255 255 238 12 90 46 94 255 255 160 124 252 18 174 234 108 124 255 202 222 192 212 255 148 255 255 214 255 58 255 255 190 198 255 100 110 96 36 92 200 230 255 174 255 192 255 182
255 32 255 206 122 40 255 255 255 255 198 142 188 182 255 255 255 174 122 255 255 236 255 255 134 255 255 208 58 208 255 255 255 255 255 238 156 144 74 255 150 218 255 255 52 134 255 136 132 52 255 240 246 255 144 255 255 106 80 164 255 134 255 255 255 255 255 132 104 255
216 255 230 188 255 255 116 255 224 164 255 180 166 170 70 255 218 158 152 194 70 255 116 154 218 116 194 246 228 166 255 126 255 255 255 255 255 196 255 255 255 255 255 255 174 255 255 255 255 255 146 122 188 255 255 255 255 255 255 240 255 255 255 255 255 255 204 92 154 255
255 255 255 255 255 188 224 180 255 204 186 255 160 148 196 255 236 210 255 255 255 174 114 250 154 255 232 196 162 255 176 255 255 255 255 255 108 255 255 114 255 255 255 68 255 255 255 255 255 72 255 255 255 255 232 250 255 255 42 26 216 255 255 255 214 208 128 44 62 178
246 255 134 196 120 252 140 244 255 255 198 110 140 252 255 255 196 255 255 255 255 206 255 90 180 204 154 255 255 144 96 76 212 36 70 106 255 150 204 146 255 255 128 255 82 224 88 255 255 255 255 255 255 255 255 192 160 255 244 218 40 86 188 255 102 202 255 156 110 186
248 255 255 255 170 192 144 144 255 255 255 255 255 162 114 255 255 255 255 168 255 255 92 242 168 228 255 142 192 208 158 152 255 255 255 255 255 255 255 255 255 255 106 198 130 50 255 194 144 232 68 255 255 255 255 162 255 234 156 255 255 248 255 202 255 255 254 255 254 255
192 112 255 255 255 246 54 164 74 255 255 255 255 255 255 124 140 134 98 255 255 255 60 255 204 12 255 174 232 206 255 255 255 255 255 255 255 255 255 254 102 255 255 255 255 255 210 202 228 202 250 98 114 88 102 70 220 74 174 90 156 236 232 226 128 56 78 104 122 206
255 186 184 255 255 255 198 76 60 226 255 255 255 118 255 255 254 255 255 255 216 140 202 255 255 255 255 255 255 255 255 255 255 255 255 255 124 100 162 255 104 206 142 254 255 255 255 255 255 255 255 255 86 64 112 44 98 92 232 166 255 110 170 116 238 120 90 72 84 180
142 255 248 255 255 158 62 196 255 234 92 102 255 255 68 255 255 255 255 255 255 255 180 255 255 255 204 255 255 255 255 255 255 255 138 114 118 70 142 188 188 126 194 255 255 255 94 238 240 255 255 222 120 255 160 216 255 58 255 176 194 128 224 255 255 255 255 210 66 38
110 174 144 134 178 102 255 102 218 206 255 255 255 164 255 255 100 255 204 148 150 255 204 220 255 144 200 255 200 160 112 144 74 255 255 156 214 102 110 184 124 134 255 174 94 206 222 255 255 255 216 255 255 70 176 62 234 255 200 96 255 255 255 255 255 198 242 54 98 34
96 54 228 255 84 255 255 255 255 255 134 255 255 255 108 176 198 255 255 255 255 255 255 255 200 255 114 222 255 255 220 80 156 70 255 255 255 255 220 224 255 255 255 255 255 255 216 80 156 80 255 190 164 255 255 255 255 132 226 255 255 255 255 255 232 158 242 255 172 190
234 94 255 142 255 142 255 162 255 234 222 255 255 255 204 94 236 226 255 255 255 255 255 242 124 198 202 98 255 78 190 100 68 230 255 234 255 250 255 255 255 255 184 246 142 120 250 170 158 134 118 172 172 255 255 255 52 132 170 204 178 190 8 234 255 62 130 142 102 60
82 70 50 84 138 134 255 240 204 88 224 118 28 234 255 255 255 84 56 88 156 72 34 64 102 40 64 36 86 84 212 150 255 255 234 200 166 255 255 255 200 255 186 255 255 255 255 182 246 255 255 255 255 192 238 200 214 128 255 255 255 255 255 255 134 255 255 108 255 246
240 255 222 255 255 88 120 102 14 84 84 168 255 186 114 200 216 255 255 255 56 196 184 92 255 255 255 188 122 206 108 168 255 255 255 130 78 24 206 226 24 88 255 255 255 198 255 136 252 150 206 222 255 254 255 255 255 255 255 200 255 255 255 170 255 114 128 255 255 84
255 255 255 156 228 70 255 84 164 180 255 255 255 158 100 212 240 255 255 42 192 122 255 198 218 144 250 218 116 148 255 255 255 255 255 255 255 126 70 152 255 248 255 202 255 255 255 176 134 255 234 218 240 176 50 198 255 254 232 255 255 140 154 108 222 255 255 255 255 230
240 255 236 116 224 242 204 186 255 255 74 114 216 255 255 224 62 255 236 255 144 136 140 142 114 226 176 150 255 202 255 255 196 166 255 255 44 255 176 255 255 255 255 255 255 255 255 88 255 255 152 255 255 255 255 192 178 255 255 255 255 248 255 255 255 255 255 255 255 136
132 108 104 132 156 108 255 255 255 255 216 174 172 146 24 14 132 216 255 134 70 138 138 255 140 88 42 68 226 164 60 230 118 232 58 244 118 172 42 66 48 36 82 158 98 34 86 22 90 160 18 124 74 176 255 255 198 32 64 68 12 96 106 198 96 108 56 148 208 188
146 48 90 100 206 255 255 255 98 255 255 255 202 136 255 170 106 212 76 158 62 66 102 224 78 255 255 255 224 255 255 255 106 136 180 244 112 246 255 255 255 255 255 255 255 140 172 255 60 108 255 226 48 220 255 252 204 34 144 200 255 102 42 210 255 255 255 255 150 255
255 228 206 240 198 52 62 255 255 255 36 156 82 255 255 255 255 255 202 88 118 134 255 255 255 255 255 255 255 120 255 252 220 192 255 244 78 132 248 124 255 208 255 56 232 196 152 255 208 255 118 182 38 74 108 140 255 255 255 255 255 160 255 255 255 255 255 255 136 86
255 255 255 255 255 254 255 148 92 255 255 255 104 224 208 136 255 255 255 255 196 86 66 24 38 114 50 216 255 255 116 64 82 72 255 104 230 138 112 74 255 255 255 252 218 255 232 154 255 255 48 74 106 56 110 146 42 255 255 255 74 106 98 126 84 34 166 96 56 112
156 166 154 160 255 255 255 255 192 236 142 238 108 128 218 255 255 255 255 238 198 164 106 164 255 255 62 90 126 170 140 34 136 234 170 255 255 255 255 255 255 255 255 255 146 162 250 26 76 198 22 54 64 64 56 64 32 54 54 166 156 94 42 248 170 248 255 244 182 208
104 94 138 146 78 184 224 244 114 118 134 116 138 112 146 88 128 66 112 66 112 112 190 76 70 28 118 124 130 46 54 64 144 38 212 78 96 100 66 88 48 110 52 150 174 255 255 255 255 255 255 255 255 255 255 255 255 210 52 134 92 86 242 255 255 194 70 102 242 255
255 255 255 98 255 255 255 255 255 202 190 114 210 255 138 50 132 255 150 252 124 176 255 255 232 100 180 216 255 190 104 70 100 255 255 226 216 210 255 255 150 255 255 255 255 116 186 255 206 50 202 255 128 168 130 244 208 210 255 255 100 255 255 255 255 72 255 154 255 255
154 255 255 255 255 255 255 255 82 120 84 136 48 236 198 94 124 255 255 255 255 148 12 186 140 255 255 138 208 178 216 255 255 172 180 255 255 255 90 84 168 255 232 255 144 255 255 255 255 255 54 255 252 255 240 180 255 206 255 176 64 68 126 128 114 134 106 148 180 100
234 246 254 50 178 216 194 82 162 110 255 255 202 76 164 255 255 255 255 255 246 255 138 90 66 78 98 44 130 132 24 90 54 28 50 120 88 122 108 100 66 92 38 116 226 246 202 188 134 255 255 242 200 216 40 255 255 255 255 255 255 255 255 255 236 238 255 130 78 228
255 255 255 238 255 255 255 216 96 255 255 255 255 230 242 255 254 250 208 172 38 74 50 50 24 30 58 114 92 255 182 206 68 122 22 82 20 86 50 114 152 110 66 58 106 170 218 168 168 212 214 194 222 112 8 74 60 60 64 44 118 138 90 22 82 96 12 42 8 20
76 194 106 182 64 68 96 60 178 200 116 96 62 116 200 146 82 202 214 244 255 255 255 255 174 70 60 60 14 168 216 232 255 255 148 218 255 180 112 104 164 255 255 255 255 255 255 230 144 48 150 136 196 255 255 255 255 255 255 255 250 160 240 106 96 106 160 172 124 112
255 255 255 202 164 255 255 255 230 64 255 255 255 255 230 86 238 222 200 164 26 176 206 230 182 52 248 162 176 255 255 255 255 255 100 255 255 255 255 132 255 104 32 255 86 206 255 255 166 184 30 56 152 208 255 104 64 255 255 255 255 118 255 255 255 255 255 255 255 255
124 180 255 255 164 255 255 255 136 124 68 255 255 255 216 255 255 255 198 255 255 255 255 2 84 254 255 62 212 22 74 40 82 130 66 26 74 68 40 102 255 106 238 94 168 255 198 90 124 76 120 96 80 72 80 116 136 132 40 6 52 178 226 154 96 70 44 88 168 82
66 48 36 66 94 76 52 76 74 142 126 72 34 62 144 136 126 80 190 255 230 198 255 128 128 255 222 64 180 255 255 255 255 136 78 188 210 194 94 130 255 255 255 60 176 184 130 128 146 255 122 52 106 90 128 72 58 188 210 168 92 60 42 70 100 80 76 80 50 140
130 226 102 142 148 76 30 20 104 184 120 54 56 48 96 70 38 8 88 118 168 232 180 176 198 98 82 114 96 76 114 94 72 88 32 70 34 54 50 68 134 120 120 196 152 140 114 64 136 50 112 12 34 102 230 255 255 255 255 255 246 162 60 136 96 46 84 70 54 68
108 92 255 228 255 255 214 255 208 200 255 255 255 255 255 8 226 255 146 166 236 255 190 132 182 255 255 36 255 255 255 92 84 222 255 255 255 255 255 246 255 174 92 110 158 40 255 255 166 194 255 255 118 126 255 246 255 110 166 202 88 134 255 186 142 68 208 144 38 142
255 255 255 255 255 255 170 186 255 255 255 212 255 255 255 255 255 255 255 112 98 200 228 188 110 8 74 120 214 180 40 255 255 255 255 255 188 208 190 255 255 170 255 255 176 255 206 255 255 255 255 46 128 106 255 255 255 255 254 58 88 166 160 166 204 154 84 172 66 58
54 82 96 80 102 82 20 46 70 92 255 255 166 78 56 138 96 34 80 26 28 52 32 58 66 98 126 146 72 44 20 40 106 86 38 38 42 56 64 44 44 30 62 92 60 18 126 68 32 82 84 124 130 142 204 202 255 255 232 255 255 255 255 255 124 178 255 255 178 114
70 26 68 10 194 255 255 252 80 116 255 255 66 180 255 255 216 255 255 255 142 80 100 110 156 126 68 52 88 38 48 80 82 62 132 152 126 206 176 224 255 255 186 192 232 255 250 128 200 104 24 6 106 98 56 64 60 44 112 100 74 60 82 70 128 162 202 176 182 98
108 68 74 96 100 50 72 76 118 148 242 136 108 186 255 255 184 154 200 80 130 114 94 84 208 204 222 152 28 16 40 44 108 48 80 48 58 18 40 44 84 96 122 78 146 255 255 106 255 255 230 255 255 255 255 255 255 92 255 255 174 160 122 255 255 255 106 255 100 188
106 58 86 224 56 40 240 220 255 255 255 230 255 255 255 202 255 60 142 255 232 38 178 212 72 255 255 255 255 255 54 166 255 92 138 255 255 255 232 176 192 255 255 255 208 255 112 84 255 255 214 226 190 32 255 255 255 218 244 255 124 255 172 168 230 98 54 216 26 114
56 182 255 246 190 238 255 255 255 238 168 255 255 236 136 194 206 168 38 255 255 144 166 164 255 255 246 202 80 178 228 255 168 118 156 255 255 138 60 16 80 36 174 150 88 130 56 88 56 20 106 84 22 42 82 48 98 68 68 34 88 40 18 46 72 94 136 112 12 32
100 68 64 70 22 26 6 94 96 100 64 72 64 70 58 74 66 12 14 86 32 56 60 50 138 172 100 50 36 80 72 46 68 246 255 255 255 128 255 134 70 72 162 90 70 84 70 66 128 98 255 255 255 255 255 255 158 230 222 112 64 104 144 154 78 8 62 142 118 110
126 102 66 32 98 166 236 206 126 154 104 58 122 100 36 62 130 102 146 68 112 136 240 224 220 202 246 255 255 255 255 255 255 255 255 255 255 255 142 84 64 52 116 80 132 122 100 140 192 62 255 236 255 132 255 174 255 112 152 32 126 28 100 204 56 34 102 138 30 44
34 22 86 28 60 82 114 130 84 116 78 182 186 168 158 28 168 146 210 255 255 255 255 255 255 255 200 202 114 255 255 138 244 255 194 176 255 255 160 112 162 192 220 255 90 50 214 10 255 255 255 236 208 168 202 98 208 124 40 255 255 152 170 255 188 150 255 255 255 128
40 228 255 74 255 255 255 178 208 216 255 255 255 255 255 255 170 62 130 52 255 255 255 255 16 104 58 255 255 210 184 250 255 194 174 255 194 255 104 162 160 228 255 255 142 120 180 138 255 255 255 255 255 210 116 255 255 255 255 234 255 255 255 190 255 255 255 255 192 162
168 255 128 84 44 136 156 26 122 74 255 255 255 255 102 132 88 126 102 44 94 32 10 4 40 132 136 52 18 30 34 48 34 50 26 24 66 56 20 28 82 66 70 94 82 86 60 52 56 44 102 18 28 34 62 28 36 26 26 114 162 182 138 94 58 126 154 70 48 80
24 26 46 76 188 255 255 255 255 194 72 108 136 64 40 32 18 20 104 100 138 174 226 138 28 186 178 112 40 68 164 214 120 206 106 44 56 106 108 156 148 108 122 40 22 34 142 255 255 255 255 255 162 146 58 64 94 196 255 234 255 255 255 255 255 255 255 255 255 255
255 255 255 255 255 255 255 255 255 255 254 255 255 178 22 52 20 40 36 204 255 138 255 162 255 224 184 164 194 140 144 54 152 44 198 218 150 60 180 142 56 68 158 100 124 116 26 22 98 108 98 255 255 255 255 255 255 120 22 160 160 154 202 255 255 255 50 255 255 128
172 164 82 136 200 106 255 255 255 214 14 166 158 198 94 128 255 255 198 255 218 158 62 255 255 255 255 236 242 28 255 255 60 240 200 238 250 208 255 148 90 255 206 255 255 255 172 255 255 198 255 255 255 152 230 255 255 255 255 255 255 255 255 200 242 236 104 238 255 255
255 92 196 224 174 255 255 255 122 174 162 192 248 194 146 255 182 212 255 255 255 255 255 255 255 255 30 255 194 255 220 194 255 255 255 255 242 250 16 136 62 56 130 162 42 144 16 164 54 130 248 68 154 124 94 38 104 40 80 22 98 34 20 20 68 104 96 64 100 48
50 8 74 92 86 96 70 80 58 94 102 168 166 162 114 122 160 120 120 92 106 118 50 38 96 92 72 42 52 176 166 92 122 40 34 98 160 172 130 60 38 16 40 88 48 116 98 148 86 20 118 255 228 255 222 255 255 254 114 84 112 148 148 118 56 26 62 74 90 112
80 122 134 202 114 82 80 68 72 56 176 222 242 255 255 255 255 255 255 255 255 208 255 204 100 106 255 255 255 255 255 238 144 180 194 255 216 24 140 192 148 66 60 130 110 90 36 98 180 255 255 255 255 255 255 74 42 30 42 190 255 255 255 64 92 146 68 100 86 78
228 110 112 26 166 110 142 200 82 118 58 172 190 132 124 18 72 96 56 32 44 255 255 255 255 255 255 255 255 255 255 255 255 255 210 210 188 210 162 192 255 255 255 255 255 218 182 255 255 255 255 255 255 186 204 170 152 208 255 232 196 136 76 255 255 116 176 244 255 255
190 140 196 255 255 255 210 168 255 56 170 255 255 170 88 180 18 190 255 174 255 184 255 255 255 120 222 226 82 246 255 255 255 255 190 255 156 255 255 255 255 194 154 164 255 252 255 255 255 228 244 255 255 238 190 202 76 192 228 255 255 255 255 255 255 255 214 52 255 214
255 255 255 254 255 255 255 162 255 255 230 226 134 110 50 112 134 128 224 96 255 255 250 62 80 148 50 56 58 60 32 66 56 42 36 72 86 48 80 100 68 70 124 106 78 94 88 138 80 82 20 66 52 136 118 112 112 146 140 72 54 112 72 80 130 126 122 96 46 162
255 204 128 84 46 36 40 80 122 80 90 64 92 106 34 38 20 34 48 38 78 210 244 78 86 188 255 255 255 255 234 255 255 255 255 130 144 130 134 76 36 114 140 182 170 126 110 32 16 134 255 255 255 255 255 255 255 220 198 12 255 255 255 82 44 255 255 220 190 100
180 86 98 186 198 108 96 255 182 172 160 252 170 46 70 140 102 34 52 134 232 255 255 255 255 72 124 100 74 112 174 88 255 255 255 58 190 144 118 138 106 200 144 64 84 92 88 122 128 72 146 74 88 132 90 34 26 56 104 132 164 255 255 128 238 28 106 32 182 226
164 120 214 255 210 210 190 60 192 134 255 255 255 222 134 255 216 255 255 116 178 255 255 208 238 255 255 255 220 50 250 255 255 255 255 255 228 90 146 255 255 255 156 255 220 255 255 255 255 94 136 138 255 255 255 212 176 255 255 142 255 212 134 238 255 255 86 62 94 130
255 255 255 234 255 234 255 255 255 255 178 222 188 255 255 255 255 255 255 22 78 212 255 116 206 255 255 255 255 255 255 255 204 250 255 255 244 255 255 206 255 38 168 248 122 68 172 255 230 255 208 118 30 84 48 152 255 198 190 120 192 140 104 102 132 230 132 128 122 114
68 132 192 206 94 74 232 255 255 255 255 255 255 255 255 255 255 255 255 255 238 255 255 255 255 255 255 255 255 255 255 255 255 255 104 52 255 255 255 255 255 240 112 104 60 72 80 62 90 80 68 66 32 50 32 28 12 80 96 114 106 18 206 200 210 255 255 255 255 180
44 160 160 238 240 68 126 124 114 118 104 130 106 94 64 12 164 255 238 255 255 255 255 188 212 74 114 232 172 255 255 202 110 126 104 255 255 174 126 255 186 84 32 68 18 144 255 230 252 176 255 255 255 255 52 94 114 108 62 42 255 250 255 255 255 252 14 90 90 178
228 255 255 164 255 255 255 236 218 170 92 50 190 255 255 226 60 52 98 255 255 174 244 255 255 122 158 212 230 218 154 255 255 222 255 200 198 255 255 255 255 255 255 255 122 230 255 248 255 255 255 204 255 255 255 112 255 255 255 255 255 255 112 92 102 255 255 254 154 74
92 255 190 255 218 168 255 255 255 255 255 255 192 255 130 255 255 168 255 255 255 255 255 255 140 255 255 222 146 168 255 255 255 255 255 156 90 102 136 164 36 172 255 255 255 255 255 255 255 104 68 222 206 246 255 255 255 255 70 74 60 156 208 255 255 152 218 192 36 54
134 255 158 255 255 212 255 255 218 255 194 94 226 132 190 34 144 218 255 88 255 255 255 46 72 152 154 60 182 58 116 44 114 50 52 80 102 52 84 96 82 132 144 198 198 56 255 255 255 255 255 255 255 255 255 255 255 255 255 156 48 50 198 255 255 255 255 255 255 255
255 255 255 255 255 58 255 255 244 255 255 255 255 252 238 250 20 86 118 94 40 84 16 48 16 26 12 80 56 86 12 120 104 58 42 106 255 255 255 236 244 252 255 255 194 42 100 88 168 178 142 84 22 80 180 255 255 255 255 255 255 96 124 98 202 255 255 255 255 255
255 36 12 56 96 255 255 196 184 255 120 82 52 50 104 255 255 255 255 255 255 255 255 255 188 66 120 98 48 76 112 122 255 164 255 255 112 210 255 255 255 255 142 132 184 255 255 255 242 230 108 62 144 82 100 116 104 148 142 196 98 98 226 190 255 255 255 255 255 255
255 80 255 208 26 158 36 255 255 255 130 255 238 200 148 255 166 100 255 146 255 255 255 255 178 255 255 108 255 255 244 255 255 255 255 255 130 174 206 92 236 40 255 255 255 255 130 255 255 255 255 230 208 255 140 255 255 255 255 255 255 255 100 255 255 222 198 208 200 126
138 255 255 94 255 255 255 188 255 58 255 255 92 255 36 255 255 255 255 178 144 210 146 186 228 255 255 106 130 134 198 192 54 116 254 255 98 98 255 255 255 252 184 246 244 255 255 255 255 244 54 132 255 232 138 116 255 255 255 255 255 255 255 40 28 248 255 180 122 36
92 164 18 146 100 202 242 255 255 176 50 108 72 66 112 242 255 68 214 255 128 74 18 64 130 38 196 255 255 255 224 166 212 255 252 134 40 30 14 72 104 144 198 255 255 194 255 255 255 255 152 146 255 255 250 255 255 90 56 100 86 94 108 178 130 142 86 82 70 184
160 122 70 40 54 58 48 48 126 74 114 156 124 80 30 50 24 80 162 132 74 70 86 170 230 255 255 102 112 236 100 104 142 136 96 44 126 180 180 68 20 32 56 82 122 255 206 122 152 80 64 50 30 32 146 255 255 226 255 255 255 156 255 255 238 172 110 30 54 96
42 64 255 160 255 255 106 180 238 182 208 255 200 126 154 72 72 255 194 230 194 128 46 238 212 136 126 255 212 134 232 4 250 255 150 248 255 255 98 96 255 170 255 212 255 255 216 255 255 255 255 82 252 214 164 194 76 174 66 236 170 255 255 212 100 178 255 218 104 52
70 255 255 174 196 78 255 255 228 90 62 255 255 255 255 255 192 214 255 255 255 255 255 255 255 255 255 232 250 170 72 255 255 124 255 255 186 220 56 124 86 255 220 106 255 198 255 255 160 255 162 255 86 226 220 158 128 138 255 255 218 98 134 62 98 132 255 70 154 210
150 24 146 255 255 255 255 164 255 98 108 190 255 255 208 124 92 78 86 30 86 58 168 114 172 255 184 255 106 255 255 255 138 86 110 60 248 106 22 74 130 142 166 208 60 136 126 90 142 196 48 88 82 74 54 255 255 166 40 238 122 120 58 54 86 184 255 255 255 255
255 255 194 255 255 255 106 66 22 90 98 42 204 255 255 255 108 78 255 255 250 88 120 255 38 122 255 255 124 90 24 44 50 48 8 72 98 94 20 78 80 62 108 66 32 80 68 80 78 120 124 174 182 210 174 112 66 50 102 96 20 100 206 255 170 182 118 166 255 250
62 52 144 134 98 142 166 200 222 120 96 58 76 60 144 255 234 146 182 102 64 22 52 42 220 255 255 255 164 142 154 255 255 255 128 42 62 78 80 32 54 82 255 78 255 255 94 178 255 255 255 74 114 80 198 62 10 82 108 255 242 26 68 124 88 132 255 244 242 255
255 234 255 255 255 248 255 255 255 255 255 255 255 255 208 255 255 80 255 255 255 190 255 104 58 246 230 92 148 255 144 198 172 60 204 255 138 255 255 255 255 255 255 108 38 255 164 140 148 255 255 255 90 255 254 168 64 248 255 255 255 220 252 210 98 46 50 255 255 255
255 144 255 255 255 226 48 116 255 158 178 68 190 186 255 255 255 206 234 200 78 136 28 128 255 255 255 208 96 255 255 144 142 188 86 180 58 178 68 160 210 62 138 56 224 202 255 255 255 255 255 255 255 255 255 255 255 255 255 64 76 255 255 255 255 96 255 255 138 142
255 166 150 88 146 106 220 112 28 70 60 255 216 198 158 52 34 20 130 228 255 255 40 24 38 255 255 255 102 150 58 44 72 44 30 100 255 255 124 255 255 255 255 224 255 255 78 28 44 156 76 38 255 108 255 255 116 140 178 255 255 150 232 22 234 220 180 255 188 76
74 86 60 40 40 82 88 52 74 150 118 74 78 68 34 96 112 142 146 154 76 48 100 56 40 102 106 70 108 76 26 140 220 154 52 138 176 116 255 54 174 232 64 174 166 222 255 255 255 138 134 172 142 128 138 255 255 255 160 218 68 24 48 70 94 232 255 255 255 255
255 255 255 255 168 90 76 182 158 142 136 90 255 255 255 255 66 56 76 255 255 176 212 255 255 222 255 218 26 136 255 72 84 102 60 114 154 148 88 242 255 178 222 134 255 72 255 255 214 150 255 255 255 214 12 255 120 255 250 82 206 255 254 192 152 154 58 80 108 116
166 172 146 192 242 230 255 255 255 255 248 255 144 56 202 255 250 136 80 186 94 255 255 206 242 204 176 194 146 152 255 255 255 255 230 76 52 128 255 255 255 255 106 255 204 140 52 158 255 255 122 16 114 255 214 180 246 54 255 255 255 94 255 255 255 255 255 212 186 255
240 132 255 255 160 208 186 132 190 255 118 86 154 192 60 240 174 132 106 74 212 244 255 255 146 176 152 204 255 255 255 255 255 232 162 232 255 255 154 82 236 222 148 62 80 134 176 60 92 255 255 255 255 255 255 255 255 255 255 192 134 255 90 60 80 255 255 255 138 152
74 82 56 58 42 170 255 255 255 255 255 255 255 255 255 255 186 112 20 140 66 116 230 255 255 255 98 102 110 255 255 255 154 255 94 255 224 192 200 255 255 138 82 26 42 78 30 44 150 234 92 138 70 18 90 166 182 255 255 170 106 255 255 255 160 178 84 54 106 46
52 130 186 206 70 212 36 255 255 166 255 255 255 255 255 255 255 244 98 94 134 76 86 14 32 255 255 255 52 160 118 40 68 110 66 44 98 180 255 255 255 255 188 104 152 136 96 162 42 72 30 174 255 255 255 44 54 82 190 255 255 116 78 180 164 134 210 255 218 128
255 255 248 255 166 255 182 184 244 255 162 160 255 255 255 255 255 80 255 255 184 182 210 236 194 255 62 152 234 255 255 146 112 116 20 48 98 142 255 232 128 150 255 172 128 164 64 248 255 255 255 255 255 234 222 166 255 255 224 255 255 110 130 80 222 132 150 58 255 255
204 140 50 255 255 255 236 82 242 255 134 255 255 76 64 255 170 255 92 255 248 110 255 255 255 255 255 255 255 122 255 255 236 172 46 255 255 64 166 134 42 230 255 248 230 98 76 72 255 120 116 98 100 138 86 178 255 255 255 255 254 255 255 255 255 255 255 114 164 255
255 255 255 255 255 255 255 255 255 146 28 255 246 234 114 200 255 202 170 255 255 255 255 255 255 255 255 242 255 255 255 255 86 100 40 255 255 96 254 208 126 88 30 94 92 68 202 255 255 255 255 255 255 255 255 212 56 66 70 66 48 210 120 255 255 255 32 36 24 218
255 255 252 255 252 98 255 255 255 255 255 228 255 255 178 152 112 88 108 198 154 76 92 92 76 44 100 154 255 255 162 202 108 254 58 108 72 136 78 16 112 88 56 214 70 176 72 232 246 255 255 255 255 255 228 255 255 82 104 50 60 28 36 38 32 248 255 255 255 160
126 22 40 48 40 36 62 52 28 46 42 74 120 60 70 20 34 142 126 54 255 136 255 255 255 78 50 255 255 255 255 74 114 208 86 166 126 242 102 80 130 136 112 210 255 255 34 255 255 150 255 255 152 255 255 255 255 255 255 210 255 255 255 255 255 255 238 255 210 102
255 255 255 255 255 255 255 248 192 232 255 255 255 252 80 255 255 255 242 255 255 255 255 255 255 134 76 180 255 12 255 255 126 80 255 252 255 255 240 90 126 255 255 255 255 28 222 255 255 170 168 160 255 255 64 244 122 255 255 255 248 92 255 255 255 255 255 255 255 255
255 40 136 192 255 255 255 254 144 70 162 92 70 38 110 108 194 110 210 164 240 126 182 128 160 26 202 234 255 255 218 255 255 255 255 255 168 255 255 64 255 255 255 212 255 206 255 255 255 56 255 255 224 252 186 162 222 148 218 255 236 228 10 234 98 176 100 158 255 255
128 28 54 76 42 26 255 255 255 100 212 20 110 78 78 122 24 90 52 32 66 122 104 64 60 82 76 32 54 58 44 192 255 255 255 48 12 50 26 26 118 255 255 255 152 78 30 255 146 196 255 112 252 255 255 6 58 48 42 60 42 82 110 72 78 104 188 255 118 164
74 156 244 220 116 114 136 112 40 64 56 34 86 255 255 255 82 232 255 80 254 255 255 140 255 255 255 126 132 78 102 64 64 58 54 22 46 255 255 255 162 150 78 28 32 34 18 38 48 62 66 62 96 106 114 24 86 120 210 112 255 255 255 118 66 98 154 255 36 194
255 196 255 90 92 255 120 244 222 152 198 138 136 142 74 94 192 138 255 48 255 248 104 242 255 188 100 226 88 238 255 128 48 255 255 255 122 32 170 236 222 146 166 110 212 254 255 255 255 228 146 255 212 198 255 255 178 192 64 126 166 80 76 146 240 132 136 255 168 168
200 208 255 255 162 146 238 255 255 52 188 224 208 255 134 190 218 116 255 255 255 255 255 54 198 255 255 130 224 114 120 254 255 154 216 86 255 255 255 72 255 255 192 90 255 255 255 255 255 255 78 162 188 118 196 72 104 206 255 220 255 255 110 98 255 255 255 255 255 64
64 248 255 255 255 122 255 172 134 40 255 255 255 255 255 252 255 255 255 158 255 154 255 130 112 244 184 92 255 255 184 52 168 88 90 54 130 142 255 255 130 36 44 66 30 42 255 255 255 188 255 222 30 72 72 44 94 128 50 22 22 14 28 12 80 112 22 108 22 56
180 255 255 255 58 102 110 18 16 255 255 116 255 255 240 216 255 130 255 170 134 92 255 255 250 134 38 68 28 60 16 80 144 132 60 38 62 70 204 255 136 42 112 82 106 164 108 56 64 80 18 124 178 122 26 196 255 255 255 234 255 244 255 180 255 255 255 232 255 255
255 94 114 116 66 38 58 80 255 255 255 246 255 202 140 84 50 18 100 106 148 144 112 50 32 164 234 220 78 86 255 255 255 142 106 208 182 192 186 255 255 182 255 200 122 255 48 255 184 116 138 160 208 172 172 134 30 112 255 255 182 248 255 146 255 54 202 214 156 130
134 102 106 156 244 255 255 255 255 255 255 98 90 90 90 138 88 74 60 84 194 236 255 255 186 255 255 102 204 46 118 94 214 255 255 162 255 255 120 120 50 156 255 76 78 250 152 255 255 166 240 255 255 255 255 255 216 78 52 74 2 26 76 228 238 255 255 242 218 255
255 255 255 255 74 255 255 255 255 80 202 78 82 174 142 255 255 84 255 255 156 154 220 255 246 22 180 255 128 238 255 178 204 210 255 255 255 174 252 255 255 255 172 220 255 255 138 190 126 255 255 255 72 255 255 164 255 255 255 228 255 208 255 92 228 178 130 78 226 255
224 116 102 170 236 255 122 174 255 255 80 48 114 148 98 52 255 255 255 200 190 255 210 92 92 14 52 44 50 64 46 34 12 38 80 162 102 48 110 144 255 255 255 66 92 58 102 78 70 255 124 255 255 255 255 212 168 230 255 124 86 254 66 120 136 56 56 64 76 48
14 40 174 118 38 90 82 86 90 36 248 190 158 96 32 96 174 178 154 48 84 230 240 255 232 255 255 255 146 255 255 174 54 86 255 255 255 255 255 248 255 60 30 20 78 62 82 24 118 255 255 255 255 255 255 255 255 214 150 78 78 188 176 226 255 202 30 196 26 255
255 255 138 255 255 255 166 154 255 255 255 134 246 104 218 202 255 255 255 92 26 154 144 98 66 74 126 208 88 255 255 255 104 255 255 255 255 106 48 184 255 255 148 220 255 255 255 255 50 80 140 255 224 170 206 190 102 108 246 255 255 255 255 255 255 170 255 130 86 160
82 10 172 255 255 255 78 255 126 214 200 192 255 68 220 255 244 255 255 112 38 224 255 255 255 255 255 255 255 255 228 255 255 144 255 255 255 255 255 255 255 192 255 160 255 255 255 110 255 255 255 194 255 255 255 255 255 255 255 212 88 168 255 255 255 184 74 118 118 12
255 124 252 156 156 255 220 188 255 255 158 242 255 255 184 190 74 255 180 255 255 255 208 88 182 232 255 255 255 255 255 255 190 255 255 138 255 130 154 194 252 58 142 26 150 108 255 255 238 255 206 164 154 70 28 48 66 144 255 255 122 255 246 255 255 255 76 38 38 84
84 62 32 34 96 138 184 184 255 255 255 255 186 26 24 18 58 58 140 188 182 240 255 244 255 255 255 90 168 255 248 202 132 34 80 48 64 92 176 52 26 108 158 64 10 255 255 255 255 255 202 108 204 90 56 130 102 12 196 255 140 174 192 104 220 255 182 162 255 255
170 56 62 255 255 255 255 255 224 255 255 76 30 50 122 14 114 42 58 162 255 255 255 255 255 255 255 255 255 255 255 255 255 255 255 255 255 255 255 255 68 255 255 255 192 170 255 255 255 255 190 60 186 58 255 130 255 255 184 64 36 54 255 242 136 82 214 255 255 255
74 255 220 76 90 255 255 140 152 255 255 255 255 246 128 156 255 255 255 255 228 16 214 178 214 172 255 255 162 98 255 255 255 124 255 255 255 92 164 222 100 164 182 40 182 68 218 232 255 255 255 255 64 255 255 255 255 178 236 255 255 255 224 146 255 255 255 255 242 116
160 255 112 255 255 255 255 158 184 58 190 255 255 248 130 255 255 255 255 48 255 254 188 58 255 255 255 255 220 208 42 186 255 255 255 255 154 42 70 192 255 255 84 255 255 255 186 138 144 192 255 255 255 255 84 244 58 190 255 108 255 116 255 255 255 180 192 255 255 255
255 212 255 88 240 152 226 255 234 134 180 150 106 212 70 190 255 142 180 255 112 54 210 255 220 72 42 52 150 255 255 255 255 255 255 255 255 255 255 255 255 238 176 255 255 255 255 255 255 255 198 102 56 18 44 44 24 124 130 170 255 255 76 244 106 238 255 255 255 255
255 255 255 255 158 32 16 68 92 46 38 52 200 255 244 255 210 244 226 226 124 238 196 20 190 255 255 252 192 255 72 230 70 255 255 218 74 160 112 220 156 238 208 255 255 202 68 246 255 255 100 120 14 38 62 66 138 68 128 50 60 24 156 216 255 255 255 255 255 255
255 255 255 255 255 255 255 255 255 255 255 255 255 30 92 26 255 255 204 252 162 88 255 196 255 230 255 208 190 238 212 252 124 186 252 198 255 126 255 255 255 250 255 255 255 255 114 255 170 255 255 255 188 72 54 236 255 236 232 255 244 68 158 138 255 226 26 16 106 255
214 174 255 188 156 178 192 148 242 72 80 122 62 178 128 156 214 172 204 58 255 84 255 126 144 192 255 252 186 234 210 254 255 140 252 255 255 255 255 192 128 70 255 36 255 84 255 234 172 174 255 255 104 136 230 255 255 102 255 255 255 255 255 198 132 255 255 248 188 255
255 170 255 218 84 248 198 66 122 255 255 255 255 255 200 134 180 172 255 255 255 255 255 255 180 255 128 96 78 124 170 200 178 255 255 228 126 78 180 62 255 255 188 255 138 226 136 255 244 128 228 255 88 228 214 188 255 255 255 255 255 74 62 84 255 255 255 188 36 48
242 255 255 194 206 255 255 255 255 255 255 255 255 255 255 255 255 255 255 136 64 46 46 58 68 136 108 130 86 255 255 255 136 122 255 52 188 255 255 255 220 255 255 254 222 182 52 44 174 70 74 142 234 104 142 255 255 255 255 255 54 82 114 102 255 255 144 96 208 255
50 140 118 255 255 255 126 40 98 255 112 238 252 255 255 255 255 255 255 255 210 118 26 72 44 64 74 48 78 28 58 20 30 72 60 32 28 32 30 58 56 68 116 198 76 255 210 255 255 255 182 255 255 232 255 255 210 64 184 255 255 255 255 255 255 204 255 84 84 48
88 142 172 255 220 92 255 255 255 40 255 88 168 208 204 255 255 204 112 236 255 255 186 70 94 206 255 230 186 122 255 198 224 255 255 148 70 50 106 230 255 255 188 80 252 255 255 255 132 255 255 255 255 255 174 164 226 114 164 164 192 255 142 255 255 255 198 255 255 255
255 220 255 255 208 255 255 120 232 56 36 100 96 255 40 174 186 92 242 144 130 198 206 224 255 176 255 220 156 255 92 158 255 158 86 120 255 255 240 130 94 56 104 130 118 4 136 255 255 250 255 255 172 255 255 255 255 255 228 255 38 255 255 236 255 180 172 152 26 255
108 78 255 255 255 255 112 220 224 255 255 255 255 226 206 255 255 178 255 255 138 214 234 255 150 130 255 255 255 255 255 255 116 116 182 255 255 255 255 204 38 10 30 168 152 178 104 124 138 110 132 255 255 255 255 156 144 116 74 58 44 34 46 82 138 255 255 255 255 255
198 255 255 250 255 255 250 255 255 210 80 200 255 255 66 106 86 182 204 24 120 154 248 204 104 42 80 72 86 92 92 46 182 254 255 194 242 116 246 255 108 192 78 255 142 254 240 255 255 255 255 150 164 255 255 186 84 152 20 255 255 255 255 255 255 255 238 106 152 158
100 70 98 78 40 30 28 32 200 255 255 255 255 255 255 255 255 255 255 230 255 82 255 255 82 104 112 240 66 255 162 182 255 255 206 194 220 124 180 84 98 176 255 102 255 255 255 232 168 248 255 106 255 154 78 112 136 206 232 255 255 255 222 76 26 38 18 108 120 140
134 198 255 255 136 128 138 130 255 158 160 84 164 255 255 222 104 236 255 255 136 36 126 198 255 60 186 255 202 52 150 255 255 255 104 255 218 255 255 255 255 255 240 196 132 230 94 168 255 206 255 255 186 236 84 255 142 178 255 100 255 255 202 210 120 255 255 94 255 255
242 132 164 146 224 182 255 255 124 255 255 255 168 94 255 255 255 255 112 255 158 255 255 255 216 120 255 255 252 255 255 255 166 136 194 84 60 154 255 84 68 28 255 255 255 255 204 192 255 255 255 124 255 200 106 255 255 255 255 255 184 74 252 255 255 204 40 192 216 255
80 254 255 176 198 255 84 255 255 255 34 26 18 68 88 114 106 80 52 58 80 70 36 54 54 88 72 60 38 60 76 90 86 66 255 255 255 255 202 255 255 255 255 255 255 255 255 255 255 214 222 174 255 255 126 86 64 40 182 220 76 255 160 70 60 24 68 18 112 148
132 255 255 206 172 214 255 255 192 255 255 130 168 255 255 255 255 255 255 255 184 222 255 255 255 255 255 255 255 255 255 255 255 255 255 255 255 255 255 255 255 234 228 240 252 200 180 182 255 255 255 255 255 255 176 255 255 255 255 255 254 255 255 242 172 142 210 255 242 226
244 212 255 255 6 246 182 64 44 84 60 122 60 144 178 255 255 255 255 146 255 146 255 255 255 255 174 184 126 156 168 255 176 96 64 96 52 100 20 82 88 90 255 255 255 255 255 255 216 255 255 255 222 238 255 255 255 255 218 140 255 255 255 255 52 218 168 255 255 255
255 154 255 110 92 208 255 255 255 255 255 112 255 150 36 220 48 234 94 146 16 224 255 144 132 255 255 255 255 66 255 255 255 150 255 255 196 255 142 255 255 78 108 112 230 78 100 255 255 255 234 234 255 242 38 30 255 255 255 132 255 255 44 255 255 248 255 255 255 255
255 255 158 208 255 232 44 184 166 154 48 84 184 236 255 255 255 255 130 116 206 255 156 144 128 255 255 255 255 255 255 255 254 40 255 156 134 255 188 206 182 80 252 255 178 255 152 152 255 255 208 255 255 255 255 255 190 190 150 152 160 202 168 114 178 232 255 255 255 255
255 255 255 255 255 255 186 182 174 255 255 255 255 255 255 255 255 255 255 255 255 255 255 255 168 94 126 66 214 200 255 124 66 120 48 92 86 232 255 255 168 255 130 255 110 255 255 188 255 220 255 255 94 255 255 255 255 72 68 124 48 240 240 255 255 255 98 255 255 255
255 172 255 255 120 224 124 90 76 224 255 220 255 186 170 132 160 112 255 255 255 255 255 255 255 84 255 255 255 255 255 190 122 44 236 255 238 228 162 146 228 255 255 255 255 255 255 156 112 72 158 255 104 78 146 242 255 255 255 14 86 255 255 255 255 255 148 232 34 166
158 198 178 92 84 58 34 66 40 130 32 188 238 255 255 255 90 186 164 198 130 255 255 255 255 206 196 188 255 240 146 50 224 194 178 150 18 44 122 244 255 255 255 220 164 54 124 198 255 255 255 255 210 132 248 255 255 255 126 48 255 255 255 124 92 230 190 148 140 255
208 114 112 230 134 255 255 255 106 166 255 184 255 255 255 255 255 255 255 186 88 136 255 255 174 240 198 80 255 255 255 200 255 194 176 144 176 220 196 78 168 214 160 84 52 255 74 170 138 94 108 84 196 218 255 255 255 255 255 178 198 255 255 246 32 255 255 255 255 164
255 255 210 196 200 255 255 214 46 168 192 54 92 246 108 255 188 180 255 255 98 98 60 136 92 234 254 255 255 255 255 255 255 255 255 255 255 255 255 255 255 255 255 226 255 255 255 255 252 255 255 255 208 255 255 255 204 210 255 255 255 255 255 255 220 124 224 120 255 255
255 255 118 246 250 255 208 255 84 255 184 255 152 248 248 210 255 255 255 198 255 255 255 112 255 255 92 255 255 210 140 204 78 255 255 255 255 255 255 255 255 255 40 255 255 255 78 104 202 255 206 114 90 130 38 255 255 255 164 254 255 230 226 84 255 255 255 255 255 255
50 255 192 228 142 176 148 108 255 255 255 255 255 168 236 248 34 210 166 30 236 60 210 52 246 224 32 156 206 182 100 255 255 255 182 184 255 246 92 102 206 238 254 255 255 255 222 108 136 255 174 162 204 98 28 192 154 116 54 255 255 255 144 218 144 220 255 255 255 255
236 102 30 100 88 255 255 255 255 255 255 255 255 255 130 110 230 200 255 255 255 220 134 252 255 255 206 78 94 172 255 255 255 255 238 168 255 255 255 158 128 136 12 255 255 255 182 64 142 212 184 255 255 255 216 208 255 255 130 168 230 255 255 116 255 255 255 255 166 94
132 182 120 110 98 26 170 198 255 96 186 126 112 255 255 255 255 255 112 22 72 230 255 218 60 255 255 255 108 255 255 250 255 142 186 234 118 138 255 114 255 102 166 255 255 255 234 172 204 255 168 102 144 255 44 255 102 214 255 255 255 172 50 106 22 152 172 204 82 78
76 82 166 255 238 90 118 62 160 200 255 255 255 60 255 255 255 158 206 160 255 255 255 255 255 255 255 255 255 255 94 118 78 152 48 74 216 255 255 146 255 255 126 254 186 160 255 116 82 172 142 255 70 210 78 212 182 236 214 255 162 164 255 255 190 240 255 255 255 255
158 78 104 255 255 255 162 255 226 118 255 255 255 255 200 220 54 110 92 232 240 96 158 255 255 255 255 212 255 255 255 255 255 255 255 170 200 220 255 98 255 194 255 104 216 255 255 255 255 255 190 36 176 255 255 255 96 96 96 80 176 255 255 255 48 255 214 90 86 196
204 36 255 94 138 146 164 255 255 255 255 255 255 255 76 255 255 114 130 216 255 255 255 255 255 255 250 94 255 255 134 238 170 168 130 206 84 146 255 255 154 28 84 120 252 255 255 210 255 255 255 144 176 156 204 66 255 255 255 255 255 186 130 255 228 158 154 255 255 255
188 204 138 166 148 255 255 255 164 56 255 222 38 48 150 116 124 198 88 152 130 255 180 98 246 74 255 255 255 52 255 255 120 124 46 255 255 232 255 220 255 255 254 190 48 66 242 232 255 206 114 88 150 255 204 255 224 255 255 188 110 64 88 158 244 88 128 168 255 255
176 174 255 142 150 255 70 210 255 255 255 96 172 170 138 255 255 216 255 255 94 70 176 255 248 255 154 255 255 236 255 255 255 255 255 216 178 198 228 224 255 255 255 255 255 255 255 255 255 255 255 255 70 106 146 255 255 66 198 255 255 166 164 40 255 255 200 255 150 244
124 146 255 218 236 166 255 255 178 218 255 255 98 255 255 222 126 222 255 255 198 255 255 182 112 214 255 255 255 242 152 154 174 255 255 255 255 194 92 255 255 118 128 255 255 180 54 130 255 124 252 255 110 255 255 255 234 74 82 232 188 134 255 255 20 220 255 218 172 76
44 222 255 255 116 255 112 232 255 255 255 255 116 255 168 144 255 255 255 174 255 255 248 188 106 255 214 34 202 255 200 198 255 255 255 204 154 255 255 244 255 170 208 84 136 255 255 255 70 255 255 198 212 255 255 255 12 246 176 255 255 255 174 70 86 192 100 180 255 136
255 255 255 58 134 44 240 255 255 255 196 120 176 255 255 255 255 255 255 156 224 134 184 40 255 255 255 255 255 255 255 254 255 255 255 214 248 250 92 114 164 255 255 255 255 255 192 255 255 255 44 166 120 124 78 104 112 186 106 255 255 255 184 18 82 122 92 220 255 164
255 255 255 218 110 58 214 255 255 255 255 62 198 166 64 106 112 144 242 68 252 255 202 146 255 255 255 255 236 255 240 170 62 36 168 92 154 218 255 168 255 255 255 255 255 255 234 255 218 255 255 255 152 132 234 228 76 164 255 255 86 124 230 255 255 255 255 255 255 255
255 232 104 196 110 255 255 255 255 138 180 255 255 255 255 255 255 255 255 255 6 126 212 98 144 255 255 66 255 255 108 255 224 212 255 255 186 255 208 196 166 40 255 132 255 255 255 255 255 255 255 255 46 138 254 255 255 255 216 255 255 66 100 38 128 182 255 112 255 255
255 44 166 255 255 164 200 255 255 255 255 232 134 255 255 255 255 240 255 255 255 168 56 244 188 164 180 90 156 255 255 255 255 255 255 188 200 255 250 255 255 255 255 96 176 90 255 255 255 255 114 160 255 252 178 255 255 116 255 255 255 44 50 140 255 228 114 134 222 82
242 154 255 255 254 116 255 255 255 134 255 132 194 114 118 232 255 255 255 146 255 255 112 252 255 252 158 148 60 78 128 20 146 98 44 98 238 255 226 136 154 170 255 255 255 255 206 154 160 162 255 255 255 255 120 255 255 255 228 242 228 255 184 100 246 255 255 92 180 255
255 236 238 202 106 96 84 255 255 246 226 160 204 255 255 214 172 255 255 255 255 255 174 132 202 128 255 255 255 255 255 255 255 158 228 255 200 218 255 255 255 255 144 255 192 222 236 232 240 255 255 214 248 116 166 232 255 255 255 255 255 255 200 255 158 198 255 30 255 255
255 112 118 178 122 254 255 255 255 255 255 255 255 255 124 248 124 255 255 255 104 136 130 150 220 255 255 226 140 108 94 208 255 255 202 255 255 206 156 188 180 88 40 148 255 255 238 255 222 64 222 255 255 255 255 255 255 255 255 255 255 255 255 255 255 174 32 140 252 152
255 255 100 240 122 216 255 182 240 255 100 148 255 250 255 248 178 255 76 204 255 255 208 190 94 50 255 255 208 172 255 255 255 156 122 40 254 226 255 252 255 255 214 98 255 206 126 214 232 168 86 255 255 255 96 144 255 255 196 255 255 74 152 255 134 255 255 255 255 224
166 174 176 172 232 255 255 204 255 255 28 206 255 255 255 255 255 255 255 255 255 255 255 255 255 255 84 200 255 232 114 130 168 255 230 176 12 72 176 192 104 255 255 206 196 90 88 68 238 255 255 255 255 255 236 20 255 255 255 160 255 255 255 255 255 255 255 56 68 110
150 56 140 28 80 255 255 255 255 255 255 112 74 228 144 178 136 46 255 255 255 194 180 255 255 78 142 255 255 206 100 54 102 18 66 66 140 212 255 255 255 255 255 200 248 255 255 255 255 234 38 142 255 255 192 255 255 118 12 255 255 232 255 255 176 164 255 255 255 255
255 255 255 255 144 114 60 222 255 102 255 255 255 216 32 108 158 102 74 122 172 110 6 44 166 255 170 126 126 160 255 240 82 255 255 255 202 255 255 194 255 214 238 50 255 210 255 84 255 250 255 255 242 255 114 170 255 48 138 226 136 255 140 255 114 46 200 98 255 255
255 255 255 255 255 255 140 214 255 255 255 184 70 62 224 194 218 226 176 212 190 255 62 60 208 236 255 226 140 255 255 255 255 128 255 255 212 255 255 92 210 255 255 255 255 255 104 255 255 255 255 116 194 255 255 248 166 210 180 96 255 255 255 212 194 168 255 255 148 112
34 136 255 80 100 134 148 120 218 170 78 255 255 68 230 255 84 255 255 114 186 224 255 255 255 255 255 126 98 118 255 255 178 120 56 255 255 255 255 18 255 255 255 255 255 255 255 255 255 255 255 255 255 255 255 255 255 255 255 255 255 255 220 128 158 180 255 255 255 114
74 154 148 255 202 255 226 198 86 96 200 196 190 234 255 200 240 255 238 255 255 198 50 140 212 255 255 255 255 255 255 255 255 206 255 92 255 255 255 255 255 255 98 90 70 220 72 255 255 255 255 82 150 146 12 110 62 178 198 216 238 120 255 255 255 78 106 255 178 255
255 190 160 76 106 58 132 255 255 255 20 126 255 255 250 255 255 68 226 88 82 255 255 255 255 255 172 255 255 255 255 255 255 152 255 254 255 255 136 200 255 255 255 255 255 255 255 255 198 172 144 255 255 255 184 46 194 144 174 194 132 62 50 54 102 114 12 48 130 255
255 255 255 255 158 194 255 255 255 255 255 50 224 54 255 255 255 160 78 50 148 196 255 255 142 78 255 255 162 88 174 240 184 208 152 184 255 255 170 88 255 255 64 255 118 102 224 152 154 255 160 164 254 255 255 216 208 132 144 255 162 255 10 255 255 255 218 168 255 255
146 210 255 255 255 255 255 255 170 214 255 255 194 134 108 132 255 194 164 255 255 158 146 255 255 255 255 156 164 108 194 38 38 90 50 64 255 244 168 166 226 255 255 40 16 110 152 160 255 255 220 255 255 116 255 255 255 255 255 255 192 138 255 244 134 60 222 228 174 146
204 255 255 255 255 198 190 160 52 74 255 214 196 160 146 30 224 255 242 50 224 255 255 255 200 130 114 118 208 198 214 158 255 252 255 255 255 178 52 66 70 144 156 96 20 214 114 255 168 100 82 255 255 255 255 150 255 188 255 255 255 255 255 250 92 184 210 238 218 106
160 255 254 148 255 255 128 24 102 34 84 255 255 255 246 78 182 234 74 116 138 52 34 120 36 214 214 194 120 168 188 96 255 255 140 138 255 255 255 255 206 192 255 94 236 255 80 248 255 255 94 158 254 82 142 32 255 255 255 124 110 104 124 255 255 186 182 166 248 254
255 186 255 194 255 255 255 244 138 255 96 204 255 255 255 255 255 74 255 162 244 255 255 255 255 255 255 255 226 140 102 74 116 170 176 255 255 255 255 255 232 220 255 220 136 134 255 255 255 178 148 122 255 182 40 42 158 128 50 50 255 218 88 220 158 212 100 240 208 196
228 200 255 186 255 144 156 100 162 255 255 255 210 90 180 110 255 255 255 255 255 255 255 184 255 66 214 255 255 242 106 255 255 255 134 158 84 58 192 255 255 255 255 190 16 90 234 255 255 134 192 202 90 255 255 255 124 255 255 255 252 98 26 255 255 64 255 252 255 255
176 82 102 130 184 152 178 230 210 170 222 142 138 118 62 114 192 170 208 255 242 255 255 224 148 255 255 152 255 255 88 210 255 255 255 255 255 222 110 255 255 255 255 86 86 122 138 190 210 255 255 255 255 255 255 255 255 255 255 102 118 230 58 144 176 218 226 20 190 255
255 255 148 154 60 34 170 140 200 246 242 174 42 94 134 144 128 226 32 80 130 60 255 255 255 255 106 122 228 110 255 206 238 255 172 255 255 255 255 255 255 255 80 134 196 158 255 255 255 255 214 84 148 124 154 52 134 255 255 255 244 142 62 78 126 255 204 92 82 186
255 136 244 255 255 218 100 255 114 212 236 255 122 142 130 26 144 70 172 255 255 255 255 255 255 255 255 78 112 40 112 160 112 78 150 255 130 130 48 255 152 134 255 232 124 38 196 230 255 255 255 255 255 92 214 190 160 255 244 222 255 192 210 124 234 255 255 255 255 255
255 206 84 172 255 236 150 192 104 212 188 54 146 255 255 255 8 255 255 148 230 60 168 255 255 182 255 234 40 52 255 255 255 255 194 255 255 44 255 242 98 255 178 142 136 214 255 196 76 146 124 255 255 104 166 48 60 94 88 255 255 255 214 255 255 255 255 255 222 255
218 204 208 126 250 152 255 255 255 255 255 70 234 254 70 68 172 226 212 255 255 255 255 255 252 255 255 255 255 80 172 204 246 255 255 210 196 116 106 255 226 146 172 255 116 252 150 255 255 255 255 136 140 22 110 118 118 255 26 255 255 50 255 255 255 40 86 252 255 255
255 255 162 86 110 204 255 255 255 255 255 255 255 255 255 255 255 255 255 255 255 255 255 255 226 86 60 106 88 204 192 142 78 150 255 255 182 46 162 178 114 88 78 196 176 172 158 72 228 174 214 255 116 222 164 148 92 124 106 90 164 234 255 224 138 82 164 255 255 232
224 250 234 170 255 255 226 182 192 158 16 255 98 96 255 255 255 224 254 112 126 218 255 168 94 168 102 18 50 232 242 255 255 255 255 254 84 232 214 255 255 255 238 134 255 255 255 234 36 50 26 192 254 244 22 116 216 255 242 255 62 255 255 146 242 255 255 116 88 160
255 255 255 160 208 255 255 144 255 255 255 255 255 255 106 236 248 64 88 208 66 60 136 176 255 255 234 174 255 255 122 255 255 255 255 255 255 130 54 116 230 188 98 158 206 255 255 255 255 255 255 255 255 112 255 255 255 164 114 114 38 255 255 255 255 255 255 62 176 74
254 182 255 202 255 86 204 100 174 90 255 216 255 255 255 255 255 255 4 114 130 138 255 236 168 188 132 122 234 212 255 255 178 236 255 255 255 120 182 112 212 20 188 208 255 220 132 166 126 82 255 255 255 255 255 200 152 36 98 220 255 34 255 255 255 255 255 136 72 200
148 100 255 255 126 150 46 158 78 255 255 150 54 255 255 112 30 255 255 210 214 84 204 118 122 184 190 186 106 94 255 255 74 255 255 255 255 255 255 255 192 24 242 255 255 255 255 255 255 190 64 104 76 94 100 74 48 32 16 44 50 56 78 72 60 78 136 212 250 255
255 255 255 255 255 255 255 255 255 255 154 198 214 255 158 56 122 112 255 66 255 208 255 96 255 255 102 242 158 255 86 252 202 255 255 204 255 255 176 238 100 126 198 238 68 255 164 38 255 255 255 246 178 124 255 255 255 238 148 255 255 255 255 224 120 92 102 100 138 224
255 255 255 216 232 162 255 78 138 20 255 255 255 255 255 208 54 118 220 206 90 255 255 255 255 255 142 255 255 255 222 255 255 255 255 255 248 86 96 108 104 255 255 255 16 255 255 255 216 104 152 174 255 255 236 142 202 220 204 64 106 42 218 40 216 190 255 234 106 255
214 32 184 202 255 255 255 255 255 82 180 255 210 10 255 255 255 255 222 92 238 126 255 255 255 226 96 34 24 30 186 255 194 255 255 218 255 214 255 255 202 150 230 128 255 202 104 255 255 152 255 182 198 162 154 224 255 255 255 238 60 240 255 106 148 128 142 116 92 44
188 134 254 198 90 122 255 255 255 132 255 255 255 210 126 114 162 86 212 252 255 232 154 255 255 255 255 255 255 255 255 255 255 144 142 134 136 104 146 140 20 30 255 255 252 224 222 102 182 190 255 160 68 84 255 192 144 255 255 196 166 22 130 84 38 122 156 146 144 10
148 255 255 194 255 255 255 246 255 255 26 128 190 255 255 255 255 132 78 40 16 72 62 72 92 68 50 30 22 68 34 30 60 80 48 24 58 70 50 86 126 128 116 26 108 255 255 255 255 255 255 255 138 22 240 134 255 255 148 202 255 138 255 206 38 255 255 255 220 255
255 255 255 182 255 255 255 216 168 255 82 108 150 72 234 255 220 94 78 255 30 255 255 160 255 255 154 138 24 255 126 106 126 255 255 255 255 255 248 255 218 136 214 154 144 76 166 164 218 255 112 190 255 255 255 255 234 90 248 216 100 255 255 255 255 255 255 255 206 240
255 108 164 148 138 80 110 232 142 76 255 255 142 255 255 255 255 255 255 180 255 255 230 255 255 255 170 182 78 152 88 98 255 255 255 255 255 72 142 218 255 116 104 166 114 158 255 242 210 170 160 58 98 178 255 255 116 244 202 122 154 72 154 150 82 158 40 64 40 222
255 255 255 255 100 220 174 224 255 255 255 136 6 255 255 28 120 174 255 210 255 255 118 226 120 248 126 224 255 255 255 255 255 152 210 226 196 170 232 255 255 255 180 156 164 204 226 122 146 255 255 255 255 255 255 255 255 255 255 255 255 170 106 180 134 98 96 104 255 255
255 255 255 255 255 208 24 160 255 222 222 252 255 255 56 146 255 42 255 255 255 255 200 232 255 124 96 255 255 78 92 198 255 166 124 208 214 86 84 148 130 226 255 34 255 255 194 88 255 156 76 120 198 255 255 72 64 40 48 76 114 168 134 78 56 48 104 140 124 124
78 28 24 70 82 58 22 80 186 255 196 218 254 255 255 255 255 184 176 255 255 250 255 246 255 190 96 98 250 255 255 90 255 142 72 102 124 152 134 152 68 238 255 82 250 244 255 255 255 255 106 116 78 48 26 26 100 96 255 92 210 252 168 194 152 242 170 236 140 255
150 122 216 112 136 204 250 255 255 255 124 255 255 255 170 122 154 255 255 230 218 252 255 255 168 255 255 236 116 128 108 216 234 255 212 166 30 252 255 255 255 255 255 255 72 162 138 255 255 212 44 255 255 224 242 255 255 255 255 255 234 198 108 255 255 234 102 255 142 56
184 116 84 176 255 255 142 160 106 255 240 232 200 190 244 255 255 150 255 255 255 232 255 255 250 255 92 255 255 255 255 124 196 255 248 255 255 202 248 226 254 234 208 204 200 90 238 160 255 255 150 255 255 34 255 152 96 198 255 238 255 255 196 38 224 172 50 202 222 48
232 255 188 130 176 238 124 112 176 76 142 255 255 255 255 255 255 255 255 255 255 255 255 255 255 255 255 255 255 255 255 248 188 162 70 70 176 216 126 132 52 255 255 255 255 255 255 60 196 216 255 255 255 255 208 255 170 255 184 255 255 158 46 104 255 255 255 255 255 130
186 198 142 98 12 38 196 146 54 56 184 255 255 108 114 255 222 158 255 162 162 146 158 255 255 104 58 62 74 86 118 130 98 90 124 90 88 58 54 12 28 58 76 166 200 176 232 255 255 255 216 255 255 254 254 255 255 255 255 255 255 255 255 172 142 255 118 192 112 182
255 255 255 146 34 26 98 122 140 92 255 255 255 255 255 255 148 255 255 222 90 255 255 208 180 180 146 72 52 186 8 198 228 255 255 128 192 255 255 255 154 255 255 94 90 128 144 180 110 246 255 96 140 188 236 246 255 212 44 162 72 102 38 172 128 255 255 192 255 68
112 255 255 255 255 255 255 255 255 255 114 255 255 255 226 70 238 188 120 64 182 255 255 190 136 176 255 136 255 255 252 242 152 254 216 208 255 14 184 224 230 232 255 255 255 255 255 154 226 220 255 232 122 142 104 90 255 255 250 134 255 216 244 240 255 255 255 86 86 182
244 210 255 255 190 170 255 255 250 255 255 92 255 140 255 255 192 255 255 255 255 232 142 255 96 255 255 214 246 138 255 18 180 255 255 255 255 140 208 152 120 40 104 108 110 72 116 34 76 122 242 255 255 255 246 255 255 255 255 255 184 118 86 98 86 132 152 92 76 70
110 142 152 178 124 124 70 90 84 152 192 36 72 238 255 255 255 242 176 255 255 255 255 206 255 190 198 255 176 255 255 74 20 88 156 200 172 252 255 64 255 252 72 134 66 116 98 176 46 124 255 255 255 196 178 108 156 26 255 116 116 70 138 255 255 176 50 80 68 10
62 78 82 78 94 58 44 82 78 34 40 154 255 255 248 216 255 198 142 174 148 106 76 146 204 255 188 18 154 224 194 242 140 255 160 255 70 182 218 255 255 255 110 255 214 180 80 166 255 255 188 255 255 255 194 214 26 190 90 120 255 255 255 255 255 255 224 72 92 78
255 255 255 255 228 182 108 54 34 136 210 230 255 255 196 86 56 58 146 180 166 114 180 148 106 208 156 138 196 142 162 255 255 255 48 255 238 102 255 255 102 255 255 44 232 255 114 255 255 255 255 255 122 78 74 102 128 222 184 24 156 172 236 186 108 56 228 255 255 220
255 176 152 255 255 142 120 178 134 255 255 116 130 214 158 255 255 255 255 255 36 255 255 255 255 124 255 255 255 122 104 66 104 110 66 255 255 222 204 210 96 74 255 255 255 200 192 255 202 255 255 108 182 255 255 255 255 255 255 255 238 84 194 255 255 206 255 210 255 186
255 182 255 255 255 255 255 98 182 130 202 240 72 90 118 64 118 10 32 110 106 255 255 255 255 255 144 206 255 142 32 22 46 76 42 42 54 44 90 16 2 54 102 76 68 80 112 88 68 72 142 68 102 132 255 255 255 255 98 255 255 250 255 255 156 82 90 152 228 255
255 218 206 162 226 192 122 255 255 216 255 44 158 194 124 114 34 184 202 255 144 255 255 255 255 70 178 30 200 80 154 138 255 255 255 220 158 114 76 70 92 104 56 86 154 150 142 118 86 48 106 164 146 84 108 174 244 224 202 255 255 255 255 255 255 255 255 255 255 255
255 255 255 255 88 255 100 134 100 64 96 136 255 255 144 188 210 255 255 234 246 255 244 255 158 178 184 234 255 255 255 255 255 255 242 255 176 196 252 230 255 246 36 255 255 186 108 220 255 144 202 206 144 255 255 162 40 138 162 110 38 112 196 255 242 204 255 255 222 44
255 255 255 255 255 255 255 196 255 255 255 160 255 255 255 255 134 255 255 255 132 255 255 255 255 196 152 188 132 76 228 255 255 132 162 98 90 172 255 255 255 255 255 255 128 255 255 255 66 255 248 255 248 176 192 255 255 220 138 206 255 92 8 152 255 255 255 255 255 106
130 166 104 104 102 222 168 255 236 112 172 186 255 110 174 234 148 255 255 255 255 255 255 255 106 255 255 255 255 255 166 78 130 68 255 88 230 66 156 255 188 194 110 128 206 130 136 218 230 255 238 255 188 60 96 86 140 66 68 98 36 110 108 174 255 255 255 255 128 116
72 34 28 24 16 42 70 24 58 60 60 94 92 78 72 104 118 118 124 112 110 72 148 254 255 230 255 255 20 255 255 255 255 255 212 76 108 28 255 255 218 178 255 178 194 50 96 255 255 188 255 224 228 90 74 72 118 86 80 255 234 106 156 255 255 255 14 146 84 255
250 255 255 255 255 232 134 40 46 58 36 24 60 194 188 138 168 134 162 120 104 40 170 214 204 198 218 188 164 230 255 248 196 172 112 190 194 255 255 255 255 255 255 190 100 224 255 255 255 230 24 202 186 106 16 255 255 126 255 255 118 224 168 255 158 255 255 194 146 230
176 224 255 255 234 255 100 255 255 255 255 255 255 255 255 255 255 150 120 192 132 255 255 255 250 148 54 142 180 140 184 114 255 255 255 255 255 120 255 255 218 160 255 255 102 110 255 255 255 255 255 255 255 255 170 206 255 148 255 255 255 255 26 102 152 166 158 116 134 172
116 255 255 255 255 94 202 255 224 212 255 118 204 255 255 255 255 255 216 106 255 255 170 120 98 228 254 255 255 255 162 255 255 255 174 150 92 204 255 255 255 84 228 255 255 255 255 154 255 86 142 166 255 255 255 255 255 255 255 255 255 92 255 255 170 102 150 250 208 255
198 32 158 255 255 52 194 44 138 162 88 186 112 192 80 34 76 120 255 14 234 132 182 186 222 174 168 220 218 255 255 255 255 255 255 130 255 255 255 255 202 70 64 90 36 40 28 28 36 42 58 48 38 36 10 42 10 28 62 70 88 144 188 188 182 66 255 255 230 142
255 210 38 68 255 254 190 162 188 255 170 76 50 62 106 58 116 255 255 128 255 222 96 170 108 24 130 164 218 188 24 122 122 146 255 255 255 116 146 202 38 172 255 255 192 70 50 66 68 22 68 72 116 172 88 40 50 52 68 54 48 60 36 22 42 50 30 24 40 34
44 42 38 22 44 54 88 76 72 164 116 128 104 90 64 126 114 106 114 250 116 162 255 255 255 214 255 176 255 238 100 112 80 148 255 255 255 224 176 106 228 186 255 255 255 255 198 255 255 176 156 40 255 255 255 154 156 194 76 255 255 126 62 156 96 80 188 146 250 96
255 255 255 255 192 255 255 255 255 255 255 236 255 255 255 255 255 255 255 255 28 255 148 24 90 255 186 255 198 255 255 255 8 48 82 128 60 60 136 2 128 255 255 104 255 255 255 218 162 128 255 255 255 255 188 196 255 255 255 255 164 255 230 60 184 130 118 58 126 255
255 202 110 184 226 176 255 176 255 255 255 180 255 246 176 255 255 255 255 118 166 178 255 255 100 144 50 112 174 232 42 152 255 255 24 144 255 255 234 156 190 80 176 255 180 182 255 255 122 250 166 170 126 188 76 104 62 158 74 238 255 162 42 38 100 194 255 255 255 255
255 255 208 226 255 255 144 84 250 255 255 90 92 156 96 30 18 48 70 38 22 16 6 14 18 42 18 16 38 62 20 66 122 255 248 84 255 255 255 255 255 144 112 200 255 128 170 255 255 255 148 86 36 42 52 72 218 255 255 136 202 76 78 92 12 44 66 44 106 122
86 72 62 82 74 255 255 182 138 100 34 255 255 255 150 82 44 110 134 80 100 130 180 144 38 36 50 94 104 96 74 52 36 12 10 36 32 44 38 76 54 10 20 6 42 46 12 72 132 228 236 164 102 84 40 102 90 82 46 164 118 148 110 120 216 198 255 214 255 132
102 158 248 218 210 170 56 66 170 112 255 100 196 94 134 186 146 54 224 214 255 255 138 176 255 255 255 255 255 80 255 255 255 255 156 78 252 255 46 255 255 220 220 255 255 208 255 90 255 255 255 74 200 204 255 255 255 255 255 255 198 255 255 255 255 255 255 178 234 255
255 84 76 130 162 255 255 255 238 104 190 248 255 255 255 255 120 212 160 255 255 255 66 160 148 152 255 255 255 255 120 238 255 98 220 255 255 210 132 255 255 255 255 255 255 255 255 255 255 255 255 255 255 128 255 142 255 255 242 156 20 60 140 255 255 230 118 228 255 255
255 255 255 88 68 152 255 255 242 124 154 194 255 255 255 156 22 255 112 255 238 255 138 255 255 90 255 255 255 220 164 232 118 126 60 184 204 126 140 184 188 146 124 132 180 255 255 255 210 166 255 255 150 132 90 30 32 34 18 22 28 28 20 30 44 68 44 24 34 98
32 68 60 226 232 92 255 255 122 255 172 212 212 228 255 92 60 114 255 255 144 72 26 50 92 134 255 255 255 218 230 20 14 28 24 46 60 34 94 200 184 62 118 212 114 255 255 210 94 18 38 255 255 224 140 76 80 108 28 180 238 194 98 12 64 92 70 40 20 46
40 50 34 10 10 24 22 6 44 78 40 50 40 22 10 44 84 124 196 255 192 60 40 114 142 146 158 132 174 255 200 224 248 102 122 66 170 236 255 24 210 108 118 255 255 248 186 22 146 194 124 8 210 86 255 214 134 232 160 84 104 255 248 124 196 255 255 146 255 255
132 52 70 130 166 54 156 166 230 255 255 255 255 190 255 255 255 255 255 248 88 86 100 54 178 255 224 255 212 255 84 255 186 78 62 172 154 30 162 186 255 255 255 255 240 120 52 255 255 202 24 104 236 166 255 255 255 234 196 164 242 180 90 100 126 255 255 140 48 54
234 232 255 150 255 182 255 255 255 255 255 255 208 92 176 118 24 64 112 255 255 255 216 206 172 128 100 214 208 156 172 174 52 138 255 180 68 222 255 255 255 164 144 234 106 186 255 200 124 180 28 114 138 252 255 240 78 204 58 255 255 158 224 255 88 184 220 244 255 255
118 186 214 190 44 168 192 206 255 218 172 104 128 154 150 182 255 255 255 255 84 180 236 255 255 228 84 54 34 26 48 58 86 66 60 56 26 28 76 76 80 82 124 254 178 146 154 206 104 255 194 80 255 255 255 102 222 255 255 255 248 64 50 122 180 154 176 255 230 184
198 42 16 52 64 40 86 120 106 136 162 170 138 72 226 192 212 154 114 64 114 255 255 204 106 56 32 94 190 255 192 34 72 100 100 80 32 26 28 16 22 18 46 44 46 52 24 32 38 24 40 18 118 200 192 172 114 158 238 150 18 52 70 144 255 255 160 112 122 98
104 80 98 70 70 184 255 255 238 120 236 226 188 228 255 132 236 255 178 250 255 255 198 255 230 255 255 255 162 174 102 255 255 255 255 250 255 255 255 255 48 255 255 255 194 42 122 110 232 120 255 192 26 128 28 132 174 66 186 160 94 50 112 154 198 104 186 162 158 126
96 255 255 52 118 255 255 255 255 255 255 255 255 252 244 255 255 255 255 60 102 154 255 255 130 238 255 255 92 158 90 255 255 255 148 154 118 206 255 255 255 140 255 255 250 178 255 255 255 190 120 186 142 126 226 255 255 255 190 255 255 124 12 255 255 255 255 188 154 230
222 220 240 230 255 242 82 180 255 255 255 255 255 188 248 118 255 255 204 170 90 64 60 255 255 238 108 255 196 154 154 28 100 212 186 172 255 255 255 255 222 184 148 116 98 114 255 255 204 156 98 64 36 14 36 36 84 144 226 255 255 202 90 184 255 255 134 48 34 60
56 34 68 136 66 38 40 28 66 62 112 58 148 216 142 242 244 180 162 170 190 255 255 255 30 182 150 42 76 255 156 54 44 120 134 30 76 246 255 94 244 70 70 52 34 22 74 60 40 100 132 78 138 158 178 62 144 164 68 62 255 255 255 160 96 12 114 138 118 94
88 112 98 80 76 56 38 42 50 56 34 28 36 40 16 34 34 38 26 38 42 126 212 255 176 186 78 148 242 140 132 106 132 158 216 255 255 255 255 255 255 255 255 255 192 255 142 186 156 58 154 64 110 50 255 255 255 255 255 206 186 146 255 255 208 255 255 255 255 228
96 32 52 190 230 212 255 255 255 255 255 255 255 168 28 146 212 56 238 124 146 138 116 38 102 220 255 255 242 255 226 190 255 220 94 192 76 214 176 88 98 254 172 104 156 182 230 106 238 88 255 255 255 234 144 255 255 255 90 78 255 255 255 162 255 255 255 255 255 144
216 222 255 240 255 255 255 255 255 255 240 208 88 108 208 255 255 180 132 170 130 204 182 78 98 198 248 255 255 180 255 255 255 255 255 198 255 255 74 156 148 208 255 255 255 244 184 84 108 255 232 210 74 236 255 255 255 66 255 216 86 134 220 255 222 166 58 164 246 210
240 114 192 166 146 136 104 236 180 200 204 178 98 110 158 120 244 255 246 120 28 54 46 26 2 12 12 48 92 120 138 222 255 255 232 238 255 178 62 46 30 26 24 36 36 12 48 28 62 68 42 24 216 230 106 106 255 246 160 220 255 255 255 106 130 108 124 66 102 255
144 44 70 118 104 58 60 142 255 18 166 82 86 14 18 40 128 110 106 176 156 92 48 68 164 234 254 255 80 56 255 255 228 80 102 128 130 20 66 88 46 38 42 70 66 70 60 28 24 16 40 10 18 48 40 52 56 16 6 122 255 255 214 78 136 255 160 148 218 166
174 204 255 172 116 102 180 162 212 255 168 94 84 112 30 218 214 255 242 98 204 240 255 255 255 208 255 255 255 255 82 66 255 255 255 255 255 136 255 255 138 46 144 255 102 255 255 255 255 198 255 182 122 96 120 48 255 102 124 188 158 168 255 255 210 234 224 36 114 118
148 34 178 255 136 130 102 166 224 112 58 102 172 242 255 255 255 255 255 255 255 255 254 222 160 218 255 255 250 150 186 250 112 224 152 116 255 255 255 255 230 188 255 255 206 138 106 36 104 168 255 255 255 234 136 110 255 184 242 132 255 92 194 132 66 198 255 160 52 116
252 226 255 64 255 226 255 190 112 255 255 255 255 186 50 238 255 255 255 44 122 255 255 255 106 208 150 146 240 134 32 224 255 255 198 106 162 110 82 132 255 142 88 74 74 146 255 255 230 114 114 176 206 222 255 220 60 240 255 192 90 80 88 46 18 14 62 70 86 76
42 88 184 182 166 72 156 208 132 88 28 44 28 38 48 60 66 38 96 102 68 100 255 255 240 130 168 255 196 138 200 255 255 152 120 64 144 46 178 255 84 72 110 78 20 80 86 218 255 134 234 92 60 38 30 36 84 56 28 122 100 64 12 22 74 36 174 248 136 82
255 255 142 44 52 48 12 32 22 78 40 40 106 72 32 34 36 28 24 34 34 4 12 46 44 48 40 26 118 255 255 98 60 196 246 176 36 76 44 114 130 192 188 164 146 134 148 112 106 230 255 160 18 100 140 172 50 182 182 84 70 104 96 166 94 170 240 255 255 154
196 84 74 255 255 255 136 255 255 176 255 130 194 255 255 255 254 220 255 255 255 255 255 202 20 142 166 90 160 44 156 255 240 232 255 222 255 218 176 100 152 255 178 176 134 212 238 255 176 255 255 255 255 255 255 126 255 64 216 255 136 80 240 255 255 255 250 194 255 166
202 255 255 244 42 255 255 255 255 255 255 255 255 204 86 52 94 120 198 255 96 248 255 255 88 255 255 34 255 255 255 255 255 255 248 196 116 136 138 255 255 134 170 100 114 22 112 192 112 255 255 164 254 210 230 255 255 110 255 255 212 236 146 255 214 110 255 255 255 255
255 255 255 255 158 104 76 92 204 166 206 56 32 108 108 26 255 158 255 48 255 255 255 255 255 255 255 90 255 255 92 32 30 44 46 54 112 80 88 52 4 54 148 112 152 204 98 114 170 124 48 58 48 58 48 50 64 60 66 40 80 102 236 255 172 30 68 192 250 34
202 255 196 202 100 130 160 124 220 204 88 46 76 62 32 100 88 58 255 52 152 30 44 56 10 38 52 64 56 88 80 66 56 54 54 56 142 246 248 68 255 255 146 34 22 58 30 18 52 70 100 70 50 4 32 20 42 22 14 60 48 46 22 24 36 36 74 136 232 198
96 236 255 208 80 30 46 86 138 112 72 48 10 4 20 30 26 64 86 228 234 88 76 110 188 255 255 255 255 158 34 184 255 255 255 255 184 255 255 255 255 255 255 230 255 255 255 76 244 216 255 74 255 208 186 230 255 255 114 136 138 118 210 255 248 138 180 174 54 252
52 255 255 255 255 126 104 178 228 255 200 255 255 160 36 56 96 224 255 244 98 154 244 255 255 132 238 255 255 255 255 224 106 34 146 216 255 255 255 255 22 90 56 86 236 255 164 255 255 255 255 255 255 255 100 174 112 255 255 240 178 255 172 134 236 255 148 206 255 154
255 255 255 255 255 255 118 96 104 196 255 232 255 196 160 198 120 164 255 208 255 48 255 140 184 94 255 255 116 128 160 14 218 255 184 24 255 255 246 152 226 246 102 255 255 255 255 255 255 72 255 118 82 140 122 208 102 130 54 255 255 255 236 232 202 146 255 255 190 255
246 82 32 14 42 34 68 34 70 70 74 84 104 78 68 86 100 70 96 150 102 66 78 14 52 50 32 30 30 36 70 154 255 255 255 64 42 54 168 58 255 255 46 106 140 196 166 172 208 96 68 62 60 56 20 58 86 112 248 68 182 38 26 60 34 40 32 68 104 154
96 34 80 66 46 78 70 154 255 96 255 255 136 116 104 112 56 36 44 8 48 78 12 58 30 50 42 14 34 60 38 62 12 50 118 208 226 174 120 72 188 172 94 32 36 82 90 64 40 10 22 32 32 44 46 84 104 152 182 255 255 80 42 94 26 120 252 202 90 202
255 255 166 168 255 255 255 136 172 255 234 255 255 255 255 90 255 218 12 255 255 255 255 255 255 255 255 248 88 30 166 84 196 234 202 208 12 154 72 182 122 238 228 168 190 250 118 214 134 46 132 255 255 144 140 114 70 228 255 255 255 255 255 255 192 86 255 202 80 164
96 110 56 255 255 255 255 206 255 218 40 86 110 216 204 255 255 255 42 255 255 255 255 255 220 170 255 255 255 102 255 160 130 255 255 234 66 255 255 162 255 255 255 180 255 255 202 200 255 255 255 106 156 255 174 104 66 186 255 255 136 255 255 172 234 152 255 148 255 242
78 104 255 255 255 174 255 255 255 136 52 78 230 194 255 255 255 242 40 116 240 255 192 192 230 255 200 22 255 255 255 196 104 160 126 102 210 255 255 188 178 178 88 28 26 14 48 50 48 34 86 48 38 40 84 80 110 140 68 114 136 46 92 66 46 70 90 62 104 36
14 18 42 255 255 146 54 86 96 214 255 220 44 66 126 112 44 62 124 102 88 58 24 76 54 100 104 82 132 26 100 42 22 42 8 38 34 32 110 90 74 88 166 110 170 138 116 78 232 122 255 255 62 42 58 66 54 68 28 24 46 30 68 24 24 42 10 48 42 98
78 34 80 174 222 218 66 56 118 160 140 48 46 56 66 84 58 30 32 34 36 8 24 6 54 122 162 188 220 255 248 108 160 220 118 130 232 255 255 246 148 194 255 255 255 255 234 156 198 122 255 255 184 255 255 28 210 255 166 252 118 255 128 228 255 255 255 255 160 114
152 80 234 228 144 238 220 144 198 118 102 140 192 255 255 255 156 255 255 255 104 190 255 200 212 236 164 216 92 76 142 224 255 255 255 255 255 255 255 255 232 66 90 238 255 2 92 118 64 48 32 18 196 255 255 255 100 70 138 206 255 255 255 255 255 255 255 180 136 224
58 255 255 255 98 162 172 216 255 255 255 38 112 186 255 255 42 240 242 146 255 255 255 255 80 40 62 170 255 254 248 255 60 228 255 255 152 96 192 126 28 176 255 114 244 202 130 222 182 255 138 255 255 255 240 138 244 242 40 180 92 202 154 180 238 255 255 204 255 255
178 58 50 42 72 64 70 120 148 144 140 255 160 54 34 40 58 36 46 58 56 60 30 26 48 48 48 20 86 50 120 34 38 86 40 66 56 36 88 114 70 36 104 255 255 88 42 70 4 250 255 36 64 138 150 92 102 76 66 80 94 88 28 118 96 114 38 138 186 98
158 136 114 80 52 10 46 38 86 66 138 70 100 16 76 90 72 64 146 136 255 255 60 82 126 74 34 24 16 22 54 52 24 20 18 18 34 82 70 78 50 136 210 236 172 32 120 158 106 84 42 42 78 82 76 24 28 12 40 70 56 20 22 74 122 182 190 178 166 64
226 168 108 48 190 200 202 142 150 192 34 64 34 60 152 216 234 186 198 222 174 254 255 255 84 188 108 200 148 255 255 222 48 176 200 110 98 172 255 100 198 148 100 255 255 180 72 142 110 152 230 255 192 152 48 58 138 148 68 120 212 34 214 38 84 88 134 200 178 40
144 42 218 126 186 255 234 176 255 180 190 74 72 255 255 255 255 255 255 255 102 138 255 255 148 255 255 255 106 102 255 255 255 152 136 255 255 255 252 255 255 255 255 158 255 214 248 255 58 255 255 255 255 144 238 220 254 62 152 18 122 72 34 248 22 126 198 222 255 255
255 38 255 255 255 255 255 255 128 255 255 255 255 255 160 255 255 88 166 255 255 255 255 255 255 182 222 255 148 228 22 255 244 116 238 255 182 255 255 255 188 42 44 10 24 18 14 62 108 220 190 255 255 96 34 14 54 22 32 60 82 58 32 48 40 50 14 12 86 86
98 46 10 50 70 44 30 46 78 104 58 70 110 244 238 132 90 108 34 220 202 38 66 128 152 36 112 116 102 164 104 28 130 136 84 70 40 100 224 56 120 46 56 38 50 16 40 38 58 70 22 40 98 92 84 138 138 110 156 162 255 255 68 70 32 68 44 54 58 22
32 10 48 44 4 22 56 76 22 100 160 190 150 64 104 146 134 76 26 32 34 56 58 74 60 10 24 56 34 20 80 88 136 238 236 160 72 104 66 224 232 255 255 190 118 130 255 255 194 202 74 176 226 255 62 84 30 154 96 42 146 178 54 226 110 76 178 255 255 230
60 162 120 156 118 110 255 158 255 222 152 40 92 178 152 152 144 178 152 255 255 252 92 132 244 204 244 116 48 40 180 220 160 255 252 166 240 255 138 130 255 214 255 176 122 206 140 255 255 255 255 180 156 232 188 116 192 255 58 8 102 160 118 248 236 62 144 255 255 255
255 255 255 255 78 136 255 255 255 120 255 255 255 255 170 142 255 255 255 255 172 255 255 255 214 76 138 255 255 255 104 236 255 255 234 140 12 230 255 84 154 180 246 255 255 255 112 255 255 255 128 255 255 255 208 154 150 174 158 255 255 255 240 178 255 166 118 188 106 255
62 255 124 40 152 206 216 255 255 255 136 66 76 66 76 40 70 40 114 255 255 210 206 124 54 8 26 50 22 22 64 36 16 56 38 84 76 58 56 46 28 98 72 60 82 44 20 32 32 38 20 56 156 255 186 96 78 54 20 186 240 88 34 148 144 70 180 92 72 84
110 120 110 66 30 54 72 118 134 56 96 50 116 64 32 28 46 48 48 56 62 62 102 255 110 94 26 64 98 142 230 255 80 48 40 2 46 48 64 38 6 36 24 52 42 60 94 34 52 160 200 100 44 92 92 116 98 28 26 32 4 40 38 54 32 16 34 32 30 134
208 224 254 255 146 96 174 255 255 164 64 194 160 110 166 255 255 146 58 214 148 182 102 255 144 34 90 94 166 54 172 174 50 64 210 252 255 255 236 255 255 76 124 255 255 255 255 255 162 216 82 66 18 110 218 212 166 255 255 255 118 255 255 255 255 255 24 255 255 116
166 255 198 255 255 255 210 138 178 74 134 64 138 102 52 238 255 255 255 82 140 254 246 255 255 248 255 176 116 162 255 255 255 208 255 255 255 255 255 255 255 255 255 255 255 255 255 255 248 255 255 255 255 255 255 102 222 255 255 255 255 255 208 255 255 255 255 176 148 255
198 160 214 255 254 108 44 242 255 134 222 226 28 158 255 108 70 212 255 255 246 238 255 152 88 142 255 255 255 98 78 162 92 110 255 200 218 255 255 255 255 255 176 14 170 255 196 190 255 255 72 48 64 58 106 90 52 34 12 182 255 212 24 202 196 64 16 32 14 8
10 50 30 28 22 34 16 30 28 8 36 30 112 124 132 78 18 56 74 92 90 68 90 255 255 104 94 140 90 250 255 20 124 224 196 76 116 50 32 50 24 30 36 44 56 46 54 72 66 24 60 34 72 38 50 86 66 54 10 74 58 60 92 144 62 54 74 60 122 164
252 255 170 94 42 78 34 26 30 4 36 8 78 98 46 38 42 40 94 156 118 48 100 54 48 42 24 42 18 28 6 48 10 30 42 36 32 30 76 242 255 255 154 40 194 254 160 78 206 134 144 255 255 214 82 140 184 112 108 104 218 140 48 140 112 82 78 54 168 154
202 200 140 142 255 255 255 248 104 206 255 255 255 244 114 146 50 255 255 240 180 144 252 234 240 124 255 255 255 100 110 148 64 16 102 212 255 118 124 255 228 84 68 255 214 176 255 136 96 160 38 66 255 70 168 210 255 224 174 255 255 255 232 246 255 255 255 84 62 12
52 104 240 255 255 236 92 242 255 255 255 255 255 44 255 255 255 210 90 255 255 174 168 255 255 255 132 255 255 186 98 78 255 255 255 98 204 110 128 248 130 66 242 255 255 255 246 60 255 122 186 255 132 52 194 198 255 255 255 255 255 255 255 30 226 255 255 204 255 255
255 255 186 180 255 255 198 208 224 106 234 255 242 166 192 116 114 108 255 255 98 72 66 72 76 56 102 92 114 94 144 170 204 166 255 216 26 48 60 74 76 38 42 10 38 22 8 24 60 6 16 70 50 68 80 114 58 22 30 44 130 110 84 255 255 74 62 106 110 255
255 148 182 132 90 84 128 50 12 2 38 82 102 136 86 36 92 72 4 22 28 42 70 84 70 62 20 46 24 46 62 78 92 94 86 100 80 52 170 178 222 255 164 104 72 46 48 34 32 10 50 74 46 18 40 22 32 106 116 114 78 74 48 30 54 62 52 72 82 52
24 66 94 74 30 26 18 46 118 238 218 58 216 244 220 168 138 100 142 126 100 228 255 255 148 208 198 140 80 242 180 166 118 255 154 136 102 76 255 242 255 250 120 150 255 255 255 204 178 132 134 190 98 255 255 255 255 255 192 255 255 255 178 64 166 44 148 174 136 164
96 84 170 232 255 210 90 58 118 180 194 255 255 232 224 255 255 216 102 208 242 255 255 255 255 255 255 94 62 102 52 60 110 78 198 148 255 255 255 255 134 212 255 156 184 255 255 255 255 255 255 255 192 158 255 255 255 72 255 255 232 212 102 104 128 154 182 255 216 255
250 255 164 254 255 255 30 228 255 255 210 255 255 200 255 222 202 160 166 255 255 232 164 188 198 252 255 255 68 255 255 255 255 222 192 126 255 255 255 255 255 255 74 255 172 170 255 255 255 255 246 124 80 64 164 50 66 100 255 255 78 84 116 120 112 66 32 24 20 8
56 152 255 255 202 230 82 28 20 26 52 18 52 36 64 28 36 32 70 44 54 62 50 52 24 96 120 74 42 72 130 50 44 255 255 108 50 84 140 255 196 202 38 122 82 66 132 78 24 38 74 134 84 88 76 100 82 40 44 50 28 22 58 94 122 122 108 68 24 20
94 62 14 52 54 78 40 78 62 255 32 255 202 86 62 14 10 12 28 54 46 44 32 38 28 44 84 98 92 66 44 52 40 34 14 12 14 22 46 34 38 36 74 90 86 34 22 50 144 192 120 255 216 128 74 78 164 138 150 126 76 130 218 255 172 86 178 190 174 72
255 255 254 242 255 255 255 146 88 208 102 130 82 140 74 150 255 255 255 80 174 230 255 255 255 255 206 166 160 136 255 255 94 62 74 80 52 142 108 80 20 70 142 78 48 232 255 255 194 46 126 178 200 170 218 34 136 255 255 255 255 255 92 255 255 255 255 64 120 108
58 140 96 82 202 255 255 194 255 254 32 184 230 255 178 255 255 128 255 144 255 255 255 255 110 255 255 255 255 180 255 255 206 84 202 255 255 255 136 255 255 160 196 252 46 255 255 255 255 255 76 210 246 90 72 72 208 200 180 242 128 138 76 80 136 210 255 142 114 156
214 212 92 114 202 255 255 98 182 228 128 186 255 255 255 255 16 174 138 240 255 255 255 200 156 164 116 82 255 255 50 8 42 62 80 72 48 42 36 12 68 74 148 255 112 176 186 76 56 56 12 26 24 8 24 52 66 40 28 26 26 34 54 56 44 76 40 40 48 60
154 62 166 255 255 48 34 78 92 204 142 106 66 66 40 60 126 54 16 38 26 50 106 92 116 154 118 88 52 74 58 30 54 48 112 104 52 36 20 14 98 112 82 76 92 80 62 60 94 228 136 255 255 46 34 36 24 42 42 58 52 22 50 28 14 66 96 58 64 42
16 20 56 30 24 22 24 34 52 72 54 66 44 44 48 26 64 90 186 126 160 154 92 142 150 98 88 102 76 78 80 96 156 255 254 174 208 192 82 110 204 96 240 174 94 255 255 192 255 116 214 216 248 255 120 196 202 108 255 255 202 38 172 54 80 94 114 88 146 226
150 194 255 242 192 70 62 70 108 150 60 92 172 162 132 255 255 255 252 182 214 80 255 70 118 56 92 44 255 255 228 228 255 255 255 250 198 118 218 162 176 24 255 255 255 255 255 200 255 60 78 126 32 200 238 116 255 255 222 246 216 255 255 192 255 255 255 255 255 108
122 86 255 255 255 222 210 255 244 148 124 255 255 255 210 106 164 255 255 136 86 86 255 230 92 148 132 200 255 236 204 38 44 224 240 160 255 255 255 255 190 190 255 168 118 130 252 222 222 188 255 255 182 172 255 255 78 198 154 36 218 255 255 198 78 134 88 86 255 255
120 76 134 120 76 80 38 24 30 18 74 46 56 158 184 48 218 94 32 60 30 16 14 18 22 14 26 32 14 16 2 46 22 28 68 68 20 20 54 126 98 118 176 255 134 14 40 58 76 194 142 106 64 64 34 50 152 62 110 122 56 60 66 32 146 184 122 62 38 92
68 10 54 50 34 78 36 16 30 38 68 108 106 92 144 136 96 6 68 196 26 255 138 30 36 34 34 14 60 100 56 28 32 48 14 68 112 68 112 70 50 42 52 28 28 42 40 6 28 52 40 52 50 56 54 50 152 166 112 96 170 50 60 132 130 66 22 54 68 60
64 106 108 182 194 136 176 212 126 152 250 196 255 255 208 162 122 74 218 255 168 66 60 98 70 166 255 255 86 255 120 214 255 144 104 86 164 216 254 138 90 74 110 214 255 255 182 16 150 120 132 84 164 255 255 255 182 252 222 212 178 142 196 78 98 80 156 255 255 255
255 255 255 114 255 255 226 240 112 62 130 255 255 200 58 152 255 255 90 190 255 255 132 92 132 255 255 255 82 254 238 76 255 255 40 148 46 110 224 255 182 202 190 146 198 255 255 62 255 255 255 96 214 255 255 255 220 246 255 250 88 16 98 255 255 255 202 255 174 14
138 222 76 172 96 46 194 255 255 255 255 78 72 86 255 255 255 255 255 255 140 200 154 148 232 255 244 200 84 36 208 158 84 255 200 236 188 102 164 255 244 82 134 40 6 62 34 8 22 8 46 68 58 108 240 168 86 168 132 62 16 42 34 22 30 40 52 26 34 18
26 70 66 34 48 108 90 68 16 56 36 108 255 255 124 14 30 116 150 180 76 122 112 96 140 50 118 128 158 98 154 30 82 136 128 126 46 26 34 84 28 50 56 48 84 30 62 52 36 4 40 26 24 164 174 78 16 72 56 180 106 255 108 46 38 6 22 22 56 58
30 8 30 32 56 80 84 10 56 60 60 52 28 34 24 30 18 44 46 28 54 20 46 96 96 116 160 88 104 166 96 94 102 48 72 40 44 64 42 20 28 66 94 174 212 94 206 158 106 172 220 255 206 255 255 88 182 255 255 255 255 206 82 80 96 172 246 255 255 252
142 255 236 120 168 150 100 64 86 32 110 255 255 230 30 228 200 42 255 212 220 255 255 255 255 204 12 58 126 186 255 146 102 98 190 124 18 86 164 255 255 238 255 226 188 255 255 226 52 126 255 255 255 255 255 232 80 255 255 86 62 255 255 228 255 255 168 232 240 240
92 222 172 242 255 218 255 255 255 255 255 255 255 255 255 255 148 182 250 88 255 255 255 190 255 255 236 20 255 255 255 255 255 255 255 255 244 255 255 255 255 216 118 194 100 168 255 255 255 255 188 255 255 255 255 200 174 255 204 96 128 242 255 198 132 76 30 70 136 255
255 255 212 228 136 255 255 216 112 255 255 56 88 92 80 124 96 52 68 52 54 48 40 34 120 186 166 124 255 160 34 28 2 14 48 74 108 56 50 36 66 30 6 38 14 22 36 72 54 90 58 40 252 255 154 36 36 92 78 84 30 92 74 88 82 130 94 94 124 94
86 94 194 122 40 128 64 16 24 84 40 62 44 64 28 28 36 46 94 70 30 30 46 144 146 158 120 48 80 150 132 255 86 42 32 18 2 70 84 26 60 42 12 34 32 108 110 76 36 16 30 34 42 32 16 18 10 54 10 30 74 64 34 96 134 90 32 108 174 116
92 136 100 58 54 46 18 24 42 24 24 60 94 126 206 36 164 34 94 238 206 12 254 255 140 124 254 208 236 255 190 90 106 42 134 42 186 68 255 255 255 54 255 196 160 168 142 255 255 255 255 124 202 255 255 102 255 255 255 255 255 255 118 100 255 255 255 255 172 118
162 255 198 142 176 70 132 164 255 255 255 255 255 242 194 120 132 122 124 255 255 22 124 255 255 255 255 255 255 255 255 255 255 192 116 92 255 180 142 172 255 246 196 190 255 255 60 234 136 246 255 58 38 92 168 255 255 255 34 255 255 255 255 255 228 248 76 238 255 226
255 255 255 255 255 182 82 200 132 236 255 255 255 255 240 240 202 255 255 246 255 255 255 244 116 255 255 255 255 254 178 192 72 246 156 48 110 206 255 255 100 176 255 90 244 190 70 158 255 136 255 60 28 24 12 16 58 68 56 64 16 38 60 68 70 76 234 130 200 168
56 40 42 10 44 22 74 78 16 8 62 98 88 4 26 32 82 104 66 96 132 124 218 255 186 50 38 64 94 102 72 80 24 112 98 96 60 106 64 104 38 54 108 22 42 76 58 6 70 108 82 90 66 44 40 44 72 76 8 64 24 68 116 114 126 96 128 44 98 144
126 208 42 18 34 26 68 102 68 34 10 70 36 48 60 82 52 36 46 50 62 42 54 40 26 16 28 40 16 22 4 50 56 118 124 58 114 80 60 44 62 70 26 46 58 44 42 48 24 22 52 60 72 132 218 18 146 184 204 116 72 255 255 86 44 106 255 255 255 100
168 255 255 255 255 255 255 255 255 82 255 255 164 148 255 84 224 244 160 255 255 216 142 255 255 138 192 102 198 230 188 152 96 96 230 255 158 162 140 170 110 170 208 122 196 255 255 255 142 170 214 38 255 255 222 94 176 44 180 48 255 255 255 242 255 255 255 255 162 66
98 208 255 208 255 255 92 112 214 70 228 255 236 230 104 255 255 78 255 255 134 66 255 255 255 255 255 255 255 255 255 255 255 236 170 112 194 168 190 84 118 255 255 255 255 46 218 255 255 255 72 44 240 255 255 255 255 255 255 255 156 212 255 255 255 255 255 136 255 32
255 255 112 98 206 255 222 148 244 255 255 255 236 236 204 130 116 102 255 156 255 94 66 54 28 16 46 36 18 64 58 10 34 30 52 38 198 222 160 162 64 12 30 32 38 88 34 42 30 2 68 32 84 38 66 78 96 122 72 46 70 50 190 255 208 66 54 60 132 136
30 116 60 32 56 70 156 92 34 82 28 84 120 44 20 46 84 84 72 54 84 12 36 30 50 70 74 124 104 90 28 82 70 46 12 38 64 24 30 62 178 182 38 56 62 56 74 74 44 58 94 72 10 66 116 110 14 40 68 96 30 16 40 38 36 16 10 24 22 10
12 68 70 130 86 158 108 26 44 68 86 80 16 66 92 84 70 46 22 40 80 84 102 218 194 34 118 202 134 140 158 78 168 150 232 232 122 190 255 204 88 170 150 255 232 255 134 218 234 226 118 124 182 152 156 218 244 255 255 255 154 255 255 246 128 255 255 204 138 106
240 255 255 255 172 166 255 164 174 136 230 240 186 84 255 255 255 164 246 255 116 226 124 255 255 34 158 138 255 255 255 255 255 255 164 255 255 255 255 255 80 62 124 60 255 255 255 106 18 88 114 152 178 255 255 255 255 255 255 255 206 255 255 32 255 255 122 255 118 164
255 102 86 112 255 234 160 255 255 255 62 134 206 144 58 174 14 254 255 156 148 102 170 255 178 255 228 104 255 255 186 146 166 194 176 252 255 255 252 214 255 178 255 255 255 255 128 184 255 152 92 52 154 194 176 116 166 172 244 180 255 40 40 24 48 62 98 88 72 92
112 86 24 40 42 26 90 188 54 178 140 46 46 60 40 78 90 54 14 42 64 60 66 34 28 34 46 82 84 14 92 122 240 255 182 28 64 110 236 142 108 70 118 62 72 96 144 98 16 84 54 24 82 64 34 38 78 60 32 22 82 26 54 38 12 46 40 22 62 50
34 82 124 130 70 52 26 46 78 102 198 162 28 68 106 80 48 46 52 24 12 38 28 98 154 58 52 80 80 36 38 46 56 54 74 52 34 46 46 14 12 88 104 60 80 142 64 44 96 110 94 64 72 52 44 46 44 6 38 82 64 114 196 154 142 132 30 206 254 238
226 182 58 78 146 255 255 255 255 255 182 220 240 206 138 255 160 255 208 176 154 134 48 120 162 116 148 226 188 114 255 255 255 190 98 156 216 214 42 92 68 94 156 255 255 255 255 142 192 226 176 110 170 230 220 188 142 255 255 255 255 102 255 255 255 42 102 255 255 255
80 198 150 132 30 88 214 255 110 255 196 222 174 114 255 240 248 194 174 104 76 238 255 76 236 255 184 248 255 255 255 255 255 255 255 255 246 255 184 202 190 255 118 164 255 255 255 255 132 255 255 255 116 146 64 176 102 255 90 32 104 110 178 234 122 118 202 232 208 128
134 206 166 28 106 170 250 162 108 44 255 164 86 180 255 144 238 255 255 255 255 255 244 76 134 148 218 182 174 80 98 72 94 56 8 52 76 68 42 36 50 48 16 28 56 40 68 82 56 96 144 50 72 6 18 16 36 20 18 34 20 64 12 68 30 24 28 84 126 90
90 76 158 255 174 74 84 122 190 90 116 102 100 72 22 22 56 102 108 98 28 8 30 48 74 70 26 12 34 18 72 30 40 8 42 42 72 104 32 38 46 70 66 30 30 42 24 36 82 92 188 178 28 76 116 72 12 50 60 26 26 8 26 110 86 46 74 24 38 6
28 34 48 40 44 32 60 18 34 14 50 122 88 30 72 90 90 92 122 70 44 98 92 10 16 26 40 2 46 60 36 130 186 24 114 142 156 94 46 118 120 148 108 58 68 98 104 30 158 255 174 64 128 204 222 202 255 228 46 148 174 255 170 242 80 10 94 108 94 208
255 255 255 218 70 255 255 255 152 126 120 92 106 188 206 172 104 92 154 188 252 180 32 152 255 255 255 255 255 248 255 255 106 114 255 255 160 194 255 246 114 180 255 172 80 60 18 255 255 255 12 82 108 152 94 202 142 94 20 104 170 88 218 220 92 218 228 204 110 208
176 150 196 236 86 66 164 108 110 255 255 255 255 255 204 108 110 148 255 255 246 112 166 255 174 255 80 255 255 222 216 90 128 130 146 255 255 208 98 208 255 224 102 150 255 236 82 86 114 54 255 226 64 144 255 255 255 166 66 138 152 255 255 164 130 146 140 88 126 212
220 118 20 54 70 76 86 80 56 48 54 54 24 34 40 60 126 92 76 118 160 24 72 68 28 22 36 48 24 24 42 10 42 42 8 16 38 34 52 80 76 74 200 255 128 56 82 126 72 122 82 76 68 106 46 48 68 34 12 16 34 44 34 106 108 82 48 14 28 18
42 24 6 42 34 34 28 58 24 24 6 78 90 24 60 84 30 70 116 102 178 164 94 106 108 38 38 70 100 66 54 44 144 118 28 68 58 10 24 18 60 72 72 38 38 56 38 34 26 56 158 130 18 68 82 98 84 54 52 16 50 92 92 68 52 26 16 62 86 76
78 138 126 118 100 176 255 198 118 102 92 110 114 170 144 130 255 255 255 255 252 138 188 74 255 255 255 110 92 70 72 148 28 246 182 88 126 246 234 234 255 255 100 132 34 255 210 204 206 254 255 255 255 230 255 226 184 146 255 214 102 44 180 255 255 238 255 132 162 255
255 216 255 255 255 255 192 54 246 255 255 255 174 196 78 124 94 158 255 124 255 190 100 138 170 170 88 78 62 138 204 86 255 174 206 248 192 134 220 255 212 194 152 186 206 102 84 66 90 162 188 198 126 255 255 255 255 196 228 255 255 255 255 236 8 222 174 60 78 255
192 172 255 255 255 158 255 255 255 190 142 66 82 210 204 124 146 184 68 255 255 255 255 255 255 202 70 84 72 164 202 255 255 204 100 86 74 30 146 188 158 224 80 78 40 32 28 38 34 40 46 78 26 68 46 50 118 170 146 84 78 48 24 30 32 24 34 62 14 32
46 52 18 52 68 40 76 56 48 80 76 76 196 255 126 72 110 96 18 98 86 130 80 104 42 24 88 82 92 54 44 58 52 126 92 42 108 82 84 86 68 18 26 30 14 24 32 34 4 24 34 82 80 2 58 88 64 36 118 78 202 148 124 96 72 8 14 84 70 40
80 190 172 72 40 66 34 20 8 48 114 48 20 66 40 22 2 28 46 106 100 38 46 84 122 76 8 28 56 94 70 26 62 66 46 50 46 24 42 42 60 86 112 144 152 156 212 124 42 70 158 210 182 210 122 108 188 110 60 255 255 176 124 144 255 255 104 254 255 198
172 106 244 255 96 100 138 94 180 66 156 150 80 52 106 224 250 255 255 246 180 182 138 202 212 200 152 114 206 82 112 34 206 255 255 182 250 255 255 255 48 180 58 248 255 176 160 162 138 160 255 255 238 255 255 198 42 210 255 255 24 214 124 230 36 152 106 42 188 100
255 196 255 255 255 255 16 242 255 255 222 32 255 44 255 255 196 144 144 136 78 78 132 255 255 255 255 255 255 255 255 255 92 254 52 152 98 98 255 255 102 166 222 150 164 250 154 162 164 80 128 118 112 180 164 255 255 208 188 110 255 255 222 120 182 110 26 110 148 124
255 162 242 255 255 174 86 18 142 255 32 255 156 60 78 86 92 42 32 10 28 62 42 20 26 10 24 66 80 74 58 126 74 68 12 38 22 68 18 28 64 22 58 50 54 40 44 46 24 62 38 112 248 255 86 28 80 146 96 84 72 130 36 56 58 34 72 46 36 46
46 24 36 112 116 98 104 76 58 52 124 40 30 24 16 8 16 22 18 30 10 58 112 66 62 86 46 58 98 58 255 252 134 64 44 58 64 80 32 74 168 164 26 112 120 56 24 26 14 62 52 32 54 46 16 12 32 36 68 54 72 94 78 94 94 22 26 28 26 38
44 58 66 34 30 40 36 42 58 82 54 64 106 98 42 64 176 134 86 158 212 160 46 216 255 108 126 176 255 255 210 122 102 134 150 255 128 255 188 74 186 255 224 98 122 118 120 240 255 255 158 122 190 168 224 255 138 210 212 126 48 178 74 78 30 54 42 106 160 36
128 30 124 132 186 255 255 255 255 144 255 178 124 22 166 170 246 254 166 238 200 255 255 246 130 76 168 184 252 138 222 208 156 210 42 90 255 255 255 196 255 230 255 255 120 246 255 234 208 56 112 238 170 170 255 255 154 255 255 214 168 158 142 64 174 200 138 62 116 255
106 255 82 255 126 100 174 255 218 32 255 255 136 42 58 30 122 255 255 255 200 240 100 134 74 70 182 42 36 186 255 108 255 255 255 196 112 194 232 92 255 226 142 190 186 192 88 36 96 255 186 255 230 14 18 24 62 66 32 50 40 38 64 50 14 24 34 32 96 90
42 48 146 72 22 26 10 40 28 16 34 8 70 62 8 38 4 48 34 102 62 136 255 236 92 88 88 68 82 72 26 46 54 118 74 4 72 78 48 46 22 4 28 158 164 24 96 40 66 42 74 72 32 34 26 28 34 24 20 32 34 40 100 36 22 86 40 86 90 50
236 230 110 72 50 32 66 78 16 118 198 48 74 96 98 42 58 14 28 42 50 36 40 36 22 14 20 46 82 52 62 24 48 90 62 14 38 24 14 20 54 18 26 12 24 20 8 30 50 72 46 32 54 46 64 90 232 255 186 230 224 212 64 150 255 255 226 255 234 62
64 146 80 34 32 255 255 80 255 255 255 158 116 255 255 206 194 122 72 140 156 114 172 80 152 142 42 240 182 182 230 154 162 166 194 228 255 255 82 106 178 255 162 76 60 90 72 68 96 128 180 255 144 74 116 255 255 218 108 178 154 120 255 255 222 184 20 198 228 54
20 48 98 114 222 255 255 255 255 156 116 178 48 255 255 255 255 150 255 182 76 202 28 255 255 255 88 174 198 200 255 255 255 158 112 152 196 255 255 172 206 255 68 222 232 216 220 255 142 255 255 255 250 72 60 226 255 230 26 160 36 136 102 58 32 204 255 255 255 255
178 70 255 132 255 255 255 238 214 216 56 150 192 255 255 216 130 88 48 255 255 150 255 40 64 66 56 56 44 24 34 28 38 56 58 54 26 40 122 32 32 26 90 82 58 10 36 14 62 54 16 22 46 60 28 12 40 26 22 88 60 134 255 210 68 138 94 62 28 66
102 98 118 112 34 40 36 58 28 68 58 24 56 108 142 106 62 30 42 62 92 48 22 34 34 46 30 22 24 34 8 8 52 44 58 58 66 110 40 110 228 198 100 62 46 40 80 60 48 174 128 68 76 36 74 54 52 58 58 24 58 72 36 28 48 40 56 98 112 30
46 48 80 42 14 18 30 58 12 12 36 40 36 20 26 22 14 46 74 16 114 142 162 126 108 48 84 208 255 172 86 112 22 200 150 94 146 90 178 226 214 220 132 36 204 255 255 255 206 126 190 192 34 170 100 66 70 188 255 255 54 64 178 60 34 192 142 218 196 255
114 184 255 255 196 230 255 252 246 252 176 255 232 174 24 92 124 116 148 144 114 58 188 220 146 255 255 255 200 192 146 60 102 192 160 76 122 255 255 114 80 70 72 122 138 118 198 232 255 255 255 255 255 255 176 154 192 140 126 242 254 255 255 255 255 48 255 255 255 255
255 190 255 112 140 106 242 192 255 255 10 254 160 38 255 255 144 202 255 255 138 240 255 136 60 208 66 196 255 255 118 255 255 255 136 164 255 248 255 76 186 250 255 174 156 255 172 38 188 124 114 255 255 255 255 176 120 26 22 180 255 140 216 132 40 10 28 44 68 80
42 28 12 28 34 36 14 36 84 76 34 16 48 64 56 18 10 58 62 90 42 40 34 42 20 8 44 48 74 58 90 110 255 255 72 82 18 46 28 100 152 116 160 132 42 36 66 60 14 38 64 50 42 68 84 104 104 84 88 56 118 22 22 28 56 44 40 36 28 28
20 24 16 82 80 32 36 50 100 122 236 202 100 68 56 32 48 22 118 176 14 94 26 16 42 50 54 60 10 86 88 80 36 8 20 32 66 84 78 34 114 66 56 20 24 8 26 16 56 18 10 22 40 24 54 46 16 34 148 108 152 60 166 120 30 16 40 82 196 186
220 240 228 94 255 202 254 168 254 236 156 210 202 196 255 255 255 255 158 255 255 180 154 255 142 78 52 140 210 200 60 54 234 96 162 168 138 76 222 184 92 240 168 66 62 255 255 192 30 36 210 255 255 176 8 142 178 120 224 248 218 84 158 224 102 62 54 160 172 220
166 80 114 255 255 255 255 174 14 88 14 24 82 142 224 255 255 255 255 144 56 172 190 42 74 158 110 170 255 255 210 255 255 255 255 255 255 236 212 142 108 255 255 255 255 146 255 255 255 255 226 110 188 230 254 255 255 255 255 174 84 94 198 128 166 180 82 120 80 255
255 68 208 48 202 228 100 250 255 255 255 255 255 32 126 180 128 62 136 50 200 250 244 255 210 76 62 42 34 108 255 178 132 240 116 2 36 26 6 30 22 30 6 22 34 56 24 62 60 22 44 46 34 40 78 30 34 62 38 48 72 94 18 56 4 32 32 14 46 42
74 102 242 255 106 116 76 66 136 52 108 92 124 84 28 26 44 44 30 36 74 70 22 70 78 98 108 90 54 76 74 22 32 46 42 78 50 10 16 10 26 14 22 60 88 22 28 24 74 166 240 178 62 70 72 26 24 20 146 96 64 74 26 36 22 22 12 52 34 74
42 54 10 40 50 48 132 54 26 74 92 12 24 46 28 58 38 52 38 2 22 28 20 40 84 56 52 56 152 44 234 148 52 48 42 60 66 132 238 216 112 128 56 130 82 254 228 108 128 146 208 255 22 176 255 66 255 160 255 255 184 110 128 255 255 192 196 150 192 90
68 168 194 134 90 82 72 108 182 116 84 140 255 255 194 142 222 84 78 216 242 52 128 148 42 136 162 226 230 82 224 255 255 255 62 42 158 255 44 255 255 128 148 58 156 238 212 198 255 186 232 255 106 180 172 255 255 255 255 222 150 174 142 106 182 76 138 188 188 255
255 255 160 255 255 255 206 176 232 255 190 120 255 255 255 206 144 116 106 64 218 64 244 255 255 112 144 74 66 126 168 122 240 154 104 90 122 64 255 255 96 255 180 255 255 255 255 255 10 164 122 60 114 112 58 72 196 72 154 124 255 74 130 255 206 80 38 58 84 76
148 216 112 255 246 94 48 24 30 18 30 30 10 16 58 78 18 68 58 10 8 30 34 36 34 36 58 50 60 14 24 88 18 64 6 24 14 22 32 28 40 74 234 240 40 50 52 94 48 134 26 28 74 54 16 8 10 18 22 46 92 38 26 30 56 76 24 70 10 8
10 54 72 86 60 64 10 18 28 20 32 20 34 60 74 26 74 70 44 138 200 144 112 102 46 10 16 28 128 58 70 68 54 66 68 26 52 26 22 64 48 36 16 22 18 106 78 34 64 112 92 28 36 52 14 50 46 8 32 44 18 54 90 88 56 38 14 80 74 80
68 140 54 40 34 56 154 166 124 218 170 136 208 238 178 255 255 255 104 176 255 255 48 94 236 218 255 210 255 88 108 78 100 172 234 66 60 68 54 102 88 20 116 154 56 112 168 204 162 178 164 255 164 76 134 255 255 255 255 182 184 174 236 230 255 255 255 230 68 255
255 250 228 255 68 56 192 84 255 255 255 140 36 140 164 56 92 255 224 118 96 255 194 88 255 255 255 178 146 255 255 176 72 106 126 30 142 255 255 255 255 255 255 202 132 255 255 146 48 140 232 255 208 255 255 255 255 255 204 144 146 52 70 58 255 194 204 112 108 138
96 44 162 255 212 244 255 255 255 62 255 142 255 255 170 255 255 255 200 114 30 102 198 218 255 220 214 236 255 255 255 62 132 254 196 92 44 52 48 44 162 255 122 176 216 126 24 8 22 28 18 18 24 18 24 38 48 30 98 64 42 76 62 76 60 24 94 58 54 24
34 48 34 34 28 10 22 50 20 36 36 70 255 255 56 38 24 102 90 66 80 66 42 36 24 12 12 16 28 56 90 26 34 80 80 98 56 78 20 42 48 68 54 16 42 22 32 12 2 18 38 2 32 56 36 56 104 42 56 150 212 156 168 54 32 48 26 14 128 40
74 42 42 50 88 26 40 12 34 58 32 20 32 52 76 68 88 72 4 60 38 22 58 32 18 32 32 6 38 56 36 76 72 30 38 82 66 150 90 52 92 172 104 90 12 66 102 122 122 192 190 114 92 172 134 236 208 180 228 126 72 18 50 182 255 240 202 86 134 255
255 255 192 255 255 70 56 66 56 32 54 122 112 216 255 198 122 255 200 216 168 208 244 192 134 248 255 255 255 174 70 72 255 255 255 230 255 255 136 228 255 255 255 196 248 246 80 246 170 156 186 186 130 90 94 46 126 255 255 255 176 255 255 24 180 224 255 255 255 255
100 112 134 138 132 110 255 255 255 255 255 255 255 255 255 255 98 144 88 142 218 56 114 170 72 216 144 44 226 255 168 36 152 204 210 255 255 162 102 255 255 255 255 255 255 82 144 198 230 44 255 244 172 255 255 255 255 174 194 255 224 166 255 255 255 255 255 214 128 192
255 92 255 255 214 130 26 56 86 10 120 255 254 112 206 134 58 46 6 12 14 34 20 30 46 26 60 104 108 158 92 58 80 8 66 30 64 112 62 46 10 34 36 16 50 40 24 42 50 36 78 58 255 255 62 44 38 62 38 14 52 90 56 40 20 26 42 46 66 52
88 16 42 44 86 42 114 108 64 64 78 172 230 180 98 72 78 74 48 34 18 16 8 72 40 8 68 30 72 124 250 202 120 20 20 14 24 126 168 28 100 24 22 64 98 32 88 60 76 38 18 26 64 48 80 44 22 70 24 72 58 30 50 54 44 34 28 2 46 36
60 100 126 62 6 136 160 74 84 118 32 74 60 62 76 82 128 144 150 108 130 10 62 18 176 255 54 250 202 30 122 12 84 40 74 90 24 255 255 255 208 255 255 198 226 255 134 124 84 22 48 118 122 26 70 100 234 202 56 184 250 72 134 222 255 255 255 158 150 180
255 255 132 255 255 255 255 164 124 124 255 138 136 248 255 134 172 154 38 186 255 255 255 255 255 255 190 72 146 110 174 255 100 180 255 132 152 152 255 132 156 178 112 148 218 255 255 250 20 198 255 255 255 22 44 255 255 96 255 255 86 56 82 190 192 255 118 4 246 236
86 120 142 102 140 220 238 255 255 214 184 255 255 108 255 255 152 66 184 116 218 255 112 98 40 142 255 198 78 255 255 255 255 255 255 255 90 182 255 255 255 74 255 255 124 112 52 66 80 18 84 150 238 88 255 252 72 86 12 26 8 56 36 2 16 18 52 92 46 76
100 12 96 72 38 26 26 32 44 18 36 18 34 18 28 26 42 42 70 16 100 106 255 240 94 114 108 46 28 16 40 70 50 16 6 10 44 24 30 52 62 34 32 42 94 126 136 114 152 90 98 124 184 162 98 74 60 36 20 16 10 46 62 104 42 6 96 38 80 200
255 170 68 26 28 20 130 184 52 90 66 16 10 80 80 74 54 38 54 14 56 62 68 38 46 66 48 58 46 100 62 50 74 30 2 16 32 28 44 10 74 24 60 40 88 178 118 66 136 100 18 36 120 82 38 58 92 66 126 100 108 146 204 255 255 255 255 255 240 154
174 64 114 90 152 136 208 255 156 164 198 240 72 146 168 216 255 152 192 148 144 30 214 255 255 255 254 142 102 255 174 176 150 174 255 255 255 250 255 102 160 194 232 162 255 255 255 255 210 60 176 228 208 96 212 132 210 255 255 255 255 255 166 138 170 255 255 166 228 152
98 122 112 255 152 120 182 122 100 255 255 255 220 248 255 130 166 255 255 255 255 212 202 232 192 154 255 84 255 255 174 88 228 255 255 255 252 206 178 66 255 255 255 255 255 168 36 148 250 94 82 88 162 255 255 180 84 138 102 230 255 252 232 255 255 255 255 186 138 255
255 88 100 76 144 94 124 148 86 204 255 112 255 220 66 68 34 32 20 46 66 122 208 252 216 255 60 70 26 18 26 30 62 32 30 28 76 100 98 80 84 24 46 66 42 36 36 20 112 58 86 40 34 36 26 18 38 14 34 40 44 60 234 170 68 50 46 90 44 56
88 162 62 30 24 20 14 32 114 162 102 118 74 88 76 102 88 36 4 96 72 76 206 148 54 58 78 58 50 20 28 46 16 94 78 46 84 40 92 160 254 108 54 20 26 54 202 92 104 84 42 30 20 84 38 102 32 38 60 12 76 40 20 42 44 38 72 42 52 76
82 76 88 102 38 28 26 30 64 2 58 50 116 116 124 194 142 206 154 58 82 96 46 34 10 60 54 52 142 255 255 255 255 255 255 255 255 224 255 188 184 255 134 140 182 186 170 230 255 238 240 64 166 54 94 156 255 174 202 122 48 136 72 48 94 200 255 134 88 76
174 244 222 255 255 234 72 148 216 48 210 232 58 154 250 172 254 216 255 255 192 64 94 12 216 255 142 198 192 54 234 255 156 255 255 130 200 186 28 112 255 255 128 200 178 255 255 255 255 255 255 255 148 80 204 255 255 255 255 8 42 218 255 230 210 172 255 255 255 198
100 184 255 254 128 28 116 138 46 88 122 74 96 255 255 255 255 255 255 132 40 46 174 214 186 168 228 255 246 246 218 255 255 126 244 255 255 198 150 255 255 255 255 184 116 70 214 255 255 255 252 50 208 168 60 42 40 70 56 8 68 146 254 255 164 254 104 60 50 10
42 14 30 20 20 8 12 24 26 2 60 42 26 22 70 24 34 80 110 28 60 50 24 28 38 20 6 20 18 36 26 54 255 252 82 58 50 16 84 82 28 150 38 26 42 50 20 8 154 70 58 66 24 8 74 116 32 84 106 148 164 222 158 94 52 50 70 46 8 18
24 14 24 46 88 126 176 114 182 148 248 104 76 22 6 128 142 24 122 62 14 24 12 82 58 104 54 58 50 36 78 44 28 28 58 36 30 42 64 50 50 44 76 80 16 16 24 14 64 26 42 54 64 60 132 196 66 114 132 112 72 54 86 42 14 52 50 30 255 255
255 202 240 170 246 184 172 186 214 255 255 150 158 126 255 208 255 212 200 134 94 112 162 48 68 130 148 186 255 255 255 146 62 140 156 194 164 174 255 178 82 242 172 255 255 255 230 112 106 192 198 130 160 64 156 255 255 255 142 34 184 196 238 220 36 255 122 255 242 255
255 212 242 160 66 136 48 156 202 24 94 204 156 88 248 232 255 255 118 255 200 86 212 102 118 255 255 255 255 74 122 208 255 255 255 255 255 255 160 224 122 206 255 255 255 154 64 180 54 255 128 136 200 240 244 240 80 134 154 142 255 255 255 222 88 154 64 232 238 168
40 255 236 255 255 255 200 144 255 255 254 208 255 255 142 110 194 24 96 255 255 38 172 132 78 40 34 20 50 70 34 92 174 255 138 164 190 82 32 30 18 38 56 32 32 26 48 56 50 46 66 66 22 24 90 54 26 122 24 52 46 42 8 26 42 44 16 26 64 48
38 88 255 142 72 66 32 42 36 90 132 96 46 16 4 30 20 14 114 184 102 80 48 36 90 116 92 154 182 94 90 98 44 28 28 34 40 42 10 96 120 132 26 26 70 126 102 16 158 124 255 84 66 58 64 194 86 84 94 40 22 28 38 16 18 40 58 42 50 54
66 58 24 26 60 20 56 80 44 62 72 28 42 30 12 10 30 30 38 50 50 30 50 122 152 114 120 192 158 86 76 46 40 4 32 60 90 110 208 255 255 255 255 64 76 14 16 178 222 255 255 152 255 255 255 255 255 132 158 212 208 120 70 44 108 8 44 50 112 130
104 30 96 22 255 255 182 18 118 255 216 84 66 240 255 255 236 226 192 226 255 255 168 255 255 132 76 255 255 174 58 252 255 176 56 202 14 208 112 255 248 86 160 144 160 242 232 44 218 142 110 70 255 255 116 255 255 255 62 255 255 186 112 132 94 214 255 138 84 112
118 74 162 96 90 72 212 255 192 150 86 150 106 164 38 24 238 255 255 255 226 255 255 255 255 255 218 154 92 92 226 182 180 255 246 255 172 124 178 202 118 208 255 120 255 255 255 252 242 204 255 255 160 126 255 255 255 30 154 255 255 100 166 78 104 80 36 16 28 66
74 106 74 148 154 78 255 220 48 36 68 50 14 36 28 30 16 22 24 22 16 60 48 36 70 34 46 100 20 44 40 52 20 48 40 22 24 28 26 48 44 132 255 116 84 40 16 34 46 112 72 30 46 36 36 26 14 22 28 48 78 42 76 42 66 136 180 188 174 220
218 198 112 80 72 46 56 86 42 138 26 120 30 46 58 114 186 148 210 190 255 106 36 12 134 200 56 116 40 32 80 78 78 96 66 52 64 16 50 64 50 66 56 56 52 34 62 46 8 52 82 36 32 16 28 24 48 24 32 72 14 20 20 176 204 12 108 80 66 72
36 6 4 14 62 62 72 70 128 208 128 224 255 214 248 182 164 170 106 255 255 180 222 178 142 180 252 255 255 210 152 176 138 255 255 236 148 48 156 174 150 76 40 96 122 255 255 255 255 255 255 100 212 255 224 68 112 98 152 92 82 192 255 255 104 168 255 255 255 174
255 255 156 168 206 255 124 144 116 255 255 208 18 136 188 130 130 104 52 72 86 255 42 140 232 255 255 255 172 255 255 132 86 132 162 186 150 26 74 144 36 106 224 160 82 82 255 255 240 255 174 216 254 228 90 56 230 255 154 255 255 194 150 255 254 255 255 154 118 162
56 248 255 255 255 255 255 255 255 144 134 50 98 156 58 68 178 255 255 255 255 255 255 255 178 140 255 255 255 255 255 42 56 70 90 90 22 16 28 30 22 48 66 124 222 198 136 216 70 96 102 26 38 20 14 48 16 6 16 40 40 66 70 52 56 52 30 92 58 30
78 98 88 14 22 32 46 56 52 74 24 130 255 62 30 52 80 76 64 60 114 34 34 12 14 18 28 40 24 68 92 38 86 42 58 172 144 10 190 200 96 106 106 94 112 104 78 98 38 64 100 102 54 86 72 70 12 62 106 194 255 44 20 56 166 44 130 108 12 36
28 26 24 36 68 76 66 16 90 80 20 28 26 66 38 70 80 56 42 82 90 60 54 28 40 20 34 26 20 78 30 22 120 202 72 152 156 120 102 68 32 22 30 30 80 94 96 108 154 174 116 68 154 186 180 208 255 204 96 160 200 190 80 128 158 196 192 160 246 255
255 252 100 50 138 255 255 255 254 255 246 44 44 142 82 180 255 156 10 136 190 110 202 255 255 255 255 255 255 255 255 255 246 255 255 255 255 255 64 160 255 255 255 255 255 255 255 252 255 255 88 76 122 246 255 190 114 58 42 46 146 255 255 255 255 62 172 160 78 192
255 255 255 255 226 80 210 128 168 255 192 186 198 232 180 252 252 240 92 182 50 86 84 186 216 255 60 255 255 255 255 46 254 188 255 255 255 106 162 255 255 255 255 255 224 46 142 255 255 255 114 96 204 126 162 226 154 168 68 248 255 120 80 128 255 255 246 80 255 255
224 78 72 60 76 124 34 38 16 16 64 84 60 92 210 255 100 172 124 94 150 92 42 84 60 52 32 46 72 82 72 96 100 56 30 52 26 46 62 42 26 76 88 64 32 48 20 12 8 114 56 160 255 102 84 42 26 40 44 12 62 76 18 28 46 32 12 18 44 60
40 42 118 36 28 204 255 146 255 102 56 72 36 70 88 14 58 60 12 6 40 44 58 40 58 72 38 26 40 240 255 34 34 92 140 66 120 42 0 24 30 36 76 66 96 116 90 70 96 48 22 88 116 74 22 84 56 24 26 32 76 120 72 22 30 20 14 14 50 72
66 82 182 108 124 216 142 120 90 42 34 4 12 38 58 94 96 108 186 180 118 122 112 88 82 140 42 84 84 88 70 148 255 255 164 198 212 170 80 158 62 152 255 255 255 255 186 60 108 255 254 146 255 255 210 106 234 246 116 170 255 255 255 255 212 240 250 255 255 255
240 130 248 76 162 220 220 130 20 116 224 255 196 156 194 255 164 72 68 124 222 168 140 130 160 92 94 106 90 54 12 72 10 80 62 78 72 12 112 82 182 130 68 78 56 255 220 64 255 255 254 206 246 255 255 255 164 224 78 238 174 144 194 255 54 255 255 126 255 120
255 255 74 255 226 162 244 255 255 255 138 128 255 172 255 255 230 126 210 255 255 184 50 196 186 158 255 150 142 255 255 68 54 24 82 186 246 255 255 255 140 102 68 68 60 128 40 32 42 42 70 76 58 10 60 126 190 170 244 80 70 82 54 8 18 40 46 12 24 40
16 46 86 66 6 42 72 70 72 66 10 58 78 80 24 34 72 62 68 132 26 130 255 58 40 80 16 44 36 48 100 76 18 34 62 8 14 8 52 88 72 78 124 58 66 124 164 160 170 72 164 180 28 22 92 86 36 44 34 26 50 56 66 32 72 64 28 48 58 255
255 50 18 158 118 92 72 40 14 8 30 30 38 62 114 110 34 56 100 38 32 94 74 54 86 86 26 14 24 18 62 72 22 16 8 28 34 58 54 22 54 150 166 42 148 100 60 54 56 106 42 10 32 58 26 56 110 134 255 255 234 255 210 234 188 255 222 102 66 92
224 236 255 255 246 224 255 100 150 255 255 240 146 238 162 140 106 166 160 196 134 255 255 255 255 255 255 64 122 202 196 94 180 98 12 66 68 52 218 255 255 255 255 178 100 255 255 236 90 56 52 44 100 148 196 255 226 206 218 255 255 202 74 82 38 38 100 20 32 4
78 44 24 96 182 44 88 124 110 84 168 188 180 98 216 255 255 255 255 255 255 255 255 255 250 118 255 62 255 255 240 210 255 255 114 178 255 255 255 232 146 255 255 255 116 64 255 255 36 255 255 100 255 254 255 18 255 255 255 255 126 82 184 255 255 255 255 255 255 255
255 170 100 26 42 62 104 158 255 255 140 190 172 248 132 164 66 26 16 74 64 48 86 78 78 116 238 100 255 146 12 84 80 26 20 24 10 34 38 74 48 76 72 48 24 10 88 96 40 24 36 30 34 72 68 36 30 24 10 56 34 138 255 88 120 68 6 42 50 72
32 36 6 20 56 34 14 6 22 62 64 42 68 36 2 84 18 38 36 144 174 160 92 86 86 92 58 38 30 80 34 54 64 30 90 98 48 28 10 255 255 10 80 186 48 88 42 40 18 26 16 12 58 78 104 52 44 110 96 38 36 82 40 60 74 50 10 10 28 30
50 18 20 26 10 30 10 22 22 8 112 255 120 144 82 154 86 40 12 80 48 10 44 46 76 42 132 94 226 255 156 206 206 236 142 114 116 60 74 72 198 226 218 255 255 166 255 114 148 90 255 255 194 255 152 250 170 220 112 244 255 194 160 255 254 132 126 82 255 124
220 255 255 255 166 156 182 255 246 255 255 255 76 208 194 134 206 182 144 24 46 54 108 255 236 10 90 88 170 255 188 100 138 134 154 134 168 74 86 112 84 124 130 154 16 168 255 255 244 196 132 100 64 146 210 168 88 118 234 240 96 10 140 255 255 66 255 255 122 162
255 255 255 255 146 60 136 216 254 24 160 162 142 204 255 150 188 132 82 224 255 198 124 255 255 212 255 255 178 68 112 202 255 255 255 255 250 255 255 255 255 92 255 255 255 255 160 92 255 255 58 255 170 222 158 132 120 58 46 80 72 32 50 110 168 162 255 192 255 255
26 48 58 36 10 24 34 32 8 46 40 48 26 22 40 30 50 108 74 26 16 20 48 38 40 52 38 60 52 58 18 192 255 44 50 40 44 60 80 86 38 34 42 16 12 22 14 6 8 46 72 68 70 42 54 90 88 142 192 46 196 178 120 52 56 28 50 48 34 44
36 100 84 136 84 56 56 36 52 255 255 12 68 94 30 58 48 38 6 4 12 26 80 110 46 28 66 60 20 30 74 92 22 64 56 8 22 28 30 56 36 14 16 10 14 36 38 18 14 148 255 230 42 136 32 128 112 26 42 56 18 24 72 30 78 30 108 144 220 232
158 50 102 64 118 90 88 98 174 90 160 230 106 232 74 148 255 124 152 212 174 172 132 164 255 255 255 255 255 255 78 166 255 255 242 252 255 230 34 190 88 56 82 172 180 196 128 242 172 156 128 98 162 186 216 255 255 80 180 96 102 46 194 192 94 206 232 255 154 255
244 184 156 100 68 110 255 240 86 20 64 255 204 182 198 144 50 42 144 232 255 66 18 148 144 255 255 182 148 200 255 222 252 150 142 242 210 44 230 255 255 96 146 255 255 255 255 255 250 255 244 255 255 100 236 230 72 134 162 114 255 255 255 255 255 255 128 255 255 240
220 150 255 255 255 255 28 72 255 194 146 178 172 140 255 255 255 216 255 255 42 255 255 86 242 98 98 112 8 52 62 40 50 6 84 118 212 255 154 255 118 28 74 88 26 22 16 10 16 16 18 24 54 56 52 50 36 100 60 54 52 48 84 52 50 40 12 32 60 60
10 200 212 232 150 106 86 50 94 102 84 48 48 38 50 60 28 12 18 22 52 82 82 84 106 138 222 226 255 255 48 52 18 58 14 32 48 58 44 90 90 84 36 70 98 82 60 80 120 255 255 56 68 72 32 42 50 52 38 14 30 72 106 72 30 68 56 46 58 76
84 36 136 106 64 42 22 24 4 26 18 16 44 50 54 68 64 50 34 220 226 38 168 176 174 122 60 94 32 56 16 46 68 24 26 44 140 252 255 255 255 255 255 246 46 255 234 234 48 216 255 214 104 255 168 255 255 255 224 164 110 255 174 110 174 152 198 255 220 194
255 255 255 82 112 110 212 198 64 120 144 234 255 255 194 96 44 78 174 190 188 220 255 255 255 184 216 255 255 255 214 255 255 255 255 72 120 84 50 116 112 80 200 190 24 192 158 150 246 180 106 194 208 190 255 248 222 78 200 158 255 255 86 96 164 188 70 136 102 150
64 114 255 255 255 255 255 178 174 180 255 216 70 134 248 108 130 255 255 255 255 226 248 18 154 255 255 136 120 106 42 110 232 255 255 255 255 255 222 255 255 255 84 255 255 132 255 224 255 255 255 255 28 186 224 255 255 168 255 255 106 108 255 98 248 204 130 90 50 64
60 24 46 12 84 160 158 128 76 238 238 28 28 46 50 44 34 48 6 10 36 48 24 42 64 72 4 92 98 50 24 10 58 76 62 36 36 54 46 110 42 166 128 84 148 90 50 70 112 74 44 18 36 20 40 14 44 10 12 46 66 92 94 122 110 134 162 42 122 212
126 62 56 88 68 32 40 60 40 38 46 44 24 18 24 56 92 48 78 228 255 54 70 88 14 36 22 34 60 38 54 52 52 32 46 56 48 38 76 118 42 60 82 14 6 28 28 30 14 20 34 12 46 22 24 38 48 12 28 168 178 194 76 84 88 16 2 46 28 44
40 98 74 58 36 44 74 224 255 255 255 18 168 255 255 255 164 136 208 255 160 254 255 236 232 255 255 86 78 220 255 80 162 86 72 92 48 84 192 244 208 196 50 96 68 142 255 196 10 80 12 106 70 188 255 255 182 122 144 124 226 182 60 6 56 198 202 164 144 162
196 192 186 214 150 152 64 96 164 180 152 172 190 26 208 230 86 164 255 168 152 122 112 98 134 30 112 70 132 54 206 252 162 70 190 255 255 255 150 212 142 50 80 88 130 114 255 134 46 46 194 160 84 156 192 30 104 136 100 188 255 255 255 102 170 228 255 156 104 94
74 180 140 124 56 255 252 240 255 255 242 255 255 190 255 184 118 186 238 142 154 255 255 172 255 255 210 255 255 255 88 60 255 255 102 210 134 66 26 50 44 6 58 36 56 138 196 120 180 164 254 32 12 24 66 66 34 50 34 52 54 16 14 12 46 70 40 46 120 68
50 22 58 46 50 102 50 50 36 94 4 130 184 136 198 64 36 42 20 90 112 58 50 40 22 64 30 14 22 56 46 92 118 166 160 88 82 38 86 210 162 64 24 56 28 10 44 54 36 4 18 34 54 24 16 50 72 102 124 255 255 36 124 106 62 32 20 6 44 74
44 38 66 28 42 22 26 62 72 66 40 70 58 40 24 12 46 30 12 36 38 12 32 40 28 18 32 32 134 190 24 64 32 130 100 28 22 30 42 30 90 100 86 84 38 26 84 122 202 255 255 194 220 152 255 255 255 126 180 255 140 196 255 255 250 255 198 255 255 255
202 176 228 255 255 194 92 120 196 134 255 255 255 182 192 255 246 68 76 136 218 255 228 212 150 255 255 126 206 255 255 114 74 134 132 255 255 68 36 50 108 224 255 255 94 176 144 220 255 255 126 116 255 255 168 86 28 174 130 28 48 78 38 60 56 114 134 92 90 104
248 250 208 140 255 255 255 255 255 164 34 128 62 106 198 182 255 255 74 182 255 255 164 255 255 255 98 76 158 255 255 255 178 80 255 255 172 122 255 242 255 230 160 198 182 255 255 255 190 255 255 124 255 170 82 120 130 230 255 148 220 76 156 204 110 68 136 255 255 255
132 54 150 252 48 204 126 64 30 50 84 26 38 12 30 84 176 96 146 154 192 78 16 10 62 72 56 22 62 82 30 38 36 14 40 52 26 22 110 88 50 16 64 50 18 78 74 30 44 62 8 130 196 138 138 168 130 88 80 62 72 34 62 30 22 20 18 22 10 50
44 74 86 118 190 130 48 70 118 255 196 86 82 88 70 66 48 44 36 30 48 34 58 36 20 28 44 26 42 255 255 26 212 94 82 28 26 46 52 48 36 82 132 68 70 30 22 58 20 26 30 30 24 20 54 64 62 18 26 24 62 8 22 36 22 22 44 48 208 196
172 98 90 184 134 86 16 40 84 46 50 148 82 66 72 66 180 255 255 255 44 204 70 128 255 255 140 190 255 255 255 218 255 255 255 76 255 255 128 134 108 224 72 116 116 96 54 168 168 255 255 136 234 255 255 128 148 132 164 92 184 218 114 88 24 180 98 124 198 142
146 136 158 82 96 255 255 104 112 80 255 128 70 236 242 186 220 152 232 216 236 192 184 204 172 160 140 252 255 50 48 154 160 236 120 112 170 170 86 92 224 255 255 176 255 255 252 255 255 255 188 166 110 255 255 255 120 255 255 255 255 216 255 255 255 255 152 202 198 255
255 255 255 255 255 250 202 255 255 156 255 255 255 255 162 198 255 255 255 255 34 236 255 255 52 154 152 210 38 255 202 44 190 255 158 62 130 255 255 255 124 44 156 255 136 246 238 112 90 76 90 44 30 18 26 40 158 92 28 68 122 126 54 64 56 30 48 48 44 24
14 20 42 30 48 38 42 18 118 132 68 6 46 70 68 78 82 84 32 24 8 134 106 70 76 114 132 110 34 124 122 80 58 16 12 12 16 8 56 64 68 82 72 148 206 102 20 76 14 204 174 108 72 34 24 86 118 50 8 44 28 42 30 2 14 28 36 18 70 255
255 42 188 26 122 36 38 52 24 24 52 102 70 90 90 48 98 110 46 28 10 18 8 46 74 8 28 58 14 18 46 14 32 16 38 40 66 136 154 132 214 168 180 126 30 58 44 12 26 48 56 102 116 32 58 170 255 255 204 68 130 200 166 44 110 64 162 255 255 54
255 255 222 236 255 255 255 176 102 192 255 255 104 82 162 144 58 82 168 96 255 146 138 210 255 250 144 34 134 255 255 228 46 6 16 158 158 156 48 132 216 255 255 72 104 154 255 255 255 232 144 68 52 116 210 170 214 142 255 246 158 84 46 96 76 64 66 108 252 48
144 246 255 232 255 255 255 136 48 46 134 98 106 136 78 236 255 255 255 96 255 255 255 255 255 255 255 228 255 255 86 92 255 255 220 255 255 255 255 78 255 255 255 255 255 114 216 214 244 255 255 80 164 188 255 255 255 255 255 124 116 255 255 255 255 255 140 198 222 255
180 255 234 18 206 214 116 255 255 255 172 44 94 184 255 255 255 190 94 76 78 40 34 30 20 46 190 196 84 26 126 255 242 50 30 50 84 78 60 42 4 24 38 56 4 30 76 40 96 160 86 22 22 34 94 116 90 94 76 80 68 188 226 168 134 172 106 80 82 84
44 46 20 28 36 42 46 66 68 54 96 108 66 154 210 84 18 82 18 154 128 80 74 48 34 44 136 92 38 22 16 12 24 36 32 8 70 32 78 255 255 52 166 16 104 26 22 16 16 54 106 106 30 104 58 38 92 50 46 56 24 30 34 56 22 38 24 22 46 52
42 16 14 34 28 114 186 218 44 224 142 160 220 74 28 38 28 4 10 48 76 56 72 98 58 246 255 210 98 144 218 216 162 142 6 52 150 255 255 255 156 48 138 36 255 255 168 44 42 120 184 142 254 236 214 255 242 152 232 198 94 154 16 40 74 22 112 196 172 156
48 150 154 170 64 22 156 214 224 184 44 255 255 72 104 226 192 108 172 242 212 255 222 8 120 84 80 110 62 16 68 162 232 200 130 114 138 82 180 90 255 255 152 66 94 200 255 255 255 202 170 255 190 100 134 255 255 255 202 255 255 255 255 172 255 255 186 255 255 230
32 106 255 255 255 186 76 166 252 230 180 114 20 196 255 255 255 255 255 214 255 255 255 255 255 255 134 255 124 98 150 150 246 40 255 164 255 255 110 255 38 102 92 186 48 255 206 124 255 255 214 108 118 184 255 140 255 236 100 110 88 34 12 16 12 6 92 132 76 88
148 160 255 76 66 90 114 68 32 40 36 24 36 50 20 10 74 100 96 178 96 28 30 10 38 80 78 62 36 12 14 255 255 148 34 82 146 120 168 68 30 42 50 30 88 56 70 28 36 78 66 94 112 114 152 68 26 110 44 178 252 74 38 100 78 84 90 76 14 30
54 82 94 108 38 30 50 30 70 255 255 118 190 54 126 54 32 28 50 62 94 64 10 94 58 34 96 50 16 74 60 14 24 44 26 42 8 10 48 50 28 34 28 18 28 136 174 36 222 116 78 134 184 118 62 20 38 18 14 60 46 52 82 110 98 224 255 116 78 178
198 92 60 116 94 210 255 255 184 20 184 56 152 255 255 255 255 222 164 208 255 104 70 248 255 198 222 255 218 214 172 255 226 255 255 255 244 140 248 166 16 116 255 255 255 232 138 74 132 255 254 255 216 34 146 206 255 255 255 238 216 106 212 198 120 112 200 196 182 144
182 248 212 214 140 2 44 38 78 12 124 134 154 118 216 102 98 78 222 255 255 255 255 255 242 255 176 56 42 255 255 255 255 255 255 190 112 174 178 186 110 202 255 255 255 134 146 224 255 255 204 144 26 158 255 255 255 134 80 246 255 255 128 158 200 212 226 184 62 146
228 255 216 214 255 255 172 255 150 220 180 116 146 255 255 255 212 74 255 255 188 28 90 182 255 255 246 255 148 136 108 130 72 28 32 22 42 118 142 136 196 168 144 202 108 42 74 70 56 34 10 32 26 42 4 10 74 108 50 154 94 12 46 40 18 56 88 90 32 10
28 255 234 80 90 112 112 100 174 90 60 34 18 32 64 38 56 26 26 74 110 168 106 40 102 172 152 180 134 255 230 68 66 140 50 78 34 68 18 34 34 26 38 62 60 36 48 40 24 255 255 90 128 88 152 14 36 26 20 98 110 30 32 108 96 76 118 52 50 102
40 20 24 44 56 64 64 34 72 68 50 38 38 6 34 234 250 142 198 82 42 166 114 98 78 76 92 62 58 90 36 44 68 136 182 200 184 124 74 110 172 116 64 162 152 92 228 198 154 90 136 54 160 114 202 255 255 255 255 255 214 20 102 200 255 255 255 255 255 255
255 188 255 255 196 202 255 255 255 130 138 255 255 255 255 122 20 38 162 22 220 184 144 86 90 255 255 238 152 172 140 255 136 28 84 32 96 80 86 48 88 146 158 78 154 196 84 16 40 18 166 166 148 78 136 255 255 255 255 170 242 255 255 255 255 238 255 255 255 255
255 82 64 156 238 228 255 216 212 100 222 255 255 255 255 172 246 160 46 255 255 255 142 32 194 150 6 24 196 255 236 255 128 48 62 162 128 118 204 255 255 60 110 86 208 255 255 188 120 170 190 255 176 152 226 176 24 92 255 255 138 74 46 166 255 255 190 204 156 86
44 96 72 36 38 14 20 80 150 80 64 92 104 150 186 80 78 86 50 40 26 30 20 34 12 16 66 92 46 114 124 22 32 64 8 24 76 102 38 36 56 255 240 70 104 98 154 224 150 84 62 26 14 2 32 30 26 42 10 44 98 160 130 88 216 224 222 168 42 170
112 60 14 60 64 100 48 88 22 26 24 40 82 104 46 52 40 32 30 255 255 152 156 86 108 36 36 16 6 138 148 32 32 82 84 48 38 56 90 46 14 32 70 74 62 32 64 44 70 26 48 38 48 64 156 255 162 134 136 84 78 82 68 10 50 72 88 62 72 96
18 18 32 110 178 255 255 156 122 216 176 86 38 255 238 116 138 230 78 118 255 255 220 224 192 154 242 176 114 52 148 255 255 255 90 124 178 230 226 138 222 146 48 255 255 255 130 34 146 86 255 255 248 255 118 138 124 184 240 255 118 94 82 140 62 232 138 40 80 184
255 58 182 166 164 154 255 246 186 148 142 70 108 252 208 255 255 156 62 34 214 214 136 132 204 230 50 68 166 255 255 255 255 255 54 255 255 255 168 120 124 48 120 255 255 255 244 146 142 168 140 48 212 255 255 255 255 218 255 152 255 255 255 174 32 226 186 174 255 106
174 174 255 108 134 170 204 255 88 242 112 162 98 92 102 180 255 244 196 108 255 236 182 146 88 110 50 54 255 255 230 68 26 56 246 255 150 170 255 202 44 98 70 28 10 12 16 26 120 70 20 78 162 120 134 118 90 88 52 10 36 20 18 44 26 28 32 46 58 96
142 56 18 58 52 66 76 104 28 34 108 255 218 68 116 56 92 76 76 68 38 10 28 28 22 36 12 44 48 74 78 104 134 80 144 72 128 188 90 150 86 46 28 42 48 24 96 86 38 26 44 60 44 26 4 42 56 52 30 255 255 156 162 92 76 2 12 6 52 162
116 58 64 66 100 58 58 84 32 24 38 78 92 70 44 22 40 30 66 32 36 54 96 190 224 130 122 212 176 168 86 48 54 34 24 54 46 36 68 74 36 36 64 114 255 255 255 98 208 186 76 42 150 220 146 120 126 255 255 255 90 124 114 100 255 255 255 186 122 64
158 170 114 210 255 255 255 250 148 255 255 48 168 178 128 98 98 72 98 148 210 255 255 255 255 255 255 255 255 248 200 66 144 154 114 255 255 255 76 168 255 144 126 102 16 88 108 124 44 48 178 232 166 90 208 188 60 118 158 6 178 216 152 118 88 204 255 214 148 192
255 44 82 40 252 240 138 255 255 255 255 255 255 208 100 130 170 174 130 118 168 152 255 255 255 255 186 74 220 255 72 255 255 255 255 255 255 255 255 255 226 90 152 255 255 255 255 255 255 255 194 132 178 182 236 104 102 168 255 208 255 216 234 82 28 44 48 160 255 255
250 108 68 26 136 202 194 222 255 255 54 88 64 64 56 46 62 10 114 152 76 58 50 72 100 178 134 110 54 20 28 18 34 66 32 32 28 22 66 102 122 10 32 32 72 68 66 96 30 52 116 230 176 60 140 52 34 50 98 74 32 28 6 32 40 40 40 16 36 32
60 114 106 80 186 144 88 110 70 108 148 76 56 44 64 116 68 56 22 48 20 36 46 48 36 34 44 62 30 255 255 164 154 122 84 6 12 42 70 124 78 100 98 86 96 26 46 22 26 62 58 72 40 4 4 4 28 30 68 76 20 78 120 222 140 58 48 96 250 142
20 40 42 6 30 30 20 36 46 42 42 26 36 224 255 255 134 6 160 50 50 152 228 90 255 255 255 136 192 76 32 202 210 56 84 84 132 255 255 255 255 255 240 174 188 208 126 170 52 158 210 92 82 72 58 84 112 90 32 110 156 46 255 174 78 50 222 255 255 255
255 90 176 186 255 220 94 255 255 255 172 36 84 74 84 128 68 132 114 80 146 190 140 255 252 255 216 204 190 38 48 152 52 44 18 94 162 255 255 164 255 104 74 56 255 134 255 255 240 156 130 255 255 254 146 64 104 30 70 210 255 64 60 54 44 92 102 164 255 255
138 255 242 255 255 255 255 234 132 214 255 118 80 168 32 255 192 255 255 188 140 148 180 132 255 226 208 128 188 190 206 52 90 34 18 56 102 110 255 255 255 144 86 52 114 202 255 255 255 255 122 86 12 26 44 32 44 64 56 200 132 78 10 118 32 132 184 144 98 52
54 44 30 52 52 22 14 22 70 84 166 70 44 24 64 50 24 60 16 32 138 242 152 50 92 30 22 42 98 72 18 40 54 62 44 14 12 68 46 42 76 124 166 66 46 66 114 198 222 244 255 104 82 38 88 78 14 24 8 42 20 44 58 24 8 30 56 50 20 255
255 154 170 126 94 30 32 46 64 106 42 76 68 104 142 90 72 8 36 68 56 58 26 12 24 26 26 14 36 86 60 78 174 234 46 140 122 126 200 152 24 30 34 70 54 50 60 98 52 28 52 76 98 255 196 210 238 130 214 154 146 248 255 238 132 46 100 60 184 224
200 134 130 250 178 255 202 255 255 202 255 150 54 92 100 255 188 230 76 128 220 124 176 34 62 66 150 120 84 78 114 162 198 110 132 104 218 82 206 218 58 224 204 100 94 242 162 86 74 56 28 80 114 140 112 80 168 255 132 90 58 172 216 212 96 134 220 156 62 44
4 124 186 156 16 60 110 226 255 255 255 98 82 230 168 182 255 255 124 166 255 255 68 178 164 46 72 62 124 130 160 96 148 214 255 255 255 128 174 220 255 194 68 12 130 112 172 116 138 118 255 255 255 255 255 255 255 255 255 255 240 255 255 255 190 102 58 120 255 255
255 58 70 40 92 134 88 42 255 255 255 84 58 60 90 152 255 255 162 255 255 120 104 86 90 70 92 36 16 136 200 116 90 140 230 102 130 174 140 94 20 16 8 16 48 44 24 36 98 24 118 142 64 10 50 74 34 92 52 42 160 255 142 88 58 70 88 98 104 54
6 14 34 50 38 30 26 38 30 44 74 124 154 60 16 102 150 160 92 148 174 78 64 76 88 40 14 34 20 74 96 120 94 18 18 28 28 6 40 255 255 148 118 112 80 32 6 78 86 72 16 42 78 142 94 94 74 18 48 66 24 16 28 40 70 62 60 56 66 106
94 252 255 88 134 102 32 90 234 146 26 46 116 78 68 38 44 58 36 66 86 76 140 255 170 136 220 206 150 34 170 152 106 80 255 255 255 255 255 242 52 255 255 255 255 255 184 255 255 255 255 182 142 80 104 248 122 240 208 220 190 60 206 172 154 96 184 38 156 110
126 174 200 118 30 36 120 254 172 150 170 70 255 255 255 246 124 18 54 82 138 206 116 150 224 196 134 20 188 102 46 200 255 220 176 132 130 194 186 44 250 255 236 100 40 48 126 80 130 144 206 84 214 152 112 252 142 170 252 136 224 255 255 224 100 64 54 156 122 76
92 156 112 108 168 162 134 255 234 255 100 180 186 228 255 255 255 255 212 44 186 86 255 255 198 136 30 238 230 164 100 108 188 216 226 66 64 230 255 154 255 114 124 90 114 120 108 78 255 255 255 52 28 16 74 92 198 255 144 248 255 82 40 12 64 152 48 24 24 40
46 54 22 56 82 106 56 100 100 114 58 68 64 26 50 82 54 26 64 66 76 124 64 4 22 74 36 56 54 40 142 255 182 102 52 60 38 26 10 24 14 14 44 18 52 30 26 22 36 38 74 196 208 76 64 78 64 90 54 242 172 132 146 84 32 60 20 20 12 88
58 94 90 6 14 6 28 0 46 255 255 118 74 72 52 36 30 96 72 38 38 86 166 176 18 124 70 40 54 70 32 22 22 34 32 24 12 26 52 112 132 232 110 184 142 62 18 126 138 62 6 64 46 12 50 52 4 54 84 36 102 142 234 252 122 194 230 94 72 166
240 194 196 76 26 140 255 255 255 250 242 222 124 98 62 58 190 150 92 50 142 160 66 34 172 230 98 164 88 104 255 255 134 14 96 160 186 90 146 174 248 255 255 232 90 116 118 218 124 102 252 150 64 128 100 86 78 24 28 88 144 242 216 244 154 186 255 255 254 212
176 255 144 80 156 234 204 66 255 230 142 200 238 172 86 118 246 238 255 184 255 192 166 74 222 255 255 255 255 255 32 164 64 255 255 255 255 156 72 60 94 56 100 92 226 255 234 112 186 168 212 134 216 255 255 254 124 82 170 255 200 255 162 255 186 136 90 146 194 196
218 226 166 166 154 90 118 148 232 255 224 150 204 98 22 90 40 56 252 255 255 54 48 52 46 68 110 255 255 142 255 96 58 52 118 82 62 8 30 30 38 70 16 46 46 14 64 62 82 124 112 2 50 28 62 78 62 38 20 42 38 132 124 84 20 54 72 66 42 56
76 255 206 112 60 52 100 40 22 20 16 16 44 18 56 16 16 24 20 20 86 222 228 136 6 72 144 136 142 204 56 80 106 8 24 42 36 24 30 62 92 148 82 18 16 18 24 10 48 255 255 90 52 90 16 8 46 62 64 30 82 138 216 110 102 98 60 28 36 90
72 32 18 36 14 34 38 34 60 136 255 160 58 68 98 64 132 122 84 34 48 104 88 52 18 42 40 16 36 66 192 208 176 150 114 192 184 94 158 238 186 156 252 6 140 255 220 114 176 166 255 255 255 255 255 255 255 184 64 108 128 152 134 72 236 250 255 170 234 255
212 255 255 255 254 142 204 255 255 122 200 255 255 214 54 118 194 42 126 104 124 242 255 142 88 52 94 168 108 56 46 42 60 104 152 130 202 220 100 84 108 74 130 174 140 56 168 56 122 114 48 106 86 184 232 146 32 68 16 42 100 180 130 150 156 80 98 94 138 204
236 206 255 224 136 74 255 255 255 198 168 94 255 104 54 58 126 16 90 82 255 255 255 74 248 255 255 242 116 255 255 184 255 255 255 255 255 132 52 70 40 102 88 48 240 120 148 240 192 130 50 42 138 142 10 30 82 58 118 255 255 64 44 44 28 78 30 174 255 140
210 76 44 78 74 66 102 104 32 22 20 82 56 36 8 42 28 26 84 124 120 96 36 12 32 30 88 40 18 70 76 146 120 126 124 28 124 94 54 80 124 255 232 100 124 52 140 70 18 28 12 20 38 32 32 8 40 16 58 86 154 188 124 68 38 112 166 80 86 194
114 104 78 50 10 50 24 10 0 18 50 62 42 28 36 24 28 16 30 255 255 112 42 86 50 56 92 76 50 44 72 102 124 42 150 56 22 14 60 94 24 66 84 66 46 42 14 28 80 230 255 82 116 82 44 114 122 34 52 66 36 34 60 50 48 18 34 32 64 94
190 142 70 102 138 214 156 34 120 255 226 144 166 64 158 56 196 198 180 152 62 28 166 212 112 112 132 64 176 108 192 50 108 126 98 88 166 52 130 194 255 255 232 158 112 56 216 116 150 140 250 188 60 150 94 86 146 100 106 162 255 255 180 142 176 92 108 90 132 160
204 216 192 184 122 74 64 160 182 116 148 88 152 92 10 122 142 82 16 8 4 26 116 192 168 54 64 138 88 170 242 232 178 80 176 114 42 92 28 158 230 126 84 136 255 255 246 160 78 98 180 255 255 100 44 64 94 34 166 255 255 204 255 255 146 156 255 212 34 144
82 136 218 232 220 4 255 232 100 118 168 154 12 116 176 68 80 16 88 90 68 86 188 116 16 48 124 52 44 255 255 64 46 18 76 74 22 46 255 164 190 176 44 62 36 54 86 130 54 2 4 38 84 62 30 22 16 60 104 124 46 76 90 56 74 20 118 108 28 88
92 108 140 96 108 44 100 54 34 72 132 255 212 84 78 80 82 22 6 10 18 22 10 16 20 18 26 74 48 42 118 110 156 178 82 56 76 64 108 206 102 52 86 46 22 36 24 34 44 38 38 12 36 14 20 8 16 16 36 255 255 96 56 96 38 16 36 50 52 36
56 98 134 104 122 22 16 40 86 58 50 112 92 42 48 62 50 70 120 216 170 246 158 134 116 200 158 62 36 36 92 104 86 70 70 40 56 18 46 136 196 108 58 50 138 252 134 28 86 255 186 60 166 130 140 168 76 180 236 214 110 255 158 112 48 34 160 88 236 255
196 62 128 222 204 80 116 255 114 88 180 154 104 126 112 156 255 255 255 255 255 70 156 130 104 58 162 88 20 94 192 130 46 126 184 72 136 156 92 108 84 102 94 146 172 220 164 128 126 60 52 88 54 46 86 142 122 120 32 12 255 255 255 230 126 94 66 10 134 192
50 34 92 218 108 118 206 210 255 234 255 62 34 16 64 38 198 226 128 154 218 255 255 255 112 54 54 36 172 244 156 255 184 180 255 255 255 246 120 255 255 255 246 128 164 255 255 255 108 52 118 255 255 255 255 255 142 116 74 126 154 178 255 242 212 112 52 32 60 255
255 166 92 92 70 30 104 62 210 255 104 255 134 36 32 50 50 72 44 42 40 70 108 132 142 96 58 74 100 144 34 70 62 24 82 120 40 96 126 118 62 118 152 74 72 10 74 52 58 48 148 255 192 26 38 40 58 38 4 16 28 18 12 4 0 28 26 78 76 72
132 50 72 126 102 14 104 180 216 140 92 84 108 86 58 44 28 38 36 18 18 32 36 30 12 2 12 18 114 255 248 86 60 82 50 36 44 54 48 10 120 148 62 64 68 16 30 46 52 32 116 78 18 114 86 44 12 100 224 156 82 120 52 64 76 146 70 12 18 38
24 44 44 30 32 34 68 6 86 178 192 64 106 110 166 255 102 42 148 152 248 198 182 192 154 118 164 170 182 255 246 198 104 255 255 255 140 182 140 136 206 230 204 162 130 220 214 255 255 248 255 255 255 255 255 246 70 96 150 194 174 140 154 250 164 214 60 144 172 134
88 255 244 172 255 255 148 116 48 10 72 64 12 122 176 132 40 58 102 96 130 88 48 148 170 72 100 255 204 144 255 255 242 154 136 102 12 166 255 134 80 96 104 224 74 84 38 26 90 36 255 255 255 255 255 255 255 255 12 248 255 236 255 174 42 178 130 244 255 70
255 255 255 148 158 255 162 142 255 255 60 148 112 144 255 255 92 6 52 76 176 178 120 78 188 72 255 255 255 246 38 74 56 130 206 194 68 72 68 255 255 255 144 102 10 42 116 62 118 255 144 255 206 92 64 28 40 38 62 56 68 66 82 72 108 90 122 62 50 126
116 86 38 74 74 132 122 24 118 156 88 88 164 130 68 16 78 92 54 34 106 255 230 64 76 38 78 56 16 14 20 20 24 24 4 32 10 38 22 78 120 60 96 248 220 156 142 56 20 124 174 166 166 136 98 50 70 52 14 16 50 28 34 14 10 8 62 44 140 255
162 84 30 66 32 32 68 100 108 74 162 106 50 80 54 20 14 34 42 88 114 46 114 88 20 48 92 184 255 32 128 76 146 84 138 82 12 16 28 64 44 38 34 36 48 46 48 18 98 198 170 94 54 140 194 255 94 62 98 96 194 255 190 48 42 138 255 226 186 254
134 164 255 255 116 255 255 255 255 206 212 106 112 78 42 202 250 104 116 76 192 26 170 178 202 255 255 156 100 52 66 108 80 114 222 146 120 136 48 160 176 90 236 132 236 64 104 26 124 158 122 34 46 56 90 124 82 60 56 16 54 14 50 46 44 102 72 56 116 36
6 38 255 138 80 72 30 132 240 176 182 200 52 170 184 224 214 172 44 126 104 96 190 194 218 64 255 228 132 200 54 110 46 222 255 255 255 255 255 242 232 42 138 255 255 118 68 150 254 74 88 234 255 255 255 255 190 152 148 154 110 148 206 255 255 255 255 250 216 255
92 120 152 30 198 255 138 66 140 255 255 255 108 92 36 36 58 22 50 255 255 194 255 122 102 44 14 28 54 64 60 16 36 44 114 146 24 44 16 142 156 62 72 106 62 44 134 112 106 112 96 46 160 144 80 48 42 80 94 84 112 255 255 34 58 72 78 36 26 2
18 16 20 12 16 32 30 36 28 54 92 4 114 255 186 66 76 122 214 224 230 255 255 255 164 60 68 74 46 16 46 30 26 18 22 14 52 60 176 255 66 96 42 62 40 24 36 94 66 146 172 30 72 94 50 14 8 46 18 64 56 126 110 10 50 116 144 204 232 104
102 112 74 222 180 72 56 30 14 44 26 24 48 50 56 6 10 34 106 190 100 168 38 168 242 255 168 84 22 140 6 128 230 182 90 136 202 68 164 240 158 255 255 118 255 255 164 72 254 228 200 86 236 198 58 50 162 154 200 92 124 136 68 114 194 192 30 148 76 20
34 32 24 30 90 74 32 124 168 216 202 32 132 72 246 210 98 130 148 40 144 90 124 70 20 108 166 144 132 42 42 18 54 148 128 60 114 166 98 18 96 110 154 122 124 126 160 164 82 72 74 118 154 56 82 136 152 194 140 52 160 255 188 88 76 234 255 180 255 255
255 255 255 230 180 204 238 255 255 250 255 232 148 114 176 114 34 226 180 36 108 156 206 170 248 236 130 222 150 124 214 204 214 255 255 255 100 255 255 216 46 32 102 80 78 218 160 38 132 254 255 255 236 64 118 76 34 22 46 226 255 128 255 204 108 82 34 26 42 70
34 26 28 24 106 154 80 78 90 96 204 88 46 40 70 22 100 112 82 70 76 52 114 212 124 50 34 40 96 132 156 255 255 134 84 28 10 18 30 20 24 18 22 2 18 28 26 44 6 78 132 126 200 248 114 68 78 98 218 114 34 112 228 255 220 84 90 70 24 18
32 48 32 32 22 14 40 86 255 255 70 48 56 46 44 36 92 94 14 184 160 40 86 72 36 22 14 62 48 36 50 122 70 26 102 180 206 182 102 118 82 58 160 218 114 42 44 50 18 70 64 50 22 22 34 16 64 96 158 140 128 174 64 255 255 214 112 120 14 156
28 28 160 255 214 80 180 208 255 255 220 200 124 242 94 74 156 200 86 178 255 255 255 122 124 76 112 230 60 88 36 88 42 208 255 255 255 132 68 98 60 26 70 82 102 42 24 70 158 160 120 46 202 176 102 118 142 242 234 146 60 20 102 98 44 76 102 32 152 110
96 142 146 62 50 118 66 116 48 22 18 56 158 142 66 54 102 100 132 156 218 240 232 124 44 134 220 236 38 124 198 58 130 122 26 184 255 255 255 144 88 42 146 180 186 136 182 255 238 86 108 198 255 255 255 24 146 148 226 255 255 216 174 104 88 192 255 240 132 88
136 255 255 40 255 255 255 255 82 100 52 46 92 152 196 255 136 46 150 240 255 255 255 90 150 168 44 30 94 255 255 116 240 255 140 92 38 16 54 90 36 58 52 48 90 92 18 20 92 16 168 84 20 12 78 46 60 80 20 60 48 88 52 200 202 46 16 58 14 88
118 208 226 86 90 86 26 32 28 26 32 30 26 2 12 16 10 36 64 100 66 120 158 162 158 14 100 96 122 58 12 118 146 190 174 64 56 104 46 10 46 18 2 24 16 12 24 24 255 255 124 32 98 42 12 10 88 94 36 138 162 76 92 40 30 22 14 38 78 26
36 72 30 78 140 190 156 48 34 92 60 86 146 36 66 84 62 8 76 88 90 56 38 38 50 26 102 98 198 132 186 28 122 255 255 66 78 84 70 176 56 16 74 180 255 168 254 255 238 176 4 96 94 112 34 74 86 200 255 255 255 255 255 120 242 226 36 124 166 52
32 108 108 255 255 146 98 206 56 112 100 186 170 72 78 74 10 40 110 34 88 90 158 146 84 4 104 170 144 88 6 160 236 240 130 76 204 255 54 186 152 138 144 148 54 160 76 126 76 50 24 66 26 86 88 40 52 198 176 170 96 56 72 36 102 116 100 208 124 16
78 96 168 166 110 26 72 52 106 118 156 242 255 255 255 255 252 202 50 130 255 255 255 108 255 255 210 118 54 150 60 8 112 255 255 255 114 178 255 44 206 255 255 255 255 204 124 255 255 255 255 146 112 60 66 146 146 118 122 248 255 255 255 70 142 134 52 112 122 255
255 255 88 248 198 82 38 38 78 132 52 76 26 80 84 100 28 78 136 72 102 88 46 14 50 66 28 70 20 52 52 62 62 78 248 134 22 28 70 112 110 190 222 114 84 46 14 16 4 22 20 30 26 26 20 12 28 14 86 80 26 176 220 196 210 168 54 214 74 28
34 104 116 136 182 122 114 104 20 52 54 14 20 36 46 48 56 40 255 255 118 24 102 14 4 22 68 76 24 132 148 58 60 38 28 74 68 78 42 52 46 70 16 120 164 214 126 50 28 102 108 98 78 26 46 14 36 34 32 120 82 28 36 46 48 30 98 84 186 44
222 62 152 255 255 70 124 130 78 78 60 28 56 255 255 94 58 34 112 80 224 160 102 84 26 82 148 94 54 238 255 196 255 255 108 204 226 184 76 204 226 164 74 140 255 255 180 26 168 120 92 72 152 255 80 58 82 70 220 130 255 210 166 144 82 84 186 200 134 90
98 140 146 162 98 126 68 188 178 142 196 72 78 178 124 200 142 196 136 112 4 62 70 94 150 146 146 162 102 140 114 68 46 58 98 96 98 120 176 222 255 255 255 255 186 146 200 255 255 255 96 154 208 114 68 102 56 32 10 44 134 255 255 255 255 186 154 188 212 178
28 60 164 255 192 234 166 38 182 62 220 44 178 255 108 210 180 220 152 138 254 174 130 126 90 104 74 34 30 160 158 255 255 166 166 146 52 58 120 218 255 130 104 168 252 76 32 22 44 132 66 62 94 2 66 88 84 32 54 62 38 80 54 56 82 116 58 58 6 34
54 66 94 42 210 248 30 64 58 60 80 174 255 182 40 8 16 38 26 30 28 42 8 48 48 38 50 32 44 98 106 154 64 114 148 26 214 214 128 208 210 60 94 178 232 134 44 58 80 24 74 28 14 24 42 34 42 126 255 255 134 32 82 38 34 58 102 106 32 168
114 42 32 38 80 120 52 70 18 48 68 50 16 154 196 192 46 74 92 192 140 124 104 58 92 72 92 32 66 90 70 72 54 22 52 66 64 62 208 78 206 100 230 255 250 38 94 76 40 86 38 126 128 222 208 210 132 22 58 26 118 104 140 122 130 188 164 100 28 110
255 255 86 255 255 154 255 255 108 90 112 224 102 42 52 162 255 208 255 255 162 152 68 162 200 184 76 76 118 150 192 64 74 62 122 200 148 134 38 64 36 32 42 32 80 56 84 64 242 94 146 160 118 60 70 110 90 76 32 26 62 64 44 72 78 144 220 255 240 238
140 54 104 110 124 132 134 182 216 182 184 72 64 138 134 84 26 192 255 190 150 188 255 255 255 255 255 186 206 192 78 130 112 100 60 255 254 192 208 190 86 60 150 255 255 255 164 186 124 204 255 255 255 255 255 255 182 255 255 255 208 164 138 150 172 120 28 60 66 122
255 255 255 255 248 126 94 102 90 80 232 202 166 128 255 212 90 46 26 106 106 56 98 126 104 66 22 160 144 110 48 86 120 56 58 98 68 62 54 64 40 24 80 124 90 252 148 26 64 124 100 134 255 255 168 6 14 46 10 22 12 22 40 28 20 12 28 18 22 78
140 130 92 162 186 124 66 138 218 170 202 196 90 204 244 86 78 72 116 86 102 14 24 16 28 52 26 255 255 106 150 32 92 92 70 94 122 76 98 202 22 76 36 88 152 52 96 68 14 80 104 20 130 248 234 114 40 132 112 120 132 148 102 52 58 4 30 110 102 64
8 22 28 78 64 22 156 255 230 100 148 188 255 255 112 10 76 102 138 92 140 74 52 194 250 248 255 202 82 152 240 130 50 60 100 18 122 220 206 136 44 168 255 226 100 226 255 255 255 255 250 216 102 224 255 255 188 236 255 200 230 102 146 255 184 120 18 90 32 46
74 98 152 48 108 204 168 14 104 92 66 112 122 98 116 72 22 70 36 112 114 32 46 98 36 46 66 24 40 2 78 80 104 124 82 74 112 132 68 40 72 80 54 156 142 110 218 58 82 174 255 255 255 255 200 118 136 198 255 210 92 36 40 62 38 66 144 255 255 255
196 255 224 66 238 255 240 255 255 200 46 68 146 102 78 64 212 255 196 224 255 206 255 255 160 255 104 142 62 146 114 198 214 208 150 36 82 56 166 255 255 174 158 255 255 184 136 158 166 80 238 255 255 156 210 255 110 38 48 108 120 60 8 66 126 76 102 136 20 64
38 114 98 26 20 28 32 22 36 84 52 38 64 116 56 134 156 92 36 76 112 112 178 246 226 92 40 54 28 16 38 16 62 6 48 42 42 8 18 74 184 222 120 134 146 60 100 158 160 130 88 182 172 228 132 148 162 82 146 150 198 40 50 28 20 14 146 255 255 56
72 120 130 96 72 98 72 4 162 138 66 64 36 108 126 64 122 46 64 90 60 106 206 234 140 30 32 112 72 84 92 58 42 50 72 24 96 142 70 22 20 18 18 16 56 108 220 232 92 122 68 254 255 255 132 122 186 144 144 162 210 92 214 122 168 180 255 255 255 255
44 118 88 138 90 106 244 255 196 255 214 118 38 166 172 216 255 255 255 98 142 108 128 172 158 255 144 106 255 255 242 200 212 168 168 188 158 100 116 102 36 32 128 126 254 255 255 150 118 148 226 106 70 134 116 54 52 40 74 32 104 128 140 102 90 72 54 58 42 20
154 160 156 170 232 208 112 96 78 80 64 54 128 146 244 246 126 60 16 48 98 46 30 58 108 152 140 86 76 148 66 28 72 96 120 50 122 170 148 255 255 180 80 108 255 255 106 90 30 76 88 26 82 56 124 255 255 172 136 40 255 224 232 255 106 126 120 92 76 82
50 84 126 48 22 48 16 110 250 132 126 36 28 255 255 132 24 48 182 200 94 220 255 255 84 192 186 50 38 100 118 80 72 20 88 152 166 168 84 20 110 154 112 48 24 20 24 12 4 88 98 96 34 38 60 94 206 94 42 62 90 84 158 222 160 68 64 58 12 40
76 68 146 86 74 26 8 14 14 102 112 78 148 238 255 255 204 48 36 40 52 10 124 230 130 82 134 92 156 94 182 48 32 48 12 26 180 255 218 118 86 112 44 66 62 56 18 26 196 134 118 38 32 82 68 120 68 10 70 102 40 148 210 126 40 56 52 108 44 78
72 64 58 40 76 58 86 92 54 72 54 26 20 4 28 196 220 130 252 148 18 255 255 190 88 78 108 74 180 144 132 72 162 88 44 112 52 148 255 255 162 92 114 60 164 116 204 132 34 100 76 154 230 176 152 60 255 228 255 168 148 176 108 122 84 84 96 122 220 210
202 160 104 242 242 194 100 138 108 70 78 34 184 138 255 224 132 30 92 170 90 138 238 198 112 78 62 66 38 56 34 14 66 104 94 46 56 84 104 82 50 32 96 76 118 152 154 146 120 34 110 56 156 170 16 226 168 40 106 112 14 140 144 108 36 40 28 44 34 146
192 160 182 212 186 208 174 100 190 194 242 252 200 255 255 104 116 100 222 255 168 128 116 126 48 144 50 74 134 186 192 172 52 255 255 255 255 102 44 50 70 126 252 138 54 14 38 74 164 255 255 168 158 204 255 162 74 84 122 222 160 178 255 180 152 220 242 74 36 110
102 16 74 80 14 86 156 154 152 162 176 244 136 64 24 42 44 40 42 20 36 78 50 20 90 64 216 162 24 58 68 72 126 250 184 48 66 52 6 46 28 24 132 100 116 36 38 42 32 108 42 54 30 60 128 110 104 102 142 94 130 46 134 126 64 76 146 114 164 158
120 112 56 86 36 64 255 255 158 116 98 64 40 74 90 24 34 120 255 88 108 52 90 78 24 102 52 18 98 106 18 220 255 190 134 32 54 120 106 140 112 80 70 48 96 102 66 50 54 28 16 26 12 24 110 255 254 176 168 140 110 255 255 255 210 144 136 196 144 118
170 255 60 230 90 176 236 184 170 255 238 255 246 192 220 152 242 94 144 144 40 154 242 162 106 74 74 174 54 128 174 124 136 188 108 162 152 242 154 255 255 76 188 168 68 62 228 174 132 170 164 24 144 50 184 228 124 64 58 92 100 232 224 154 78 28 54 58 30 56
68 52 108 22 18 54 112 90 78 28 66 84 126 130 30 44 78 90 118 76 52 106 148 172 128 100 224 174 108 28 84 130 154 226 154 154 104 68 24 14 64 98 36 72 68 70 80 42 126 160 242 255 255 210 26 224 224 180 248 162 110 110 54 112 148 255 255 82 212 200
118 104 192 114 164 116 255 214 68 70 152 118 182 42 96 128 108 144 124 52 248 255 255 96 255 255 178 46 84 194 128 112 255 255 186 154 255 134 76 132 94 44 32 38 46 76 62 78 174 255 46 212 156 60 22 56 56 28 42 54 22 102 64 42 48 76 150 250 60 58
46 54 84 248 255 176 152 58 16 56 10 12 128 118 160 24 24 20 52 102 80 68 118 220 255 184 82 38 32 46 118 34 134 126 84 56 84 54 30 60 50 106 30 86 40 46 255 255 86 64 106 56 28 98 86 26 42 148 216 26 126 42 74 44 50 74 18 90 122 24
146 255 255 124 140 134 138 132 130 154 122 52 18 98 140 110 30 26 46 38 44 28 30 88 254 255 118 255 50 194 255 255 194 70 90 114 44 94 212 162 118 204 134 140 38 208 174 255 128 38 52 118 206 168 210 182 186 78 172 98 150 158 244 255 232 216 84 122 24 110
156 98 110 255 150 78 54 74 200 246 170 182 56 146 148 255 255 236 255 22 210 92 136 122 124 80 116 36 62 124 152 192 104 216 204 154 118 66 36 84 80 16 100 94 90 76 84 10 80 78 50 60 78 26 40 34 66 168 166 104 28 28 106 140 82 128 248 216 206 74
18 56 178 174 128 180 150 82 58 34 104 118 68 50 98 176 255 255 255 255 255 250 255 208 92 112 108 84 152 208 212 170 208 180 20 182 255 92 222 255 14 124 120 244 255 255 255 186 26 42 148 104 28 32 10 68 30 58 178 106 74 255 255 255 120 255 255 82 118 220
200 94 130 255 255 114 255 255 72 112 110 24 54 52 60 34 28 80 38 234 214 150 202 126 98 32 114 104 52 60 48 134 156 90 64 64 82 250 170 28 66 40 54 188 224 118 134 132 78 62 54 76 22 118 110 28 42 30 48 88 96 196 236 114 118 166 144 26 20 62
134 96 122 132 98 90 122 64 24 16 34 96 112 94 16 208 255 255 70 36 56 36 38 114 80 22 110 255 214 104 106 28 66 60 38 98 78 114 70 82 220 255 194 162 255 172 144 122 138 130 54 52 82 90 114 46 30 50 28 36 34 12 46 232 255 66 255 176 82 255
255 255 255 255 254 140 152 128 36 94 68 40 86 50 68 174 110 86 92 122 124 114 98 48 54 102 46 66 36 42 14 255 255 255 96 24 255 164 134 106 88 72 104 132 200 48 142 255 255 236 156 20 206 255 198 242 216 255 255 138 238 174 158 104 122 40 126 46 66 154
100 224 108 128 140 86 62 20 52 26 128 60 106 210 24 66 98 30 102 14 124 234 220 156 74 72 88 102 76 58 74 40 122 212 120 54 122 196 92 154 110 82 64 102 120 112 116 112 86 68 52 112 144 212 255 255 255 255 255 255 255 204 150 92 90 118 122 102 74 42
24 30 62 74 152 112 58 68 22 196 226 110 90 120 114 150 86 50 188 204 98 120 68 56 94 142 76 100 80 104 38 255 255 98 255 116 255 138 92 80 98 120 46 198 255 255 168 255 126 96 106 86 38 20 62 80 90 98 66 126 255 196 232 148 164 68 68 60 68 22
82 70 80 84 76 70 18 118 170 28 102 70 54 148 236 162 136 108 78 14 56 54 54 42 60 48 30 16 22 104 66 74 78 106 112 64 42 58 72 130 176 186 170 178 194 106 90 68 28 24 4 54 38 34 122 255 255 238 44 78 38 4 70 144 66 34 252 255 142 182
94 52 112 90 44 38 36 30 48 112 220 78 160 172 118 154 134 66 96 70 10 70 48 52 76 28 24 8 64 28 56 38 94 254 134 255 154 74 46 255 255 188 254 255 122 32 42 42 166 62 226 226 140 94 96 50 150 122 84 58 110 146 156 106 108 142 255 186 120 110
130 246 158 255 255 255 252 98 244 166 162 114 162 108 184 88 226 246 178 134 126 124 152 164 64 176 255 255 240 142 170 120 118 86 80 134 164 126 76 144 176 176 96 18 134 36 82 120 90 50 138 98 74 138 78 126 126 26 112 4 8 46 114 80 130 134 72 104 70 32
62 66 50 52 134 124 40 92 120 32 82 54 64 146 192 248 255 255 254 198 146 255 255 255 255 255 146 66 116 172 82 216 255 212 202 152 178 240 130 232 168 56 26 40 38 138 206 216 114 194 255 236 130 62 90 106 96 166 110 144 146 106 62 142 114 84 34 24 80 90
8 255 255 34 255 255 255 255 154 96 84 108 86 74 255 255 148 164 208 122 126 136 90 26 30 44 82 68 24 228 255 148 162 118 190 118 50 24 62 24 66 54 70 88 84 72 32 104 182 34 58 76 52 100 210 174 156 80 68 24 62 60 56 48 54 26 8 40 44 118
108 182 160 100 34 78 76 38 22 62 80 202 148 112 108 36 48 62 26 26 58 42 14 40 255 255 255 90 104 118 52 48 106 106 34 110 255 255 114 255 108 96 120 36 58 12 32 28 54 152 255 84 106 94 76 96 130 96 54 32 64 96 94 122 90 26 34 38 44 16
20 128 255 255 68 226 66 38 36 255 255 48 184 156 255 255 130 12 176 74 214 156 255 255 116 100 88 144 140 116 88 146 156 140 255 255 255 234 78 68 16 188 255 255 255 48 178 84 48 160 82 64 142 230 255 255 255 106 192 142 114 176 100 122 124 50 102 118 148 54
108 64 58 94 72 32 132 40 90 40 168 66 106 88 162 106 108 80 110 98 142 84 180 96 88 104 34 112 166 62 100 132 210 140 50 54 98 122 40 30 30 96 42 18 100 118 34 102 108 26 88 108 236 255 196 150 190 210 162 176 244 255 134 104 98 84 22 104 106 192
198 198 68 30 182 218 110 106 255 130 250 120 44 36 54 106 44 174 158 90 206 226 255 146 198 100 90 88 56 98 42 76 110 78 74 166 142 84 130 82 40 255 255 216 202 255 192 255 198 100 66 126 166 110 88 232 252 26 222 172 116 124 114 34 24 46 98 78 30 206
254 112 132 132 234 192 66 56 50 8 48 14 64 124 116 92 84 92 202 70 4 62 52 58 148 110 148 88 58 24 62 58 90 70 38 18 14 30 24 90 54 102 152 106 142 138 134 60 56 92 54 68 46 56 84 48 58 86 12 16 42 58 48 136 255 255 144 64 122 98
84 60 92 40 96 112 255 214 226 255 92 88 68 44 86 20 28 30 16 184 255 98 170 34 64 154 176 124 32 36 24 102 146 116 44 52 16 12 18 38 68 246 255 104 190 92 36 30 126 255 255 60 255 255 160 174 114 28 104 40 186 138 255 194 140 188 154 248 144 114
224 255 255 255 255 206 88 255 200 52 100 52 86 30 255 255 255 162 126 68 100 112 152 168 172 158 168 82 114 140 184 224 34 128 220 152 130 84 98 122 76 54 64 50 78 140 220 188 164 138 72 42 108 90 106 58 216 128 68 168 154 74 62 100 56 78 180 118 122 62
58 48 42 54 64 150 158 60 34 100 92 110 52 70 194 100 106 126 36 62 60 216 206 88 66 70 128 84 68 94 255 178 86 134 140 68 24 94 94 46 92 50 108 90 68 132 138 152 174 232 218 40 72 14 8 102 80 148 255 255 255 214 102 40 72 34 80 116 98 26
56 96 132 8 178 166 190 136 82 78 76 252 255 230 66 255 170 255 194 96 42 58 72 64 30 130 255 142 158 152 124 130 112 24 34 14 84 100 82 164 226 156 74 192 255 248 54 56 22 38 52 114 44 62 102 72 110 48 172 82 56 106 54 38 134 130 146 88 94 60
100 120 126 56 54 28 14 26 12 50 26 30 84 40 76 212 255 212 224 210 172 134 114 72 72 28 24 62 52 26 60 36 60 220 255 246 128 50 154 66 108 78 96 6 74 90 252 132 246 192 46 56 48 74 76 38 22 30 24 154 222 102 90 122 70 38 118 98 60 42
18 104 110 14 28 40 28 16 34 48 112 230 238 255 255 42 14 20 160 255 255 162 198 114 124 134 64 22 98 52 136 162 255 110 78 96 74 152 92 116 190 168 192 200 150 230 255 152 170 186 188 138 138 232 120 162 202 204 174 206 255 220 110 236 255 132 196 255 168 255
158 108 116 166 200 78 188 154 78 22 42 128 150 164 166 54 118 170 68 78 40 56 88 70 166 76 74 108 62 186 214 144 36 60 56 116 46 66 154 66 42 98 110 130 148 126 26 126 162 212 150 180 86 70 142 76 166 96 82 164 196 14 255 255 255 250 228 154 28 102
124 130 86 124 184 178 240 255 255 202 255 255 184 172 70 108 200 90 190 152 38 72 88 40 64 72 200 138 220 72 68 48 22 16 40 52 44 196 178 116 78 72 140 174 122 94 164 156 118 92 18 180 255 255 255 96 236 134 255 242 56 56 40 40 94 2 255 252 116 194
152 150 178 126 100 24 44 88 120 108 92 208 128 64 200 255 134 104 84 74 12 68 28 40 84 44 112 50 192 166 90 94 60 54 112 126 152 122 130 78 34 54 86 26 24 22 12 20 8 52 34 44 60 44 228 255 255 222 158 154 134 68 74 128 98 40 54 64 50 4
86 60 44 255 255 128 70 106 180 50 92 118 126 40 66 122 208 88 242 128 44 50 30 64 36 42 42 44 24 164 118 52 16 110 118 58 130 132 18 14 60 162 116 18 26 24 34 2 44 212 255 176 134 240 96 60 46 48 255 255 255 76 30 160 170 160 74 122 88 100
184 255 238 132 224 188 166 214 202 214 255 255 244 255 248 118 242 255 112 130 148 98 76 176 255 255 255 106 166 238 90 228 154 22 255 255 255 236 94 210 124 255 50 142 192 216 186 164 36 20 96 124 100 104 168 44 26 106 38 70 62 36 118 24 98 122 154 70 100 112
88 130 114 26 58 46 62 56 106 36 18 74 32 102 124 66 110 88 38 72 66 46 32 36 68 92 72 98 146 120 78 160 255 252 194 94 255 255 130 140 226 255 255 255 254 150 172 174 196 220 236 250 224 150 70 255 80 255 255 255 16 68 76 106 60 46 70 16 98 78
108 36 64 68 80 94 176 232 52 126 78 84 76 112 106 120 148 170 72 20 64 98 255 255 255 255 255 214 255 255 80 74 60 36 94 56 174 255 120 196 236 92 176 222 194 84 8 66 138 144 66 180 120 80 102 162 114 140 166 142 100 76 30 38 62 72 84 44 162 224
114 84 78 56 96 162 210 114 122 108 40 36 54 34 24 26 16 26 36 26 102 120 52 52 190 254 255 255 255 244 255 170 162 146 58 50 64 46 22 28 12 36 16 255 255 90 60 168 104 18 34 64 72 38 144 232 162 108 168 76 80 54 22 38 26 26 56 58 80 255
220 162 70 106 100 48 128 124 74 70 150 134 64 34 36 50 40 56 108 255 255 204 255 82 44 44 32 118 255 255 144 72 170 212 120 146 84 36 230 182 154 170 38 112 152 58 178 102 30 96 180 230 156 164 54 124 242 255 146 164 152 44 152 144 236 255 132 96 255 190
255 192 130 26 136 166 92 62 34 255 192 255 180 98 28 64 90 74 86 110 78 88 98 216 158 42 22 50 88 44 52 48 78 50 40 32 4 46 54 44 28 60 144 104 68 84 72 14 62 38 66 58 86 156 46 32 60 116 150 104 84 100 86 30 46 56 40 34 50 88
178 255 255 202 255 255 126 218 255 200 152 104 92 198 144 34 46 150 174 96 255 255 255 255 255 255 182 214 255 255 76 96 66 74 92 58 84 74 156 248 255 150 216 166 104 70 100 240 234 162 92 52 120 88 152 142 92 46 86 66 24 56 20 152 255 255 168 255 128 255
198 34 34 40 72 68 104 178 255 140 255 30 28 126 200 134 38 94 106 138 104 222 108 114 120 184 136 158 68 78 138 154 132 90 92 88 52 122 24 210 90 60 84 28 34 120 212 100 90 130 20 44 46 12 16 20 6 14 28 36 140 72 44 48 164 232 254 212 255 188
142 64 40 20 46 58 26 6 14 40 38 16 28 255 255 136 132 116 20 54 46 94 104 70 202 255 148 204 76 56 72 42 64 24 24 60 84 30 152 222 112 36 60 102 166 168 160 68 32 148 184 68 26 46 48 24 34 122 190 238 158 255 146 78 88 34 92 252 255 255
112 210 132 28 108 78 40 62 238 255 138 116 16 90 52 182 152 138 138 150 42 124 110 64 242 255 255 204 50 118 82 122 124 255 234 254 150 80 255 255 255 60 190 58 142 246 255 236 174 156 232 42 156 166 206 150 102 86 74 50 58 102 74 140 168 154 64 18 62 108
64 40 50 102 120 188 244 198 106 70 72 78 62 78 174 198 120 84 102 106 118 166 180 108 14 28 48 68 48 32 26 78 116 62 56 84 76 32 100 144 200 68 154 204 94 164 212 194 244 255 94 60 182 176 46 88 42 64 204 230 255 255 255 255 255 134 154 255 255 94
90 28 34 86 74 10 46 6 10 86 118 74 70 120 70 34 84 54 34 60 54 102 62 78 144 114 84 36 76 54 108 255 255 230 255 255 68 255 255 255 255 96 94 54 90 88 34 150 255 22 255 38 88 84 110 132 60 110 94 150 160 128 122 224 170 180 122 182 236 66
64 82 112 84 84 84 36 84 40 226 154 56 88 36 14 80 230 168 110 116 34 72 50 14 26 34 16 26 24 38 86 106 100 56 42 102 70 76 112 64 32 44 58 50 36 26 32 24 30 30 54 10 72 255 255 48 154 130 26 68 64 102 138 158 206 255 116 255 90 56
58 52 18 36 58 32 28 124 236 198 72 58 68 192 240 142 36 42 50 150 152 30 38 56 42 26 70 82 204 152 94 150 108 26 80 108 148 255 248 255 255 246 76 72 46 22 96 112 164 230 172 144 80 104 82 212 206 138 126 60 66 128 150 255 255 252 60 136 116 88
62 186 210 228 255 250 92 16 64 32 255 180 144 138 158 104 52 46 92 44 150 194 118 16 56 50 18 82 164 72 120 255 255 255 166 238 172 50 40 108 84 102 74 68 64 58 14 46 98 132 86 62 66 100 86 54 80 18 12 14 52 82 28 24 14 36 44 22 26 26
34 42 74 82 70 80 24 68 118 126 204 238 176 66 112 122 162 244 92 130 126 90 160 176 88 90 44 90 156 255 255 90 16 48 224 226 108 62 144 150 136 70 72 18 26 84 134 104 40 100 124 92 16 78 128 148 48 30 8 56 74 20 14 78 94 72 64 64 78 124
176 188 50 246 255 255 255 112 255 74 255 88 84 36 60 62 42 124 255 176 248 180 68 12 82 134 78 76 32 90 156 122 82 42 94 176 158 70 108 156 106 60 38 98 74 62 58 74 50 166 204 52 46 60 46 74 212 214 198 132 50 56 42 6 34 36 20 30 38 10
36 4 40 148 164 188 176 98 50 30 92 76 68 36 32 42 12 22 12 44 42 20 152 255 255 36 198 118 46 36 84 56 26 218 255 232 194 255 104 26 36 70 30 44 74 108 136 200 218 222 178 164 88 228 192 56 24 38 68 160 104 16 30 88 68 38 28 50 255 60
244 178 142 54 30 76 255 255 255 255 255 56 36 160 166 180 122 96 136 184 100 124 156 88 68 120 62 64 160 136 116 128 190 224 142 240 255 172 110 250 102 68 224 90 118 154 192 196 226 126 162 255 255 255 168 82 66 88 46 48 46 76 102 56 114 50 14 28 72 156
172 196 90 148 134 160 82 132 66 26 20 44 84 78 92 58 42 66 112 120 144 120 118 50 124 92 58 46 32 30 74 104 30 64 40 36 106 118 106 52 38 12 48 22 26 50 108 138 136 18 112 114 74 118 176 118 54 132 170 182 180 200 46 172 255 255 255 255 68 255
255 194 242 255 255 182 228 156 246 160 104 32 46 18 26 72 90 66 58 64 78 66 88 218 250 122 255 255 255 242 84 100 150 210 180 92 60 72 98 14 216 255 255 114 178 255 255 255 255 46 255 160 56 36 66 96 76 18 255 255 72 255 126 66 116 170 122 92 46 70
132 126 56 90 124 220 218 124 52 130 180 166 132 118 94 56 38 64 138 60 156 92 26 28 20 58 158 255 204 44 46 58 50 20 28 18 16 28 48 50 44 8 40 194 196 66 60 150 198 120 70 4 28 42 30 52 22 58 62 44 28 146 255 255 202 188 224 18 106 130
140 84 158 255 255 114 255 222 44 24 30 64 34 12 94 160 176 196 222 194 22 214 238 200 90 60 20 40 100 128 76 44 30 70 70 150 255 255 255 222 255 128 40 94 112 255 255 255 255 255 120 100 204 254 126 188 100 92 52 58 60 80 166 120 38 66 74 100 54 242
255 124 130 66 194 255 198 224 234 228 255 210 44 134 70 188 226 226 144 64 34 64 204 255 150 224 174 120 132 54 26 86 154 126 184 142 78 94 74 72 202 210 196 160 130 114 48 58 164 122 44 38 84 110 52 16 34 58 34 134 156 98 114 86 82 50 16 20 32 8
16 100 100 66 118 80 72 20 62 14 62 68 126 92 96 102 214 114 106 106 12 44 82 94 76 62 54 24 42 114 164 62 160 140 190 200 255 255 255 255 82 192 255 255 184 96 182 110 132 38 180 84 84 74 64 144 188 136 94 100 64 80 96 255 212 255 255 255 255 255
220 246 146 170 224 130 40 88 128 206 244 255 255 228 54 152 255 255 70 102 232 255 144 62 94 126 118 70 150 255 104 216 70 26 30 70 96 62 88 54 112 172 122 54 64 122 252 192 100 78 118 108 168 182 190 172 34 90 110 18 128 96 48 76 92 90 118 248 236 96
30 42 44 26 2 38 28 26 30 64 80 34 42 90 120 120 134 4 142 128 58 10 78 100 130 124 46 28 68 42 12 230 255 255 20 255 104 128 124 142 52 255 254 255 184 255 255 72 32 32 50 82 116 94 128 124 92 126 255 114 208 255 158 92 58 48 6 82 132 110
54 64 80 130 82 246 255 255 255 255 140 128 78 42 166 255 184 228 255 255 255 255 124 122 216 184 74 66 58 76 42 50 40 38 148 64 78 28 148 96 104 174 120 92 162 150 156 154 200 214 255 116 192 255 184 178 72 178 138 96 114 134 150 144 40 128 156 82 54 114
102 70 110 26 78 40 114 118 86 54 114 72 88 72 134 182 32 162 152 240 108 48 16 42 116 124 118 22 70 122 72 118 72 44 34 86 30 12 54 30 38 78 72 98 142 98 34 88 40 30 24 18 40 56 48 54 144 120 220 94 80 102 64 132 228 214 148 90 24 72
82 98 48 255 255 255 255 255 255 255 255 104 98 34 32 22 148 138 156 64 100 80 120 68 104 88 152 168 188 192 255 198 68 255 255 255 255 255 255 140 246 76 186 176 166 255 255 214 255 255 255 255 168 160 232 104 210 240 186 42 44 255 198 36 56 60 64 120 36 255
176 255 136 80 118 134 160 120 82 64 110 184 236 60 12 38 186 156 102 128 76 14 74 52 96 194 78 98 120 36 88 84 50 70 46 48 82 252 194 48 30 62 70 52 36 34 10 24 22 88 56 24 92 236 255 255 122 100 140 78 68 76 66 64 60 90 44 34 44 74
22 255 255 148 102 194 118 202 56 68 32 255 150 154 20 255 172 28 36 46 36 54 80 44 96 150 166 140 222 70 255 174 82 142 120 36 104 208 166 104 74 106 90 130 68 255 255 158 255 255 60 60 78 52 255 224 32 142 255 126 255 194 102 22 72 106 66 12 24 108
92 84 58 54 100 104 86 36 102 206 184 236 220 178 224 112 118 166 255 234 168 74 100 18 96 232 255 172 96 54 42 62 106 208 186 196 255 238 255 255 255 216 116 58 52 66 56 188 192 208 36 150 130 120 46 132 52 132 62 198 214 120 140 144 58 70 72 44 48 156
112 70 14 30 70 48 34 10 76 40 44 88 212 200 156 106 84 146 70 58 44 76 86 24 72 62 42 78 78 44 80 118 182 180 68 94 74 148 108 74 130 146 224 255 138 214 255 255 156 124 255 255 255 224 112 116 186 98 90 34 48 28 86 76 112 114 104 34 154 255
236 255 64 70 188 232 206 255 255 255 168 154 218 208 92 98 114 255 255 222 56 255 255 255 170 156 200 146 255 104 190 255 255 198 42 12 72 144 84 255 220 255 196 50 64 58 126 102 102 116 138 255 226 94 62 88 244 194 102 94 42 24 32 58 66 90 60 48 114 58
44 78 96 28 88 46 172 255 236 80 64 96 84 50 52 32 16 6 20 58 40 78 58 130 202 120 160 62 202 208 86 68 90 14 116 70 36 34 34 96 68 255 255 82 144 150 168 192 74 52 138 255 218 132 130 255 126 38 12 22 46 116 84 44 92 168 168 142 255 46
255 188 196 162 14 134 224 204 66 24 64 58 68 124 132 255 166 255 255 170 136 98 80 194 255 255 188 255 255 24 158 42 232 255 218 170 98 40 106 210 114 92 74 158 214 255 244 232 64 40 160 140 20 188 255 250 128 62 146 112 112 134 40 170 194 122 62 118 144 206
184 140 88 58 218 26 255 172 70 246 202 255 252 206 114 54 152 128 106 255 220 60 50 86 68 80 72 148 198 184 150 70 174 170 254 198 114 24 48 66 50 18 24 34 74 52 32 50 64 50 20 60 68 18 60 10 16 58 18 24 68 64 72 72 52 18 70 40 30 66
104 104 86 26 56 150 198 80 48 116 142 130 134 126 244 146 200 164 116 140 46 250 255 255 255 255 255 204 90 28 100 98 60 88 60 50 72 42 118 240 255 255 110 126 30 44 66 36 116 255 255 158 44 184 130 255 255 255 88 255 255 255 255 120 98 255 255 48 255 236
255 78 255 255 220 54 26 46 64 224 255 184 255 34 80 132 124 94 48 62 152 242 100 106 124 156 192 176 116 68 30 42 64 114 80 54 8 36 118 110 64 138 104 28 46 52 255 255 126 46 54 70 32 18 26 14 20 18 4 54 38 92 86 72 172 212 172 178 146 202
114 28 48 66 50 92 98 66 10 36 34 255 255 188 210 112 168 182 54 36 192 255 255 180 255 255 88 40 48 76 130 136 16 110 124 190 255 255 255 162 255 224 142 88 130 194 154 34 68 26 68 66 98 44 255 250 202 255 184 116 126 66 96 255 255 106 104 184 212 70
100 56 128 232 206 58 204 186 154 114 152 255 255 255 255 255 182 86 82 138 255 152 120 196 255 255 255 255 255 255 255 136 92 232 192 246 104 50 30 88 122 172 212 194 68 252 76 250 172 192 244 242 96 114 190 58 96 246 156 48 174 246 96 96 180 184 178 36 146 140
136 74 62 124 128 14 40 104 46 10 62 52 122 166 100 58 38 30 48 34 12 28 112 156 154 146 140 124 70 46 16 30 46 50 8 34 48 26 68 82 64 10 66 140 146 64 110 128 120 96 162 255 114 74 110 232 255 222 255 110 122 255 246 40 170 156 255 194 255 255
248 180 148 14 84 90 168 212 126 96 158 244 96 30 92 232 255 255 174 94 162 255 255 206 84 174 162 255 255 168 255 255 255 255 255 28 255 220 164 255 44 255 70 255 255 202 48 34 72 188 255 48 255 255 174 118 68 46 32 96 206 212 124 144 208 252 202 192 198 176
88 112 70 24 22 34 42 60 86 204 132 192 120 54 24 118 255 232 78 50 20 8 38 12 24 24 42 42 42 70 88 90 104 36 90 50 60 78 44 68 56 56 60 90 16 72 66 62 14 52 50 230 255 118 56 126 238 150 20 112 208 255 255 255 255 162 86 48 34 46
88 22 150 200 184 255 255 255 166 255 255 156 110 22 112 128 52 20 14 16 44 38 6 255 255 88 255 186 138 192 30 60 216 255 252 68 20 180 150 194 148 76 18 86 112 255 255 255 255 54 206 232 66 134 174 210 190 130 108 168 255 212 124 100 172 152 238 216 232 255
255 122 228 255 255 255 255 50 112 184 212 180 96 162 198 144 32 92 142 166 206 224 242 154 82 112 74 100 142 98 66 164 86 92 158 80 236 216 140 126 158 56 34 112 118 130 130 146 30 104 102 68 42 8 68 96 126 16 26 14 6 42 24 14 8 66 160 168 116 56
14 20 4 42 34 22 22 52 44 82 66 90 194 74 100 62 62 36 64 90 94 210 244 164 116 148 50 148 166 122 120 62 50 150 255 255 255 244 255 176 255 255 255 132 248 226 198 106 210 122 184 70 50 32 162 255 255 255 255 255 255 168 126 50 162 255 255 255 255 255
255 255 255 246 255 255 216 255 96 255 220 255 255 148 255 255 96 78 138 182 158 255 130 255 255 124 56 26 64 124 162 206 158 108 86 154 255 182 126 160 134 128 74 70 88 96 114 136 124 255 148 252 142 98 38 186 255 176 46 62 56 16 24 24 32 38 40 80 64 130
172 118 38 36 26 96 84 84 72 108 82 36 60 62 18 60 74 20 26 92 50 182 255 46 50 188 144 66 6 136 255 255 142 255 255 86 70 18 74 98 128 96 92 80 124 224 255 190 10 255 255 134 72 92 134 82 36 12 20 72 86 80 228 255 130 255 255 36 255 168
148 184 255 148 222 78 255 255 66 110 100 32 194 255 255 198 228 255 230 98 255 255 255 255 255 255 164 104 122 52 130 194 164 255 255 255 255 255 255 255 255 170 255 255 242 255 255 255 150 124 140 230 142 98 10 74 54 96 178 206 184 122 156 180 188 98 64 70 48 68
58 128 30 60 148 142 40 108 168 146 218 188 110 110 50 24 44 94 78 134 54 122 96 124 76 30 150 62 22 36 10 52 8 44 80 156 142 70 94 90 38 70 94 96 104 50 42 8 38 74 42 102 98 44 82 234 255 234 176 148 152 132 46 62 52 64 34 46 124 142
142 92 102 58 216 255 148 255 255 255 255 88 255 255 255 255 178 210 255 54 242 60 76 104 188 255 255 255 255 220 255 255 106 168 102 110 216 102 224 255 255 255 255 238 214 255 190 255 162 255 212 96 255 186 255 255 128 80 234 132 178 255 255 132 255 255 124 36 86 78
78 238 255 184 136 44 196 255 178 144 154 158 172 146 96 60 58 86 48 222 148 255 240 116 98 236 234 118 80 72 52 12 20 22 48 30 28 50 20 74 110 12 74 98 116 64 4 58 66 166 114 28 46 50 30 12 22 20 18 78 72 226 255 100 146 138 60 42 36 232
255 255 116 255 204 22 24 88 142 132 144 128 76 78 140 218 224 116 70 255 255 32 122 194 130 62 42 8 16 80 80 158 255 110 124 168 202 148 168 108 152 255 188 206 254 255 254 70 62 120 86 82 144 18 202 110 255 255 255 206 102 16 104 148 96 68 38 202 132 74
98 34 30 24 52 76 232 172 52 255 226 255 46 255 255 255 255 64 134 226 150 228 226 242 255 196 56 90 172 134 44 52 76 66 28 158 106 74 54 106 80 40 24 52 36 14 128 94 126 108 10 138 160 178 90 76 80 126 48 106 58 84 50 136 74 74 130 30 52 48
46 96 48 90 124 168 142 156 128 108 76 52 30 54 138 136 118 98 50 62 126 198 158 144 224 230 98 90 56 40 54 74 36 70 36 194 255 222 176 136 255 255 255 255 255 255 104 26 24 255 255 255 255 255 210 255 255 255 255 255 174 156 255 255 255 168 255 255 255 255
255 255 255 38 72 56 124 150 48 255 146 240 88 255 62 232 160 52 255 255 255 186 132 255 255 255 255 160 166 74 236 255 255 122 255 255 244 84 142 94 102 100 196 172 126 70 86 192 120 22 44 24 94 138 88 72 56 60 54 200 255 90 252 206 230 212 128 102 122 104
34 14 26 24 16 20 26 50 66 72 70 98 92 106 76 82 124 86 64 164 94 12 30 18 60 22 22 8 22 80 72 162 255 212 144 84 20 54 118 255 255 255 255 255 150 68 60 38 82 90 26 10 66 152 210 255 255 136 92 255 255 78 154 100 64 40 36 30 18 114
128 255 200 228 246 138 74 70 98 52 255 255 136 255 122 255 255 246 255 222 88 80 158 180 238 84 46 74 74 108 124 142 102 56 42 78 112 98 146 112 198 102 136 110 126 80 130 255 230 60 206 168 255 255 110 196 255 52 154 160 100 216 246 86 138 220 116 150 126 232
220 112 142 138 120 90 162 68 128 98 164 176 160 188 106 6 50 30 106 156 188 106 56 74 190 116 12 74 86 46 112 94 128 132 46 94 54 64 60 16 46 56 30 22 68 70 24 42 36 28 72 44 90 124 130 106 86 86 88 62 158 112 138 188 90 56 178 168 84 94
96 206 114 108 255 122 84 30 134 255 255 146 184 198 212 126 52 60 74 80 74 50 255 255 255 255 255 255 255 255 255 255 255 222 130 246 255 255 255 184 228 224 96 154 92 30 78 116 108 150 192 152 170 112 102 198 198 255 255 255 255 218 192 198 255 74 255 126 112 142
12 144 182 254 24 255 255 158 176 112 230 34 118 240 255 114 42 156 160 92 114 138 214 158 86 62 36 22 32 84 166 128 162 234 190 70 66 70 160 96 42 54 30 22 18 32 8 6 40 76 36 22 38 82 124 148 32 50 38 122 102 12 8 34 58 30 74 132 118 172
70 100 232 255 168 16 32 76 170 255 255 86 255 255 88 42 74 32 58 78 70 66 48 140 188 255 255 150 164 255 255 98 104 52 34 20 48 70 36 252 255 255 106 255 255 220 132 56 100 212 255 164 255 226 34 255 170 202 222 255 170 238 255 226 168 92 178 158 74 212
196 56 114 124 104 104 88 110 206 72 164 74 14 72 14 86 170 138 92 170 164 100 158 180 255 255 255 198 84 174 212 255 160 255 160 130 66 178 154 112 200 166 86 104 52 58 136 30 144 106 88 102 120 204 220 128 108 76 152 142 114 242 124 86 100 122 72 32 122 84
132 128 8 12 104 96 74 64 120 76 4 14 56 110 102 18 76 88 86 88 104 172 160 72 82 116 54 70 94 120 230 82 86 136 198 255 182 76 38 58 94 28 28 140 138 92 74 30 252 255 122 52 144 144 106 140 190 200 214 212 240 174 242 255 255 224 255 255 255 200
158 132 255 255 255 150 90 112 255 236 255 164 52 70 34 86 38 30 176 124 182 138 130 16 50 110 218 194 246 255 138 255 255 222 214 172 226 170 180 130 146 216 255 255 255 70 255 255 184 76 234 92 86 110 166 158 44 164 255 234 82 104 156 126 106 96 32 68 54 22
140 204 98 78 22 88 108 152 136 34 52 52 40 32 72 44 18 14 34 74 36 48 146 156 92 60 94 64 88 188 94 20 22 36 32 36 34 92 72 150 56 78 198 254 200 34 38 54 116 255 255 86 255 255 76 28 74 32 30 50 46 50 144 255 255 255 230 96 192 255
238 72 150 122 68 38 38 72 214 255 255 86 255 255 152 160 158 128 228 255 128 255 255 88 232 255 94 140 90 142 255 255 168 116 170 116 232 112 120 152 138 124 46 24 22 110 162 184 186 208 190 152 122 128 184 122 74 106 30 152 14 100 124 90 200 104 134 255 255 255
232 255 202 255 214 36 58 84 190 78 96 54 66 54 22 12 158 108 118 252 232 210 212 228 126 96 166 88 132 170 96 122 118 80 84 96 126 102 10 118 20 172 126 114 114 52 102 44 146 0 46 60 102 86 70 86 84 76 58 126 170 92 38 26 48 166 136 62 112 255
196 14 112 255 255 252 144 102 48 18 114 102 102 154 188 94 72 124 196 220 156 70 56 154 194 208 198 194 204 160 178 106 190 172 170 194 52 255 255 255 255 255 255 60 190 252 176 130 160 196 234 18 148 96 56 134 76 76 222 124 122 238 82 38 128 216 255 224 255 255
130 48 255 255 42 255 214 164 255 234 122 132 176 255 255 255 255 255 226 154 238 172 170 234 255 255 222 208 255 255 102 58 98 54 52 100 108 94 36 96 146 255 112 130 50 90 70 104 82 8 12 38 16 48 74 74 32 30 32 76 70 14 92 112 56 46 50 92 74 84
48 32 24 54 30 52 94 144 164 114 48 44 208 255 255 56 22 40 102 255 255 182 255 255 142 102 186 140 138 84 60 114 255 255 255 202 174 44 255 255 204 158 216 200 242 226 86 20 170 255 160 255 255 255 14 238 255 255 255 170 255 255 150 255 255 228 255 242 78 46
156 216 178 198 100 122 246 250 140 60 96 76 30 24 102 144 86 52 80 62 52 90 34 234 136 108 80 162 90 128 134 96 54 138 255 255 255 246 190 90 164 255 255 255 242 120 128 124 122 12 48 66 64 88 30 60 72 255 146 160 255 255 188 148 122 122 142 70 240 114
102 198 158 118 148 106 54 56 84 110 110 74 100 44 26 74 52 16 150 52 24 72 104 134 66 12 62 40 20 78 110 98 96 76 108 90 80 204 222 84 136 255 255 178 54 14 82 68 18 88 130 60 86 48 28 132 160 255 255 184 180 180 172 130 170 118 34 170 255 255
166 64 148 238 255 255 255 196 232 166 52 118 168 98 200 210 176 130 118 134 90 56 82 122 146 120 190 184 156 255 156 66 80 200 255 66 255 255 74 255 230 202 180 226 255 44 255 152 255 255 252 36 36 172 255 255 96 206 255 255 246 154 44 180 255 180 156 164 255 255
146 80 60 84 100 118 194 150 92 46 108 228 168 10 156 36 14 62 60 28 16 12 20 16 52 42 62 60 38 52 58 96 98 150 96 114 140 30 32 68 46 30 12 30 4 68 60 40 18 56 98 110 30 244 255 150 28 42 42 255 255 248 255 180 98 56 104 74 112 140
112 142 255 250 42 100 102 196 255 208 244 220 196 66 88 190 168 94 255 255 234 255 255 70 156 252 255 255 255 255 255 146 252 226 82 244 255 255 146 50 48 116 74 106 60 114 72 196 96 128 214 255 255 134 88 62 76 26 48 46 80 92 88 255 150 108 80 160 118 196
236 84 72 38 50 56 152 108 36 102 102 52 112 24 136 124 116 182 255 254 246 122 54 58 106 102 132 56 255 250 144 160 130 84 54 58 118 142 162 28 130 152 106 96 90 98 86 46 88 46 160 28 66 60 102 160 184 198 146 48 26 74 62 100 94 28 48 30 42 132
178 106 42 20 80 166 230 184 68 116 238 166 74 92 88 54 62 64 74 98 40 76 90 86 96 58 190 206 176 134 6 86 200 255 228 255 162 255 254 116 62 10 68 252 208 180 36 30 128 140 80 46 50 120 174 238 252 212 194 98 42 100 134 152 62 136 88 255 255 255
172 232 254 214 54 232 186 164 110 236 255 244 255 140 255 255 228 255 88 255 255 68 74 186 255 255 252 44 236 255 255 202 138 98 255 255 202 148 210 255 216 42 6 14 38 94 174 80 158 18 64 172 182 112 54 12 80 100 14 34 22 14 10 14 40 12 30 10 12 38
28 66 90 228 255 128 192 112 62 86 66 48 24 22 38 54 36 60 68 126 162 138 100 166 255 255 188 24 50 255 255 255 255 114 66 74 138 100 94 140 110 220 255 108 84 178 70 255 170 48 78 62 38 126 252 255 152 60 255 252 224 255 106 136 246 254 164 255 255 255
255 68 142 255 188 180 60 66 88 128 126 222 80 48 122 184 76 172 88 50 182 152 255 216 42 56 110 88 86 78 148 40 198 255 214 255 178 194 146 78 46 76 36 66 70 108 58 78 124 88 150 132 72 82 80 130 180 164 252 44 200 120 90 112 194 234 154 140 88 255
200 166 114 94 80 74 38 100 110 62 116 134 80 60 36 68 144 68 64 78 110 74 12 84 172 118 130 172 168 60 28 46 66 80 12 74 78 14 42 88 146 70 42 24 42 84 154 108 44 204 154 62 184 162 78 80 88 52 142 72 144 210 166 84 82 118 100 84 166 126
134 226 255 255 60 150 60 130 114 222 240 170 148 218 104 218 30 26 106 86 110 114 104 54 30 46 92 66 70 136 126 58 124 106 82 48 96 70 138 100 68 64 180 255 255 255 212 218 126 252 255 255 66 255 204 150 120 118 124 255 255 74 148 214 136 188 255 224 222 134
144 255 255 62 202 255 255 204 234 255 236 132 82 56 54 88 106 32 176 80 64 198 246 96 46 72 94 44 34 14 28 20 22 10 54 16 70 48 62 74 38 60 118 178 104 178 224 68 60 98 26 44 58 32 18 14 16 42 40 104 94 96 94 106 196 255 255 180 196 255
255 255 255 208 88 72 92 36 74 156 220 255 255 238 226 60 255 255 210 210 162 146 176 180 156 106 64 178 255 138 255 160 112 234 255 255 255 255 214 255 255 54 134 90 182 168 108 60 86 132 150 255 255 188 94 50 94 70 76 210 255 228 254 180 36 62 88 82 134 232
255 255 138 228 132 255 158 36 52 136 104 74 58 92 88 102 52 70 78 42 72 22 64 104 68 64 50 88 255 255 210 90 114 136 172 98 72 160 146 92 74 40 28 130 162 102 82 98 170 114 88 132 130 116 94 66 138 160 76 132 128 68 18 70 104 82 104 30 116 8
8 22 28 30 62 72 28 108 84 34 66 66 58 74 130 162 130 130 255 255 130 92 162 154 208 190 180 168 102 90 168 84 84 124 234 255 200 255 255 224 220 238 154 62 190 110 96 114 46 255 176 184 70 220 255 232 16 20 68 130 50 146 138 170 124 140 126 140 168 174
212 244 108 92 82 128 198 108 80 188 134 130 142 136 108 192 142 180 246 255 255 168 96 116 255 210 246 255 255 202 255 166 255 244 106 220 255 255 228 255 254 255 255 166 210 255 255 250 255 255 96 102 150 174 104 100 76 132 154 64 248 255 206 76 54 48 52 38 22 32
44 20 18 28 60 64 56 12 32 78 66 70 108 102 46 78 68 30 76 44 68 48 64 68 56 24 34 58 76 50 76 124 62 96 60 92 224 194 255 255 200 255 255 240 142 58 52 88 84 198 255 255 255 96 220 255 255 224 130 196 130 136 210 204 164 16 234 255 255 142
255 126 204 255 255 255 186 78 255 255 194 255 255 255 244 192 94 46 126 184 44 120 212 106 140 126 82 20 54 196 255 234 248 240 148 30 138 148 84 90 190 128 186 255 212 230 104 168 168 184 224 190 238 255 208 230 98 116 130 50 64 18 76 120 112 68 118 132 58 174
188 118 86 82 228 236 130 86 142 94 34 52 16 34 44 98 16 124 154 112 80 94 168 68 130 78 50 144 124 200 104 52 28 30 80 88 158 90 102 0 12 18 66 44 82 20 146 146 94 44 20 44 84 74 70 150 176 240 234 142 94 96 164 210 206 104 126 218 154 170
110 32 124 160 202 236 255 255 172 64 224 66 92 166 98 132 158 84 100 244 138 212 10 204 255 255 255 255 196 44 116 112 104 58 40 56 106 22 120 120 136 255 255 255 255 255 255 255 255 255 255 255 142 110 78 192 126 156 136 104 255 108 224 255 166 130 226 208 255 255
210 218 255 186 255 246 255 255 255 255 242 238 184 108 42 222 255 255 255 255 68 28 32 50 28 46 138 218 92 210 255 255 154 84 28 48 46 38 38 24 6 20 14 20 34 30 32 2 92 122 34 26 84 90 92 44 78 98 64 30 22 46 56 32 48 62 76 56 56 54
48 40 26 118 98 88 82 154 255 108 255 255 255 255 142 62 42 32 12 186 255 255 242 146 255 255 182 48 32 104 44 156 182 126 92 172 255 255 204 198 30 110 220 255 255 236 255 255 255 36 255 255 255 255 255 190 62 64 68 174 212 196 230 162 68 62 30 36 26 180
255 255 110 180 255 255 138 70 70 102 240 255 168 104 44 52 138 124 94 54 112 48 46 82 34 208 168 76 158 122 54 110 116 142 255 106 206 60 60 66 132 132 128 102 74 102 124 112 54 102 76 36 76 106 128 116 22 32 142 202 168 104 66 172 170 122 110 30 124 142
44 50 24 34 36 34 112 140 98 10 40 44 46 22 60 18 108 112 154 128 78 84 50 88 98 146 98 106 130 82 118 86 36 14 10 38 120 122 66 50 130 72 70 140 255 255 255 255 246 138 250 104 60 146 206 198 46 74 255 255 178 252 228 255 166 86 166 198 208 154
142 146 196 170 210 172 80 26 254 255 124 142 188 18 46 158 250 255 255 192 84 255 184 132 244 255 255 174 148 18 255 52 32 188 228 236 204 98 102 255 255 255 72 220 162 255 255 255 110 255 255 22 32 74 46 214 255 254 255 255 104 14 108 118 72 110 128 80 104 255
236 98 54 40 48 40 10 32 32 30 32 52 58 64 20 30 32 40 98 38 60 56 78 20 30 82 120 88 18 48 30 56 66 66 94 30 52 80 54 16 86 90 62 72 156 142 128 68 255 255 255 246 86 20 62 24 78 46 30 255 255 252 72 255 255 202 174 96 104 162
102 198 106 14 86 255 255 80 255 174 138 116 255 255 206 255 255 255 255 226 255 184 110 254 102 94 196 238 208 156 134 92 82 102 72 118 148 194 255 255 180 188 136 166 178 112 166 255 168 128 198 126 126 64 136 228 82 10 48 156 214 255 255 255 236 186 190 212 134 120
102 190 110 58 196 82 98 90 152 110 120 122 112 166 194 188 170 182 32 82 80 40 72 124 108 110 118 134 134 24 38 50 128 196 94 16 58 118 86 6 30 66 52 58 100 170 116 56 94 6 24 20 24 42 60 18 66 136 116 66 32 24 64 128 166 122 146 224 110 24
68 36 30 40 46 64 156 76 68 46 122 4 82 162 255 255 194 228 80 88 180 164 110 222 162 72 122 255 255 255 255 255 255 255 255 255 255 255 255 255 255 255 255 255 255 255 255 255 255 255 255 255 255 78 108 170 162 255 255 255 255 255 255 255 255 34 98 100 230 194
128 148 136 16 255 255 255 188 114 255 255 255 255 120 148 150 124 110 190 255 255 255 255 226 146 226 255 255 255 255 214 82 118 72 54 68 54 48 234 255 216 64 64 46 62 54 24 22 14 18 24 52 30 62 16 66 46 36 72 56 78 124 144 98 148 112 86 70 26 38
6 32 16 14 42 30 20 24 40 58 14 48 48 52 20 94 178 108 244 255 255 94 118 42 114 116 172 158 128 255 255 130 118 255 255 160 138 156 142 88 92 208 128 122 255 255 186 255 255 146 255 255 255 238 246 255 255 246 116 255 255 22 232 166 104 110 74 64 54 82
78 44 54 116 136 228 186 144 232 224 166 124 192 255 255 255 255 134 218 220 255 160 70 46 92 252 158 74 62 156 128 120 80 102 180 196 84 90 84 40 134 98 44 52 168 90 96 142 120 104 118 216 255 255 164 64 44 40 72 92 64 46 114 148 176 100 56 38 120 122
134 134 88 80 144 122 64 106 160 60 36 66 44 50 36 80 152 164 94 28 52 98 100 100 68 54 50 28 18 30 30 84 148 152 66 128 255 148 10 12 62 14 76 70 58 178 150 20 86 214 255 154 226 214 255 255 255 255 255 255 255 255 255 255 255 255 255 255 255 255
255 194 116 106 164 255 255 255 255 166 98 186 238 255 255 255 255 255 196 106 200 118 66 64 170 170 144 255 255 255 26 162 194 255 255 255 144 154 40 144 112 255 220 255 255 255 255 255 158 255 255 140 255 255 216 150 255 248 255 255 255 255 255 255 255 255 255 255 156 255
255 202 144 70 54 82 164 254 255 255 138 50 36 62 54 50 28 12 26 34 16 44 46 56 12 38 18 20 88 114 58 34 100 8 70 34 92 60 44 28 22 30 28 10 26 14 14 50 46 14 56 56 28 30 6 18 138 230 156 124 132 110 114 82 52 76 180 182 142 255
255 64 216 255 255 48 206 255 250 72 160 56 158 255 255 255 118 255 255 166 255 255 255 158 255 255 255 64 255 255 246 255 255 255 255 220 238 168 132 126 66 164 202 198 50 176 236 148 148 140 162 40 74 102 94 120 255 255 210 94 180 212 54 118 120 60 240 150 94 255
255 162 234 210 166 52 156 182 146 86 22 70 74 32 188 100 134 58 90 202 255 255 255 80 255 142 122 130 64 60 116 154 152 100 72 14 76 92 118 94 42 56 104 86 24 92 118 88 98 98 40 134 84 36 80 104 92 30 40 56 88 140 74 46 36 34 28 26 24 74
94 90 56 100 126 190 102 14 22 52 112 138 100 64 184 120 82 98 54 104 66 154 138 64 34 168 142 108 144 140 122 182 176 255 158 58 78 208 255 255 255 255 255 255 255 255 255 255 255 174 106 90 142 255 198 62 255 255 255 255 254 255 255 134 82 84 164 255 158 255
222 160 198 255 255 255 255 255 255 255 255 138 130 192 148 255 255 255 255 255 255 255 255 242 154 255 140 255 252 112 156 186 240 212 164 102 252 255 255 255 255 90 56 124 210 255 255 255 255 206 76 76 114 88 28 60 16 20 26 8 16 24 14 4 26 12 28 16 96 88
82 74 154 150 128 90 100 34 8 32 38 20 48 30 8 50 74 52 42 34 4 4 16 48 76 68 106 255 255 255 122 42 42 84 78 104 142 108 114 255 255 110 255 255 255 250 255 255 254 255 194 178 255 255 255 152 236 176 255 255 255 114 255 255 255 142 232 255 255 255
120 178 146 190 170 90 100 200 138 148 104 254 194 255 188 58 172 255 196 152 110 92 212 240 210 58 106 168 255 255 150 160 255 255 198 162 140 166 90 126 234 126 142 100 255 198 226 126 26 98 214 204 102 60 78 100 78 6 44 150 190 36 176 162 255 38 96 138 178 158
90 48 84 78 106 140 118 78 62 126 118 110 98 72 20 22 10 44 76 74 88 68 56 58 20 88 100 132 60 44 68 120 80 54 22 22 56 32 46 74 46 64 90 94 150 138 54 46 24 50 66 40 54 128 102 16 68 52 28 94 152 255 228 255 255 255 255 255 255 255
255 255 255 255 255 255 224 132 106 96 98 255 255 255 60 182 92 78 194 255 255 255 255 255 184 196 122 228 42 255 255 255 226 186 130 154 244 200 188 242 60 210 255 224 114 255 255 255 128 98 210 102 72 222 184 60 248 255 255 252 255 255 106 210 90 74 252 236 184 246
255 255 255 255 255 254 255 255 255 255 82 250 255 255 255 255 212 132 64 70 24 80 26 48 44 70 48 32 12 12 36 54 44 6 36 6 18 18 82 48 42 52 48 44 20 20 62 52 46 24 32 104 78 98 52 46 36 20 40 42 12 14 26 42 28 46 46 74 234 255
255 88 20 56 30 82 136 154 148 255 255 108 204 255 224 158 122 102 210 166 180 255 255 255 20 255 255 186 128 255 255 50 255 255 190 228 255 255 255 198 255 118 210 166 14 238 255 255 255 82 156 255 168 255 178 232 255 250 62 136 148 72 192 128 114 130 14 114 124 136
244 158 224 38 255 255 255 178 34 36 76 128 50 70 112 34 80 138 124 190 108 138 150 68 40 56 34 28 14 118 255 236 255 255 202 84 16 12 10 78 150 128 56 38 26 62 176 255 182 120 124 136 38 50 54 64 54 44 74 46 102 122 82 30 48 76 34 78 150 74
86 110 120 76 26 42 38 28 44 76 100 102 90 82 100 72 54 62 50 30 54 32 88 96 64 86 48 72 110 120 122 118 152 158 255 255 255 180 164 104 255 255 255 255 255 255 255 255 255 255 255 255 255 255 255 255 255 255 190 252 255 255 255 255 190 248 255 255 255 255
255 255 255 162 120 206 228 202 234 174 184 114 186 202 255 255 255 255 255 255 232 80 238 255 255 255 140 34 176 255 128 255 122 226 150 126 106 216 255 255 255 244 44 86 60 36 36 100 150 192 255 255 255 228 178 118 28 70 34 42 42 88 128 104 64 42 16 10 22 18
44 38 40 18 54 42 32 26 70 98 44 54 56 70 72 30 30 30 42 20 38 84 24 52 68 10 50 16 44 40 2 22 28 20 38 64 68 46 28 230 255 255 250 170 102 102 80 98 110 255 255 200 255 255 234 168 206 192 255 198 120 255 255 14 198 255 216 110 204 255
132 130 255 142 232 255 100 84 160 255 255 255 255 82 150 255 180 212 255 94 255 255 255 150 168 242 110 190 138 46 98 38 74 54 80 184 160 196 84 82 94 50 208 255 140 94 70 150 174 78 90 36 60 78 84 28 42 64 56 84 98 128 130 80 144 90 62 56 8 36
54 80 114 112 158 34 62 100 96 104 90 52 32 18 96 184 134 144 194 128 32 172 146 54 36 28 104 80 104 76 108 78 18 34 42 120 120 92 66 10 22 22 112 104 42 10 30 34 20 22 6 42 14 44 24 22 8 28 60 46 78 40 88 86 70 52 46 30 40 140
186 162 206 138 208 156 142 255 106 152 142 28 116 138 140 100 152 162 90 134 218 102 160 164 172 54 180 226 216 255 255 255 188 138 255 255 255 255 255 154 114 84 200 255 255 255 255 255 216 255 255 255 160 70 92 246 255 255 58 60 244 172 60 240 84 192 144 70 164 255
136 204 124 26 146 186 255 242 168 100 255 234 206 210 174 158 204 254 228 250 255 188 116 40 58 54 28 34 32 72 64 52 8 32 28 28 30 44 46 22 34 22 54 58 92 30 12 38 74 14 42 96 78 76 118 82 22 14 28 20 34 90 42 8 50 18 36 38 46 40
2 24 48 18 54 62 74 62 60 72 208 255 255 255 242 180 126 82 70 144 255 196 255 234 104 18 30 62 140 12 18 255 255 200 255 255 128 32 150 252 124 206 255 58 255 158 30 102 100 255 255 255 114 254 255 255 255 255 255 255 138 50 160 218 255 255 255 255 156 154
118 218 244 116 112 54 12 50 48 168 146 130 74 34 214 216 124 176 94 158 64 96 156 102 46 66 148 176 166 158 78 62 162 154 118 40 98 20 108 130 148 104 78 16 106 90 58 10 34 46 28 74 86 82 70 100 94 64 80 154 178 102 92 46 58 54 82 78 10 26
32 4 42 118 102 84 64 84 54 42 32 32 98 102 44 60 54 30 20 26 34 6 52 60 30 14 38 10 38 56 18 104 74 26 6 14 62 72 124 146 90 160 172 255 255 255 238 96 168 212 222 255 255 255 255 255 255 255 255 255 255 255 255 255 255 255 184 68 222 200
168 164 60 202 220 196 120 84 38 160 66 96 192 255 255 255 255 136 170 214 255 255 255 142 255 152 72 254 232 198 190 255 255 255 255 146 168 46 76 255 202 136 100 70 218 255 116 80 200 132 186 202 180 132 138 130 178 144 88 86 74 24 14 40 66 54 52 64 48 62
46 74 62 46 40 8 12 26 38 24 68 52 44 34 6 32 0 60 68 88 48 98 18 58 68 30 34 42 26 10 8 30 72 18 58 38 20 18 28 62 44 44 28 4 14 16 32 38 22 12 42 98 146 222 244 224 218 108 102 70 255 242 232 110 18 42 44 44 168 78
20 255 242 255 255 255 244 172 210 214 144 255 188 184 255 70 98 130 44 114 218 230 216 255 196 38 180 166 242 242 255 255 255 255 200 255 255 255 255 232 180 146 30 202 178 108 44 54 98 116 40 96 114 144 96 62 70 132 94 144 255 255 112 136 116 66 84 56 102 152
110 62 94 102 106 156 136 152 94 74 26 118 184 112 108 84 50 44 32 86 40 184 96 168 98 88 38 90 176 156 92 36 28 78 62 60 42 84 46 90 98 76 80 82 44 24 24 14 18 8 56 90 62 84 48 54 12 30 20 18 48 74 52 24 50 8 26 50 32 40
14 84 86 58 44 74 140 128 110 68 126 114 136 144 255 255 194 134 102 146 190 252 180 76 194 226 116 255 106 138 128 98 122 178 255 255 255 198 255 62 78 156 144 76 128 132 126 120 255 255 44 164 255 255 255 255 255 255 255 198 255 255 255 42 164 122 62 60 38 156
255 255 60 255 255 255 255 112 180 216 224 158 154 14 230 255 146 176 64 38 18 38 54 42 36 52 74 46 26 16 46 80 76 66 66 44 50 38 52 32 28 36 8 28 40 6 22 32 26 26 52 24 22 36 52 22 20 40 84 42 6 74 60 126 72 10 50 26 56 26
22 22 68 28 76 46 16 68 26 80 58 8 30 26 40 40 42 30 36 26 48 30 18 34 72 140 204 180 250 212 122 90 168 214 134 76 78 38 84 102 56 255 255 255 255 96 255 255 255 50 238 110 16 150 230 255 255 255 160 118 222 176 76 62 190 255 198 134 190 154
98 74 255 118 255 255 255 255 248 200 255 255 160 204 78 255 255 255 255 230 28 98 42 114 170 136 208 200 204 255 255 255 176 26 154 255 180 138 102 162 112 186 255 255 255 255 244 66 108 122 94 60 160 188 110 78 74 68 104 88 40 180 106 140 196 120 126 104 66 78
78 94 54 88 126 116 42 44 98 122 58 86 66 96 68 52 4 20 52 28 44 102 42 42 20 26 70 46 40 34 50 10 60 68 42 18 44 28 46 52 42 68 116 94 110 128 162 132 98 156 138 24 120 166 194 86 216 198 110 242 154 172 212 255 136 184 255 255 138 154
146 244 186 255 255 255 116 160 210 136 90 98 170 122 20 116 196 166 214 124 210 255 50 255 255 182 140 254 255 234 255 132 238 100 44 122 200 66 72 42 12 72 46 255 200 248 128 254 255 224 88 54 186 98 150 176 134 68 24 86 86 140 154 130 74 54 34 74 82 28
50 24 34 36 24 18 26 92 88 16 30 56 24 24 30 12 34 42 32 46 88 30 42 42 48 16 40 16 12 34 18 94 92 82 80 74 72 30 38 38 44 46 54 44 116 58 64 82 36 70 68 44 34 38 62 48 54 74 58 32 62 68 54 38 38 50 34 76 142 236
230 216 202 224 255 248 200 220 196 106 52 255 234 255 255 255 255 255 158 218 162 184 132 64 142 132 110 62 154 178 196 255 196 140 64 234 154 92 114 102 124 142 212 112 74 208 255 255 238 255 168 140 255 255 255 255 255 255 255 255 255 180 124 198 188 182 204 255 255 220
68 168 168 90 248 255 148 68 184 188 124 242 242 78 154 255 240 255 255 255 76 78 82 34 48 40 20 52 10 64 38 80 146 42 72 130 120 8 94 106 8 92 34 34 66 104 58 40 78 138 118 116 112 80 82 66 34 58 46 22 8 56 54 22 32 68 60 8 8 2
46 70 48 28 32 20 8 78 94 52 40 12 46 34 60 24 172 196 34 186 164 124 62 94 44 186 255 92 255 90 194 24 92 66 150 208 255 110 255 255 255 255 255 255 255 116 74 90 74 108 110 78 110 80 40 160 212 120 158 255 186 255 222 76 248 204 255 255 206 86
102 198 134 84 76 102 210 20 26 174 184 206 106 246 255 255 194 255 190 224 255 222 44 66 112 74 62 60 62 142 184 150 80 36 58 72 60 60 104 70 46 20 16 18 24 38 20 56 64 44 26 22 20 8 38 30 48 46 66 96 46 38 34 6 58 24 56 22 26 18
4 56 48 82 20 48 12 24 20 16 28 30 32 88 44 60 48 42 26 38 24 22 8 40 50 32 32 12 16 4 30 46 64 44 18 12 26 40 14 6 36 30 8 38 130 254 220 194 166 200 168 234 255 255 198 184 255 128 222 200 90 142 46 16 174 198 150 10 152 220
255 196 152 236 236 190 96 230 86 96 228 255 74 216 170 24 126 174 255 208 130 244 158 255 255 166 255 255 255 255 156 10 32 108 138 222 255 255 255 255 255 255 255 138 255 255 106 130 70 244 162 140 255 255 255 255 10 158 36 116 82 108 114 82 118 152 160 160 178 164
202 132 28 76 112 42 68 108 82 114 76 82 2 14 52 132 98 56 66 82 68 66 52 52 62 52 80 60 72 0 0 14 52 30 52 44 22 18 6 30 62 14 40 18 26 2 70 92 44 32 32 38 16 30 6 22 174 122 122 208 166 74 102 76 134 238 90 222 255 164
162 120 134 255 232 112 244 255 255 255 255 255 255 248 228 252 152 82 82 76 134 204 138 34 244 255 255 255 255 118 255 255 202 46 214 238 255 255 255 158 255 255 255 132 144 255 255 222 180 255 154 210 218 166 54 66 144 70 224 174 226 164 124 54 80 84 116 126 60 150
100 72 80 76 10 68 50 34 42 82 38 42 56 52 58 60 52 46 46 62 30 28 16 6 28 6 16 22 86 58 84 82 34 32 48 20 44 42 66 74 20 106 62 78 42 84 68 46 22 44 48 46 26 82 74 96 62 18 34 20 50 54 42 52 50 36 54 22 22 28
40 12 18 46 30 16 40 56 74 82 54 40 36 34 10 52 84 114 96 108 78 142 178 232 140 126 200 126 222 68 140 56 116 64 66 166 124 108 36 74 114 158 96 172 255 255 255 255 255 230 255 168 134 255 214 12 90 138 248 70 255 40 255 255 38 255 84 255 255 255
255 255 255 255 232 255 255 255 255 255 220 168 255 255 255 224 192 112 184 36 255 255 70 126 92 58 82 138 255 255 212 24 208 182 34 40 60 40 100 134 40 84 44 24 64 64 18 106 128 44 20 10 16 16 104 112 32 104 16 128 76 46 90 94 32 56 98 118 96 24
6 18 34 44 64 34 12 28 64 46 16 34 20 38 16 40 68 64 18 4 28 74 20 24 30 50 156 76 80 124 142 74 128 168 255 255 146 255 222 212 200 32 218 208 82 92 22 170 190 248 206 96 202 216 126 200 255 238 54 88 82 94 168 232 255 190 146 255 255 220
234 58 228 255 255 255 255 255 255 255 14 242 204 104 172 140 150 236 194 220 198 24 8 164 255 228 216 208 255 254 255 198 160 56 72 86 124 94 68 114 160 188 86 30 38 20 56 40 32 60 76 76 74 78 70 50 30 66 56 60 16 22 22 32 54 28 24 50 62 44
46 24 18 14 34 56 56 28 80 44 72 90 76 110 24 30 26 34 42 16 64 72 52 28 18 30 32 48 12 12 56 22 12 62 66 52 76 46 22 74 114 92 48 66 94 94 88 100 94 92 82 68 88 48 60 50 40 34 32 98 204 86 120 68 30 84 242 210 142 130
218 128 102 12 54 56 126 62 90 88 36 66 152 92 108 156 90 228 126 106 134 90 78 106 255 255 76 110 255 255 255 255 196 255 255 182 255 218 222 180 74 88 62 108 64 62 182 255 255 255 255 255 244 148 206 255 255 70 255 255 116 220 255 255 248 124 60 148 218 46
222 255 126 100 134 82 100 72 32 114 152 112 82 86 124 100 56 68 94 28 42 60 60 18 114 148 26 66 52 104 108 20 44 94 100 18 62 92 36 20 4 16 22 32 24 18 34 78 106 64 48 8 18 32 60 56 56 58 16 34 54 58 28 42 90 120 156 68 72 232
198 70 122 206 190 184 246 240 72 198 246 84 130 255 208 255 146 60 124 255 255 194 230 84 200 246 176 224 118 60 46 210 150 22 164 106 246 255 164 208 104 88 106 238 244 255 255 255 255 138 190 228 144 134 120 148 130 120 255 214 212 84 40 136 152 114 98 84 98 144
218 218 128 28 34 40 88 84 104 108 122 94 84 90 142 116 54 64 68 34 46 56 28 38 74 102 152 190 166 170 112 76 94 92 98 136 104 76 24 22 20 26 22 16 46 42 40 36 60 22 30 18 88 40 44 78 74 46 8 28 34 28 74 68 28 32 50 44 10 12
42 90 134 190 146 116 126 132 156 184 158 164 136 106 110 106 98 94 100 98 66 102 158 136 124 110 116 110 116 58 240 255 174 138 244 208 44 98 88 18 144 206 138 72 36 114 44 98 18 100 54 74 128 114 158 248 255 152 70 106 16 82 120 88 232 140 164 240 255 42
255 122 186 166 132 255 78 62 146 100 98 120 154 255 220 188 148 96 110 22 124 255 255 255 160 152 255 255 90 255 255 255 255 104 48 168 255 255 255 255 255 255 102 46 138 144 124 150 76 168 98 42 84 74 36 128 136 90 66 70 152 74 54 66 36 112 72 86 90 42
90 92 42 26 100 144 60 60 26 10 68 90 92 114 68 62 66 102 88 78 60 6 36 56 62 30 20 50 54 92 76 42 34 80 120 132 112 92 100 128 98 118 170 212 184 255 255 162 112 255 220 76 64 176 84 146 126 255 255 222 86 88 194 198 58 204 255 192 138 140
142 242 176 222 255 238 58 255 255 152 160 118 108 90 74 30 255 255 255 255 204 160 150 250 255 255 255 255 255 255 255 255 210 154 70 112 16 80 166 162 8 100 40 14 38 40 74 104 74 62 10 60 60 86 110 168 130 102 110 156 92 40 24 56 110 136 144 164 172 236
186 168 182 132 114 112 128 38 36 42 50 32 42 36 62 34 30 54 60 22 30 40 66 12 86 104 94 54 28 12 20 4 64 20 32 46 38 24 18 44 118 188 240 255 192 196 246 255 255 182 70 72 72 40 36 18 14 10 34 80 14 34 36 54 68 68 94 116 110 160
32 166 255 188 166 158 216 178 134 78 176 220 212 146 76 60 204 184 102 86 22 64 128 78 255 164 76 154 244 154 164 72 106 92 255 118 255 140 255 198 140 164 86 96 176 112 134 254 74 172 198 184 160 110 30 128 178 170 156 158 184 250 228 255 178 134 218 255 255 255
206 255 92 255 255 255 255 88 210 255 255 255 255 68 56 116 72 74 60 132 58 96 78 120 126 54 46 82 20 146 102 66 66 76 106 26 78 120 126 54 106 170 120 118 38 126 42 74 68 28 74 94 92 108 72 30 60 70 18 94 58 18 52 66 32 42 32 40 50 60
32 26 16 40 56 72 90 136 82 16 96 106 154 160 56 88 104 126 168 198 128 104 160 166 56 88 255 255 255 255 255 148 96 124 168 94 144 114 106 156 70 255 236 190 180 202 108 56 180 80 92 26 100 100 34 22 124 255 255 255 255 255 255 255 255 255 194 218 144 92
128 242 94 128 128 106 10 14 72 86 120 54 30 56 78 32 36 58 42 30 20 14 14 18 14 56 92 68 62 142 142 110 76 90 72 24 40 54 46 72 140 180 136 122 100 104 154 68 72 84 66 56 88 30 80 72 92 82 76 16 22 32 60 8 82 80 110 72 48 22
34 68 76 116 38 32 16 80 64 94 184 212 218 224 168 186 196 156 82 128 92 104 114 80 86 120 96 98 76 100 96 102 82 58 64 24 10 68 78 110 96 76 98 156 44 106 60 204 210 154 244 202 138 118 184 202 148 88 172 228 120 150 214 192 255 255 150 200 148 86
158 118 44 128 186 148 232 212 255 148 184 152 22 94 98 70 102 38 255 255 208 132 188 160 112 122 64 94 126 130 186 212 246 152 134 255 255 255 255 200 255 255 255 255 170 255 255 255 255 234 134 224 255 226 140 128 92 24 92 102 86 86 42 34 36 42 70 62 88 150
208 38 36 40 2 84 68 108 114 138 88 138 112 144 128 92 98 18 66 6 2 26 42 52 42 18 44 44 52 82 22 12 24 44 14 12 22 12 20 46 42 16 14 46 86 100 84 84 58 84 34 38 120 164 78 72 88 44 44 158 138 48 36 110 96 218 255 255 255 166
255 255 255 255 110 10 40 98 132 70 255 255 255 255 226 126 255 255 255 164 56 64 120 122 44 62 140 255 255 255 126 255 255 255 255 255 255 255 255 255 255 255 255 166 164 122 78 100 56 132 108 44 70 86 60 60 48 32 54 40 18 14 16 16 34 48 88 122 110 138
126 160 196 192 166 108 124 92 98 80 106 66 28 26 52 62 140 84 136 92 94 56 78 56 50 46 62 54 52 40 114 130 106 60 16 60 46 22 50 96 128 126 86 140 136 112 144 158 184 255 255 218 134 72 36 80 90 168 255 240 136 124 94 62 66 76 56 86 92 66
52 36 50 66 34 30 14 42 62 118 88 108 62 110 68 40 144 246 92 244 226 70 150 186 66 188 172 114 74 116 200 244 110 255 176 255 198 255 184 74 208 118 96 210 255 86 154 255 255 112 255 144 72 100 128 150 60 172 255 34 176 100 138 255 255 255 255 174 194 90
74 140 56 142 148 148 178 198 124 152 255 255 84 255 255 255 255 176 255 255 255 255 255 152 214 255 208 32 70 134 24 22 96 86 72 112 170 124 186 64 146 108 24 28 40 38 64 66 58 132 42 84 52 104 158 70 98 60 50 48 4 28 74 98 20 26 24 38 34 60
22 30 22 32 32 40 26 14 34 40 6 20 22 22 90 82 80 82 84 46 58 78 240 242 94 74 202 76 38 168 132 204 178 200 154 255 162 108 184 255 255 255 198 102 144 158 102 96 104 255 255 208 100 136 130 170 255 84 44 120 86 58 70 72 26 58 106 255 255 255
230 96 82 82 255 255 230 160 150 126 255 188 36 128 100 74 50 64 64 130 82 64 78 30 8 68 48 8 26 12 6 38 36 40 122 172 196 204 220 255 255 214 255 255 255 220 180 154 162 166 118 106 30 12 82 80 64 118 112 72 92 72 82 82 48 2 64 40 6 64
24 92 30 50 56 42 68 100 102 144 164 118 88 116 148 154 200 224 220 182 114 8 64 120 190 196 202 224 232 186 124 122 74 52 32 34 68 48 74 42 42 30 34 44 34 44 16 32 46 108 84 94 104 60 52 16 132 154 62 208 226 196 166 146 116 156 86 78 70 182
255 232 162 222 240 242 78 255 124 178 136 136 255 242 154 132 255 255 255 112 255 228 184 255 208 106 72 90 236 255 255 255 255 180 112 18 12 64 94 126 144 144 136 16 144 202 190 216 142 50 72 178 255 255 54 182 66 255 255 255 76 255 255 255 214 148 214 18 102 68
100 40 26 46 122 188 194 158 240 164 52 74 118 130 98 52 12 26 74 162 78 74 44 64 114 100 72 48 36 38 40 44 90 82 42 12 20 22 46 76 10 22 14 10 36 62 20 26 34 24 24 30 28 44 64 82 106 118 86 26 104 130 202 104 82 86 146 26 60 88
196 192 94 154 106 234 220 34 154 255 255 255 255 224 22 22 178 122 152 170 184 126 210 192 50 170 255 220 100 14 154 152 100 134 212 162 255 255 255 255 255 255 255 244 255 194 152 255 250 152 212 136 88 66 66 20 40 100 106 156 104 26 40 50 50 32 62 52 60 36
52 68 66 94 182 184 160 144 96 118 210 230 214 255 255 255 255 255 250 198 172 134 106 70 138 60 66 48 30 32 64 70 100 126 156 140 114 68 90 80 46 42 52 80 80 114 148 150 118 142 188 106 110 90 64 68 70 32 64 128 172 180 204 208 238 255 255 255 255 255
255 255 255 255 255 255 152 102 64 42 16 16 20 16 44 58 58 48 12 84 60 62 60 12 56 40 188 208 180 255 34 82 40 52 52 26 130 132 40 198 255 255 84 120 92 94 148 218 26 255 255 184 190 172 255 255 255 255 255 255 255 255 222 248 254 152 140 70 172 238
196 234 176 46 114 96 90 178 176 84 148 42 78 96 58 50 138 136 100 44 66 66 80 44 112 255 255 255 180 122 255 94 255 255 172 255 224 26 94 56 94 128 74 42 42 104 76 14 102 160 106 144 142 60 28 66 80 60 98 182 162 82 36 68 62 86 114 62 22 16
30 46 122 50 52 20 54 40 42 36 12 26 12 16 24 52 46 28 24 28 22 28 26 46 96 112 100 142 174 148 84 100 112 140 126 114 126 124 186 116 186 110 152 58 32 44 38 112 122 180 255 255 255 240 130 130 198 106 136 180 255 182 178 224 20 168 154 124 8 62
110 176 158 128 255 255 255 255 255 202 255 255 255 255 255 108 255 156 255 238 82 114 98 56 176 130 76 64 86 126 56 28 44 60 40 22 10 2 14 12 24 98 188 186 234 255 255 255 255 255 220 34 120 174 204 234 255 255 255 255 138 160 162 102 80 28 68 80 46 24
30 42 18 98 122 152 110 108 154 122 168 150 166 190 120 158 156 106 100 86 116 42 80 72 74 78 90 128 162 136 116 142 208 255 255 255 255 255 255 255 255 255 234 255 255 255 255 232 108 66 50 26 36 50 70 92 56 62 16 96 84 52 40 8 24 86 180 255 168 120
24 52 76 128 76 154 152 128 64 78 144 232 216 232 128 98 154 106 218 255 255 168 254 255 172 255 255 148 255 255 255 154 255 255 104 255 255 255 255 244 255 255 255 130 66 134 36 180 90 112 156 242 112 40 104 54 56 58 108 98 20 74 16 48 66 164 88 194 255 255
66 255 216 255 255 255 255 148 26 104 98 146 206 168 76 76 40 48 50 58 102 106 64 46 58 64 60 32 56 84 172 130 56 48 60 26 28 58 46 12 92 122 130 44 38 26 26 26 2 36 62 90 72 78 42 28 18 2 22 16 46 50 52 52 76 94 84 94 150 156
156 176 42 110 120 190 88 154 112 222 248 228 112 94 246 255 255 124 104 124 98 158 255 255 98 100 168 226 255 255 255 88 242 255 210 255 164 100 92 128 60 58 212 158 92 24 128 255 255 255 88 150 255 255 240 216 74 200 100 255 122 182 255 255 255 230 116 104 100 96
62 10 26 34 36 8 24 26 26 30 22 78 80 6 30 108 174 178 148 255 255 255 255 255 176 90 32 192 255 255 255 106 120 72 4 22 32 56 52 54 94 20 68 148 80 116 94 162 118 68 138 116 64 136 122 202 112 34 72 12 114 170 84 64 74 52 80 56 38 90
144 255 255 255 255 255 228 76 138 232 255 255 255 255 255 255 220 98 98 98 68 32 52 64 8 46 46 50 26 84 48 72 78 30 20 80 26 78 50 62 84 72 96 32 212 146 255 220 226 212 220 120 90 74 194 248 255 255 255 252 134 255 148 238 255 255 255 255 104 255
255 96 246 255 255 255 255 255 255 216 255 152 98 255 218 255 40 154 136 198 106 168 186 168 102 82 72 92 128 128 98 86 58 74 104 196 154 118 112 82 134 198 230 214 128 234 255 255 255 18 194 194 72 36 82 88 36 26 24 20 20 34 104 88 48 34 96 98 118 86
28 82 90 58 68 78 34 50 8 28 44 92 68 66 50 14 40 38 52 86 56 24 48 102 80 30 12 36 34 36 66 26 68 48 54 30 84 22 128 190 178 142 100 130 118 138 140 160 160 34 148 164 116 248 255 42 204 222 140 138 130 255 255 58 86 112 88 130 148 110
202 172 126 255 255 180 52 112 56 80 234 255 200 38 162 138 8 118 255 255 255 255 252 255 244 212 255 76 255 255 98 206 255 202 255 214 100 44 52 54 80 6 0 20 16 10 32 62 44 46 70 52 106 90 102 86 84 78 80 146 255 255 255 255 255 255 198 78 124 255
255 176 116 100 62 46 56 82 90 72 132 66 50 42 98 88 150 114 14 130 186 132 148 48 26 54 38 74 82 78 112 58 38 46 52 50 36 10 26 212 255 255 255 192 40 108 220 255 255 255 255 255 255 255 255 255 248 110 84 106 78 34 58 36 6 38 54 80 58 74
26 40 50 8 14 64 84 26 98 92 30 130 132 236 162 248 255 130 255 255 34 176 204 228 68 86 216 226 86 166 208 255 202 255 255 220 116 255 255 255 144 220 255 255 194 255 204 132 168 68 255 254 136 226 162 160 110 26 190 146 22 92 62 32 52 10 38 16 56 86
114 130 110 70 62 112 172 106 84 46 42 64 78 208 255 255 255 132 255 255 110 220 236 182 82 34 60 24 30 30 48 94 64 76 70 72 36 34 34 30 94 128 110 68 46 108 128 50 70 50 8 48 32 84 70 40 44 76 78 16 96 134 122 92 30 36 74 64 30 30
46 28 78 58 38 26 42 116 134 128 255 192 72 52 108 86 110 178 242 240 104 28 178 255 48 200 110 170 176 178 255 255 32 86 90 94 204 255 255 255 255 255 255 148 158 126 192 80 136 196 230 255 255 255 255 130 76 232 255 255 255 112 196 118 255 255 255 144 166 156
224 134 198 255 255 255 255 150 16 22 114 36 36 30 22 24 30 48 24 26 42 10 14 24 84 118 92 26 98 110 108 128 128 140 255 255 255 255 246 90 255 255 244 106 90 54 34 64 88 88 110 142 74 34 66 16 142 120 62 110 255 188 86 42 56 92 84 106 106 108
84 72 90 68 30 38 38 22 118 255 255 224 80 255 255 255 255 255 255 200 110 58 40 88 64 104 160 170 130 140 82 62 76 18 12 40 18 18 40 80 50 42 30 18 8 14 30 110 102 154 90 40 144 176 132 194 254 96 238 255 112 168 255 232 114 240 255 100 212 106
212 158 240 100 255 255 255 74 128 255 255 255 255 255 255 255 255 255 255 255 182 52 250 255 255 236 214 255 226 90 140 20 166 168 212 186 122 100 54 48 72 114 78 50 58 64 34 54 94 128 114 74 26 76 74 156 255 255 255 206 255 100 44 112 124 74 148 184 30 40
80 98 76 86 82 74 20 58 14 74 46 74 130 112 50 64 110 90 44 10 2 42 78 62 34 36 30 20 34 94 136 74 26 6 20 36 42 24 24 22 20 34 52 34 32 34 92 104 60 96 174 162 140 130 100 116 172 104 166 255 255 134 255 255 255 255 126 168 255 255
255 138 58 84 102 178 124 206 190 132 255 255 222 170 136 190 255 255 255 158 146 255 232 255 188 60 170 150 255 255 255 128 182 118 146 178 210 255 255 255 255 164 78 222 255 134 246 142 28 38 108 30 14 28 16 6 12 40 32 44 72 36 36 20 20 30 56 72 134 126
136 106 96 100 102 234 255 255 255 255 70 255 255 255 150 76 62 22 46 72 40 104 112 80 94 76 162 134 70 66 50 52 40 26 16 16 20 78 64 18 20 26 56 50 42 64 122 252 255 255 246 255 255 255 255 255 216 126 98 98 72 58 56 112 66 68 72 118 78 28
50 88 96 40 14 20 12 36 46 50 2 16 22 2 12 32 80 92 48 126 186 32 146 150 118 255 255 100 255 142 255 255 255 142 204 82 136 94 246 142 58 218 255 255 255 94 255 255 255 255 76 255 255 246 210 212 134 44 104 190 140 196 246 56 134 240 255 160 52 172
255 112 170 52 88 28 166 255 244 160 68 78 132 40 96 126 14 68 82 42 106 52 64 76 86 146 94 226 255 255 128 114 138 54 68 180 154 162 74 104 90 124 96 40 36 74 74 60 22 38 72 64 82 46 12 66 70 60 26 20 8 20 60 54 42 6 40 76 106 78
48 20 38 40 30 12 70 44 16 26 72 72 78 24 72 108 48 28 70 108 138 28 92 162 138 126 28 255 255 255 255 206 255 174 68 255 246 255 204 255 255 192 140 255 255 255 255 204 244 70 128 160 184 212 255 255 178 148 176 255 156 255 255 255 255 255 86 74 210 212
255 255 255 255 255 255 255 255 126 124 184 110 152 72 186 255 255 134 54 94 58 48 10 14 34 12 16 18 8 44 62 62 62 60 30 58 8 42 82 110 60 22 60 100 166 44 180 168 255 255 255 122 250 255 255 154 126 68 36 94 86 68 96 58 48 62 144 206 136 116
130 120 62 66 94 94 80 92 50 40 0 10 24 30 64 168 255 255 255 76 255 255 255 255 158 100 82 60 36 14 8 26 30 28 58 74 48 50 56 54 54 62 92 48 60 44 54 78 38 64 26 46 28 14 18 62 46 84 138 56 144 226 48 255 255 255 132 255 255 255
255 202 255 255 228 106 80 132 192 96 204 104 255 116 255 255 255 96 188 255 255 255 80 255 82 124 255 255 255 148 10 154 248 255 255 255 182 255 142 110 106 80 206 242 255 255 228 12 126 192 118 172 255 148 100 120 72 92 56 62 170 102 144 28 134 102 68 64 80 68
136 76 64 38 22 114 250 200 10 164 198 214 200 28 24 50 62 36 60 60 52 76 132 132 52 60 68 56 26 32 8 22 54 52 16 32 50 74 44 12 64 54 48 44 20 10 66 26 36 66 46 50 74 128 140 68 46 54 46 168 184 100 120 60 106 94 184 192 212 255
255 255 255 94 88 150 170 255 244 255 62 255 255 255 198 148 174 240 255 255 255 255 138 255 255 74 184 255 255 255 228 76 66 90 128 242 106 255 255 255 192 255 255 255 255 178 122 120 60 156 255 255 255 255 124 190 100 104 98 58 44 56 18 20 22 16 30 30 28 44
32 42 20 16 32 32 26 22 48 116 40 86 158 118 100 46 200 116 30 255 255 255 174 124 255 255 212 168 88 136 106 44 52 42 44 42 48 86 96 82 50 60 100 130 132 108 82 74 26 42 16 8 30 54 200 255 255 160 196 255 220 110 94 72 32 8 50 22 30 92
98 68 26 20 16 2 32 86 72 34 48 38 64 34 14 18 12 44 38 70 32 10 18 22 26 58 38 60 120 34 106 86 255 255 162 96 114 255 255 200 255 255 255 148 230 255 240 150 136 122 22 106 162 198 80 255 255 208 255 255 34 255 255 255 254 72 204 255 255 214
16 88 62 120 148 196 82 162 88 88 132 144 150 156 76 86 232 246 198 120 60 78 174 212 242 255 255 255 182 154 216 114 80 156 86 92 124 170 136 168 164 32 80 30 26 22 20 58 50 114 216 46 196 130 52 8 20 30 24 72 44 24 68 94 84 26 72 62 4 8
26 40 62 52 54 12 50 78 22 36 30 50 24 14 40 16 76 18 78 46 70 158 106 72 62 26 56 84 84 216 224 90 150 90 224 152 62 118 255 250 255 222 228 255 255 255 255 255 255 230 122 226 208 255 255 255 255 255 214 100 78 68 234 255 255 255 126 108 222 232
64 130 202 200 255 255 255 255 255 232 255 255 255 255 255 255 200 255 255 255 255 255 168 255 255 255 255 244 254 120 14 66 34 38 4 10 22 16 24 58 32 36 26 58 48 52 48 46 90 110 106 214 224 214 80 166 196 76 74 74 212 174 208 164 70 255 255 170 86 72
72 56 16 30 38 54 78 78 52 32 84 76 78 50 54 46 20 12 32 52 28 32 44 174 255 255 78 196 255 208 34 84 76 14 42 60 70 48 44 46 28 48 46 44 64 86 94 106 44 56 98 40 30 72 80 56 40 48 42 52 24 28 12 12 20 40 70 100 154 144
68 210 88 224 255 255 20 255 255 255 255 255 255 255 255 118 255 255 26 52 92 248 255 254 184 255 255 255 255 255 255 255 208 172 255 255 255 124 190 255 255 98 64 58 108 168 160 114 172 100 64 166 114 206 126 64 90 110 66 76 42 150 206 112 192 202 156 250 255 255
236 160 122 8 78 84 106 94 110 52 42 62 82 58 76 70 30 70 90 34 182 176 38 134 90 38 44 32 28 92 48 14 58 122 150 30 50 50 36 8 10 60 60 12 6 6 76 60 10 60 28 56 30 34 60 52 34 52 48 42 74 104 78 46 86 64 66 22 42 184
202 112 248 82 252 166 78 102 172 66 255 224 255 255 126 46 106 255 255 255 242 138 228 214 255 214 80 92 166 200 255 192 88 146 170 64 76 102 102 62 174 136 86 88 192 255 108 255 255 255 224 56 255 255 226 255 56 255 255 255 255 255 255 255 240 168 110 14 152 100
34 40 22 48 14 36 38 32 30 78 56 48 16 48 24 78 76 94 60 132 20 122 120 166 176 146 50 26 56 22 188 184 174 230 192 94 250 220 116 28 42 34 24 28 82 110 78 30 42 56 26 40 42 14 36 4 10 36 68 58 42 16 124 255 222 148 230 255 158 110
64 62 60 44 50 84 112 72 80 66 48 40 72 44 46 66 50 34 8 38 42 30 56 24 38 46 46 24 50 50 6 6 18 12 16 26 84 168 74 206 114 100 120 220 150 255 255 172 122 255 255 146 248 124 255 255 188 255 255 255 226 124 148 82 42 255 255 142 255 54
156 255 255 255 255 255 255 172 206 255 255 128 224 226 255 255 186 140 220 162 134 58 68 164 196 98 82 60 20 34 24 132 120 154 150 200 202 142 46 234 255 255 255 255 255 184 80 10 66 30 64 82 12 42 40 58 72 50 124 64 24 116 62 104 92 14 12 12 46 92
28 28 28 62 140 28 34 24 72 28 36 66 8 40 34 72 90 22 44 62 28 40 54 62 90 118 110 102 110 92 42 32 64 134 88 116 106 10 48 196 190 255 206 162 244 108 30 88 255 166 252 90 255 255 116 208 255 255 194 38 255 255 164 38 60 138 110 192 255 255
255 142 182 112 144 160 200 255 255 255 134 40 66 172 122 255 255 255 146 255 255 255 184 74 174 255 255 255 118 86 170 254 255 212 255 255 160 34 104 128 40 68 56 42 64 54 30 28 30 66 74 36 20 42 112 160 140 172 140 80 66 100 216 255 162 44 116 88 68 36
80 126 158 218 255 190 110 176 212 122 28 48 60 76 118 94 40 12 52 52 16 46 80 60 30 8 28 36 24 62 126 208 228 172 144 204 255 204 46 28 50 30 40 66 76 76 84 46 48 42 74 66 56 70 56 64 22 52 40 22 54 42 52 20 52 60 46 56 60 18
6 10 26 18 28 40 102 98 62 112 74 62 184 180 86 162 255 255 255 255 255 122 255 255 255 206 255 72 56 220 255 236 174 108 74 255 255 255 255 90 84 106 255 168 80 236 255 255 255 255 150 244 255 164 90 118 140 152 202 182 104 28 68 40 102 114 46 14 126 146
204 48 110 38 160 136 118 202 202 182 32 12 72 172 182 52 22 60 42 230 255 255 88 22 26 40 96 170 80 66 82 122 64 60 82 44 44 44 62 42 6 36 92 78 106 32 44 46 34 22 36 66 66 72 62 74 48 28 42 14 24 36 54 42 84 74 88 92 106 86
68 40 92 106 74 60 94 48 108 122 182 255 120 216 178 90 100 128 212 88 255 114 255 255 255 255 255 50 255 76 224 228 255 214 44 50 150 255 255 255 255 66 90 204 246 80 116 228 98 178 194 98 166 152 214 168 136 255 255 64 134 196 255 252 196 250 170 130 218 228
72 255 255 238 154 120 80 54 86 160 76 96 134 34 60 38 54 32 40 70 52 58 14 52 52 80 94 92 200 12 70 64 52 64 40 48 30 98 92 34 38 48 132 218 208 156 130 30 122 236 106 32 34 32 56 16 30 22 62 74 38 24 52 44 56 28 16 46 84 192
242 190 68 52 168 218 116 56 44 24 32 58 44 82 42 26 18 12 4 4 22 48 34 70 72 64 42 64 82 62 16 4 48 50 66 60 58 44 10 24 20 2 36 42 6 42 110 36 162 112 86 222 150 154 90 246 156 202 220 232 162 255 224 255 136 255 122 255 255 188
255 255 104 140 198 255 244 152 255 255 138 198 150 102 255 255 254 90 255 255 255 182 182 126 98 126 166 180 102 70 60 54 86 40 18 90 34 40 136 94 134 246 176 148 56 38 26 42 48 100 244 255 255 255 255 146 72 72 102 246 92 168 96 100 170 126 124 58 176 44
64 102 84 54 32 54 76 38 30 44 42 76 56 70 58 42 56 54 34 46 14 36 36 54 34 4 20 16 54 34 24 34 30 38 70 62 60 38 14 42 110 50 102 104 38 70 86 18 108 58 230 72 172 164 152 84 90 138 92 98 255 255 255 242 254 255 255 255 186 38
218 22 182 224 154 92 255 192 158 116 255 114 82 108 62 142 210 64 136 146 234 136 255 132 252 152 255 238 112 255 255 255 255 255 226 255 255 76 255 255 200 122 255 255 255 255 222 22 172 164 80 4 88 48 76 38 78 52 58 44 26 64 74 56 76 124 248 176 212 78
80 24 22 44 30 52 72 64 70 68 12 66 62 88 130 70 116 120 42 208 238 88 18 20 50 66 86 62 66 78 14 38 52 36 24 60 44 12 50 160 96 52 128 76 84 64 56 54 96 100 86 46 70 54 68 18 18 8 42 46 42 46 28 4 20 34 26 30 30 38
36 18 28 64 32 46 38 24 2 34 26 40 72 44 38 52 114 26 224 138 224 146 198 96 100 255 255 182 56 255 255 255 255 255 255 140 255 255 48 255 255 255 255 250 152 255 255 255 234 255 255 255 255 255 255 255 224 255 255 255 255 250 122 106 122 182 170 22 190 148
96 82 36 102 80 96 76 54 50 128 92 82 12 54 112 118 72 104 24 76 150 62 56 106 122 64 28 8 44 232 255 255 172 200 112 90 88 180 162 8 72 72 52 28 34 44 42 64 28 64 66 44 10 58 66 22 36 88 24 8 26 52 28 22 26 46 38 22 16 70
104 66 30 44 90 30 26 6 26 56 106 6 74 92 18 44 32 10 86 42 130 92 178 94 162 148 194 218 62 8 162 255 255 255 255 255 232 255 90 222 224 72 238 255 70 176 60 242 255 255 255 114 128 88 136 108 176 156 178 228 255 70 178 162 255 44 198 232 180 222
158 112 212 232 255 124 255 255 178 252 255 255 255 244 30 232 255 228 96 10 72 12 66 70 62 48 22 24 26 38 32 28 50 78 76 66 160 216 160 24 28 84 100 114 40 30 42 146 144 68 18 68 152 124 96 10 70 136 122 64 255 250 70 26 12 22 40 78 20 114
72 42 10 22 4 22 12 26 120 122 74 152 142 78 86 36 20 14 32 36 66 56 14 16 24 30 42 14 46 36 54 34 36 16 40 24 12 54 32 30 24 18 26 14 32 48 2 26 22 42 24 58 32 66 58 70 66 44 154 38 240 168 68 198 186 66 224 255 255 255
255 255 255 70 255 255 212 255 255 168 255 228 255 130 62 190 136 255 255 180 255 255 255 255 56 255 255 255 64 255 190 140 255 255 72 98 82 194 112 58 134 94 28 62 68 132 146 54 22 10 76 86 82 56 30 48 120 100 20 80 172 162 198 228 255 255 218 198 184 130
164 152 24 188 234 148 82 58 110 202 208 108 28 30 40 48 40 114 60 76 90 34 8 30 76 56 16 58 32 24 26 4 42 36 70 32 20 48 84 146 48 32 24 38 70 44 24 4 18 48 102 70 118 84 34 84 40 20 118 78 130 110 138 74 44 94 164 255 224 108
104 212 248 62 255 255 255 255 152 36 104 230 255 186 178 118 166 40 138 64 255 208 250 146 194 104 6 44 10 152 164 176 208 188 48 104 70 158 255 140 208 42 186 255 140 196 34 86 84 255 255 255 236 122 22 255 255 164 110 128 144 88 78 58 98 82 98 56 44 48
22 22 36 28 26 50 22 50 92 22 82 58 58 36 60 82 64 98 70 30 18 26 46 18 74 44 58 168 222 170 92 202 102 18 18 48 36 68 82 100 122 130 112 114 92 66 48 140 184 68 76 44 58 42 36 8 34 52 34 48 78 18 22 26 44 28 34 18 32 56
52 20 12 38 76 70 46 22 32 8 76 70 68 26 36 20 18 24 10 30 116 204 114 96 38 48 60 108 32 84 104 138 180 122 160 82 112 100 178 84 255 255 255 14 122 255 255 255 76 255 116 255 255 255 234 255 255 88 255 255 98 255 255 255 255 255 56 255 255 122
62 116 238 255 255 100 154 122 58 148 150 128 82 128 166 206 255 174 84 108 122 92 96 70 66 84 154 102 18 22 24 24 18 46 32 94 82 60 92 54 102 162 154 60 94 56 10 100 236 186 92 74 214 156 102 26 40 112 74 70 72 22 10 62 96 116 68 48 22 20
38 78 36 20 40 32 80 90 104 66 92 114 64 78 62 50 48 36 48 64 50 104 86 8 38 46 4 44 140 28 132 160 96 44 42 80 124 230 255 255 140 138 102 255 255 152 220 248 122 226 255 186 106 228 255 202 255 186 24 170 180 232 96 132 72 68 98 52 110 154
186 62 164 92 154 186 156 130 128 196 86 255 255 255 232 176 116 164 206 255 255 114 255 255 255 228 255 255 48 216 255 156 58 2 18 34 36 34 32 30 58 62 24 40 36 42 20 6 74 70 72 28 10 28 28 68 38 46 44 60 48 60 32 20 18 14 16 30 116 176
150 252 64 18 40 34 60 100 98 50 60 90 118 54 30 40 106 116 66 96 102 18 26 94 70 104 62 34 74 38 126 38 52 62 52 26 32 42 26 50 52 68 60 62 82 84 112 98 44 40 74 42 66 24 6 24 26 16 16 22 82 84 168 24 194 228 66 46 48 162
220 154 102 132 134 212 48 94 255 188 255 222 255 255 255 255 128 255 255 122 255 255 255 255 255 255 255 136 240 255 68 250 240 84 184 255 255 122 255 255 255 62 255 226 255 58 60 102 146 236 255 156 54 118 108 72 158 164 160 164 186 174 214 198 152 122 154 192 154 96
52 90 112 176 172 202 226 170 128 86 20 82 100 30 88 30 46 86 208 134 255 156 168 104 188 96 234 254 130 28 48 22 30 100 108 104 90 38 16 10 32 30 14 56 94 82 72 30 8 46 110 42 50 68 8 28 50 34 56 66 42 152 66 60 22 26 46 40 162 62
54 40 76 112 114 62 12 72 142 255 255 136 255 255 255 84 212 164 72 236 220 178 255 238 242 255 255 255 106 255 46 255 142 106 102 230 255 255 255 190 120 78 170 84 82 112 120 160 122 122 255 224 220 238 255 192 176 220 255 255 255 255 255 255 255 255 255 255 255 196
186 138 10 60 86 90 80 62 42 40 22 84 78 82 60 12 50 44 84 100 56 38 26 44 18 44 26 14 76 74 20 42 6 22 24 22 44 46 40 54 128 92 38 26 52 32 30 44 34 90 114 126 86 96 112 132 122 46 62 108 104 110 132 84 28 50 20 38 50 84
46 78 94 108 108 76 52 62 88 134 158 126 74 34 70 130 48 78 58 14 74 94 62 44 30 22 26 36 40 44 114 60 238 210 154 204 208 196 214 128 152 224 255 255 166 255 166 210 255 244 144 255 246 220 255 255 255 255 255 255 255 255 255 255 246 255 255 255 255 255
255 255 116 208 190 80 255 255 255 84 255 255 152 255 230 90 56 72 100 102 100 96 114 132 162 52 100 12 28 66 122 188 104 18 84 66 92 84 28 108 116 66 122 176 154 144 96 24 18 66 76 50 126 42 46 48 64 56 204 76 120 102 212 198 120 162 168 112 204 192
82 80 14 142 88 68 108 56 38 32 14 42 104 104 66 32 20 42 46 68 64 32 102 52 36 38 42 56 74 56 108 94 34 84 70 62 58 26 118 86 36 42 78 54 98 64 92 186 180 226 224 200 255 255 16 216 242 108 134 220 66 255 140 162 166 222 255 255 255 230
194 255 50 98 150 218 255 102 76 120 255 255 196 10 156 134 208 255 150 150 212 44 106 118 255 134 255 255 146 255 255 255 255 255 255 255 255 250 188 255 255 182 34 80 88 50 6 34 30 24 60 60 40 42 22 50 86 94 70 64 34 64 54 82 24 34 32 56 54 88
54 76 28 24 6 18 42 16 38 56 50 66 78 50 68 30 40 36 20 70 42 54 68 98 146 124 52 28 8 54 58 102 46 106 38 44 74 58 22 26 70 32 60 106 62 30 32 44 70 4 80 70 40 102 184 140 10 106 70 8 32 18 24 4 26 34 36 28 26 22
142 130 255 100 255 255 198 255 238 78 76 60 222 44 255 120 255 255 104 255 255 255 255 255 255 236 255 255 255 70 255 255 255 202 255 174 178 255 255 98 255 56 150 120 42 240 218 170 255 255 68 255 254 100 78 70 154 114 74 118 70 26 12 26 90 50 44 40 66 120
102 108 168 80 86 96 128 108 144 140 116 50 54 50 58 90 92 32 34 44 34 10 62 70 74 66 50 32 156 106 106 64 46 52 30 116 232 196 114 58 56 102 58 124 94 112 108 26 22 14 46 132 114 30 28 18 38 10 26 34 36 62 54 18 50 58 38 38 14 64
100 124 108 58 72 118 58 64 112 90 62 92 78 28 74 62 116 108 90 154 90 255 255 186 228 255 112 84 106 138 88 218 164 255 255 118 96 178 182 156 255 250 94 62 72 180 116 68 128 118 146 146 98 88 126 24 208 122 128 255 255 255 255 255 236 202 255 255 255 255
255 255 255 255 255 208 255 255 255 240 42 54 48 60 152 80 122 82 104 38 16 28 24 42 10 36 48 98 66 42 28 20 26 56 26 50 40 62 60 106 52 26 42 28 24 36 38 10 28 104 176 132 110 44 48 56 56 44 80 62 16 28 60 160 160 44 40 72 52 12
56 116 142 132 86 116 32 48 16 20 64 120 128 58 14 28 34 34 54 66 114 104 42 96 66 120 74 64 46 22 12 24 10 18 4 42 74 66 28 28 132 206 42 255 255 255 255 255 255 255 152 162 174 28 202 174 122 224 255 180 255 255 255 210 74 255 255 255 204 255
255 255 255 255 255 114 236 144 164 150 255 255 255 130 128 255 255 255 255 255 208 255 255 142 92 194 158 194 98 144 46 30 176 156 104 18 92 112 44 98 212 202 158 26 78 40 94 164 62 76 110 138 180 184 146 122 78 16 16 40 26 70 54 48 94 128 80 74 72 92
30 56 38 32 26 28 14 98 192 170 74 166 130 72 52 62 60 46 48 40 42 88 10 34 38 24 60 38 34 36 112 72 52 32 54 52 14 46 22 40 64 24 106 100 84 110 16 56 62 78 28 90 46 62 138 176 98 88 240 174 136 184 134 148 230 214 120 172 170 70
142 130 106 72 74 104 126 120 255 255 114 122 120 80 114 56 100 80 122 118 78 160 200 255 255 248 160 60 204 255 230 176 255 255 242 255 255 255 255 255 255 86 255 255 74 255 255 255 156 220 96 152 130 120 80 80 32 56 56 52 44 56 50 68 34 38 12 56 38 14
28 22 10 30 44 36 40 52 48 104 16 16 28 50 44 34 32 40 80 84 32 46 98 62 38 98 136 80 78 64 74 110 134 118 12 120 110 60 34 72 52 34 114 104 42 116 68 56 38 56 96 82 44 32 50 32 44 20 22 28 40 60 66 132 210 202 104 56 26 12
22 8 40 2 38 66 40 64 6 2 50 144 255 156 255 255 255 255 255 255 255 255 184 142 178 98 82 186 90 222 86 255 255 255 255 255 202 255 255 42 255 255 255 255 158 255 196 136 158 255 255 158 255 255 255 156 186 160 174 166 150 255 84 52 174 108 158 104 228 166
160 116 78 138 120 80 58 56 134 94 20 34 28 30 102 84 32 86 138 192 192 150 92 72 64 22 38 22 16 50 20 116 18 114 88 66 16 32 14 54 40 34 54 20 28 36 36 46 58 82 162 30 162 30 14 38 64 88 26 2 24 70 58 72 82 94 70 28 12 60
58 26 52 32 56 64 62 26 24 24 36 16 114 90 104 28 86 80 22 96 58 86 90 218 192 120 36 74 255 76 156 120 114 40 134 74 26 94 255 168 192 124 100 88 182 202 255 170 236 146 92 70 126 158 70 110 208 255 255 124 94 248 192 48 210 255 156 64 208 206
146 255 255 255 98 132 192 104 236 255 255 255 255 250 255 250 255 255 255 216 255 182 254 144 16 128 54 30 38 50 112 100 70 120 164 136 36 22 4 8 18 6 30 32 42 26 60 52 50 50 38 60 52 74 40 30 2 12 32 62 22 26 102 88 44 22 62 34 50 52
56 86 98 2 104 84 10 36 28 70 30 114 134 84 60 88 98 106 74 16 78 36 10 38 58 44 46 42 64 36 32 28 22 38 46 40 30 14 24 16 32 22 50 10 58 22 62 106 42 18 68 108 132 255 255 255 255 255 255 226 255 236 114 152 226 255 255 255 255 152
255 255 255 98 196 255 255 255 255 255 182 255 255 255 255 218 70 156 208 255 255 255 255 188 255 255 255 255 255 100 246 212 128 72 52 96 14 102 28 90 30 78 38 98 134 158 70 70 58 84 66 26 34 42 24 80 150 154 132 130 110 16 68 98 90 62 112 146 72 42
76 60 100 40 76 98 90 28 16 80 12 30 54 52 34 18 34 34 40 36 142 154 92 44 28 54 68 136 48 8 18 42 60 42 50 58 8 52 30 34 88 22 38 18 20 10 16 16 34 18 42 58 142 72 32 76 82 72 96 56 98 30 134 126 16 64 82 255 255 122
255 194 142 84 110 70 98 66 188 100 242 178 106 255 224 34 6 98 142 234 144 178 30 136 196 156 255 255 255 255 30 255 255 255 160 255 92 188 255 255 255 240 140 190 255 255 182 144 12 190 174 116 126 255 254 255 255 255 232 128 255 255 124 134 158 160 50 122 98 50
112 40 144 255 134 148 64 6 30 44 40 26 4 22 30 28 6 22 22 30 68 56 40 34 24 52 24 24 32 34 46 16 82 98 44 90 78 30 14 48 100 98 76 60 90 44 68 24 22 62 30 74 104 122 58 36 58 52 54 30 60 18 8 36 50 36 28 8 26 58
32 50 16 28 8 22 42 26 24 36 32 32 32 120 255 224 176 54 18 58 76 158 255 74 255 255 255 255 64 255 255 255 255 214 164 218 42 152 146 255 255 255 255 255 255 255 255 255 255 255 104 112 255 210 112 188 48 222 138 230 180 118 146 255 255 96 255 255 255 255
255 255 110 82 178 74 128 154 24 20 112 84 146 160 255 148 96 144 104 138 28 10 44 138 134 118 92 164 110 152 176 136 118 78 34 12 52 58 106 122 152 124 54 44 86 64 114 36 106 94 58 46 28 30 42 20 32 24 12 16 24 74 90 78 42 124 82 68 82 36
30 28 30 34 42 30 14 48 74 58 80 20 48 68 88 68 50 30 20 46 46 32 98 78 36 72 92 54 142 28 96 36 78 138 74 30 186 192 72 220 248 26 102 140 54 42 86 104 186 88 94 92 255 255 166 166 62 86 122 222 255 255 255 244 224 255 255 126 206 255
255 132 255 255 240 255 102 255 255 218 255 194 255 255 255 255 80 146 238 164 90 12 128 255 255 255 196 176 255 174 168 184 216 76 216 220 40 98 180 168 70 88 50 122 255 252 94 38 44 10 10 8 22 18 26 42 20 8 30 42 36 20 18 20 22 14 20 22 48 62
24 22 30 104 102 58 46 74 88 122 132 96 42 56 78 14 38 10 48 52 28 12 92 74 34 52 42 72 56 82 52 38 32 44 36 18 24 18 10 24 48 56 10 6 20 52 38 54 62 48 28 10 8 124 158 56 178 228 255 34 148 140 76 255 255 255 204 255 255 250
255 255 255 255 255 255 255 255 255 126 94 88 194 255 255 232 144 255 34 255 255 204 255 212 96 94 176 62 248 214 255 36 186 255 255 134 98 118 126 255 255 228 220 70 255 160 206 168 62 82 76 48 96 44 46 152 92 60 88 24 114 126 112 72 80 158 106 170 124 162
178 72 24 66 72 50 82 50 110 140 18 102 80 54 38 38 96 124 176 46 78 36 26 46 42 20 20 16 18 16 18 26 58 10 30 100 58 58 30 40 38 56 66 46 50 16 34 78 52 58 72 28 82 68 46 16 50 90 40 78 44 54 84 50 22 44 112 48 106 28
64 36 122 122 128 54 116 232 166 242 206 98 140 42 44 148 20 180 72 114 108 182 255 246 126 142 255 255 255 194 255 255 10 22 70 255 110 68 28 176 255 148 255 255 252 255 174 255 82 255 255 210 255 255 255 255 104 228 4 128 104 128 146 104 234 146 255 255 230 216
102 255 255 154 255 102 50 255 198 182 255 122 255 234 162 86 28 32 20 30 18 24 30 44 48 40 6 14 34 36 42 36 34 14 26 34 28 10 16 22 12 38 42 104 120 58 92 118 76 198 158 48 6 66 58 42 46 28 48 44 38 36 44 10 70 30 36 102 84 48
22 26 28 42 46 14 34 52 52 40 38 6 30 34 20 40 14 10 18 30 26 30 20 108 236 226 174 198 255 255 112 204 255 188 255 198 255 218 255 150 255 255 255 255 255 210 108 226 255 255 204 176 138 148 255 255 202 168 255 255 255 184 240 255 114 214 80 188 114 200
255 210 204 255 255 138 92 68 150 255 255 210 255 255 255 106 134 102 156 136 194 188 194 68 108 18 186 96 34 106 92 52 40 44 130 152 116 156 150 156 128 136 94 84 68 38 60 74 114 144 92 32 30 34 50 50 86 146 120 76 94 50 40 40 48 56 50 30 28 16
58 34 58 70 74 96 70 70 26 16 8 24 100 100 26 26 58 54 120 96 30 52 72 44 44 8 96 112 80 88 66 58 68 38 74 98 108 32 96 6 34 36 50 72 132 154 142 172 176 202 180 38 132 114 144 250 248 136 100 58 56 154 255 238 255 255 255 46 255 84
186 255 120 60 78 234 86 66 94 182 255 184 255 255 255 255 244 255 255 224 164 255 255 255 255 255 40 250 255 236 116 128 68 136 128 255 255 255 255 234 255 88 255 255 192 108 232 196 142 224 172 255 255 52 64 74 96 24 28 76 50 28 20 80 56 8 46 22 38 12
34 50 14 22 48 20 34 16 12 20 42 26 42 96 140 50 74 136 148 255 156 26 14 46 52 46 12 20 42 20 62 90 60 42 54 42 56 16 34 32 38 50 38 30 18 42 44 50 28 22 20 44 10 16 42 44 46 36 24 20 16 42 26 16 8 88 146 255 156 255
255 146 152 255 212 255 255 192 255 230 255 255 255 255 255 255 255 255 184 208 112 182 255 255 255 255 196 54 84 186 255 124 255 255 178 204 12 238 76 162 255 198 255 255 255 255 255 192 255 255 138 255 255 208 255 138 68 48 140 56 250 132 144 110 58 60 28 118 132 140
42 114 136 96 78 124 30 110 116 210 190 130 84 54 70 36 76 90 82 142 50 48 30 54 42 40 40 136 120 108 126 68 84 62 20 36 70 8 22 34 40 10 22 116 100 58 66 82 2 10 88 116 112 40 22 24 20 44 74 16 54 40 34 38 18 28 80 84 42 42
52 44 50 80 152 112 44 58 118 52 116 118 82 52 38 62 76 120 86 166 90 56 70 130 86 146 42 4 134 84 34 36 255 90 216 208 100 184 102 188 96 255 84 148 224 255 214 196 255 255 144 70 255 255 255 255 255 255 232 82 174 88 255 255 255 218 74 252 134 202
62 50 170 102 58 255 242 255 255 255 255 255 255 255 255 164 128 224 80 255 192 228 98 34 84 50 96 168 234 218 46 66 82 66 120 156 114 48 30 48 26 38 20 12 30 30 22 0 26 24 26 48 52 92 164 110 122 52 150 182 86 6 30 28 4 32 26 18 40 28
24 20 14 14 36 42 38 14 22 64 58 36 24 30 40 30 4 40 10 76 158 134 80 30 80 110 98 42 42 22 32 34 48 56 38 86 90 152 255 120 255 255 255 255 255 255 232 255 255 255 255 255 166 255 40 198 255 255 255 255 240 255 255 255 255 255 240 182 116 152
255 255 174 255 255 255 255 190 64 16 255 255 230 118 255 255 255 255 255 234 174 232 255 146 118 112 66 70 184 150 76 128 22 12 126 154 242 32 255 142 132 70 74 44 32 120 162 114 88 240 190 54 172 192 120 46 42 72 66 120 124 50 30 44 84 66 54 92 104 128
106 44 48 36 48 34 56 24 6 22 18 46 50 54 138 204 154 98 52 42 50 46 6 42 30 22 22 2 46 32 48 34 16 40 26 36 48 92 72 38 48 48 54 88 134 68 88 114 104 146 94 54 44 66 62 38 90 166 255 192 72 112 84 138 96 232 128 134 210 198
114 212 255 40 152 252 176 168 178 92 118 146 228 160 140 164 58 255 255 204 58 224 132 234 142 172 198 128 255 230 208 198 154 255 166 255 104 255 238 98 152 156 106 42 104 255 206 226 130 248 246 255 122 110 255 255 156 255 114 255 196 124 255 255 192 72 218 255 162 200
90 94 24 8 170 68 142 74 98 26 112 48 20 28 26 10 20 14 8 20 50 74 104 28 176 200 28 176 158 126 46 32 18 8 8 24 28 28 78 30 6 26 42 46 20 4 6 10 4 32 70 56 48 46 16 16 12 36 20 104 180 138 142 46 140 100 162 84 20 20
30 8 8 110 78 80 168 88 48 200 208 182 255 255 146 255 255 255 255 162 96 255 224 255 30 86 196 138 255 255 255 255 80 46 70 26 104 62 194 255 198 74 156 142 255 255 255 255 176 132 90 255 194 158 92 200 255 255 255 254 255 192 116 92 46 58 116 100 34 106
186 182 76 34 140 108 92 166 48 96 64 84 136 102 106 60 100 142 156 210 102 150 102 210 176 42 52 34 80 80 148 42 32 42 2 30 84 110 76 58 44 76 78 64 68 42 42 52 34 40 20 20 58 40 74 182 198 66 24 4 18 42 72 96 70 30 20 18 78 64
84 74 56 60 42 32 18 42 24 2 12 54 56 82 118 84 122 102 52 86 158 70 64 30 50 106 148 152 226 192 172 20 78 136 106 132 162 255 214 228 152 220 84 52 102 168 106 168 196 88 206 255 255 255 255 254 190 255 134 218 126 255 70 255 202 236 232 255 255 196
255 102 130 255 24 255 208 118 238 255 255 255 255 70 126 146 132 108 238 176 255 252 210 200 255 94 255 248 255 255 136 228 255 254 198 255 255 198 255 255 136 116 96 152 90 232 204 36 68 58 44 32 58 72 98 58 10 16 20 24 74 66 166 86 166 226 126 254 100 52
62 72 66 62 64 42 40 40 66 26 12 14 6 14 16 4 10 14 4 2 10 14 12 40 32 24 14 16 10 96 250 90 142 34 202 110 140 104 14 24 12 18 48 255 182 255 14 94 78 162 192 255 255 70 255 255 255 255 255 230 255 158 152 162 96 198 166 50 68 40
230 118 118 116 132 214 88 74 255 230 166 154 162 202 255 6 255 255 255 118 178 52 188 152 226 162 174 228 255 166 200 88 18 42 48 60 154 138 102 56 138 68 102 48 82 160 120 120 128 255 255 255 255 202 134 60 52 86 12 66 112 36 84 114 190 148 34 74 94 36
114 50 36 78 78 86 66 56 22 16 48 72 36 52 88 44 4 54 32 34 48 24 48 50 66 102 156 24 28 30 14 50 64 54 62 68 20 30 72 22 60 82 62 58 54 20 20 46 28 24 32 74 80 136 92 84 132 54 34 86 120 72 84 92 48 8 16 124 28 220
164 128 204 80 104 152 128 230 246 184 212 104 62 102 222 72 66 158 186 106 206 174 255 255 255 238 255 255 204 148 136 122 38 255 208 90 242 255 138 255 194 210 255 250 255 255 102 112 255 255 255 206 255 224 140 64 126 42 150 216 255 86 255 82 255 255 254 196 255 255
255 255 152 174 114 130 255 255 200 126 82 98 154 94 178 208 20 2 8 80 62 68 56 88 92 104 32 14 64 74 132 68 128 94 174 216 118 188 26 18 28 20 68 60 82 2 18 22 58 48 54 34 26 30 36 24 32 14 8 20 22 24 22 40 30 40 2 14 10 14
128 184 84 148 88 162 94 90 88 114 106 62 92 255 166 255 234 76 60 208 130 178 255 255 58 255 255 255 238 168 210 255 112 224 255 252 72 170 150 70 120 255 116 52 30 156 220 255 255 156 255 255 94 78 255 255 100 255 255 255 122 50 190 112 255 162 68 88 174 134
116 80 184 172 198 186 30 72 38 34 118 94 110 40 78 40 144 160 98 255 255 180 194 166 110 80 76 118 68 78 74 90 84 54 62 174 164 52 116 20 124 96 16 16 22 4 50 68 36 12 74 56 36 118 112 82 46 40 80 68 26 38 78 52 70 90 144 14 22 24
58 64 44 18 90 28 70 20 50 64 40 38 80 24 80 42 28 20 30 38 46 72 90 104 36 60 12 60 52 76 72 40 154 106 40 26 80 62 110 188 90 255 118 72 88 92 50 126 138 40 98 116 74 255 255 158 116 236 228 110 212 66 255 240 158 90 180 132 255 184
172 84 106 158 214 108 208 156 128 202 124 92 184 255 255 106 255 255 255 254 255 94 158 255 255 255 140 70 98 116 30 128 255 216 118 104 66 255 26 255 255 255 118 124 98 255 255 166 255 192 128 255 146 174 192 78 32 10 94 130 56 24 132 46 102 88 24 6 64 102
88 96 208 128 190 244 132 224 72 132 102 10 114 72 124 20 22 12 6 16 22 42 42 28 46 42 32 36 10 26 52 52 62 150 120 98 6 6 26 42 20 166 120 106 72 22 46 20 90 136 244 230 44 255 255 196 255 114 82 132 202 162 160 82 255 160 106 152 156 226
52 100 255 255 128 238 222 118 64 76 204 255 255 134 234 254 246 255 255 255 142 162 255 66 68 255 174 88 255 255 255 255 92 20 180 212 255 255 124 72 90 210 198 112 86 98 248 150 126 50 60 68 44 68 66 34 18 62 124 255 255 255 138 62 34 22 102 106 92 70
116 152 136 60 36 86 180 226 68 50 40 120 46 12 8 84 78 90 52 36 104 8 16 116 82 76 86 36 38 116 128 18 76 64 76 92 112 50 82 64 12 18 22 24 48 26 16 42 22 34 46 52 94 60 26 30 6 4 20 54 20 18 28 68 44 20 46 36 24 20
92 126 112 24 64 32 86 90 172 112 88 86 106 18 74 152 162 74 62 72 94 160 112 200 110 128 238 204 146 88 160 146 255 228 146 98 126 255 252 130 220 50 112 158 112 232 218 80 106 146 230 198 255 138 126 255 70 226 255 234 255 232 186 255 96 196 228 162 34 88
42 80 134 102 124 26 150 255 255 255 196 118 48 255 255 94 255 255 255 248 255 255 194 255 88 100 104 198 182 52 80 116 10 66 46 100 48 20 96 152 32 118 138 20 250 202 202 224 206 208 230 86 110 112 132 142 80 68 50 48 66 48 38 60 30 52 26 138 190 172
52 20 36 90 26 138 156 84 48 12 78 150 44 30 120 134 16 64 98 164 74 255 248 204 255 166 154 176 248 250 255 255 148 150 114 255 42 62 255 150 255 26 48 230 255 255 218 82 136 170 136 174 255 255 180 156 136 188 194 255 255 255 132 255 110 255 255 255 255 170
255 255 104 72 124 86 38 96 255 212 186 158 124 136 200 136 190 90 58 96 144 96 30 44 76 104 146 212 250 170 94 162 146 178 172 146 146 144 56 46 50 116 104 44 136 132 40 112 116 68 22 94 62 18 38 48 56 100 38 50 76 38 48 146 104 90 94 66 62 56
148 128 86 32 50 108 82 76 62 22 52 64 52 50 12 54 52 22 46 64 100 140 120 66 56 48 24 22 36 36 12 38 48 46 16 38 86 120 110 84 94 60 30 28 52 60 78 88 222 164 192 182 162 98 150 200 86 54 44 130 230 255 214 226 170 255 172 72 146 255
160 202 255 255 104 128 255 255 70 232 255 50 60 188 90 255 192 122 214 148 255 64 198 102 112 246 250 255 255 140 255 255 255 255 255 134 184 248 82 24 32 86 255 255 255 170 152 255 255 72 255 174 138 255 152 255 206 208 194 104 246 200 234 255 152 100 255 255 238 60
180 144 230 156 244 255 108 52 208 138 52 188 172 156 255 78 168 146 246 90 188 124 86 250 82 190 110 98 154 12 22 66 124 100 76 34 72 254 255 255 204 18 30 136 154 104 170 236 30 90 86 160 162 122 142 228 78 52 116 38 216 66 255 62 255 200 250 248 162 255
255 255 255 255 255 255 255 66 255 30 255 255 255 255 255 255 234 196 72 232 194 46 212 255 255 255 214 90 246 164 255 255 255 214 94 104 242 255 255 255 255 255 194 162 50 122 255 255 78 194 150 76 120 132 166 80 100 206 64 230 124 132 52 184 180 190 218 210 255 255
196 66 198 255 110 16 126 206 250 255 196 186 144 182 202 84 88 82 104 62 68 98 52 20 28 32 40 58 26 52 42 44 34 110 108 78 48 78 66 36 78 100 82 48 28 66 34 104 20 20 24 18 10 52 48 70 14 54 14 44 112 40 108 86 24 32 56 28 62 38
38 8 88 158 96 94 24 82 84 62 58 30 6 88 56 16 22 134 255 80 76 28 166 156 216 255 158 110 114 130 184 255 238 255 252 248 190 255 178 166 84 140 255 154 78 255 255 198 152 56 255 104 86 92 206 172 164 202 198 255 250 208 220 42 222 158 60 126 255 255
255 255 64 166 240 198 208 172 255 255 238 144 255 170 255 252 134 180 132 130 232 198 162 255 255 255 255 254 46 255 124 142 242 255 196 194 255 146 244 54 100 255 202 255 168 255 66 255 180 110 178 234 98 255 255 150 126 102 255 84 255 136 46 204 154 150 42 46 234 118
198 154 84 96 98 4 80 228 255 174 190 38 64 42 110 255 118 232 140 56 82 238 38 138 128 255 166 86 212 110 136 255 255 255 124 255 255 255 64 252 208 255 255 255 255 255 255 255 255 86 136 100 255 255 255 66 126 168 238 94 196 132 28 76 255 255 186 255 255 255
255 255 255 134 255 42 255 174 254 62 255 255 212 146 255 255 255 118 150 72 48 16 126 14 154 76 48 72 136 230 106 200 255 255 240 208 178 118 104 240 255 238 154 122 130 120 182 164 108 144 40 40 30 94 246 238 112 80 96 16 58 34 52 46 34 30 42 60 60 72
10 12 28 48 32 54 58 148 94 34 48 36 74 98 46 2 80 114 96 48 40 46 26 14 38 22 52 56 18 64 76 74 104 68 34 52 74 68 112 44 64 88 150 138 112 130 74 122 46 96 74 46 36 156 80 98 172 240 126 46 92 26 114 130 102 118 96 52 116 90
146 226 186 220 222 255 255 255 170 36 255 255 76 255 136 255 66 255 84 30 255 82 176 255 206 82 208 255 255 255 58 255 238 226 148 182 212 40 255 255 255 236 255 255 255 144 230 82 255 255 255 255 154 255 255 170 54 88 132 134 98 70 182 255 255 58 130 170 255 255
124 160 130 255 144 156 246 192 180 42 188 172 102 255 172 255 240 255 255 255 94 216 132 255 114 255 50 255 90 255 214 88 60 232 234 82 66 118 180 68 190 186 56 90 110 42 32 190 255 152 255 74 42 154 170 36 242 90 255 62 68 90 228 146 186 255 255 170 152 122
138 255 255 255 255 255 255 12 236 102 146 86 255 255 250 226 140 166 130 52 124 106 255 255 255 255 255 138 44 255 255 255 200 126 22 255 255 252 255 168 255 255 255 255 255 255 54 134 236 86 220 228 255 255 255 234 255 255 132 108 166 172 112 62 86 220 140 142 124 154
122 88 122 64 50 16 124 102 26 50 98 74 140 114 116 150 158 24 98 66 86 100 86 40 16 132 184 182 126 14 8 18 34 70 36 46 102 124 118 46 18 6 32 28 46 80 36 126 114 74 66 30 50 96 22 58 90 68 70 6 48 80 100 62 14 68 82 48 42 32
76 96 78 28 74 98 70 100 56 52 16 106 90 52 100 102 76 56 38 130 46 44 64 192 82 64 238 102 26 150 154 90 88 92 136 50 76 124 186 12 170 128 164 128 170 216 244 162 190 170 236 255 255 255 88 192 255 255 206 86 255 255 255 78 52 168 56 208 255 130
126 255 108 255 44 255 116 232 70 96 120 255 255 208 255 218 136 96 255 255 142 255 255 255 24 168 152 100 176 64 106 192 236 255 255 142 188 226 200 130 186 60 90 255 236 255 150 118 248 188 255 255 255 228 255 86 255 252 202 255 180 90 255 255 162 255 166 132 248 218
116 14 18 180 226 66 152 174 72 72 246 80 174 180 104 22 62 38 255 86 254 4 26 255 254 255 134 188 255 142 100 76 178 255 255 92 255 232 52 255 255 188 255 128 255 186 255 255 196 142 255 234 164 255 255 120 158 166 130 54 190 176 76 255 255 255 255 148 255 255
255 255 255 142 255 20 255 255 255 222 255 118 255 255 255 255 255 228 212 150 255 122 178 136 255 88 176 255 246 166 128 86 78 12 98 104 88 90 70 68 134 174 182 196 244 236 208 84 38 60 186 200 208 74 88 230 240 12 72 76 28 40 40 30 30 18 6 28 38 60
8 18 26 82 76 48 32 94 72 64 64 18 36 16 58 88 74 60 132 38 18 34 26 98 74 100 70 18 102 38 72 76 128 142 74 104 60 24 10 10 8 16 28 56 88 22 18 50 60 54 46 46 56 34 82 74 34 24 32 82 34 42 6 110 98 102 150 124 122 162
52 52 32 54 26 88 114 162 78 148 218 20 144 26 44 124 152 124 72 72 184 255 180 255 110 200 255 255 160 120 146 238 32 132 84 144 236 110 62 224 254 162 255 255 166 250 118 146 136 212 206 255 255 128 255 255 48 152 178 255 255 255 255 74 208 122 152 80 46 90
116 140 190 154 254 174 158 86 132 88 200 104 186 255 255 255 255 255 255 86 134 248 255 184 255 255 255 168 230 124 255 255 255 190 222 255 255 138 255 142 90 28 46 255 255 132 254 50 148 236 138 218 232 255 250 102 128 30 255 88 194 58 86 255 255 255 108 255 110 255
108 116 176 255 255 255 255 255 255 255 198 255 94 255 255 255 255 236 40 102 104 48 70 132 150 6 54 64 54 238 96 48 128 255 255 150 188 110 200 255 255 255 255 142 226 255 255 216 255 255 255 208 255 255 255 255 164 222 224 112 158 122 46 184 252 74 62 108 255 48
255 166 142 136 152 182 148 100 96 80 10 98 178 218 216 218 164 162 122 106 230 104 158 132 152 32 255 255 124 122 102 96 110 42 42 54 30 30 44 62 36 24 14 14 54 82 10 114 52 46 66 20 34 22 50 66 102 42 110 70 30 54 32 60 48 28 14 12 72 0
22 36 60 64 64 54 14 48 66 50 22 46 52 46 26 24 26 36 120 68 120 42 108 130 106 88 14 18 46 64 18 26 38 194 92 30 124 86 84 68 118 136 10 36 16 170 236 116 88 198 80 114 58 32 50 76 110 76 62 62 152 216 255 255 255 255 132 210 68 160
220 172 232 232 112 158 138 154 255 255 50 244 255 40 255 255 166 108 102 174 190 116 86 255 255 172 168 226 70 114 230 255 118 255 200 174 114 42 76 90 56 28 28 50 128 164 66 100 176 118 255 255 255 104 255 255 38 210 180 255 238 78 128 54 168 230 94 255 216 62
210 255 156 38 74 255 118 210 255 255 186 208 236 255 255 194 255 162 255 255 60 255 102 255 255 226 128 126 255 144 182 86 172 68 255 84 255 128 160 255 255 255 250 190 255 255 52 255 244 156 255 158 255 255 202 255 255 204 192 130 56 138 218 210 236 152 140 132 248 12
255 108 90 255 255 120 82 190 255 90 255 240 182 178 255 246 255 255 255 255 255 255 10 202 240 255 255 255 174 214 122 46 138 168 226 222 232 200 94 250 114 244 70 68 46 30 18 40 96 166 144 140 104 86 92 148 178 156 126 104 146 158 255 172 96 255 140 255 255 130
66 56 62 20 10 24 46 14 36 52 42 28 46 52 84 102 48 142 82 60 114 64 34 22 28 4 72 136 58 80 38 26 30 52 16 30 24 48 86 14 44 54 46 24 24 30 64 66 10 54 90 40 24 24 26 30 40 28 70 132 120 54 118 46 68 126 100 40 88 36
46 28 72 124 74 62 210 134 90 62 88 248 102 64 132 210 68 142 184 162 40 60 66 58 90 150 116 34 164 76 126 138 110 200 255 142 255 255 174 218 254 132 90 50 178 250 152 230 174 220 255 78 200 255 255 108 182 112 94 200 164 255 255 255 176 78 160 138 144 40
96 174 255 255 206 200 122 102 102 166 84 84 36 24 68 116 52 132 72 60 60 255 255 144 255 70 54 194 255 194 255 198 158 110 136 10 206 234 255 132 222 255 64 26 132 255 214 208 255 255 255 255 224 206 255 126 255 184 255 255 184 255 68 204 222 255 146 255 255 255
255 118 158 255 152 255 255 76 255 194 255 255 255 255 255 188 136 108 162 255 100 255 74 106 186 136 162 88 184 90 96 124 124 72 192 100 255 162 220 206 138 170 102 255 255 132 198 116 255 255 158 212 94 252 248 255 38 255 255 218 228 255 255 255 68 255 255 146 110 144
166 34 255 128 28 62 14 30 100 224 255 255 182 56 58 100 80 76 42 70 120 124 38 134 154 230 255 152 44 74 38 154 56 24 96 144 255 124 196 142 86 84 118 112 96 72 30 36 14 52 86 42 58 26 78 70 28 118 64 100 132 90 106 50 66 64 36 54 46 70
98 42 38 34 22 20 40 100 68 20 10 22 82 36 48 8 54 72 90 92 64 22 42 8 88 102 74 56 42 160 132 144 80 68 46 52 154 128 36 44 46 38 44 82 48 132 78 112 136 120 210 224 118 200 174 110 140 222 48 24 72 72 86 88 144 160 146 122 100 206
158 60 42 154 56 178 255 238 168 240 242 182 144 110 255 154 198 184 255 255 144 252 92 194 218 255 76 68 22 84 196 104 108 152 164 92 194 164 188 98 154 255 220 164 54 255 255 255 255 255 255 134 104 82 90 148 82 192 46 82 40 255 255 255 246 18 102 146 194 234
255 88 216 102 198 72 162 180 255 114 238 214 10 70 255 255 255 158 186 122 144 98 100 80 210 182 128 150 100 255 214 255 72 132 236 255 255 255 216 218 255 162 255 255 98 255 240 255 255 255 142 234 34 140 150 34 98 252 82 255 255 236 255 182 118 98 136 80 130 206
64 158 74 172 154 246 255 255 156 194 30 148 170 110 255 255 150 106 178 255 206 194 232 255 172 255 255 216 255 250 24 232 255 255 255 178 255 255 255 255 255 112 255 180 158 80 36 60 114 255 255 94 188 74 54 36 26 104 174 196 176 104 74 56 130 214 170 92 116 90
80 42 70 84 80 24 255 94 255 190 148 124 98 80 40 78 38 8 74 58 76 38 54 20 18 58 140 128 20 128 102 52 118 116 28 42 42 38 68 46 120 76 52 34 20 44 44 74 22 22 40 28 82 48 36 42 54 66 48 8 24 36 24 76 148 52 82 48 122 134
114 174 134 182 136 246 194 40 76 36 42 10 16 112 156 24 116 130 112 114 206 122 160 230 90 30 132 154 182 134 82 42 12 22 108 32 158 110 120 28 130 138 144 255 64 255 72 162 232 234 132 170 104 255 162 255 222 230 180 206 255 255 255 255 206 40 50 94 86 82
48 224 166 202 214 198 255 70 255 255 254 255 176 255 255 255 255 255 255 255 255 255 214 110 70 212 120 220 112 120 104 158 200 170 78 84 36 132 94 122 172 124 186 46 156 212 112 158 32 88 56 12 70 104 255 54 255 68 96 40 120 74 22 106 76 208 98 180 56 160
74 190 94 56 208 192 210 255 26 90 180 255 255 216 232 255 106 255 255 255 16 228 124 254 52 120 48 172 100 146 255 170 124 80 128 176 112 255 138 246 132 98 248 106 40 255 112 255 148 46 144 126 142 255 98 255 255 234 255 206 255 146 66 148 84 255 255 120 255 255
86 255 194 255 255 136 168 255 255 82 255 138 238 166 26 80 66 122 132 32 255 255 90 220 84 44 68 88 46 50 132 134 112 60 68 62 88 62 106 118 134 142 158 188 214 242 255 192 255 120 56 110 48 98 64 72 76 30 68 16 54 20 30 52 50 92 94 12 42 104
72 40 82 92 64 96 62 50 76 106 20 52 24 82 122 118 136 134 22 4 44 82 70 38 86 64 48 76 108 86 40 28 46 84 80 14 100 86 124 80 68 136 255 255 96 26 94 72 50 32 74 96 54 132 64 76 72 76 28 34 126 138 186 182 120 106 82 138 180 64
140 100 72 28 112 180 198 74 36 98 184 174 182 255 134 255 255 122 214 216 64 102 92 255 204 238 174 255 128 255 232 255 255 98 204 104 78 68 76 54 68 255 255 230 174 128 122 152 255 238 56 44 126 255 255 255 255 202 12 255 164 36 108 126 120 200 112 192 128 112
174 255 134 120 128 130 158 194 255 210 146 186 255 206 255 244 126 164 164 168 74 118 90 132 255 216 255 90 118 62 104 52 98 132 76 164 162 210 94 200 80 120 104 10 164 116 118 176 248 42 106 255 222 224 255 248 68 255 255 255 32 188 250 178 172 244 130 194 230 206
146 172 96 128 255 218 72 255 255 255 156 62 226 94 108 166 236 190 184 255 156 255 255 255 255 250 255 255 255 255 255 255 196 158 74 255 255 255 244 255 70 120 244 255 255 206 72 208 144 232 255 116 168 96 102 66 124 102 250 164 160 255 255 56 180 32 40 60 96 88
222 232 222 136 150 122 130 68 154 88 104 64 26 84 86 118 232 255 126 158 98 30 86 64 42 76 60 28 70 14 82 60 60 44 66 32 88 54 28 130 110 68 84 58 24 32 62 20 40 108 44 56 120 142 108 66 142 212 130 94 46 128 34 60 74 74 100 124 102 112
34 56 88 58 28 14 52 58 96 78 52 128 255 172 78 124 66 54 60 66 28 100 58 158 120 100 120 110 34 38 60 88 62 140 94 114 138 118 78 240 148 86 136 112 156 136 50 34 28 118 22 168 255 206 32 180 160 220 255 102 178 178 62 164 126 224 130 255 240 202
200 255 242 40 180 200 174 156 80 62 96 82 246 84 66 64 90 58 210 255 92 222 52 255 255 255 255 255 255 255 96 152 40 255 255 255 255 208 172 134 134 158 148 226 12 255 255 104 200 252 236 255 255 255 255 150 252 218 218 255 138 176 120 48 198 112 142 240 186 158
50 156 158 158 98 98 106 108 56 158 132 124 72 56 38 142 38 146 255 12 255 214 68 160 204 100 162 255 255 255 158 110 224 72 148 255 242 202 192 255 80 32 168 255 255 255 254 104 210 142 132 60 162 134 156 138 202 248 228 244 255 148 255 194 255 160 255 255 255 255
255 255 255 54 164 255 255 255 94 200 255 184 116 166 255 255 255 255 255 160 142 86 255 246 130 166 48 122 80 92 14 116 255 244 150 212 42 190 204 178 98 74 110 46 60 52 80 168 168 94 62 60 122 104 70 154 112 176 42 90 86 106 46 10 12 54 44 58 56 20
16 32 78 114 36 50 42 84 26 118 62 78 30 62 44 32 24 22 6 88 66 68 108 74 42 16 52 172 186 132 78 78 22 40 74 132 112 28 150 100 86 118 40 50 90 70 90 66 94 80 98 142 138 64 136 42 42 26 100 28 188 138 168 158 66 28 114 144 24 18
80 80 54 114 62 42 198 58 255 164 8 16 116 252 126 56 116 68 54 90 142 182 66 88 124 196 138 222 255 255 190 242 255 190 255 255 255 226 180 110 255 128 122 138 255 248 122 74 70 44 104 246 146 68 156 56 122 100 255 255 255 206 255 255 112 190 255 255 255 238
80 136 236 224 255 255 255 255 122 170 255 255 174 255 134 255 250 226 230 186 146 218 255 255 255 110 255 232 90 255 218 255 130 196 168 122 80 104 60 246 130 48 46 18 230 164 214 150 104 74 128 120 48 174 166 50 166 190 255 84 255 120 108 114 156 32 230 204 12 210
220 255 20 176 255 255 94 198 44 216 86 70 152 255 60 255 255 56 22 255 254 192 70 230 46 116 84 74 255 190 255 255 255 255 255 255 255 255 255 255 255 88 255 255 174 162 255 255 210 70 255 148 88 134 92 60 255 255 208 102 255 250 224 66 10 98 136 144 186 20
78 54 92 255 114 188 192 124 54 108 202 226 158 106 132 110 104 124 60 248 118 128 36 178 114 154 166 130 114 82 28 46 102 86 30 46 26 34 48 38 42 40 18 106 122 54 24 102 16 140 24 50 18 30 18 12 46 30 14 68 106 26 130 164 102 72 46 30 106 36
14 42 72 86 154 158 58 158 136 2 48 38 90 60 46 22 4 74 156 42 84 54 82 74 60 26 102 116 42 126 106 112 246 140 56 56 148 74 104 96 66 18 34 48 52 76 232 138 186 48 26 46 170 255 44 78 94 110 106 80 94 114 124 214 70 255 70 255 255 255
222 126 255 255 255 30 255 210 206 180 160 176 90 82 255 70 234 106 72 50 70 255 136 78 86 86 254 176 255 255 255 196 255 255 255 255 255 255 142 204 176 238 192 72 255 255 255 255 42 68 46 240 114 255 198 255 24 255 242 140 44 196 228 255 208 186 255 132 22 234
170 238 34 66 138 82 66 22 86 212 255 154 158 190 255 186 255 230 150 56 202 182 136 154 134 56 156 44 184 96 255 172 86 96 224 62 255 144 144 150 176 255 176 58 134 255 130 226 170 202 94 30 106 255 148 255 255 144 14 255 255 255 86 54 255 182 48 118 248 255
255 255 255 255 255 255 186 255 255 128 255 166 255 255 150 255 66 255 255 255 238 134 222 194 62 150 136 174 172 50 255 78 128 62 52 46 158 142 132 110 154 178 88 174 152 92 174 180 142 196 110 52 16 20 46 24 78 84 132 192 76 168 214 80 42 82 88 94 236 128
124 94 74 38 40 30 24 44 74 68 92 78 56 66 116 50 46 102 30 132 46 66 68 80 36 50 86 52 30 46 64 38 34 128 128 110 86 54 76 46 62 80 86 86 100 60 106 142 52 32 78 64 4 90 58 24 42 60 74 32 52 52 90 68 40 54 98 42 74 94
76 180 168 90 30 32 74 56 64 78 116 102 52 26 20 42 152 58 110 102 86 20 194 216 98 88 62 140 108 86 166 166 162 222 188 255 54 18 92 255 255 255 255 214 46 255 222 156 160 184 218 202 234 138 255 212 218 106 78 22 68 198 124 114 122 132 170 118 255 18
120 255 238 255 255 140 52 138 136 142 122 255 150 255 226 255 255 124 28 74 62 108 88 174 230 255 50 255 244 255 255 190 14 226 86 255 252 154 48 255 196 255 56 4 222 102 54 66 108 78 158 152 186 255 255 190 255 255 158 90 255 214 192 96 134 104 96 72 255 188
255 204 30 52 252 120 255 42 216 74 72 255 255 168 160 186 255 36 255 255 210 158 208 248 255 255 255 255 140 255 255 255 240 255 204 255 238 180 242 255 222 255 255 224 255 240 255 236 255 255 152 172 190 255 255 196 86 255 128 255 78 134 130 156 255 242 124 255 136 100
255 22 124 92 30 62 104 92 138 156 134 106 164 154 88 28 138 255 176 255 250 90 24 14 48 74 202 174 255 226 156 96 12 126 56 42 48 162 140 36 90 60 68 88 26 16 38 88 120 204 186 106 94 50 100 62 34 86 62 136 62 44 22 72 110 54 44 32 22 6
40 82 42 50 62 86 82 104 44 14 66 48 4 74 150 148 142 88 74 94 62 70 108 90 78 76 142 126 12 66 8 26 60 52 56 72 26 38 42 118 16 108 124 114 56 62 96 46 28 46 70 54 14 78 40 40 120 86 20 90 182 82 226 92 36 38 38 112 210 16
206 82 82 210 255 224 126 255 194 96 255 255 98 170 132 226 42 210 196 204 150 210 226 76 152 116 32 116 36 72 78 180 74 200 174 80 255 126 255 178 244 255 82 180 202 148 80 156 100 180 255 255 255 255 255 218 156 255 252 255 182 78 120 34 255 252 144 255 106 255
255 255 142 84 255 255 192 108 76 255 255 255 194 84 234 88 110 56 66 94 76 54 178 255 182 64 204 255 154 255 255 244 206 198 220 255 238 152 206 192 255 255 148 42 255 122 255 108 255 96 48 238 255 255 94 18 255 200 124 220 255 232 26 252 255 222 255 255 255 255
255 255 168 255 255 255 255 255 255 255 255 144 255 234 170 90 255 255 230 255 255 255 255 172 255 255 255 255 230 200 192 156 184 204 106 150 188 144 238 164 102 98 46 122 86 62 64 60 22 48 150 132 24 28 126 104 158 208 255 162 132 56 48 28 62 84 96 112 162 110
92 56 144 104 28 28 80 194 176 80 76 32 24 24 42 38 22 104 134 188 202 78 106 106 128 48 6 48 58 90 76 68 60 50 84 70 58 84 76 70 40 66 64 112 132 96 18 92 80 64 16 48 102 134 122 132 124 62 108 146 118 72 70 38 62 116 216 128 110 52
20 34 88 88 146 84 50 6 30 104 124 128 152 116 88 6 82 6 52 98 92 76 50 44 70 40 96 48 78 34 168 70 174 80 66 50 154 144 46 150 184 48 52 142 255 182 174 220 208 255 218 162 100 80 172 152 252 196 118 130 255 138 140 180 82 46 202 146 150 60
54 144 150 255 184 212 122 6 122 126 120 212 238 180 132 82 140 188 132 224 166 204 242 180 255 255 255 180 174 204 156 172 150 230 255 116 186 255 255 255 96 255 188 148 202 164 58 76 90 142 160 188 220 78 132 62 170 130 90 118 76 72 84 88 174 98 255 255 40 255
255 216 154 240 202 142 216 150 170 218 202 255 234 104 255 118 255 160 254 82 98 116 255 255 106 48 170 88 16 196 236 255 255 255 255 255 255 255 255 255 255 206 106 255 255 255 255 255 255 132 255 74 255 232 124 206 238 255 255 255 255 255 72 242 132 255 255 74 255 192
142 198 255 148 192 148 130 255 98 255 196 118 128 28 44 50 76 36 112 210 192 250 216 176 176 190 172 90 126 190 98 44 132 172 170 126 124 200 232 142 120 84 66 72 68 30 94 66 150 56 54 66 36 16 10 44 18 56 108 182 94 90 156 104 62 30 20 18 64 92
118 46 54 38 76 60 24 66 70 92 76 46 44 104 128 84 86 48 64 28 44 138 132 54 94 136 196 206 36 148 80 34 64 50 42 92 72 98 42 46 54 18 80 88 126 132 58 52 30 100 128 66 128 110 86 74 172 98 138 136 56 102 108 30 52 62 90 86 66 90
94 64 168 154 102 158 184 44 198 208 186 66 62 206 255 68 182 255 255 255 160 154 56 106 255 98 255 58 146 255 255 78 46 98 128 160 136 106 186 52 52 98 166 172 188 208 212 124 28 60 88 140 36 42 98 110 124 154 80 255 246 255 186 255 255 216 166 140 90 62
130 255 234 255 180 106 134 152 255 212 180 228 238 176 50 255 170 74 86 66 18 18 98 44 142 138 112 104 104 152 122 140 108 32 94 106 186 255 94 255 248 178 98 242 120 34 70 112 80 170 130 242 244 22 255 70 255 168 255 122 72 82 58 255 234 194 134 82 184 146
68 255 255 194 140 242 255 196 255 255 60 206 88 255 255 152 198 116 255 134 255 255 176 255 255 255 255 242 255 46 208 92 76 188 255 255 255 255 255 234 255 92 202 82 255 142 134 255 255 238 212 134 158 82 94 40 70 52 68 128 50 134 134 162 206 214 144 172 128 144
182 255 255 255 255 255 255 206 136 74 52 60 86 106 90 68 98 90 144 120 78 84 84 68 52 60 44 60 76 120 76 32 118 56 70 52 42 8 114 92 158 86 44 26 94 96 12 82 74 42 66 34 32 84 82 44 108 72 46 0 142 188 74 60 188 188 108 20 196 178
82 78 88 52 20 54 92 62 34 80 54 20 80 102 132 98 66 68 46 62 118 118 168 82 52 128 122 20 62 64 58 144 70 48 48 76 50 118 102 122 140 140 164 182 86 114 24 176 202 116 68 104 196 255 28 156 64 250 212 218 138 96 66 255 178 255 184 176 188 255
90 252 184 146 116 36 66 154 74 48 124 46 120 154 138 152 224 182 34 94 64 30 66 94 74 78 78 48 114 110 120 86 250 255 255 192 138 106 94 110 214 255 255 255 50 78 20 102 255 96 186 130 64 140 86 154 44 86 84 64 74 72 232 162 194 66 126 20 20 180
94 255 82 68 36 106 186 244 102 255 188 116 86 154 64 38 32 70 56 164 60 194 224 136 255 242 248 166 255 62 102 242 38 255 255 88 172 230 244 76 64 220 255 202 66 182 255 255 255 255 56 148 52 255 255 140 182 100 160 255 62 255 255 60 255 255 116 255 255 255
255 164 255 182 94 98 176 255 234 255 255 112 120 122 114 44 242 98 242 168 240 160 42 142 220 252 90 54 104 232 255 238 170 172 186 206 255 246 242 228 190 108 86 98 180 208 236 196 208 144 102 130 72 74 98 60 26 22 94 84 56 64 28 74 86 76 58 108 110 186
146 40 132 164 144 32 96 62 118 34 72 76 92 98 26 138 76 68 94 38 56 60 38 48 72 96 96 14 86 40 66 40 88 140 100 120 166 166 124 60 172 114 28 78 136 98 78 38 14 48 14 20 58 60 74 36 74 80 66 20 50 96 68 54 112 80 12 40 24 20
46 74 80 12 50 44 68 112 96 92 172 88 78 90 52 28 160 196 82 82 34 102 212 144 255 98 58 224 82 90 244 168 180 238 255 255 60 186 132 255 142 254 196 178 148 182 126 84 124 26 176 8 52 106 116 218 255 142 40 112 32 106 136 100 18 66 18 110 58 30
12 88 154 214 255 216 126 86 56 138 240 255 252 228 114 50 80 180 255 92 255 255 255 126 110 252 174 154 102 92 176 148 134 255 126 134 58 46 210 54 255 172 110 84 114 160 252 210 64 228 150 70 16 78 88 36 48 26 130 120 166 50 255 94 180 240 196 98 210 104
28 200 142 250 255 255 32 255 255 112 200 162 255 255 100 194 255 255 255 255 106 255 255 252 255 255 48 50 160 255 255 118 255 255 74 255 255 116 250 32 255 255 232 255 255 255 200 100 116 100 70 106 76 112 46 156 88 184 30 68 238 106 100 142 255 255 182 24 74 68
30 46 82 164 255 224 140 164 142 72 22 60 148 148 138 158 102 62 80 84 90 110 78 92 88 56 92 28 70 116 56 60 40 86 28 58 54 182 162 102 180 46 50 136 186 90 76 48 80 82 74 82 64 96 64 120 140 90 88 50 56 68 70 8 32 32 2 34 100 36
70 100 172 164 66 38 34 32 66 130 98 18 26 30 52 16 84 88 64 72 50 18 22 22 14 16 32 42 84 38 12 34 88 114 68 54 78 106 76 38 66 90 146 34 68 36 64 16 124 12 116 70 76 20 34 102 202 148 60 96 58 194 140 70 114 222 86 255 200 182
160 112 218 156 255 186 44 208 92 232 54 206 255 216 64 184 128 82 160 172 192 26 66 28 106 106 118 30 54 124 42 88 46 104 50 90 62 78 60 40 88 164 208 172 188 38 16 108 172 112 60 174 148 248 98 66 130 104 255 114 255 208 210 255 184 146 68 68 76 144
102 166 234 178 38 202 118 50 206 208 196 8 84 116 50 66 182 186 74 200 76 112 50 88 134 78 130 72 94 122 206 96 232 148 150 190 180 42 136 30 214 122 220 140 228 255 255 140 255 255 60 116 108 255 255 54 66 255 224 214 118 255 255 255 218 255 255 158 255 255
216 138 192 238 255 228 255 255 110 130 144 255 255 198 168 255 132 188 255 112 164 92 60 114 112 255 76 208 228 100 230 255 34 204 206 122 232 102 26 122 178 150 224 86 26 128 74 44 48 98 38 98 122 36 106 100 66 106 168 110 92 70 68 148 96 18 92 62 48 110
108 40 60 24 42 34 32 142 200 96 156 104 24 88 120 46 38 46 14 100 114 106 132 148 112 40 102 56 66 40 82 90 102 42 34 14 6 36 88 2 126 176 176 114 66 98 100 86 104 40 16 16 54 82 120 50 110 62 32 44 44 4 16 36 14 26 2 80 28 64
38 72 84 30 22 42 20 30 86 56 76 10 134 58 66 10 32 128 202 140 116 18 18 22 84 116 174 100 82 14 208 172 22 104 80 255 255 255 118 184 76 246 206 255 220 104 30 152 112 255 64 242 255 255 126 255 194 168 136 112 242 56 18 78 40 112 66 76 74 40
66 68 28 134 60 126 102 72 128 54 190 172 236 166 76 86 58 94 214 228 154 255 206 232 148 126 184 120 255 172 174 255 255 200 86 154 212 104 80 40 190 134 100 92 110 224 96 160 204 208 26 80 84 62 30 80 202 255 224 206 88 70 168 80 96 58 208 62 16 128
224 162 186 255 210 136 146 140 46 36 255 236 202 255 128 255 255 140 255 255 248 88 136 255 234 174 240 188 106 148 56 255 255 255 255 255 255 255 255 255 254 255 255 255 255 255 60 255 255 52 148 244 255 255 255 255 164 234 254 118 158 216 60 114 208 255 255 86 255 146
255 255 204 214 255 218 198 255 236 80 60 42 118 70 56 142 116 128 116 78 58 38 30 36 114 134 96 94 54 50 122 80 116 110 68 62 92 28 52 82 102 36 60 54 32 40 64 110 154 44 130 158 100 58 80 42 66 88 50 154 204 76 78 88 128 68 122 76 86 98
110 128 100 40 52 32 78 100 158 58 88 104 62 70 44 80 24 34 14 40 44 58 16 72 38 88 90 20 22 58 52 44 28 10 50 46 54 66 84 52 52 38 54 16 34 12 46 54 106 70 90 58 182 94 102 36 22 124 102 92 124 64 80 20 84 148 246 138 14 102
176 92 86 78 192 222 255 255 124 190 82 144 168 248 76 52 176 255 226 126 255 255 255 232 252 255 98 222 128 152 255 40 98 96 24 68 170 128 80 52 82 30 66 94 76 56 32 94 120 130 116 20 74 34 78 160 88 100 150 255 106 156 100 148 50 158 218 80 255 254
186 150 112 222 255 146 102 130 54 104 254 198 84 74 118 208 94 255 68 68 218 116 148 84 68 86 255 255 255 255 222 158 186 128 64 26 136 106 60 28 132 154 86 218 255 236 132 255 122 112 255 255 255 255 255 10 255 255 255 255 76 160 148 255 255 255 255 255 255 170
120 220 255 172 255 178 255 255 132 255 188 255 244 255 255 148 255 202 226 212 190 254 240 255 232 136 48 12 18 112 82 252 142 92 255 92 255 255 206 52 255 204 255 164 172 255 182 222 255 255 56 112 100 52 104 148 70 140 116 82 106 150 64 20 34 104 64 48 46 62
76 84 112 82 36 74 80 54 42 48 100 78 46 118 80 58 62 178 255 120 124 174 126 78 82 40 30 46 120 180 220 152 130 132 64 30 62 22 96 140 76 110 70 24 54 112 110 60 116 16 58 74 60 66 84 86 46 80 100 62 58 18 8 84 96 60 12 72 102 116
102 42 74 42 52 72 80 76 90 42 44 56 88 82 34 58 52 76 102 6 56 58 174 66 122 60 16 118 118 92 32 92 124 72 30 94 220 182 86 80 120 120 112 138 178 148 255 255 255 194 58 48 220 126 176 255 255 198 255 255 144 82 255 148 255 136 108 118 70 255
192 120 138 72 64 72 96 52 136 84 40 46 80 16 78 30 12 68 54 118 42 44 24 76 26 114 108 80 46 244 255 255 202 102 152 56 234 174 255 255 204 240 255 184 86 226 208 158 154 198 48 234 210 52 255 172 204 194 64 255 170 188 236 52 142 160 196 255 255 255
255 28 244 42 62 72 134 100 230 152 255 210 62 230 255 255 122 240 102 112 255 72 255 156 255 138 255 255 255 255 246 255 84 156 255 138 255 250 255 255 88 140 254 124 255 244 255 255 255 255 98 255 255 252 36 164 54 244 255 255 94 150 44 78 255 142 36 144 148 184
42 164 216 92 94 112 94 210 255 206 70 48 220 238 178 255 168 86 192 212 226 166 66 74 62 120 30 24 84 122 102 170 42 26 72 78 44 66 88 32 60 150 148 70 42 116 74 16 22 48 64 114 66 104 116 22 38 192 188 58 56 140 140 138 250 218 124 34 44 56
136 132 92 106 62 78 114 102 8 144 176 62 78 78 108 160 210 104 126 38 40 66 106 36 158 102 90 100 148 106 56 46 64 96 84 92 68 112 18 156 154 40 66 64 96 70 62 78 84 36 100 54 64 80 52 40 62 90 42 62 12 64 134 76 130 90 34 100 76 60
84 20 90 102 80 182 218 118 94 30 128 184 50 104 144 72 255 230 246 118 66 208 204 78 255 255 144 255 255 255 255 255 198 28 108 158 182 116 194 244 110 255 98 20 54 46 30 32 110 130 78 84 54 58 30 20 64 158 70 98 42 40 80 30 78 134 20 82 126 182
220 138 154 228 26 188 192 84 30 210 255 255 255 24 84 124 212 90 146 206 255 255 58 255 255 120 255 76 148 232 102 222 52 124 255 194 46 255 244 255 230 144 255 78 94 42 255 242 168 106 186 140 106 255 20 255 50 214 16 226 74 255 64 255 114 240 106 255 122 180
255 255 255 90 255 72 255 154 255 255 110 168 152 134 226 102 255 132 172 255 198 214 158 182 240 232 82 148 140 134 40 166 180 172 66 94 104 72 138 194 58 40 112 150 112 172 138 98 120 255 68 40 86 156 96 255 156 30 188 94 158 126 82 28 64 50 48 50 64 98
56 248 82 36 134 110 118 62 28 22 90 94 80 52 94 138 62 30 44 84 66 114 104 70 102 68 40 134 174 88 84 142 160 216 255 238 208 50 80 98 8 74 44 58 28 38 54 96 54 28 120 76 60 100 108 106 158 86 102 46 18 88 120 170 72 68 170 130 200 174
108 154 26 108 132 100 62 110 40 148 120 40 80 38 52 38 18 62 68 42 76 28 28 58 88 82 62 52 106 62 68 72 56 68 106 38 44 106 64 58 140 96 128 108 42 158 64 60 74 110 106 114 128 238 230 136 255 184 132 152 114 255 180 238 255 232 255 255 150 255
255 142 188 90 108 142 68 88 102 108 218 222 210 70 50 26 40 96 178 106 26 64 40 56 76 74 124 30 146 90 52 42 162 170 116 74 52 48 30 46 28 90 164 232 192 142 24 32 116 64 20 102 255 212 156 108 255 214 174 110 116 196 255 255 106 196 208 252 255 144
164 255 255 206 255 224 94 240 138 255 255 255 255 190 72 108 255 132 78 226 198 152 50 254 255 255 162 226 228 228 240 190 255 255 255 255 255 106 176 140 34 255 255 114 242 58 255 242 74 255 190 140 114 255 108 40 255 40 144 255 236 86 214 212 162 255 226 170 170 80
48 120 230 114 40 114 108 38 138 110 136 164 148 102 108 168 72 94 124 192 186 164 62 168 160 255 255 120 208 148 48 58 156 78 64 46 92 94 84 190 124 136 156 102 94 34 84 46 62 88 104 108 66 32 24 134 144 30 98 72 42 100 128 70 178 172 62 136 180 124
34 110 196 255 255 194 222 34 8 90 52 86 68 92 36 10 8 102 146 98 64 132 148 100 150 150 255 222 156 104 50 94 112 62 168 222 220 166 204 128 34 108 98 76 54 28 96 44 40 112 132 30 50 18 18 40 16 98 48 66 50 20 56 138 172 198 164 54 84 18
132 80 56 26 24 22 64 124 96 88 172 76 126 84 60 82 48 90 98 134 110 28 255 255 250 216 188 202 124 255 100 255 194 184 198 255 255 52 90 255 255 84 130 168 108 142 126 255 208 154 202 122 190 126 50 70 128 142 40 98 92 56 140 148 142 64 82 112 122 48
48 204 104 132 18 36 58 50 68 16 82 52 74 146 174 72 78 118 68 100 138 56 124 168 156 54 172 172 50 208 255 255 222 104 34 88 238 255 236 192 255 255 255 255 254 255 94 255 136 255 186 255 226 255 120 255 238 130 76 212 94 164 182 184 254 172 106 78 130 192
124 114 255 248 204 168 255 255 228 88 80 54 255 214 136 160 226 255 214 255 210 160 220 255 88 86 255 182 255 255 212 124 86 128 92 136 122 66 80 106 28 68 214 202 150 200 84 30 130 98 84 98 182 228 130 178 116 64 216 130 74 76 118 224 194 255 255 72 174 244
90 42 34 54 136 42 92 134 44 102 128 126 36 18 100 62 70 66 28 62 62 72 24 64 68 38 184 50 86 42 32 68 108 12 60 148 70 128 190 94 92 24 188 255 224 184 160 30 36 136 104 112 136 118 112 74 28 84 156 232 120 176 70 50 130 94 164 164 136 102
36 46 106 240 238 46 136 40 102 34 164 110 60 34 80 102 34 96 114 84 88 112 56 34 22 46 6 98 44 6 38 24 42 104 148 120 236 158 98 86 138 18 44 56 32 36 86 118 40 32 64 54 172 88 68 54 28 34 44 50 44 98 208 112 156 220 196 136 255 242
198 255 70 232 80 244 136 84 146 226 255 112 255 255 184 156 178 246 156 242 132 54 158 168 54 108 148 174 60 82 74 56 160 86 138 168 78 40 44 38 218 154 136 208 62 20 34 50 62 42 100 38 62 48 124 50 170 78 108 94 100 90 56 78 186 160 134 222 170 244
160 114 132 134 74 178 218 112 50 190 104 134 190 226 36 255 80 255 132 255 82 255 38 238 172 218 32 84 84 255 138 124 138 112 84 136 146 84 180 100 46 182 98 170 104 182 122 228 150 28 28 98 224 255 222 255 162 224 255 198 255 68 98 255 255 172 212 255 255 162
182 110 60 118 18 152 128 76 134 210 74 60 58 122 178 250 140 74 106 136 46 228 202 158 208 164 228 86 255 154 172 156 68 190 108 255 255 186 174 102 174 42 36 54 138 132 68 128 154 82 128 130 96 44 96 200 68 116 84 174 70 32 36 40 86 74 184 60 96 58
50 78 92 8 40 106 44 66 176 80 40 122 72 166 102 252 180 36 72 146 120 100 132 88 86 56 56 112 138 190 124 74 70 128 108 54 30 64 48 26 96 170 238 160 64 162 118 40 80 56 94 52 84 58 84 58 104 80 6 58 62 72 40 48 34 36 48 50 28 18
26 30 36 110 190 54 180 142 6 54 40 72 60 20 82 102 102 116 46 10 70 86 96 72 90 84 62 58 66 42 50 88 176 134 84 158 56 176 248 52 148 174 180 255 174 255 150 122 170 38 255 182 224 140 68 36 54 222 66 152 80 78 244 238 24 100 176 106 36 106
28 32 154 108 180 98 72 24 28 124 162 106 174 64 26 16 50 6 14 20 102 58 22 44 76 116 88 76 104 104 148 46 62 44 36 76 80 182 174 170 26 48 34 166 42 230 104 140 70 184 136 248 52 102 62 250 126 255 154 248 36 246 84 146 102 102 32 42 58 152
80 46 48 66 62 122 38 106 44 154 176 248 142 218 106 116 18 162 136 134 146 140 102 182 180 188 26 108 255 186 255 148 174 104 255 246 252 186 150 118 144 52 76 76 116 88 255 194 60 166 120 70 106 16 136 160 148 178 90 82 226 136 255 142 120 214 255 234 172 198
58 52 154 255 156 255 255 220 255 158 248 116 58 60 70 76 172 124 156 80 92 176 120 66 16 110 144 90 110 206 128 66 52 38 108 24 162 90 54 68 94 68 76 40 18 108 88 162 202 114 38 128 120 66 112 255 170 84 56 130 100 8 40 112 176 144 98 166 204 80
128 56 42 116 82 48 30 76 82 48 92 114 18 70 38 84 6 52 72 68 56 78 78 108 82 52 126 64 150 110 44 50 24 18 52 78 84 34 60 50 52 30 6 56 168 168 255 178 84 66 14 44 112 136 102 66 26 66 22 110 120 104 38 86 82 98 36 20 18 12
62 76 160 154 106 255 254 52 116 140 100 152 28 128 108 255 248 120 88 160 246 255 54 84 76 142 36 255 16 158 26 212 255 255 142 118 42 72 112 64 52 56 66 76 94 14 62 20 40 126 58 178 76 22 34 52 36 16 6 24 30 26 26 60 66 78 36 80 60 68
42 48 72 26 42 22 20 68 60 32 58 32 86 134 154 240 98 146 130 60 180 182 102 104 90 228 156 222 154 250 136 252 170 172 70 68 10 14 100 102 158 44 38 20 18 72 126 96 172 250 164 178 88 106 186 98 86 74 100 74 112 58 122 70 70 78 76 134 42 176
110 30 108 38 188 188 190 94 130 74 146 56 112 12 126 70 114 226 142 98 114 60 112 112 104 174 108 96 82 54 40 94 42 208 104 70 74 255 110 110 90 100 48 255 230 212 156 38 202 70 192 122 84 34 92 148 134 132 164 60 54 62 38 118 130 106 78 24 76 222
122 90 38 58 58 14 138 100 34 102 136 28 96 150 66 58 30 186 228 74 84 68 190 98 178 224 136 144 54 116 94 64 70 158 186 76 12 96 204 94 48 62 48 112 68 22 90 44 30 52 6 20 36 50 26 88 56 78 56 52 58 30 34 38 26 58 62 154 42 18
68 120 98 42 102 84 140 86 106 64 26 32 62 90 150 148 122 44 30 52 62 72 70 54 56 54 78 38 46 144 52 78 12 90 154 132 54 26 12 16 78 60 174 255 255 252 106 242 104 132 154 255 196 255 126 222 120 78 128 255 250 255 255 212 130 124 242 228 255 106
62 202 224 255 172 88 156 136 144 38 20 26 52 82 54 72 48 58 102 16 110 82 28 80 40 46 16 20 32 58 100 60 42 48 30 62 42 74 18 36 146 128 134 100 70 52 46 72 58 78 12 30 96 180 134 112 32 34 46 96 92 116 128 42 12 130 162 186 154 222
210 255 220 164 106 56 6 32 116 22 112 38 56 44 22 58 120 200 200 104 32 50 14 16 58 68 46 64 92 52 72 30 158 20 134 60 58 132 156 182 168 162 204 58 36 60 58 82 76 78 76 6 130 82 56 108 86 36 86 76 24 56 108 204 56 206 128 22 134 146
66 16 126 64 174 208 160 184 255 188 70 166 94 222 254 222 218 90 180 134 250 202 210 144 140 116 162 82 24 90 204 252 254 224 138 146 98 86 98 98 62 50 46 54 42 62 120 66 70 150 98 94 64 144 90 90 158 250 122 120 98 72 140 86 92 204 126 116 204 114
48 40 26 86 102 116 192 142 70 88 28 28 10 62 60 90 108 178 122 28 78 104 74 66 50 60 36 88 100 98 98 34 46 24 14 60 148 74 84 52 72 92 120 24 68 60 102 102 66 38 34 36 70 122 98 82 32 26 38 60 54 74 100 126 102 22 50 30 64 122
28 88 32 60 174 112 104 70 68 60 98 56 36 110 82 126 255 102 118 78 88 170 118 255 180 255 110 126 150 255 255 255 255 178 255 96 255 232 255 255 90 136 255 255 90 226 234 136 192 106 66 20 46 118 46 22 48 162 94 96 38 32 62 58 60 44 70 46 54 82
88 104 76 60 58 58 18 148 56 156 114 50 76 98 84 20 52 82 62 74 14 26 154 194 116 68 66 58 54 60 42 96 70 22 36 140 110 114 152 200 218 220 130 130 162 100 48 54 110 44 140 66 58 58 72 86 84 68 68 36 66 16 48 40 62 34 22 68 40 46
74 102 88 136 120 142 88 106 190 110 64 74 66 54 48 24 22 54 22 74 44 76 44 120 50 18 84 106 90 84 80 26 124 150 228 118 182 14 4 124 104 48 78 114 104 196 255 144 128 198 252 90 138 88 190 164 116 38 166 172 38 10 134 78 72 6 30 110 42 90
68 122 204 182 106 96 122 70 54 20 100 112 66 50 74 132 70 88 86 88 48 110 24 146 68 144 255 164 66 152 110 148 132 58 38 186 244 96 94 110 40 10 14 98 152 186 212 182 186 76 6 16 52 84 106 172 120 154 158 56 114 148 48 64 56 16 56 60 32 108
164 54 50 82 44 70 90 56 120 20 116 98 130 60 88 90 58 54 18 76 34 16 114 88 22 84 96 60 30 50 26 6 34 106 184 60 40 54 140 132 66 94 64 108 138 66 40 90 48 132 162 82 118 120 138 128 98 16 136 132 148 194 122 204 26 174 124 180 72 255
255 255 255 172 255 255 52 255 216 255 64 208 255 54 255 255 98 82 164 96 56 24 62 70 12 20 60 122 104 78 60 50 40 58 100 12 40 24 20 72 68 168 48 72 46 102 26 154 86 126 66 60 62 36 60 80 76 82 102 82 50 60 120 78 142 72 70 20 10 86
64 82 56 70 46 126 54 54 14 62 34 12 36 38 118 90 86 134 162 62 106 18 22 20 62 38 56 22 52 58 46 32 52 68 46 88 36 126 100 24 38 148 140 192 12 68 116 40 44 36 32 16 22 20 14 36 22 40 52 46 56 4 86 44 68 50 84 52 172 60
132 52 110 72 184 66 196 188 194 134 100 52 102 234 150 255 194 112 90 80 180 166 50 32 74 158 162 126 88 142 6 10 132 6 96 18 28 86 98 88 70 98 118 170 132 92 128 116 20 36 108 126 102 80 88 216 150 82 26 26 38 116 46 168 44 118 232 34 166 66
12 122 152 66 14 120 255 196 32 80 52 32 46 96 90 76 50 64 92 22 10 10 22 20 30 56 34 66 134 72 78 174 124 46 98 138 82 48 40 170 106 50 112 30 24 90 40 78 122 28 70 58 56 30 78 56 54 30 38 82 38 48 110 80 16 44 86 84 82 50
52 64 104 12 176 136 26 108 196 222 34 82 44 62 96 70 48 102 50 172 128 20 38 28 48 68 136 34 176 112 136 116 104 232 160 134 186 206 66 230 255 255 84 255 136 228 116 255 252 255 180 254 182 255 255 164 124 224 190 62 48 18 46 70 54 116 68 44 84 58
72 44 46 80 34 38 24 8 22 30 58 46 30 40 44 62 74 128 132 42 28 40 32 16 30 44 46 44 30 62 102 60 116 46 100 86 70 52 22 98 78 92 20 76 136 212 102 126 118 16 18 28 18 24 30 34 30 94 98 40 90 30 58 66 86 54 74 50 80 88
38 16 28 78 62 66 16 48 34 34 32 78 110 76 28 32 72 66 28 30 32 42 16 8 42 62 64 58 80 88 126 104 90 132 22 54 90 94 78 42 152 114 44 82 126 82 212 196 78 106 94 74 46 96 104 174 108 200 102 34 26 82 90 46 46 152 164 184 134 186
76 78 112 46 136 100 112 120 106 116 80 126 124 114 100 110 106 40 78 102 104 150 138 108 80 170 134 48 60 60 44 94 48 162 94 160 240 78 226 90 58 132 146 26 70 76 158 216 68 150 120 124 60 56 66 52 34 56 48 52 42 74 130 144 160 170 148 16 100 20
255 255 255 255 255 255 255 255 255 255 255 255 255 255 255 255 255 255 255 255 255 255 255 255 255 255 255 255 255 255 255 255 255 255 255 255 255 255 255 255 255 255 255 255 255 255 255 255 255 255 255 255 255 255 255 255 255 255 255 255 255 255 255 255 255 255 255 255 255 255
255 255 255 255 255 255 255 255 255 255 255 255 255 255 255 255 255 255 255 255 255 255 255 255 255 255 255 255 255 255 255 255 255 255 255 255 255 255 255 255 255 255 255 255 255 255 255 255 255 255 255 255 255 255 255 255 255 255 255 255 255 255 255 255 255 255 255 255 255 255
255 255 255 255 255 255 255 255 255 255 255 255 255 255 255 255 255 255 255 255 255 255 255 255 255 255 255 255 255 255 255 255 255 255 255 255 255 255 255 255 255 255 255 255 255 255 255 255 255 255 255 255 255 255 255 255 255 255 255 255 255 255 255 255 255 255 255 255 255 255
255 255 255 255 255 255 255 255 255 255 255 255 255 255 255 255 255 255 255 255 255 255 255 255 255 255 255 255 255 255 255 255 255 255 255 255 255 255 255 255 255 255 255 255 255 255 255 255 255 255 255 255 255 255 255 255 255 255 255 255 255 255 255 255 255 255 255 255 255 255
255 255 255 255 255 255 255 255 255 255 255 255 255 255 255 255 255 255 255 255 255 255 255 255 255 255 255 255 255 255 255 255 255 255 255 255 255 255 255 255 0 96 84 12 58 4 20 14 14 54 10 50 4 28 20 44 16 58 36 12 20 4 6 6 12 2 18 34 12 30
16 6 42 34 6 14 34 60 58 10 16 12 56 22 26 50 60 44 72 122 10 48 26 30 24 24 42 62 40 50 20 30 14 38 12 14 38 46 80 24 58 24 70 8 122 72 98 100 32 36 22 12 32 90 78 46 30 104 126 148 198 40 180 78 54 100 56 76 28 16
22 8 26 12 56 70 56 52 16 26 10 30 24 8 12 8 2 2 20 6 6 12 56 10 20 18 10 30 6 12 18 18 18 22 48 20 48 38 14 26 84 26 82 10 14 20 32 34 32 42 4 88 28 68 20 132 28 26 78 18 4 2 6 4 14 6 6 22 32 18
10 8 8 22 24 2 0 18 2 2 12 20 26 8 30 6 10 4 12 24 14 6 0 22 2 40 18 50 8 20 12 12 16 20 38 20 14 36 34 62 40 22 32 50 62 12 20 12 18 44 46 66 32 34 2 22 28 80 58 36 50 4 34 32 56 12 64 2 90 14
44 22 10 32 14 30 54 12 6 32 8 14 4 56 4 20 16 26 4 8 2 32 56 8 28 64 106 54 18 96 8 46 46 58 66 38 52 22 56 24 28 40 64 88 78 80 90 42 96 10 36 94 62 36 20 4 18 86 36 64 26 44 34 44 48 24 6 20 26 2
2 34 28 18 8 24 70 44 42 0 
