P2
# Baboon
320 240
255
160 60 53 151 99 36 77 100 160 118 201 133 87 80 98 73 78 133 77 160 75 151 154 85 65 97 38 177 174 120 158 117 84 127 123 201 162 185 171 180 187 147 155 202 174 171 90 123 128 123 216 172 73 51 42 95 124 205 225 78 48 134 129 96 133 108 119 107 167 153 123 179 177 156 135 73 125 172 143 191 165 191 215 164 147 187 145 79 116 102 179 119 180 158 182 64 94 102 60 115 114 89 150 181 80 105 77 88 110 140 125 172 174 199 165 104 77 75 160 66 150 192 72 85 158 187 210 177 146 176 184 151 128 189 89 99 73 110 164 192 148 156 116 83 65 57 179 153 168 176 89 126 180 77 168 87 78 171 188 78 171 63 116 96 150 139 153 116 167 153 98 157 165 205 105 114 109 83 82 211 198 161 180 165 175 131 153 190 69 94 146 80 194 175 107 192 207 157 149 185 184 110 131 201 166 147 137 139 98 146 100 157 140 95 117 92 205 148 78 184 103 168 120 87 77 105 135 68 145 138 134 102 155 172 159 120 66 124 185 58 124 141 218 117 171 208 177 215 185 171 207 128 140 167 128 211 176 148 117 180 87 130 179 105 146 189 119 64 110 110 212 201 207 135 235 200 186 195 156 149 233 197 154 177 76 108 149 235 202 219 108 131 127 169 206 137 191 190 141 153 215 164 170 198 160 206 211 191 200 212 153 195 70 106 65 110 137 85 146 196
128 111 43 99 59 49 102 67 94 47 162 139 131 54 59 72 131 200 111 90 84 107 197 139 75 109 37 88 168 116 148 175 87 78 154 126 161 150 211 131 180 138 94 194 202 150 120 96 162 139 146 218 174 85 103 126 128 165 230 41 79 123 123 123 84 85 97 57 119 159 116 189 172 111 174 100 88 223 162 215 199 118 202 218 75 148 83 86 103 127 177 148 113 168 174 70 83 154 102 188 77 76 119 204 168 93 102 46 80 148 86 124 147 175 199 159 79 68 140 87 180 189 110 133 202 212 184 174 79 93 126 111 104 160 155 156 70 133 165 164 92 140 118 58 63 42 120 95 154 145 144 165 114 68 93 111 176 126 184 83 106 82 162 126 134 135 172 54 151 186 77 133 156 215 96 129 111 161 140 221 200 161 105 82 189 145 159 120 68 148 139 89 180 197 143 197 128 125 158 99 116 169 189 215 159 178 92 124 99 118 147 162 162 106 166 90 177 95 143 111 92 100 134 82 127 182 116 78 149 87 118 170 161 165 123 156 84 145 160 41 79 159 177 158 199 215 134 178 135 170 156 172 143 184 120 201 179 105 156 179 130 147 126 76 186 145 94 118 117 64 186 186 155 175 159 80 182 150 149 201 207 182 215 158 146 149 231 231 191 153 210 225 181 150 156 195 164 148 99 154 151 124 159 93 146 138 178 208 180 207 68 60 68 93 155 160 79 72 134 138
77 149 105 90 131 51 77 60 58 36 45 133 97 53 42 62 63 215 207 53 165 150 150 124 129 119 107 208 165 181 111 63 123 44 64 99 67 175 197 150 116 196 167 109 150 202 83 97 145 60 174 94 119 96 92 58 121 113 195 117 168 114 165 187 96 197 92 133 60 189 191 165 226 209 144 189 139 206 182 196 190 204 82 171 144 99 137 178 167 151 145 121 110 165 85 207 185 137 141 85 140 70 169 94 141 116 153 69 66 211 123 166 44 59 93 143 205 116 159 162 110 177 139 102 135 187 187 138 113 131 95 138 139 154 154 138 121 104 109 150 83 151 68 87 121 68 85 176 168 74 97 75 133 167 56 167 185 175 126 115 119 118 86 107 59 123 123 78 164 138 106 135 191 207 126 108 129 191 141 120 191 128 88 77 148 133 121 180 94 114 126 78 106 86 83 78 100 126 86 192 124 103 98 113 143 72 83 121 74 176 205 200 198 136 69 75 134 126 167 65 74 75 90 115 210 144 54 80 85 149 165 167 189 178 148 176 177 169 144 52 129 211 186 143 171 128 69 187 96 175 223 166 146 169 188 188 108 55 130 211 135 192 94 155 95 140 200 199 125 206 207 136 137 94 162 136 197 151 158 177 207 227 126 185 124 175 189 144 195 175 135 110 176 206 227 205 139 174 133 155 190 156 145 195 139 141 228 199 136 156 108 135 133 104 92 92 133 119 121 76
89 83 175 79 105 51 79 104 75 145 53 66 95 51 49 77 66 176 208 94 121 179 107 129 184 104 68 145 205 238 171 176 131 123 60 66 130 225 235 190 160 92 164 98 115 100 185 92 129 160 129 198 179 139 157 75 57 189 190 162 197 188 136 202 95 197 217 180 161 194 194 113 202 168 178 149 223 100 191 138 179 164 88 147 146 102 195 65 72 179 124 170 121 82 54 90 137 113 180 85 114 196 192 211 114 86 137 186 110 100 73 105 176 123 114 170 131 190 174 131 58 63 145 156 63 149 149 128 104 89 85 119 137 167 51 47 141 93 80 139 73 76 87 68 129 55 67 170 154 54 168 89 167 62 48 82 66 76 104 174 90 95 84 52 66 115 161 116 169 196 188 176 162 188 119 141 177 146 186 184 148 113 90 143 109 92 148 110 177 151 116 106 75 99 154 117 95 70 68 108 129 135 73 52 82 79 158 69 85 96 54 106 62 97 93 106 133 133 95 187 75 56 117 177 60 78 92 162 196 178 158 121 209 207 206 195 215 223 213 153 188 218 148 146 119 42 100 63 116 158 59 82 176 145 191 195 49 104 165 194 212 149 237 226 149 216 185 190 223 186 159 187 170 175 217 161 129 139 178 230 85 89 220 208 68 100 115 119 98 179 166 128 186 161 107 65 202 209 182 190 194 147 123 87 111 117 76 134 144 133 187 199 98 92 97 102 156 143 58 200
36 56 123 95 131 64 108 118 75 100 65 78 108 111 105 123 93 139 181 72 54 69 160 121 82 179 205 70 124 96 143 135 134 204 205 138 120 65 137 208 36 64 159 136 60 79 59 121 165 209 85 78 130 213 79 188 164 197 130 221 144 175 172 118 133 65 95 215 186 109 215 182 186 178 125 139 130 151 65 185 194 123 196 188 109 84 113 92 129 98 114 181 80 102 83 46 88 119 133 147 130 172 221 190 131 97 78 160 228 65 168 100 146 196 209 198 125 136 147 197 179 139 78 92 80 85 65 67 93 106 93 74 93 109 72 117 79 162 156 69 59 141 156 120 128 133 155 89 97 76 108 90 94 78 85 155 82 98 114 158 86 93 94 159 55 48 55 154 120 84 121 78 154 73 72 103 104 172 197 201 84 63 113 176 128 66 159 93 95 124 109 79 148 197 197 159 191 160 110 95 83 83 105 160 102 109 145 131 106 124 90 135 64 74 69 54 80 104 157 77 131 111 151 125 102 127 131 103 159 155 151 157 98 197 199 150 168 199 179 86 177 109 129 82 64 89 129 120 133 140 191 213 182 103 72 68 129 159 172 166 167 220 156 108 115 102 188 205 168 175 149 128 174 222 212 230 187 108 148 116 213 228 125 111 211 165 103 116 90 200 123 126 107 148 148 181 169 212 74 95 161 211 160 135 100 162 205 110 192 205 165 174 128 102 161 96 63 67 184 153
36 47 62 90 69 110 69 209 189 139 102 68 97 100 165 156 195 121 161 124 83 136 153 107 38 140 146 119 83 198 167 207 157 180 189 204 160 228 208 202 74 145 126 108 201 140 127 95 98 172 205 210 155 106 157 85 100 139 90 68 164 121 72 46 59 176 128 83 144 90 200 124 170 177 200 73 121 138 118 199 169 162 202 199 140 133 105 189 206 153 114 125 175 185 78 207 135 78 96 84 117 148 80 168 165 160 63 46 62 85 65 117 154 177 172 118 139 126 114 100 181 180 120 106 72 86 127 145 144 78 53 52 139 87 70 146 145 125 182 185 86 67 124 106 100 143 197 105 118 90 78 64 89 134 75 165 72 72 77 103 75 118 62 76 95 75 75 77 69 77 108 177 68 60 69 97 119 124 99 88 68 95 75 75 103 114 84 59 62 83 113 83 87 69 164 184 180 165 109 86 197 131 70 83 121 84 117 94 66 93 53 79 82 162 191 148 158 103 145 149 123 160 186 153 175 175 176 108 111 150 133 191 157 218 166 187 140 114 170 206 74 79 227 188 192 154 191 140 55 63 116 159 111 206 200 85 192 146 144 72 121 87 153 198 134 114 182 135 89 145 206 148 113 190 188 97 117 108 215 209 144 102 218 197 150 156 225 240 106 187 191 219 181 151 140 205 192 140 206 190 135 154 206 199 192 182 202 215 235 204 116 76 207 179 48 57 109 127 103 75
38 74 98 52 147 119 189 79 143 108 127 167 83 198 136 181 134 206 218 158 189 220 205 158 108 137 137 160 137 63 185 160 124 187 107 187 169 202 176 127 170 155 95 133 170 177 210 197 182 118 145 161 139 82 74 96 107 154 210 104 106 184 88 210 154 174 175 42 119 85 155 217 137 169 116 131 96 96 89 89 120 129 165 92 114 126 72 201 82 130 164 104 202 121 117 169 145 169 97 100 150 131 107 62 75 95 67 149 79 108 117 110 131 67 130 145 143 168 109 136 131 121 80 76 56 76 57 78 58 121 80 121 125 70 88 118 146 145 113 113 63 63 63 59 52 55 106 55 52 96 68 87 140 106 104 139 77 105 84 82 80 60 66 78 165 165 136 88 113 92 176 115 128 59 74 143 115 77 53 92 106 144 166 153 79 85 86 75 92 171 96 94 90 82 95 100 79 83 97 93 73 73 154 114 93 138 117 143 125 109 141 151 109 110 100 92 115 154 121 129 155 118 65 135 162 143 191 141 166 136 178 192 103 182 201 168 77 100 131 182 167 135 196 124 140 109 100 123 166 131 67 109 210 187 104 56 199 172 85 106 123 95 159 150 161 204 192 151 140 125 131 197 165 117 140 133 186 192 181 119 156 190 85 72 221 212 191 139 228 199 221 212 167 189 161 179 160 213 116 136 151 164 154 89 80 96 118 80 121 113 102 139 94 115 151 99 147 93 100 113
32 44 92 83 37 33 111 198 144 35 70 85 149 162 204 140 209 62 118 77 52 63 133 218 210 88 126 93 125 107 188 216 190 136 117 217 154 195 168 113 92 54 134 154 189 129 167 176 92 207 180 168 159 175 117 88 138 147 192 106 171 98 178 149 198 166 162 62 72 92 99 171 162 150 80 209 157 184 129 105 115 133 189 205 114 134 177 181 54 189 119 149 178 143 151 104 96 176 125 82 162 198 126 54 67 90 113 49 60 116 75 144 125 139 67 147 178 69 67 148 70 53 57 68 74 72 72 65 65 80 126 147 107 69 88 97 88 93 64 75 74 82 78 54 93 92 135 68 63 38 110 66 86 75 89 82 77 89 76 49 59 72 73 94 89 125 96 98 166 95 172 161 107 76 76 63 63 75 125 115 126 185 181 151 158 103 79 150 116 139 177 154 170 138 78 96 111 129 147 74 162 104 87 118 102 116 126 131 148 165 127 149 93 97 70 111 108 158 164 138 103 93 107 130 161 185 216 191 215 126 200 200 204 199 83 119 139 124 170 162 130 165 141 99 85 134 120 158 127 208 169 145 92 66 125 196 125 93 120 135 120 194 185 109 222 182 146 172 76 96 102 107 174 196 175 184 129 179 149 106 127 137 159 119 201 177 151 184 147 157 190 207 198 117 190 180 190 160 169 111 208 220 89 95 100 85 174 139 157 207 187 189 147 96 182 204 195 143 171 150
84 111 148 109 54 43 22 68 47 53 73 126 96 199 194 52 124 109 151 186 140 171 109 162 155 189 156 67 70 102 176 178 191 138 153 137 117 157 119 166 137 52 47 126 109 212 235 87 97 107 123 128 188 155 86 116 168 185 197 166 151 150 129 128 199 159 196 95 80 195 103 164 143 116 79 139 125 138 191 220 166 196 131 159 117 159 156 185 141 178 136 196 93 76 123 123 89 58 74 67 64 75 85 82 84 74 145 55 43 44 43 51 90 106 93 139 103 68 47 75 110 75 67 56 74 94 97 49 64 48 128 147 141 114 72 89 85 99 78 143 78 52 58 56 90 125 66 60 48 44 94 57 70 154 69 65 62 45 65 56 53 76 96 67 87 73 70 67 98 84 102 89 100 153 78 119 174 115 119 162 185 151 184 190 113 134 161 90 92 205 127 187 118 83 79 117 114 107 135 83 160 149 146 126 143 104 103 124 144 146 89 137 151 187 162 162 212 205 184 131 192 168 118 187 109 102 156 102 189 198 150 194 161 126 154 162 166 191 177 186 162 188 79 166 198 159 123 115 169 70 107 129 98 111 149 149 75 55 59 64 210 169 196 218 172 141 125 168 114 201 213 215 104 55 168 213 221 206 156 159 168 161 179 187 187 210 207 121 104 57 217 208 197 208 113 209 221 186 184 220 94 143 158 190 166 177 215 223 136 201 129 64 94 102 164 143 84 80 141 123
57 92 136 131 72 54 100 73 77 69 94 73 105 138 117 83 69 165 86 207 99 149 124 168 179 223 200 107 123 124 96 159 185 222 181 188 134 175 209 194 176 133 68 87 151 178 225 208 95 90 159 93 166 198 167 84 134 200 195 218 108 110 175 77 181 113 165 191 162 199 117 128 148 156 144 109 54 128 178 215 170 162 131 139 134 168 171 182 164 105 68 149 73 73 110 121 94 65 124 93 49 59 59 129 75 82 74 57 44 51 82 70 59 65 80 144 158 53 44 70 115 92 52 70 77 186 136 140 98 126 94 97 128 136 88 92 95 74 68 125 64 60 60 64 93 123 100 86 56 48 64 62 59 92 54 62 76 72 65 63 67 59 95 80 66 73 57 72 89 124 97 121 134 160 104 156 147 166 166 182 182 171 204 204 89 121 157 150 169 178 167 110 170 154 87 120 105 77 79 123 113 135 88 75 59 62 83 121 131 187 126 136 169 153 162 204 106 146 202 155 128 160 74 143 154 128 194 202 178 209 141 118 187 171 167 176 205 176 129 190 181 135 115 151 204 184 153 175 134 74 78 139 143 126 74 178 48 58 46 115 175 169 222 197 75 75 181 108 218 226 154 115 65 140 187 143 187 157 137 115 103 114 188 180 192 177 175 74 68 123 188 131 209 210 209 212 143 148 232 196 149 198 179 209 119 87 164 118 200 184 83 69 115 186 146 137 92 102 159 192
84 60 56 43 110 113 46 93 157 92 65 166 108 94 160 181 209 184 109 129 145 150 164 87 168 136 177 161 100 107 146 166 209 155 87 164 162 125 119 133 133 89 114 165 181 110 153 130 140 169 113 146 194 83 79 78 80 217 136 106 102 156 117 123 166 89 82 111 177 94 201 192 185 157 138 129 134 174 198 69 140 69 87 113 104 105 73 147 70 125 63 82 178 148 46 128 88 150 100 103 130 157 96 85 85 137 161 97 62 62 43 75 90 65 86 74 85 89 159 96 145 114 146 160 167 138 127 167 138 115 181 169 80 77 64 93 92 97 127 159 80 74 84 83 62 70 144 130 149 68 172 103 89 104 127 108 119 140 168 138 166 131 63 67 94 74 99 178 182 106 206 174 175 160 185 198 182 168 192 189 205 188 111 196 197 195 220 166 75 102 124 162 65 69 52 69 52 72 119 177 185 188 137 146 159 189 158 146 141 192 147 182 139 105 135 167 174 148 151 195 113 169 100 160 124 117 125 119 85 162 172 165 88 105 172 151 144 123 138 136 109 109 126 120 104 184 113 149 110 190 69 72 117 110 149 125 160 110 151 178 70 90 93 95 148 130 58 103 179 140 186 221 221 182 189 95 153 151 189 229 166 126 100 111 184 177 147 123 126 116 161 180 86 89 79 124 227 167 161 189 141 166 72 94 205 174 153 114 169 169 150 110 167 168 92 72 134 114 90 108
62 72 75 35 42 96 58 103 113 114 67 150 210 164 148 167 223 186 124 186 178 202 196 103 96 210 185 186 146 165 109 148 213 204 211 146 185 126 166 131 209 209 168 165 191 167 168 130 160 138 199 195 165 186 200 177 220 191 145 34 170 140 89 79 69 177 47 64 96 139 59 120 78 116 102 123 98 211 138 78 127 113 124 89 83 77 107 170 106 88 117 146 136 166 146 188 160 165 121 175 117 76 188 148 95 100 175 153 111 100 53 66 58 73 54 79 82 87 52 97 105 135 157 155 98 178 200 69 133 137 88 135 111 103 178 93 68 109 119 95 114 149 134 111 85 118 126 106 134 83 186 136 113 80 114 164 80 149 172 156 110 110 138 150 166 146 143 144 178 137 212 190 158 198 217 181 174 225 205 195 164 134 211 205 202 159 154 108 144 189 208 174 113 87 73 111 172 207 147 105 86 115 107 121 201 198 205 181 157 162 106 164 212 161 151 140 141 150 156 136 131 160 200 213 172 182 120 130 117 137 120 118 123 129 102 155 131 108 151 167 96 145 113 85 103 128 136 158 162 64 76 69 118 164 162 125 84 80 188 185 102 77 70 79 167 166 89 80 113 148 198 172 95 98 93 84 188 199 176 210 162 168 145 144 194 185 168 200 175 138 109 86 149 145 204 217 185 138 113 171 134 168 202 180 107 127 161 172 196 182 184 99 103 109 117 125 115 188 148 153
89 58 146 36 41 127 117 94 120 108 43 67 161 178 187 74 127 216 184 154 143 133 215 199 154 205 196 195 200 153 115 62 109 192 208 134 94 169 147 164 174 188 210 167 143 107 159 158 123 189 161 184 210 76 156 114 164 131 185 51 88 141 89 202 145 166 129 68 97 66 85 104 51 68 82 124 78 198 185 119 139 190 125 118 107 128 100 139 171 65 125 124 159 216 158 146 151 197 123 197 63 118 117 121 79 47 102 103 113 143 105 180 39 46 103 66 62 77 79 53 162 130 179 176 123 126 89 95 93 88 82 96 127 162 205 143 133 97 156 90 140 162 93 125 107 124 139 113 124 95 186 140 113 113 174 187 64 169 189 168 137 154 137 172 194 148 141 136 182 177 210 194 153 204 196 162 169 227 209 185 139 103 181 174 148 150 133 99 93 169 138 128 149 73 73 74 89 174 218 155 119 116 159 178 172 187 190 185 176 159 186 158 187 188 143 157 73 66 83 90 77 109 106 95 165 165 187 191 194 164 184 128 92 114 94 78 118 111 108 189 77 117 95 70 178 156 119 116 85 58 83 102 118 192 157 64 77 93 145 136 106 83 196 190 147 115 65 76 167 157 217 155 79 58 128 100 174 162 96 115 180 182 198 222 194 181 187 162 171 190 151 170 200 208 213 181 161 158 192 204 208 207 131 158 205 189 151 166 209 221 78 80 147 165 217 200 172 154 84 126
117 76 72 154 117 70 79 191 140 123 96 78 52 137 96 141 188 85 93 131 135 126 74 159 218 165 94 158 187 131 192 196 161 178 150 171 181 119 177 143 160 108 124 227 197 162 189 182 199 114 143 165 168 189 120 156 204 102 143 59 110 149 164 147 158 96 67 100 93 124 75 97 70 64 77 135 181 179 80 87 84 130 140 117 114 83 73 197 140 174 95 150 150 96 116 83 67 161 105 120 96 104 92 116 72 211 220 159 121 128 138 121 200 218 143 96 126 102 60 130 135 65 68 114 121 156 144 119 78 117 190 161 137 166 158 128 179 79 128 147 96 176 201 162 157 195 206 85 141 169 162 170 75 86 94 73 80 125 90 206 204 134 167 146 170 205 179 140 185 172 212 139 185 211 179 169 198 149 158 200 187 137 90 120 66 98 114 118 86 77 75 60 51 46 52 74 164 174 102 140 95 106 90 103 148 93 89 93 60 125 64 77 63 89 68 83 113 157 130 75 68 64 110 87 129 149 89 75 79 66 107 93 78 97 79 90 64 80 75 96 102 87 87 161 79 70 84 104 145 179 82 102 159 75 72 67 72 73 98 147 208 188 125 106 80 75 57 106 196 178 69 51 51 51 99 166 90 94 230 213 87 110 213 220 225 225 188 176 186 130 168 172 128 136 198 194 153 202 212 229 175 171 153 196 238 236 172 125 126 159 202 170 147 120 67 66 119 90 125 104
121 74 80 56 63 90 154 141 84 96 153 179 160 73 170 150 131 82 78 130 97 73 126 83 111 217 170 158 151 149 90 93 96 125 159 201 144 181 164 73 162 87 114 114 156 198 121 197 182 82 98 48 117 133 120 88 92 84 77 79 106 177 158 63 113 205 159 103 137 100 141 85 170 149 111 123 196 156 76 100 46 67 185 90 80 114 187 93 113 148 111 82 106 75 76 117 155 86 150 133 66 41 48 58 99 160 120 103 63 57 125 130 149 186 169 65 53 68 55 77 46 52 136 69 65 111 106 83 145 70 180 209 115 109 141 162 168 121 113 188 170 200 188 148 225 232 206 120 219 182 143 86 76 69 96 77 103 169 155 197 147 156 161 175 175 158 164 123 181 188 157 185 128 153 208 170 167 179 205 121 141 109 137 104 86 66 87 115 136 93 67 64 57 68 94 156 97 93 102 84 104 96 137 92 78 74 62 76 83 104 100 107 103 119 73 58 93 84 88 149 78 76 77 75 167 139 85 64 88 68 92 93 74 103 76 83 87 97 100 118 69 75 79 103 103 117 158 128 82 86 73 74 85 77 117 103 88 78 102 133 110 137 98 78 156 178 196 123 105 98 128 76 126 198 231 218 109 135 47 100 100 85 97 120 191 185 170 188 198 219 201 192 158 151 139 125 155 135 168 121 117 148 178 195 159 177 175 179 155 160 106 130 83 82 117 105 117 133 82 109
64 74 73 165 145 44 84 166 123 144 153 140 83 78 55 75 180 168 127 105 174 187 145 147 211 179 114 221 188 154 220 215 166 196 209 206 178 87 180 213 131 120 197 206 190 184 107 134 64 118 80 103 133 180 139 162 144 103 83 67 111 170 169 62 46 64 66 78 87 99 106 63 76 141 87 99 134 141 170 126 70 67 78 79 88 87 63 70 123 106 69 88 74 76 65 130 124 52 70 55 78 120 138 119 73 117 114 69 123 93 69 89 70 103 76 67 56 68 137 94 65 63 54 58 51 76 82 104 54 43 60 57 107 76 147 153 185 139 117 88 201 147 151 134 160 151 172 148 187 185 154 162 133 167 110 97 82 72 80 106 104 82 114 95 201 129 158 160 191 208 147 145 185 170 102 136 136 84 139 87 90 67 77 63 75 78 78 90 79 68 97 90 80 113 144 128 136 139 128 72 66 68 120 76 59 80 146 99 77 99 86 83 90 63 77 72 77 85 83 75 96 96 96 93 74 79 53 62 59 74 73 68 114 64 77 68 103 69 80 88 72 63 41 73 44 65 51 64 60 55 176 197 133 184 156 98 159 117 60 78 77 84 84 64 72 69 146 127 63 70 197 223 194 130 88 93 102 106 125 105 197 159 198 154 198 205 222 219 135 190 165 176 206 202 154 149 127 102 154 161 200 205 178 191 139 136 137 121 102 107 181 197 199 191 102 102 96 85 171 171
80 127 88 138 164 118 77 119 165 77 148 168 123 49 85 110 149 205 123 114 147 185 187 88 140 207 213 196 213 100 186 225 216 98 158 191 189 164 117 159 212 210 189 153 146 196 192 78 96 116 111 79 75 85 89 73 58 56 72 67 63 95 148 65 73 113 60 138 117 67 82 52 80 110 97 66 100 125 103 98 73 78 89 75 102 75 66 73 108 115 63 62 56 67 69 114 89 65 86 51 109 145 78 72 73 127 150 118 157 146 86 137 104 88 95 72 70 78 119 96 43 66 64 65 72 63 66 76 66 89 56 57 115 92 109 123 174 160 120 77 143 100 131 84 100 134 176 134 149 134 97 175 148 169 166 82 76 99 108 110 98 105 69 70 104 76 95 107 149 170 175 189 169 140 158 159 143 96 131 77 82 92 84 80 90 73 75 69 62 59 85 88 82 85 118 99 115 106 126 72 94 78 100 72 102 93 94 82 92 88 96 100 105 84 72 62 85 94 88 72 95 120 66 66 88 89 84 58 84 88 88 72 66 52 63 79 78 70 63 72 60 79 120 69 60 51 36 63 78 92 136 129 119 154 53 63 69 53 106 75 147 115 92 161 139 88 59 72 68 105 201 150 134 175 187 189 124 172 172 150 162 199 170 185 218 196 226 201 217 213 120 158 174 174 201 178 167 146 130 177 166 167 171 184 123 119 60 90 136 171 196 149 113 109 123 116 86 133 182 175
68 88 120 55 86 54 58 64 60 189 139 126 194 170 168 116 191 212 204 145 123 123 182 143 100 144 177 166 204 205 200 133 168 205 187 137 149 186 98 93 150 179 186 198 211 196 198 169 182 149 164 116 47 66 95 51 43 35 58 68 78 139 195 177 109 89 161 99 62 182 205 184 54 79 110 58 60 116 85 67 67 51 89 92 64 96 58 69 66 55 73 97 99 69 104 118 84 104 63 56 36 54 67 57 79 59 77 47 52 56 72 75 102 96 86 85 66 51 49 51 84 68 92 75 92 58 58 69 69 74 89 77 64 73 104 116 93 86 79 164 136 102 139 121 131 126 93 92 66 115 190 207 140 123 77 63 77 62 72 49 62 88 139 160 131 74 76 98 77 136 74 76 96 94 92 88 84 126 119 87 89 84 76 83 83 90 87 89 65 87 120 94 75 94 107 77 74 82 97 113 79 68 60 65 56 70 67 58 67 63 121 119 87 76 124 82 86 95 97 97 87 89 76 75 66 70 73 88 89 67 85 75 56 74 126 94 75 57 80 63 64 65 65 67 66 156 104 166 179 83 121 108 58 46 65 55 79 72 62 67 88 68 115 128 104 128 94 156 131 108 86 89 104 118 146 196 185 207 167 164 177 171 120 146 200 210 206 150 133 134 162 186 141 97 108 128 159 168 190 167 207 216 169 147 87 159 66 128 147 130 151 213 104 68 62 60 123 151 149 168
47 59 70 114 102 187 123 58 83 73 141 197 220 182 200 113 95 169 164 216 171 94 153 64 88 131 89 194 199 143 154 187 189 204 176 155 185 115 110 135 169 192 168 206 204 120 98 129 162 136 129 178 180 115 83 196 209 107 52 88 73 70 65 80 90 159 185 76 62 59 57 63 59 52 49 59 64 86 73 58 73 82 60 67 58 58 58 57 62 73 106 147 75 77 66 51 44 76 58 60 49 48 56 63 57 74 77 58 67 63 56 58 86 90 73 88 75 83 76 56 58 72 74 76 67 63 46 46 60 55 90 85 99 84 78 85 118 151 103 166 161 194 140 144 99 60 66 57 108 118 82 94 70 88 121 156 177 90 113 68 46 59 110 130 136 140 154 156 153 109 75 100 87 110 88 95 70 67 90 72 80 77 73 79 79 88 84 82 83 92 115 113 88 86 103 119 97 115 89 92 67 68 68 82 65 53 46 44 57 75 70 65 68 69 68 78 84 79 75 73 75 70 87 68 63 69 85 74 73 89 92 114 56 72 67 60 99 69 97 119 80 72 92 74 56 84 62 56 69 48 58 78 96 78 53 58 60 85 84 80 75 57 62 77 76 170 172 95 86 123 133 110 77 67 72 76 85 126 151 164 172 208 150 146 128 102 144 206 145 102 103 180 199 196 166 177 172 213 155 149 102 86 108 156 180 137 149 190 157 182 111 96 148 181 165 124 97 133 141 134
96 47 80 162 96 63 54 111 65 77 78 64 137 98 155 202 82 69 134 207 115 120 177 174 146 73 78 195 181 157 205 159 155 128 154 117 146 196 194 156 180 161 110 107 111 115 75 69 58 93 167 137 115 115 79 83 92 92 78 102 65 65 98 84 85 170 123 52 76 158 64 131 124 54 88 136 144 78 58 65 85 62 63 56 62 79 84 85 72 49 59 68 80 67 63 52 62 74 66 55 83 67 64 82 77 88 88 67 58 56 60 58 59 60 74 62 72 73 84 74 74 78 75 82 59 74 62 52 63 59 74 59 62 63 86 95 87 103 60 117 74 83 77 72 165 149 144 88 64 60 64 88 87 96 73 92 86 57 49 60 128 155 157 146 157 103 83 116 123 70 74 84 63 84 60 77 85 86 70 65 67 72 78 59 73 89 119 74 79 90 80 62 66 79 64 72 80 90 84 66 74 82 82 60 85 68 67 65 52 86 60 70 56 56 60 75 70 56 84 84 72 58 69 62 69 87 62 76 82 55 63 77 59 54 78 67 51 52 73 62 76 69 54 57 60 62 78 57 69 56 80 54 56 80 68 79 57 66 57 55 67 57 67 65 74 63 116 74 89 165 127 182 178 186 210 188 141 155 141 138 136 115 107 151 159 140 110 158 215 192 196 181 115 159 223 202 233 246 180 147 140 164 201 160 92 82 175 187 165 167 104 113 85 116 102 136 175 212 73 143
57 93 96 124 137 165 168 56 60 96 69 66 164 136 103 75 141 151 117 97 111 144 165 182 148 166 181 115 93 187 187 157 134 159 141 195 147 116 196 168 181 138 157 77 82 86 77 93 143 219 220 171 114 74 85 121 133 160 175 197 92 53 47 57 53 65 94 62 38 51 53 46 68 80 56 65 64 75 75 64 69 92 77 43 45 52 59 47 57 63 52 55 67 73 57 106 57 64 58 55 49 62 56 48 56 57 65 44 48 52 54 69 56 79 70 72 76 67 57 69 66 66 57 66 54 67 66 67 58 57 76 55 70 45 48 55 88 79 88 82 62 86 76 68 106 88 138 170 117 83 86 88 72 118 58 97 77 84 94 66 94 109 117 94 56 89 126 63 76 54 64 72 75 83 62 65 53 69 57 77 69 52 64 58 73 69 65 59 44 52 48 58 45 46 53 36 69 76 68 60 79 64 60 45 53 60 57 51 46 57 67 57 52 54 47 44 41 39 46 51 60 60 69 47 60 62 53 76 56 53 54 72 70 69 133 188 57 54 72 106 67 60 57 72 130 99 125 67 63 55 59 69 77 90 60 69 77 83 68 92 84 83 94 78 93 54 63 113 128 162 179 175 165 197 207 205 133 98 72 100 170 167 162 221 197 201 114 82 149 131 109 160 187 171 198 149 204 221 230 206 133 95 147 216 189 176 159 171 148 148 121 123 120 137 145 145 213 210 64 74
87 83 104 159 88 198 124 174 87 165 43 69 166 190 110 100 83 69 64 70 105 144 150 169 210 200 206 191 217 209 170 160 124 102 90 130 160 200 201 150 158 180 148 118 140 164 135 143 141 77 95 155 126 66 75 51 69 121 105 47 69 56 47 46 51 79 77 96 106 73 57 56 72 67 64 51 47 69 73 63 72 70 87 74 67 86 106 60 67 46 84 85 69 72 73 65 49 58 55 60 53 65 67 69 69 69 64 57 59 58 66 83 67 72 68 65 78 63 54 53 64 66 59 66 59 52 45 58 58 74 73 70 75 60 62 74 90 98 89 89 74 77 69 75 63 87 83 92 97 63 59 66 66 73 79 76 74 82 73 66 49 66 47 65 54 69 66 67 67 70 79 79 120 88 70 79 69 58 38 51 49 45 65 60 64 53 42 58 53 44 63 49 125 76 68 69 76 63 57 60 78 114 129 121 120 120 119 148 158 175 172 158 150 140 135 150 160 116 135 55 57 58 37 45 60 54 48 43 37 48 114 156 86 52 64 65 70 65 79 70 54 67 74 87 53 65 51 70 58 77 74 65 49 75 64 75 96 83 76 80 74 90 115 107 85 78 88 116 82 79 98 114 104 124 96 103 156 180 127 110 79 100 90 84 105 128 166 177 199 205 221 219 176 182 226 223 221 233 215 208 167 206 202 146 89 117 136 143 184 211 154 119 110 159 181 123 95 82 105 47
72 98 149 119 80 87 102 66 109 120 53 31 136 188 155 197 149 110 170 105 63 60 67 185 161 130 186 197 216 216 171 199 196 167 110 97 188 181 185 202 197 202 178 139 90 94 139 135 98 63 73 59 67 65 69 47 49 51 56 105 186 170 147 62 46 197 171 104 58 78 85 120 103 63 51 79 127 62 44 51 100 165 110 94 58 69 55 73 84 57 68 55 67 69 67 65 56 46 60 57 57 59 62 69 51 66 64 51 46 55 52 42 47 56 62 53 58 68 76 49 45 64 72 65 73 54 67 58 60 54 103 115 59 68 56 52 62 69 75 77 68 76 73 68 44 57 57 60 64 69 72 85 136 85 78 75 83 84 78 64 70 70 48 66 69 65 58 70 62 54 98 93 109 89 82 53 53 58 42 37 39 39 37 73 51 78 89 111 156 161 125 137 62 53 58 48 65 93 169 107 117 129 131 104 106 137 166 174 176 180 177 179 176 164 162 145 115 145 155 150 89 146 151 68 52 44 64 56 64 45 89 94 54 45 59 86 117 100 78 140 56 54 74 99 73 52 70 86 129 72 67 87 100 115 76 82 73 69 110 93 123 92 172 140 133 148 113 133 109 168 141 140 131 128 97 127 161 125 134 114 170 196 212 153 189 170 220 229 209 160 123 96 146 174 167 143 145 110 202 201 134 117 155 128 99 77 108 141 102 151 168 175 119 114 123 95 162 179 130 82
58 67 114 57 67 96 157 100 63 139 70 53 104 139 195 187 125 179 192 168 174 220 222 151 93 220 192 127 156 200 135 129 130 88 130 45 70 125 186 221 198 140 121 146 179 197 195 154 161 213 216 189 171 129 124 133 49 52 57 158 89 72 72 63 70 65 59 69 92 133 52 67 56 64 46 56 43 64 53 73 59 74 72 79 96 74 67 69 68 54 64 72 85 65 66 49 48 37 39 47 69 67 42 46 55 43 56 57 42 41 49 37 33 41 42 44 32 43 33 43 49 44 57 51 54 34 37 51 51 51 70 77 72 67 53 68 57 57 64 83 72 73 65 69 60 65 64 58 68 72 80 85 105 141 115 117 170 107 69 80 97 68 99 92 58 63 84 77 89 82 75 74 63 75 59 78 59 44 60 53 67 119 88 109 159 130 151 151 69 185 90 125 57 57 46 53 105 178 115 130 156 150 147 159 157 148 167 143 126 126 131 143 162 164 157 144 143 149 136 154 128 100 206 189 38 39 43 52 43 49 51 68 66 87 64 57 87 68 78 63 86 74 84 68 86 82 68 85 77 69 69 96 96 85 83 79 72 76 76 77 82 95 185 154 216 221 194 211 222 227 219 231 229 196 107 113 127 141 117 120 177 168 207 209 217 206 105 106 100 111 115 126 160 176 153 184 223 178 135 190 185 176 221 207 129 145 110 89 106 77 125 125 181 204 212 231 129 110 75 105
57 28 85 103 127 77 90 86 111 156 110 86 56 64 87 171 191 147 158 115 207 121 176 221 211 161 200 131 73 151 116 177 188 171 114 76 65 128 148 149 176 182 156 72 68 125 144 151 118 170 153 164 171 182 174 84 42 47 56 160 54 62 51 47 37 73 68 148 175 106 54 60 95 64 77 70 60 120 96 69 68 77 87 58 104 65 82 72 83 68 57 53 48 59 75 64 51 39 48 46 59 69 39 41 48 36 49 33 27 46 54 52 35 24 35 33 36 36 33 41 42 46 62 53 47 43 38 46 49 46 48 51 63 57 47 53 47 64 53 60 48 62 62 45 48 51 49 62 67 67 64 77 78 90 82 73 119 188 100 106 139 105 192 165 110 84 89 92 96 80 85 78 68 63 48 35 37 48 48 51 88 169 121 108 161 176 150 145 107 206 86 58 66 41 44 49 168 159 99 116 137 157 136 156 162 158 129 136 115 161 140 120 156 164 158 158 158 148 136 162 135 87 196 208 34 43 28 42 54 32 83 79 133 160 124 73 60 85 69 66 108 102 110 96 85 65 80 83 79 88 95 90 74 80 82 70 82 73 79 77 74 121 119 121 108 138 151 118 84 109 94 141 190 131 94 109 110 169 154 156 99 66 102 139 199 213 198 184 139 120 176 181 191 209 222 230 201 189 195 215 147 215 232 217 202 192 115 114 94 88 66 118 116 170 185 124 68 63 99 66
83 110 56 184 208 114 130 202 153 126 134 75 97 149 156 109 128 180 188 168 78 123 171 225 199 131 76 62 69 155 90 130 162 197 158 76 84 205 236 222 168 179 131 164 162 126 114 92 57 48 56 114 165 75 97 83 103 190 172 54 60 62 84 159 63 58 59 45 41 47 47 80 57 47 49 79 116 84 86 78 109 111 73 68 60 42 35 39 37 43 48 51 28 27 46 54 48 190 105 99 148 138 146 140 124 138 154 137 139 126 85 106 83 107 128 131 120 125 123 107 123 105 175 89 41 27 44 162 158 170 135 149 52 52 51 43 42 54 44 66 56 63 70 70 63 76 62 62 82 87 113 82 74 86 70 98 75 85 64 62 80 87 105 82 78 82 84 118 98 74 49 58 43 56 55 75 67 139 96 124 138 169 128 113 138 145 118 137 92 76 66 59 75 69 70 77 185 119 146 165 174 164 154 160 154 151 115 74 135 235 42 33 65 114 155 179 160 157 153 149 136 148 144 205 147 55 41 35 57 93 59 108 89 104 140 147 166 107 124 108 79 80 103 156 114 144 57 78 72 134 164 94 125 199 88 105 118 109 148 115 133 59 108 140 176 182 166 170 147 138 139 127 139 126 133 154 165 146 202 223 186 155 85 105 134 153 215 218 230 237 223 207 158 156 151 126 72 127 153 211 196 144 191 129 75 177 208 211 231 227 223 210 131 170 217 180 117 144 148 174
154 135 150 93 111 169 187 95 169 162 119 166 180 95 186 204 160 171 158 105 196 178 143 179 202 192 219 150 147 106 149 177 146 140 100 213 196 175 135 159 186 169 148 170 162 78 87 107 149 182 134 155 145 150 129 70 76 102 87 67 54 55 84 45 59 75 56 140 52 70 191 188 69 66 78 67 89 113 67 64 56 59 100 73 60 102 100 70 56 53 39 37 27 26 41 48 75 149 82 119 159 143 140 128 158 159 145 118 87 37 45 51 82 103 116 143 136 125 131 131 146 133 155 172 47 24 34 54 60 149 151 109 146 83 127 89 41 38 28 45 42 54 52 58 39 47 51 69 62 57 75 55 65 74 72 72 77 80 86 57 90 106 99 107 85 93 74 84 68 80 56 54 73 64 95 87 125 137 103 109 166 82 137 147 121 102 84 86 54 72 63 65 52 56 38 87 172 145 138 166 159 155 159 161 156 119 85 44 60 115 53 45 84 134 153 179 165 161 153 146 131 145 130 197 169 64 42 90 69 168 117 167 144 143 165 168 156 146 111 133 103 102 108 84 70 73 76 118 104 73 66 108 93 79 207 139 201 171 135 200 116 139 110 186 90 110 158 161 212 194 95 76 125 118 109 162 160 150 94 72 196 189 194 196 175 146 159 192 229 216 227 221 143 100 153 138 188 190 201 188 225 225 162 150 90 109 89 148 196 217 138 119 98 72 177 144 168 117 180 127
174 171 56 102 80 201 156 150 96 177 105 120 201 139 148 228 216 124 92 172 175 196 155 157 204 190 194 210 195 141 108 138 190 212 209 155 212 213 190 202 138 143 146 136 187 128 87 75 80 156 116 150 135 57 76 54 46 49 51 72 65 45 45 88 64 59 123 118 47 108 120 60 54 62 53 29 45 74 58 100 84 62 88 73 82 67 96 79 113 49 48 34 23 31 35 47 140 128 98 120 158 129 139 151 149 149 141 94 42 34 59 84 52 79 94 110 137 121 121 114 137 143 148 192 109 46 47 67 63 105 116 153 154 130 74 148 94 36 53 33 52 44 46 37 27 52 51 63 65 56 57 75 69 74 65 92 100 82 84 96 63 60 66 68 93 87 94 89 79 60 58 65 60 74 88 115 170 93 84 123 107 158 126 177 92 156 146 143 87 66 59 80 53 62 55 85 174 115 162 158 165 153 160 167 156 127 121 60 41 51 32 19 85 136 124 141 146 156 158 153 151 140 113 198 158 59 58 65 74 59 134 123 146 88 147 121 166 165 151 143 82 111 107 92 86 89 95 124 143 94 83 165 65 58 120 155 168 177 110 167 123 57 56 134 130 90 204 201 213 199 157 118 159 191 143 154 179 190 180 213 195 182 156 170 117 146 196 213 226 222 221 199 128 124 93 121 160 114 216 180 205 196 225 192 184 198 223 219 176 157 74 68 137 76 56 64 77 111 215 192
143 182 189 72 85 117 129 185 145 92 168 127 57 184 197 136 181 125 106 201 116 88 168 149 168 159 166 201 206 212 202 165 128 129 169 177 119 160 198 200 171 166 182 215 196 165 141 146 137 166 159 109 66 58 104 74 141 56 78 59 66 62 96 84 80 139 113 51 57 92 41 37 93 93 57 65 58 82 70 73 69 65 117 114 72 76 73 54 54 31 45 38 53 39 39 32 174 93 90 129 121 127 134 135 137 131 102 36 24 37 228 238 39 44 65 109 110 124 120 137 154 143 146 195 160 46 44 47 53 45 138 123 143 118 124 87 97 60 69 62 44 44 36 52 53 33 49 49 69 79 87 66 83 92 64 80 58 67 66 47 57 64 59 55 55 57 70 83 65 65 56 65 93 128 114 89 92 94 171 177 137 127 104 140 111 140 100 74 55 51 43 46 59 38 38 39 191 125 131 146 147 151 157 165 180 174 150 131 117 56 57 66 124 153 166 180 151 147 128 149 141 137 162 210 78 48 43 43 38 62 138 153 156 140 186 188 153 128 148 161 133 94 99 96 88 110 90 153 115 109 84 148 161 174 97 167 86 120 75 113 87 96 80 125 135 153 196 146 145 93 111 120 144 119 119 116 115 120 143 149 181 190 135 174 225 229 178 129 117 123 138 136 111 161 108 129 160 217 164 119 124 153 200 170 162 121 123 86 74 74 103 154 150 123 159 151 156 98 68 80
76 125 181 125 172 185 165 144 204 89 82 133 169 165 89 70 86 158 180 77 208 213 174 123 129 124 136 205 190 190 151 175 205 230 225 182 197 196 202 191 156 113 155 154 108 153 190 178 201 204 149 179 204 159 102 172 118 149 110 47 58 114 166 111 150 79 59 80 47 94 44 39 58 65 62 54 80 87 76 72 87 135 98 111 79 59 89 79 125 77 189 44 31 19 37 47 175 100 103 131 125 134 138 158 151 154 129 86 53 75 48 57 35 52 63 96 138 128 118 133 146 137 170 199 180 26 31 38 39 51 117 120 99 97 211 114 79 133 49 49 32 34 27 34 46 51 73 58 62 73 105 72 58 63 65 73 103 46 57 56 56 48 88 97 65 80 76 77 76 56 54 60 96 76 114 80 100 98 141 82 155 212 136 116 93 93 55 48 41 57 39 24 32 38 34 33 181 167 94 136 153 164 156 167 172 162 170 166 160 161 153 147 155 158 161 156 151 134 100 146 130 118 197 211 34 38 47 59 55 93 146 182 145 162 174 191 216 204 110 168 114 103 88 86 73 86 144 74 102 165 139 175 85 90 164 168 82 69 94 159 181 205 185 165 77 153 185 143 146 196 209 220 206 199 171 194 184 174 194 194 141 171 166 115 82 98 120 139 141 127 182 141 93 137 146 125 195 123 215 223 165 144 117 177 175 129 190 197 197 139 218 208 194 171 92 76 85 89 143 67
103 68 146 172 64 135 144 169 185 157 121 150 66 90 164 205 221 131 84 68 78 97 121 85 80 107 153 202 176 153 129 180 199 198 180 192 188 187 153 115 188 202 159 171 177 205 194 166 156 154 195 157 130 69 82 140 110 118 119 151 80 191 196 68 62 215 179 141 87 84 57 85 90 88 63 92 79 99 74 139 131 124 164 181 124 171 140 139 126 53 64 49 63 51 39 51 74 185 84 137 136 148 128 137 148 148 166 153 169 140 144 131 130 144 146 146 135 145 119 130 138 136 195 147 21 29 25 32 24 33 38 76 92 120 125 147 141 54 93 145 102 42 62 59 23 47 43 42 46 46 63 58 73 90 87 104 85 148 123 65 60 105 133 106 69 93 97 75 51 65 64 79 65 92 147 126 78 67 121 124 195 178 147 74 65 73 32 24 42 38 23 37 31 42 46 33 48 65 155 117 150 141 150 156 160 170 164 164 158 171 172 167 148 125 143 137 151 154 148 136 111 192 106 42 33 49 53 44 75 67 123 127 121 169 188 191 208 176 206 156 167 154 148 162 119 103 184 119 74 204 119 116 90 80 207 199 83 103 131 217 103 143 127 143 197 172 169 159 166 189 176 158 140 103 137 102 96 106 77 84 200 215 206 195 178 185 195 196 164 169 182 208 190 209 127 128 119 106 165 198 190 170 168 182 164 108 94 97 134 147 127 83 144 172 98 74 75 108 107 202
96 38 57 166 184 118 140 109 175 139 171 131 148 59 83 181 218 225 181 62 140 116 131 150 102 151 201 190 160 201 167 168 136 176 180 166 184 202 190 145 153 135 162 187 150 121 124 66 79 134 120 103 87 88 74 195 185 140 117 191 177 133 118 76 124 171 127 185 77 44 54 72 133 84 93 82 118 141 94 114 134 170 158 165 120 185 177 134 145 80 48 48 47 35 41 35 36 195 118 135 151 157 143 139 131 151 170 162 145 157 146 155 143 150 137 140 136 127 144 137 128 131 189 85 44 32 24 34 45 28 36 41 73 83 143 115 178 133 72 155 70 65 151 140 34 34 36 43 42 54 58 60 69 75 78 74 69 83 105 123 80 73 59 62 60 86 85 59 72 52 75 77 80 85 108 80 95 116 155 150 127 134 110 84 59 37 33 25 35 45 47 31 33 36 38 54 44 48 80 151 164 164 164 161 167 164 148 159 157 148 148 149 138 146 148 165 154 148 143 123 174 204 41 26 36 44 47 68 177 65 197 146 147 195 149 195 198 161 140 143 137 103 135 100 129 127 103 94 146 209 88 89 116 104 103 164 177 174 70 137 108 105 79 70 166 204 230 218 182 182 145 128 110 98 110 144 123 102 168 174 131 94 76 87 96 151 198 181 181 202 216 213 168 194 199 180 134 170 192 215 198 201 161 151 107 141 107 77 189 177 211 147 109 100 78 74 104 134 145 150
120 135 102 103 62 190 175 66 55 90 60 102 146 177 149 68 59 102 156 190 135 94 78 154 154 215 211 165 104 191 166 186 200 206 166 167 147 144 172 165 222 211 200 200 196 190 216 178 202 217 213 233 220 126 140 111 146 210 176 147 60 80 53 189 145 149 133 93 58 88 126 181 121 116 130 87 124 99 123 186 172 160 185 113 153 127 115 197 166 96 49 63 65 57 54 53 43 138 187 69 131 145 157 155 156 156 162 148 151 150 155 164 157 156 156 137 115 141 143 138 140 156 65 27 33 25 28 24 26 23 45 32 56 89 161 128 70 192 128 70 72 66 53 102 51 41 24 59 44 54 52 49 74 76 77 62 86 76 93 89 63 76 58 69 59 99 72 77 52 68 77 55 67 58 56 63 77 93 108 208 105 103 93 65 157 202 82 49 54 58 39 47 46 49 48 49 35 59 41 121 102 114 150 156 161 161 171 177 161 148 159 165 153 158 158 148 131 131 125 97 157 44 33 48 46 44 76 79 74 66 153 143 194 182 151 169 184 189 131 158 131 133 121 116 129 88 113 111 80 171 189 169 68 85 121 141 105 135 188 127 64 113 144 137 113 147 134 159 223 223 168 156 140 155 143 157 196 179 128 151 161 130 164 158 124 154 220 219 167 156 162 197 201 178 117 113 141 184 172 138 136 166 127 83 149 126 120 170 158 164 110 127 86 84 93 136 105 93 87 88
156 179 170 164 126 57 52 177 210 162 181 57 54 168 95 171 160 125 73 120 180 177 180 103 72 117 56 73 77 83 208 192 190 188 217 145 184 137 121 117 206 212 172 191 211 229 202 167 138 117 117 153 187 174 176 149 106 150 59 194 210 190 139 200 186 107 74 79 180 54 78 144 64 57 95 167 136 144 137 149 200 166 151 140 171 145 171 177 154 42 55 41 57 41 33 32 34 62 115 125 90 125 157 148 159 146 146 136 143 153 155 145 147 145 153 138 140 143 146 128 184 153 36 34 43 59 53 33 31 43 147 36 37 39 164 143 98 180 138 44 154 62 46 46 55 55 38 33 44 46 59 52 47 43 65 76 86 74 65 53 70 78 92 72 51 51 56 83 64 79 60 89 135 108 73 128 137 168 194 92 99 82 69 48 82 125 83 65 64 226 58 54 64 55 70 34 55 62 64 39 140 113 105 133 133 147 151 161 165 182 176 177 156 153 151 137 121 98 100 186 77 37 36 73 52 67 87 60 76 136 161 212 181 220 153 143 212 179 165 96 129 107 63 88 99 72 133 80 94 78 82 126 213 86 154 144 150 96 65 109 157 102 82 131 127 129 108 113 89 97 92 106 146 104 146 105 98 141 143 153 148 141 199 179 157 108 158 202 220 216 195 178 177 116 103 154 192 190 231 206 196 189 141 113 139 89 63 139 208 215 226 207 175 182 205 184 119 103 166 92
177 79 149 86 115 38 55 121 83 162 192 170 135 65 118 206 202 221 208 186 93 74 116 171 141 89 93 185 212 236 186 140 153 127 120 172 201 187 194 159 143 196 182 148 118 133 102 187 184 120 126 117 164 201 180 156 141 184 124 155 171 174 96 63 80 172 161 185 150 48 86 98 185 138 75 157 108 76 125 119 118 172 151 172 191 188 198 73 169 68 51 55 33 38 34 37 44 43 32 128 53 83 147 123 141 157 169 149 144 141 147 149 166 161 165 155 157 128 146 98 76 41 44 56 35 46 31 36 34 41 67 70 169 65 58 89 160 85 84 136 63 75 44 58 39 37 52 25 48 65 42 51 82 137 54 78 85 106 80 65 130 121 79 56 65 82 119 107 86 44 56 99 73 150 105 102 179 167 146 89 85 57 94 115 73 83 148 194 150 65 62 56 54 53 46 33 48 49 31 48 38 47 85 99 96 109 119 126 129 150 153 120 130 124 79 78 157 176 139 42 34 46 48 62 187 171 60 72 171 186 180 110 151 174 178 133 130 102 107 144 135 130 160 72 129 99 121 135 77 72 77 67 98 201 176 200 126 165 187 131 184 128 147 155 191 228 222 225 216 207 196 217 188 195 184 216 190 178 206 212 204 210 210 215 147 143 191 192 188 185 177 198 178 196 205 191 140 117 146 200 185 149 150 114 66 80 138 123 123 124 124 150 129 153 179 188 185 158 210 106
121 100 48 136 208 55 121 95 74 96 41 109 191 135 58 85 103 74 150 211 194 219 212 209 176 110 107 179 144 133 159 184 165 87 134 187 186 107 162 116 170 215 226 190 180 159 154 139 185 185 161 96 63 106 168 135 134 56 78 187 119 110 166 170 141 141 187 187 147 83 90 174 82 96 66 208 90 143 109 136 157 192 170 168 89 180 106 58 103 114 72 90 68 42 36 42 37 56 37 32 77 144 78 46 62 103 133 133 155 151 184 158 130 150 133 123 107 106 96 19 25 41 44 37 46 53 44 49 63 66 55 72 129 85 72 60 57 140 175 176 103 87 54 59 36 46 45 44 77 48 62 70 55 37 49 123 125 182 210 115 93 75 70 63 70 55 58 62 116 130 66 88 110 98 165 115 164 121 136 141 93 89 55 52 245 255 226 155 118 53 86 62 46 60 42 42 53 77 54 51 51 35 24 45 31 24 31 31 32 36 65 63 58 114 53 56 28 27 29 26 98 195 168 131 59 53 145 184 103 190 202 175 197 220 125 149 130 119 92 129 100 121 117 160 106 84 136 140 148 155 64 138 185 118 141 55 57 95 121 143 200 213 144 159 133 116 187 195 200 192 130 120 94 73 92 143 188 179 175 156 93 79 146 189 212 220 220 213 196 151 185 164 126 140 138 177 157 154 133 127 141 74 177 216 236 221 117 151 155 178 79 79 169 195 97 74 59 73 56 144
180 156 154 94 134 111 115 121 162 133 174 72 47 93 116 86 93 108 170 177 166 143 133 161 191 160 141 153 162 171 191 201 179 205 208 204 181 197 200 165 84 89 174 215 226 174 188 145 133 185 111 73 62 169 190 120 128 219 198 115 153 111 129 217 185 170 126 77 156 140 215 166 79 139 156 65 67 150 171 154 109 162 190 198 175 141 126 79 124 87 51 60 68 107 74 44 36 33 28 45 35 31 39 60 89 69 62 60 66 62 77 82 149 116 65 59 58 43 41 32 24 29 39 45 55 42 33 56 54 64 104 168 75 113 62 53 104 44 102 176 144 162 127 87 55 39 44 42 37 78 56 44 42 52 44 65 80 69 83 57 92 82 73 41 84 140 195 174 120 72 62 116 110 87 217 172 143 133 161 76 92 140 37 47 92 99 177 182 154 114 63 47 51 55 37 55 46 69 48 60 39 54 62 43 26 27 31 23 25 23 22 23 31 27 94 17 31 26 35 144 217 175 69 84 150 177 108 135 181 158 198 102 198 178 121 125 66 74 92 76 97 84 125 73 77 74 58 131 176 141 198 79 69 66 126 104 179 164 204 185 215 187 155 162 187 199 195 165 151 177 161 192 223 223 229 227 190 189 195 159 187 199 176 158 124 129 151 174 159 162 186 172 201 230 221 207 134 157 210 182 127 166 174 128 95 93 76 82 99 73 133 109 155 175 161 166 57 93 110 110
55 102 149 157 59 140 138 195 73 115 130 190 209 121 130 179 184 76 75 102 162 133 165 179 172 151 166 201 188 181 204 218 195 164 114 108 140 141 166 172 89 52 45 57 141 201 141 111 151 109 124 133 181 167 177 100 135 99 69 130 180 171 182 74 63 92 174 184 199 64 94 68 177 179 90 137 113 51 76 97 146 150 180 176 143 188 185 106 168 177 149 63 63 53 93 164 137 42 47 52 34 43 29 32 39 29 24 33 35 39 27 31 25 34 37 29 41 32 38 28 36 43 31 39 25 27 26 42 52 90 187 160 67 138 147 38 56 89 64 120 166 129 114 36 109 62 56 43 31 63 52 129 88 52 62 56 67 64 87 83 83 74 72 57 116 111 77 74 92 84 89 87 89 79 85 85 118 137 115 150 47 67 51 60 94 74 55 62 72 72 48 53 48 53 31 49 58 59 45 56 44 35 38 35 34 32 34 39 35 43 57 39 79 52 85 67 86 94 184 168 65 67 118 168 166 139 180 165 59 136 146 97 199 188 131 135 92 106 75 135 87 178 86 77 58 97 104 85 90 171 108 72 215 205 131 169 110 103 126 110 157 192 148 141 119 89 130 117 194 199 201 157 130 165 177 184 164 170 184 172 164 174 181 179 168 136 110 108 161 209 242 240 236 204 175 154 220 200 87 93 168 212 191 169 141 118 80 170 216 229 215 165 62 94 127 70 125 87 52 176
192 162 105 102 108 117 136 128 208 84 186 111 63 155 176 108 128 151 144 146 194 164 197 192 174 181 198 215 218 217 165 178 204 187 213 197 187 97 111 127 190 186 198 146 134 102 82 69 133 83 119 134 190 200 153 143 184 151 186 187 148 133 139 64 77 164 141 119 169 88 134 75 79 99 93 141 216 68 97 107 148 131 166 97 156 139 200 181 155 106 84 135 88 65 73 59 160 103 134 35 31 39 34 41 38 41 43 32 33 43 44 37 27 25 34 23 19 23 23 28 18 28 29 24 33 148 218 172 211 145 98 94 80 56 177 178 52 179 200 117 158 179 215 68 35 48 62 83 83 78 28 58 83 89 76 53 64 72 44 55 64 57 131 115 82 117 125 126 199 172 63 67 83 123 218 151 78 65 57 66 52 54 105 131 168 162 143 134 147 189 89 116 181 210 190 172 72 82 99 78 44 31 34 33 37 31 37 28 31 113 138 121 80 160 194 195 43 51 51 76 120 136 168 151 106 141 124 191 135 177 116 198 140 139 114 135 86 99 120 107 68 52 78 95 154 151 209 175 144 89 123 79 105 80 75 131 140 141 139 145 82 90 123 159 188 204 190 185 165 110 155 158 167 175 232 218 187 175 119 128 180 190 221 231 180 153 164 196 196 192 181 204 145 201 192 164 192 196 190 197 140 82 102 85 104 147 96 130 201 225 160 180 199 104 153 141 73 102 205 118
174 182 157 106 79 164 180 158 192 49 111 136 137 146 176 94 45 84 113 206 197 170 120 155 139 111 130 141 174 151 133 138 146 188 201 208 208 160 157 64 57 174 212 202 162 188 194 179 187 187 206 198 184 147 170 138 134 113 158 148 131 199 161 156 172 227 188 131 103 170 156 67 88 119 123 157 216 99 63 179 181 130 160 78 149 166 187 138 149 92 144 113 141 78 74 72 109 129 157 66 32 33 28 33 58 57 44 54 32 51 41 33 32 19 28 18 19 25 27 22 19 21 21 14 33 115 120 83 133 51 56 65 72 59 92 58 47 177 185 154 179 156 169 117 48 54 67 48 49 121 43 54 52 54 58 65 69 69 73 39 54 88 135 92 51 73 158 151 141 75 154 107 90 114 166 172 52 56 75 63 44 73 99 128 208 164 162 167 207 170 154 111 109 129 159 145 186 185 136 161 69 111 78 84 106 60 75 84 84 198 180 161 218 206 69 60 58 51 94 59 134 166 194 199 182 170 188 186 116 153 174 209 116 100 165 157 96 97 99 63 157 90 104 87 72 96 146 201 206 125 199 143 53 53 76 128 182 138 121 167 98 140 130 147 124 123 131 131 191 185 177 167 213 213 209 225 219 206 211 229 235 231 207 218 235 227 232 221 197 185 130 208 156 129 174 216 222 204 235 228 199 218 123 146 157 137 192 205 197 186 145 177 117 133 119 82 85 125 72 83
188 174 85 119 145 73 45 58 70 148 192 188 200 95 73 103 68 175 167 77 84 181 215 215 211 198 195 106 159 188 160 118 118 216 220 179 209 185 172 111 180 197 188 190 172 168 160 178 188 187 204 202 216 227 218 189 143 213 190 195 139 121 131 139 121 212 199 215 146 73 73 149 62 118 97 121 177 85 118 164 95 79 86 136 155 188 147 153 118 170 143 117 127 98 103 130 114 95 48 63 78 119 123 119 129 94 73 75 68 75 68 88 34 49 64 85 69 109 105 124 143 186 153 153 130 153 135 170 189 139 171 198 222 220 227 208 201 198 97 49 42 44 83 58 44 38 60 119 77 123 106 93 46 65 99 75 63 93 155 120 79 75 119 130 96 65 108 106 108 95 153 181 79 80 79 94 67 63 93 56 68 64 107 56 127 97 134 190 236 177 84 82 105 133 185 161 62 80 79 88 66 65 111 80 49 54 66 58 41 51 47 57 67 74 82 174 184 139 218 192 136 178 113 127 182 222 190 178 168 110 146 136 102 70 75 73 80 64 115 82 89 138 64 121 123 190 130 75 90 108 128 109 133 125 170 139 158 177 150 118 106 94 145 150 176 196 204 194 154 162 131 136 133 137 109 117 189 190 162 184 138 103 67 90 102 109 147 180 121 125 210 190 189 217 208 187 196 181 205 218 190 155 89 98 165 115 128 109 135 76 94 123 141 177 190 155 155 162 182 165
68 70 86 97 88 97 131 170 172 158 127 97 144 166 169 212 179 168 106 137 182 160 168 228 235 181 129 89 85 107 133 177 181 187 175 164 136 175 190 175 137 157 105 179 154 144 165 119 166 204 155 139 146 131 165 189 119 114 105 146 164 168 128 116 102 143 184 95 127 93 164 185 145 117 178 77 159 68 135 120 135 92 98 113 154 79 70 99 148 145 155 72 174 77 79 95 171 139 201 106 57 34 35 56 67 95 82 165 177 136 181 141 194 155 189 127 171 149 162 123 155 171 94 43 113 204 207 110 169 185 169 180 77 133 179 129 90 127 96 66 73 48 41 27 39 36 48 49 109 194 92 89 48 67 109 118 97 123 58 92 93 137 159 85 98 90 127 89 60 115 144 150 134 95 53 46 77 151 119 68 67 102 78 90 171 139 78 120 113 187 204 210 99 64 137 120 166 207 199 158 102 75 57 79 80 134 162 153 175 82 120 164 164 168 212 200 202 166 157 194 117 92 154 182 194 129 127 207 170 51 69 73 68 86 121 95 98 181 82 127 58 141 138 54 60 77 156 185 124 147 146 204 141 78 131 75 89 78 127 145 172 171 147 194 220 199 172 154 162 124 130 171 154 195 215 213 216 232 229 187 121 172 172 207 202 196 111 131 117 119 166 130 178 144 172 147 125 84 131 194 155 162 194 205 171 135 141 168 138 115 105 126 111 143 184 179 139 124 67 174
57 32 31 46 53 119 140 166 194 167 175 162 196 128 179 139 151 138 146 172 102 128 151 128 155 210 201 187 174 138 178 215 201 171 166 150 94 97 103 182 111 151 189 167 182 166 150 118 155 195 239 233 208 162 125 86 57 166 195 187 131 200 164 179 153 110 137 108 96 213 120 197 114 63 68 94 151 97 153 147 78 75 85 82 90 80 123 140 92 94 174 128 164 147 82 93 136 115 171 162 127 179 110 124 139 59 73 88 67 90 88 88 75 116 124 57 84 90 73 87 115 116 115 157 136 82 83 159 141 196 52 109 106 155 84 63 75 67 161 43 72 82 77 34 33 37 47 69 76 63 117 43 55 43 98 108 143 119 134 186 84 113 119 116 89 117 121 144 124 171 117 158 104 154 65 90 179 160 189 188 57 86 57 74 179 157 166 165 202 209 156 90 133 180 188 174 82 79 85 88 80 99 124 127 169 145 134 84 115 138 103 107 131 172 213 210 141 151 107 186 215 184 190 164 88 166 89 68 37 69 140 115 158 139 156 167 62 53 85 100 161 84 197 212 111 134 72 106 87 73 119 120 104 134 103 148 130 82 98 144 217 222 223 215 198 161 123 171 180 189 180 201 190 209 176 222 211 201 148 121 172 168 109 82 129 139 158 205 189 202 205 196 206 201 151 145 146 141 133 141 129 113 121 168 120 111 166 192 208 201 167 125 179 133 134 146 165 123 116 84
146 86 42 82 102 63 121 134 115 179 195 178 108 186 131 174 187 143 110 174 189 213 219 199 176 156 177 181 138 80 99 121 168 174 167 205 190 206 212 218 115 80 93 138 153 157 200 204 191 228 161 130 151 200 174 96 105 167 162 178 190 162 105 181 117 150 141 124 196 177 185 176 92 118 119 70 127 141 189 157 68 119 149 120 171 167 158 166 86 56 158 113 145 170 74 164 111 56 77 160 166 146 169 167 84 135 129 108 96 130 88 102 104 72 87 99 74 69 76 74 76 94 87 102 67 107 139 181 111 169 77 151 119 174 78 62 59 58 115 57 73 89 100 31 126 55 64 125 151 102 51 36 35 53 67 82 86 140 200 184 72 89 98 65 118 120 143 206 129 113 190 158 154 158 123 99 107 76 93 186 59 62 65 63 96 94 139 65 96 187 204 180 128 107 150 186 209 207 200 171 111 92 108 162 76 75 82 120 105 100 131 114 219 225 169 115 209 196 225 237 149 207 167 146 155 135 115 51 74 69 136 137 126 115 135 97 175 94 160 157 126 90 129 162 146 150 90 94 130 73 86 171 109 118 144 119 198 196 104 74 109 116 129 90 146 170 164 191 201 181 202 217 202 202 196 172 205 225 196 204 228 229 211 206 182 170 177 184 216 227 161 176 179 212 192 205 180 196 208 215 186 195 197 196 184 184 204 209 212 198 57 65 52 90 106 136 117 100 87 97
68 103 139 148 109 162 186 98 85 140 174 180 212 180 165 181 133 167 129 83 55 83 90 159 161 206 219 213 217 129 140 115 88 139 153 143 156 178 174 188 145 149 166 160 175 135 165 160 189 181 215 191 148 144 130 135 138 154 157 75 120 155 176 150 166 151 87 109 190 216 95 75 191 197 108 200 168 123 195 148 125 148 96 106 105 137 160 82 182 178 141 113 140 185 175 140 149 64 66 52 57 119 105 111 110 151 168 180 135 104 118 178 155 192 198 176 182 175 184 162 92 87 87 137 158 190 179 114 123 60 137 181 168 136 133 144 87 62 55 70 78 88 37 36 115 86 58 100 149 82 162 51 53 51 57 55 59 125 131 146 135 107 97 109 88 84 103 105 118 86 104 144 185 160 153 120 133 59 69 131 121 144 55 66 79 74 51 153 136 73 102 129 113 155 192 162 59 86 129 117 182 219 210 202 177 202 161 161 180 164 221 206 192 176 225 211 204 207 227 228 198 185 116 115 125 49 58 63 77 150 113 157 130 140 78 82 87 95 102 84 134 73 186 139 105 103 149 170 113 102 75 137 145 100 160 135 178 200 156 137 155 149 213 202 93 83 153 176 155 176 185 212 179 154 202 191 155 144 143 114 174 171 135 189 213 239 187 199 202 229 136 167 79 135 196 223 223 205 192 177 159 202 169 156 186 191 209 205 191 130 83 98 199 199 160 114 180 169 175 148
66 53 55 130 202 110 85 77 94 69 174 114 93 190 217 176 160 80 80 60 174 158 184 209 217 225 225 201 185 171 197 176 118 146 134 153 160 160 160 146 161 140 139 147 133 100 104 80 80 124 105 120 92 136 133 171 190 151 87 70 102 165 134 79 128 211 168 169 164 157 78 74 208 147 107 135 118 95 94 96 94 79 205 170 89 143 72 89 108 118 119 113 55 72 124 64 67 86 97 126 196 153 155 175 177 191 194 127 134 95 116 139 179 140 177 189 179 174 157 164 156 120 208 184 177 130 110 196 117 103 87 57 155 110 98 85 138 94 129 156 74 56 73 37 66 44 70 76 121 147 133 76 85 90 89 74 98 168 133 157 137 191 129 114 136 133 110 143 78 85 53 64 157 141 187 102 83 129 131 82 90 99 145 130 109 90 56 45 60 106 123 159 178 170 172 145 85 88 77 146 76 65 100 55 162 192 114 121 164 219 82 119 144 76 78 98 51 79 87 83 118 77 73 99 75 60 78 127 120 145 78 137 171 156 77 116 160 97 121 98 148 198 135 195 131 115 92 76 178 133 177 166 222 212 185 160 92 97 77 79 180 191 223 220 190 181 217 205 169 189 191 194 213 194 174 147 113 158 166 141 205 211 229 230 223 187 202 190 135 138 157 160 137 160 184 189 162 170 107 158 198 189 209 197 188 190 167 190 135 131 135 125 119 134 147 189 205 185 164 137
134 56 55 160 187 126 93 100 116 69 155 178 141 109 135 204 210 189 139 105 143 200 206 206 198 178 223 196 165 167 206 187 180 166 153 118 144 185 200 195 179 169 161 146 200 199 191 197 209 159 106 145 154 210 195 192 181 75 63 144 170 181 169 129 178 205 155 144 98 176 191 215 129 185 168 126 121 156 135 113 117 105 136 87 167 128 154 97 99 103 94 65 37 55 105 75 90 125 165 133 145 130 137 100 125 192 149 125 170 140 105 126 199 164 155 129 125 102 164 219 219 190 194 134 106 93 160 82 60 72 95 124 92 53 77 57 96 178 168 137 98 84 67 56 158 114 108 87 125 83 94 90 111 107 86 83 104 124 153 188 97 167 124 120 118 110 106 145 110 140 73 99 179 188 161 104 104 164 134 134 80 62 148 170 169 197 197 150 113 66 59 55 151 169 165 179 148 146 160 133 105 103 124 79 49 44 53 51 56 116 121 124 46 56 58 69 67 60 46 86 34 57 86 92 110 90 116 159 139 139 160 143 108 86 135 136 140 117 84 155 52 96 177 180 137 176 97 74 79 227 164 139 127 108 104 102 117 110 116 124 62 96 158 168 177 120 75 85 84 118 79 102 182 180 201 178 166 205 227 209 181 181 181 181 222 218 200 192 172 182 119 105 158 222 230 233 213 199 145 175 237 240 158 125 202 200 169 165 93 65 100 124 136 143 85 94 107 162 212 67
70 90 77 68 74 105 117 149 148 85 177 188 169 156 149 135 100 49 47 129 107 78 73 184 171 98 129 102 126 197 204 216 217 181 150 131 159 145 117 106 124 143 145 147 98 78 107 93 97 166 198 194 171 159 161 205 210 109 140 164 123 150 123 120 103 92 89 178 136 167 67 55 65 75 102 140 188 172 56 109 143 139 135 75 165 129 155 151 151 125 80 63 86 123 69 48 104 89 65 100 166 151 124 87 151 150 176 172 144 161 140 166 192 93 80 105 145 141 106 96 138 138 58 34 82 42 43 85 105 133 159 155 136 124 117 130 100 153 104 78 34 45 37 47 167 166 191 80 127 156 89 87 86 66 89 89 88 140 145 176 92 110 106 118 145 123 103 181 148 110 76 58 171 197 171 177 129 202 170 93 120 123 59 79 80 92 49 33 38 64 105 96 93 95 99 106 129 128 102 102 143 124 105 117 157 168 186 187 190 151 170 170 160 179 110 113 53 48 44 46 56 67 115 130 144 143 140 155 116 134 77 107 118 169 83 110 185 158 124 140 106 160 59 67 80 87 124 133 147 107 92 73 95 154 209 148 154 138 141 113 150 192 196 204 146 134 189 206 210 182 175 179 136 113 86 161 156 168 159 198 213 230 212 222 216 182 143 165 158 168 166 136 94 135 195 208 227 192 196 207 215 179 191 191 144 110 172 201 229 223 143 78 67 146 199 202 96 58 58 181
47 88 43 64 75 94 138 128 117 127 156 141 107 87 86 95 113 168 162 155 185 118 157 148 117 114 116 223 236 212 123 109 83 60 67 75 67 123 146 165 202 186 171 213 204 123 83 102 77 83 80 82 104 181 184 171 215 217 175 116 197 205 207 171 165 190 186 167 99 179 139 137 162 118 162 189 125 140 149 119 140 174 156 133 153 191 160 82 170 133 181 144 79 68 86 59 67 56 69 42 59 39 74 86 176 157 147 65 72 83 110 77 106 150 154 86 135 121 139 76 65 72 62 107 108 121 162 165 184 97 48 44 115 167 171 146 114 78 76 52 64 78 52 84 144 134 134 140 162 105 89 69 77 118 162 100 90 129 143 171 138 177 144 147 117 114 99 116 167 128 113 52 79 158 161 198 160 179 124 100 89 51 47 45 38 38 51 121 126 161 175 174 178 177 180 186 189 185 187 192 190 188 189 185 187 187 175 157 143 125 85 74 66 70 53 39 36 52 74 129 133 148 64 90 93 126 76 128 113 106 88 117 133 77 199 148 93 106 99 130 103 137 88 85 86 89 86 88 121 172 134 124 73 65 106 198 191 167 223 225 225 206 134 148 161 156 167 155 153 171 114 129 133 143 207 195 140 130 135 125 147 143 180 197 200 180 155 178 202 200 136 123 134 119 151 218 228 216 176 149 182 190 166 185 201 209 168 182 84 134 207 221 211 219 226 207 188 174 172 87
66 38 46 89 45 110 151 102 120 202 154 170 177 104 126 131 145 115 90 156 187 168 184 177 165 156 114 84 106 170 155 176 188 189 216 217 208 201 210 170 174 186 175 106 67 115 139 141 131 130 167 195 161 89 135 174 187 180 199 184 160 153 140 201 188 100 165 179 156 144 141 87 181 141 75 54 94 180 144 207 88 60 86 140 144 75 105 109 186 103 97 159 128 96 54 64 96 72 72 52 73 86 65 60 65 62 76 85 131 56 135 117 137 147 99 87 41 68 38 54 89 116 128 109 64 41 45 54 60 92 67 52 56 48 83 53 47 54 67 73 92 80 95 104 186 118 120 133 168 123 99 69 46 66 90 141 106 117 200 209 149 141 123 124 125 116 111 127 149 155 161 59 95 93 111 174 165 117 124 57 48 34 56 51 104 117 144 181 168 195 180 184 195 181 184 185 188 196 195 192 202 202 194 192 198 187 186 178 174 191 194 188 186 165 157 140 65 45 41 48 72 68 80 125 110 83 135 137 109 70 118 189 98 109 83 180 167 167 108 97 194 127 89 137 103 67 107 186 205 123 106 126 169 175 126 118 117 103 113 159 172 110 185 212 113 87 166 171 126 147 228 215 187 148 111 83 147 184 154 153 187 157 139 161 164 125 191 178 199 209 200 190 154 126 108 109 134 139 215 233 189 196 118 130 159 148 90 127 178 179 160 125 143 144 124 160 70 58 54 105
108 195 195 23 63 59 56 172 197 194 201 212 181 102 53 56 85 158 174 159 158 137 139 195 180 177 207 157 111 111 188 197 172 141 196 196 190 135 118 158 131 133 177 211 228 236 230 215 207 153 206 172 156 127 156 135 156 172 166 165 197 128 58 139 138 78 84 185 146 159 171 77 94 181 221 118 171 118 90 158 159 94 114 85 131 79 63 195 100 156 179 144 98 100 97 119 78 74 134 74 126 120 103 41 37 51 46 121 96 45 97 98 94 98 92 99 89 85 100 111 94 136 158 155 167 176 172 174 144 118 73 66 54 44 34 36 57 49 62 83 120 63 106 194 144 133 179 92 134 139 105 63 102 66 66 84 115 114 154 209 145 192 184 141 143 148 166 131 139 161 144 171 63 43 117 147 115 130 89 49 54 62 82 120 187 174 182 192 177 186 184 190 196 197 198 205 194 194 189 192 202 195 208 204 195 194 197 197 209 196 182 192 180 186 182 171 168 149 128 187 161 158 126 136 120 79 118 87 87 83 149 185 95 118 74 82 128 75 62 134 164 82 157 159 79 107 166 170 148 178 133 131 127 120 111 83 178 199 144 181 153 149 146 153 201 200 201 186 188 199 216 174 189 197 194 161 159 114 99 128 211 223 236 235 225 218 206 207 157 190 213 208 209 191 222 232 215 199 210 198 182 167 118 78 147 145 137 190 222 212 155 129 178 161 127 110 187 186 168 145
68 88 67 104 79 25 47 105 180 128 219 195 139 160 169 149 147 128 153 153 141 171 217 186 136 116 83 69 108 146 164 168 170 158 160 138 109 90 148 170 156 123 131 98 130 196 219 169 141 109 153 165 184 188 185 218 204 168 196 194 158 130 125 128 139 181 187 103 115 63 118 148 179 100 102 97 128 72 121 167 143 49 103 151 139 85 95 69 72 88 126 107 110 84 88 117 77 84 86 53 58 53 62 41 51 35 56 56 63 63 65 55 57 88 93 89 87 65 76 110 114 133 124 178 184 205 206 212 206 199 205 164 126 57 45 23 23 51 64 96 56 119 52 160 209 176 147 108 139 149 104 44 47 31 109 157 121 168 174 169 151 141 109 141 126 115 164 158 137 181 123 121 88 73 59 116 80 109 76 34 48 49 69 58 164 189 180 200 196 191 185 187 201 202 205 198 200 201 195 206 202 206 207 210 189 195 200 199 188 190 159 167 153 169 167 160 154 170 176 128 130 131 121 100 100 72 56 44 86 90 128 174 149 125 121 103 116 68 86 76 60 80 82 171 145 162 116 149 216 83 117 118 140 145 179 196 110 119 117 78 157 208 220 222 200 206 169 175 106 166 189 197 220 222 236 225 211 223 222 202 157 197 190 201 143 136 210 200 139 146 206 229 226 238 228 199 158 167 156 164 204 199 210 220 242 229 199 211 198 188 116 121 116 129 135 115 110 99 90 107
98 76 162 141 115 103 78 117 145 199 80 105 169 144 172 110 98 149 179 89 180 123 86 111 140 107 127 158 145 117 158 159 196 200 206 208 209 204 202 76 107 149 165 184 165 205 223 212 189 213 196 184 199 160 120 111 147 186 182 110 148 140 205 190 129 120 158 118 111 86 77 87 137 79 120 209 115 154 55 179 135 185 57 82 95 127 124 97 72 69 77 60 58 64 80 65 49 83 75 48 43 44 66 79 78 88 97 92 129 123 159 156 170 171 176 160 158 167 176 165 165 151 154 138 165 156 149 196 202 197 218 217 207 191 108 67 55 17 43 41 117 174 102 182 139 159 107 125 175 172 64 46 36 42 45 104 88 104 124 189 158 178 102 116 125 123 110 136 145 109 131 169 68 80 54 55 86 88 117 36 57 48 64 76 179 194 187 190 188 204 208 223 219 219 208 210 221 227 221 218 218 204 200 207 188 185 202 189 177 145 160 143 128 115 111 105 93 114 136 95 99 121 82 93 67 80 68 109 115 138 143 153 115 83 87 92 120 63 138 58 167 161 182 160 62 60 125 78 59 134 119 104 154 116 116 76 174 202 216 204 123 109 120 117 192 161 150 197 135 178 168 165 226 220 206 191 205 227 232 218 149 134 181 123 220 220 217 220 231 208 187 147 128 127 204 210 155 134 235 235 189 210 124 161 135 187 136 149 145 125 55 72 83 90 136 202 141 103 102 105
63 115 143 105 82 150 125 63 67 68 187 137 157 84 79 148 127 79 98 172 161 191 216 226 211 145 84 135 79 86 184 204 206 191 222 210 192 114 79 89 135 158 179 185 178 154 195 223 219 209 213 191 186 89 161 137 104 212 226 205 115 80 119 174 176 176 103 148 192 106 86 108 79 108 171 60 68 164 148 184 143 82 167 156 79 54 55 135 108 87 68 39 65 64 54 51 66 74 60 57 93 93 135 145 135 148 127 134 137 182 178 181 177 172 184 176 185 189 177 188 189 181 180 184 188 188 182 181 176 178 197 213 192 201 192 141 82 51 35 83 111 137 186 213 138 150 135 137 195 97 58 53 44 53 58 57 98 102 149 220 154 128 121 120 134 124 113 144 174 144 179 157 72 100 52 48 63 74 56 47 68 83 80 89 178 190 207 195 215 204 206 210 216 225 231 222 213 212 207 196 202 206 191 181 165 156 139 136 143 136 120 123 104 108 104 115 87 86 79 69 58 47 34 65 165 92 74 84 65 90 87 93 58 89 140 114 90 124 103 108 67 147 160 138 83 100 109 90 85 64 96 169 204 186 107 167 148 105 118 117 149 177 175 131 118 166 218 217 222 227 147 144 195 196 236 206 192 190 192 207 198 195 175 153 105 115 114 133 162 190 220 227 218 238 226 221 172 135 144 169 231 218 105 87 123 126 147 100 54 62 179 200 226 221 156 109 120 124 135 94
32 51 89 128 141 138 125 86 99 73 177 159 177 188 184 176 144 156 113 107 189 176 188 210 207 219 196 179 147 157 110 151 171 180 201 231 225 177 156 150 133 117 137 127 103 105 171 211 220 160 157 148 154 60 124 162 114 192 218 162 164 192 138 168 213 80 72 212 180 47 158 148 139 151 178 62 150 151 145 167 141 134 169 74 68 38 54 98 75 38 67 67 53 92 95 41 56 79 63 74 77 99 119 143 140 137 170 157 175 185 189 186 189 187 196 189 189 192 186 178 186 181 190 186 187 174 178 169 185 175 199 212 210 208 194 137 89 45 39 77 158 157 194 182 189 169 149 161 148 104 53 48 39 33 75 86 123 110 157 215 125 128 115 137 135 135 134 128 145 113 198 175 108 104 42 56 66 119 66 38 45 44 68 107 140 182 190 211 198 205 201 212 232 236 226 216 211 208 205 220 207 199 157 137 155 141 150 127 161 134 124 120 146 136 180 141 131 120 102 88 52 67 56 66 133 80 54 70 80 64 90 104 74 143 147 105 128 98 155 199 74 59 141 84 97 83 120 88 124 80 116 109 196 225 134 106 216 208 196 164 186 216 215 207 202 186 158 151 175 164 177 147 140 123 186 209 221 219 184 185 169 180 172 175 174 168 209 221 177 205 211 228 240 239 182 143 161 171 197 186 211 206 180 146 99 108 176 116 74 80 100 109 108 87 176 156 167 164 105 90
115 141 66 80 115 116 134 169 189 87 80 126 176 165 172 131 65 170 118 149 223 217 194 155 167 182 190 211 237 231 133 133 102 111 141 223 222 187 138 103 149 160 162 164 179 225 209 171 200 191 195 191 179 191 181 150 100 144 170 197 54 65 113 180 221 175 133 187 218 120 96 114 133 148 128 75 118 84 119 117 126 62 44 134 147 82 161 54 67 145 92 118 57 58 51 59 66 72 56 92 66 51 77 58 59 105 150 177 182 191 185 181 189 191 189 186 186 199 197 188 185 188 205 202 196 205 209 199 195 182 194 196 169 189 154 155 117 59 54 49 120 114 182 117 116 170 139 179 170 105 89 103 82 70 72 99 64 88 137 200 93 124 154 165 153 140 127 110 92 146 180 153 194 169 68 66 45 76 46 72 92 94 103 151 199 206 222 225 226 222 227 222 215 210 194 205 188 184 188 192 185 181 195 191 188 189 194 189 187 186 187 188 188 178 187 170 170 176 178 158 155 147 136 119 108 100 98 99 100 89 88 97 167 155 133 146 48 58 65 68 107 85 116 78 78 65 150 146 144 136 149 158 68 58 123 168 171 130 69 72 128 130 185 186 189 223 198 167 141 174 201 204 157 134 166 186 192 176 174 161 218 211 210 206 128 138 149 194 230 192 128 157 137 123 134 177 135 99 74 135 165 180 220 215 207 188 134 155 205 189 158 120 93 144 82 84 92 119 93 174
59 138 180 120 114 179 130 109 133 170 75 52 54 98 191 151 56 79 153 160 149 113 123 179 178 141 129 134 121 145 169 168 165 179 162 151 159 165 140 114 128 150 170 129 89 106 138 116 166 202 189 190 158 83 123 189 185 143 130 129 86 121 107 187 154 202 209 129 139 90 135 159 149 169 160 86 165 153 114 79 98 171 89 92 65 88 69 119 77 120 106 107 72 79 96 42 36 63 60 52 72 102 113 99 94 80 82 150 160 159 170 192 180 191 195 201 205 195 187 195 197 197 197 206 194 201 199 200 205 208 209 206 194 161 145 123 130 73 43 57 59 145 98 149 156 177 196 137 128 126 82 87 83 83 88 88 86 92 151 197 125 134 170 146 136 143 148 120 134 136 127 130 176 137 156 151 37 76 66 93 94 92 121 168 202 200 215 205 212 223 208 212 216 210 182 191 188 176 176 188 192 194 195 197 197 199 187 188 184 189 185 182 185 189 180 170 176 187 194 181 160 150 130 136 108 128 126 127 136 121 69 87 95 108 143 153 120 87 125 97 86 111 125 166 80 66 155 148 117 178 136 126 68 108 180 186 216 194 127 138 99 59 93 85 129 147 86 108 191 188 187 190 201 212 204 178 225 231 174 154 199 197 103 97 119 145 213 206 139 108 187 210 157 174 180 136 133 103 94 111 82 121 115 89 95 92 85 102 169 181 178 127 105 96 100 150 137 162 110 171
147 167 169 184 184 129 114 105 120 95 172 168 117 63 88 167 209 201 184 131 92 154 176 182 172 139 145 107 125 158 212 198 172 185 188 179 198 210 217 189 199 176 133 96 107 108 134 188 231 221 168 159 175 127 74 56 58 84 83 133 121 68 76 141 185 127 189 117 148 192 126 120 92 69 66 110 62 72 159 149 87 103 52 109 143 102 106 83 144 124 66 67 111 84 100 52 84 104 120 128 138 133 149 151 144 131 110 93 84 129 169 176 171 179 194 194 191 201 202 197 199 201 196 200 192 206 198 212 204 187 221 201 206 182 134 156 154 115 87 41 117 113 180 93 182 184 189 156 149 117 64 84 89 89 88 102 98 119 160 160 139 136 147 135 133 134 145 125 136 159 180 155 154 130 180 159 60 67 83 95 96 88 157 190 197 217 210 205 227 229 216 210 195 186 187 192 190 196 200 194 197 198 195 196 199 199 188 197 197 194 179 179 175 182 178 185 186 181 185 176 148 138 130 115 117 134 119 116 124 111 98 111 98 83 83 95 100 53 136 119 102 109 100 85 116 174 72 129 93 191 123 100 182 127 115 118 116 116 127 114 143 146 113 130 134 167 237 226 131 107 156 187 141 167 199 160 167 205 178 178 108 96 179 159 100 90 141 144 109 119 196 186 222 220 200 195 198 192 219 192 159 145 184 217 226 216 176 161 218 162 51 79 131 114 105 108 85 77 131 135
60 73 67 130 118 43 52 87 125 108 207 178 153 196 156 74 118 196 184 190 177 155 164 159 139 169 113 130 124 49 148 140 136 209 211 185 206 206 187 225 185 150 104 85 117 177 192 202 209 178 222 222 211 161 130 156 175 169 78 59 103 156 172 194 141 202 189 97 90 191 126 188 167 111 103 95 64 89 120 65 75 65 185 114 70 86 52 129 100 92 64 79 87 96 60 99 119 114 119 138 167 160 150 151 141 139 127 115 115 105 160 169 159 172 191 197 201 205 208 200 200 199 200 198 202 201 209 194 200 211 216 197 200 210 156 123 167 84 77 77 146 104 109 98 178 185 205 194 177 93 70 97 90 93 95 89 113 153 174 195 141 133 143 141 143 138 146 121 134 139 148 162 157 150 178 123 93 97 84 99 97 98 171 186 210 208 222 225 233 227 202 198 178 184 178 189 199 201 200 206 209 204 204 199 195 192 197 192 196 198 181 187 189 185 189 185 180 168 160 160 138 123 123 129 108 97 117 110 119 127 88 131 99 77 123 111 69 72 67 148 90 65 78 75 151 111 119 171 144 144 126 124 129 136 154 156 179 180 195 165 158 148 83 64 102 116 186 228 227 197 117 117 134 133 164 200 175 109 215 198 121 140 149 198 181 172 155 188 218 222 212 201 207 226 229 209 157 178 192 170 85 184 212 197 140 162 109 147 87 68 158 156 111 124 55 66 79 86 144 189
100 119 133 154 88 99 104 88 98 186 77 80 136 98 109 153 139 97 85 73 94 104 110 189 145 89 107 70 66 189 166 144 72 65 83 116 99 77 92 147 118 133 100 127 153 93 99 139 168 186 175 160 148 177 178 96 90 70 55 54 199 196 179 160 126 172 168 215 156 136 133 111 191 185 153 58 79 88 140 102 49 68 73 53 53 92 141 180 182 82 120 105 121 99 86 76 109 114 137 133 159 179 174 178 175 185 176 161 147 113 96 116 162 177 191 189 197 196 200 199 206 205 196 192 187 217 208 211 207 209 215 197 207 157 162 130 103 109 73 90 149 68 93 137 178 176 156 178 144 144 80 77 84 94 104 123 116 158 188 187 141 138 145 137 131 128 128 138 128 125 141 146 185 194 175 162 130 116 107 88 85 88 166 205 215 220 220 230 228 216 181 174 179 191 196 204 200 205 200 201 207 206 197 194 202 199 197 199 187 179 188 178 197 174 184 178 172 174 151 125 129 136 135 139 104 89 80 96 78 58 55 53 57 82 69 82 117 144 129 127 106 99 70 70 154 184 170 88 96 103 162 119 97 133 194 172 73 70 86 92 186 140 143 138 148 162 223 216 133 168 161 181 171 176 167 144 180 160 170 210 181 182 202 184 168 174 188 204 199 187 171 209 221 212 181 167 164 148 154 159 149 146 201 208 226 221 178 166 178 199 181 208 157 134 82 75 85 114 161 206
66 55 59 158 167 191 188 134 128 84 146 154 168 156 170 190 202 194 180 222 116 103 166 188 175 160 202 153 148 196 188 175 195 190 169 179 199 219 210 169 80 85 86 66 125 197 215 158 172 157 175 184 200 190 177 156 148 175 141 159 196 194 162 130 172 168 145 70 128 76 207 149 134 80 110 79 73 95 99 125 115 80 92 97 54 80 79 69 77 65 48 26 44 64 59 98 77 144 164 178 166 179 185 185 177 181 182 175 175 176 159 145 129 104 109 181 190 199 196 197 207 211 217 207 197 208 202 205 206 228 213 217 197 178 150 154 130 104 80 48 83 104 162 179 198 187 147 130 146 129 95 99 96 99 125 124 125 130 153 184 140 151 140 141 131 130 135 96 111 121 129 149 137 157 124 123 127 108 104 102 97 156 188 199 211 223 218 201 191 186 187 188 197 198 197 202 201 202 211 208 199 204 210 211 204 206 195 199 194 198 189 187 165 156 131 143 157 155 135 123 144 134 129 149 166 164 150 133 136 105 135 137 117 111 88 116 162 166 146 129 116 104 114 84 99 113 199 206 136 75 62 57 123 172 199 167 80 90 211 197 150 176 195 174 184 153 115 124 130 130 130 147 222 227 202 207 154 155 194 196 189 195 141 140 189 190 209 175 155 175 213 220 164 185 211 190 219 222 147 133 171 124 196 192 179 204 191 177 204 213 207 166 103 86 98 154 102 137 174 129
181 89 60 70 85 138 147 181 99 103 99 139 184 207 162 85 96 167 174 186 104 102 116 72 99 138 158 199 175 128 182 134 89 96 103 169 155 160 124 121 80 97 105 146 188 196 197 161 115 134 135 88 123 103 130 98 84 124 117 137 146 89 75 127 172 200 116 90 108 155 117 100 185 156 89 83 46 77 97 106 43 82 72 102 119 53 45 51 66 85 55 75 109 42 105 66 135 154 143 176 170 170 170 180 187 188 185 188 186 171 168 179 164 129 138 156 188 190 209 206 212 207 211 216 204 207 210 198 208 192 189 190 209 171 168 166 118 89 83 74 104 114 164 187 175 147 167 147 167 118 86 90 93 90 119 121 121 130 156 206 162 156 129 129 136 135 126 127 133 128 157 147 171 145 168 146 157 125 98 99 109 159 187 213 215 229 205 200 208 206 195 210 191 201 209 212 212 210 206 218 208 208 208 202 202 202 200 186 192 189 187 172 155 145 123 160 189 188 177 156 168 141 161 161 155 162 162 157 169 159 111 114 133 131 108 134 120 100 84 148 109 88 87 98 82 59 136 192 202 64 106 98 96 174 213 223 181 126 118 187 166 162 135 176 211 211 103 148 100 76 137 131 110 129 161 188 206 136 166 158 176 143 199 182 159 113 126 136 129 159 153 165 169 161 228 207 172 165 127 176 157 209 188 177 204 197 147 164 220 207 138 130 106 90 89 131 165 202 128 200
157 137 141 128 88 60 76 109 90 68 160 136 104 93 133 133 109 72 67 87 153 149 162 181 136 57 74 154 168 138 166 213 225 187 185 146 139 124 140 155 198 201 164 100 143 179 145 139 128 192 195 164 103 114 87 117 140 167 139 110 116 178 178 103 106 88 90 93 97 166 137 158 197 140 87 105 86 77 53 84 89 55 58 57 70 57 83 130 115 87 79 49 60 92 75 103 84 96 145 166 179 185 187 190 176 179 179 190 190 187 194 187 167 165 156 146 133 194 184 200 204 210 211 204 210 205 200 195 202 219 200 222 177 148 153 127 174 98 95 83 134 135 204 201 182 170 169 140 157 106 90 90 109 121 107 115 119 128 157 175 147 144 139 136 131 144 143 126 124 135 161 148 162 150 180 176 165 118 98 100 123 181 207 197 202 186 194 211 205 199 196 196 202 213 199 218 213 208 209 208 205 204 204 207 196 199 187 202 192 195 141 127 127 145 169 171 181 171 164 172 178 180 192 188 182 190 178 179 170 162 149 115 88 111 86 95 103 102 100 121 141 174 188 143 158 164 98 72 66 66 64 80 82 64 182 181 140 166 100 77 155 190 144 141 180 137 221 207 137 140 182 175 220 212 220 210 176 184 166 135 155 209 236 230 162 131 164 187 187 177 188 206 228 220 211 207 195 205 198 160 146 154 143 123 134 164 131 120 113 117 117 143 133 145 118 105 175 208 218 160
93 84 77 137 94 121 93 85 51 68 143 106 94 93 127 99 134 161 162 164 194 186 172 90 68 159 195 204 151 118 121 115 141 84 114 123 96 109 141 110 135 146 166 144 160 129 140 141 139 140 189 187 194 116 99 106 188 205 130 136 119 157 192 194 111 150 134 102 170 75 118 164 105 57 88 93 83 113 64 144 89 105 113 83 107 77 110 128 95 66 83 100 137 107 140 143 129 109 105 179 190 182 190 189 182 187 187 206 191 190 172 188 175 172 186 171 177 169 186 208 209 213 221 217 219 218 213 210 215 215 201 181 171 149 104 136 126 133 107 97 90 136 199 141 156 177 179 146 157 102 100 96 97 110 114 100 121 94 114 177 138 144 136 140 133 139 138 131 125 136 131 156 156 164 139 167 144 136 111 104 109 162 200 201 206 212 216 199 211 220 202 202 217 220 211 210 212 204 208 205 206 207 208 211 207 210 199 190 178 148 143 155 169 170 186 179 180 171 185 189 187 194 197 191 199 188 194 180 184 180 126 140 129 120 96 89 121 151 148 108 107 97 105 128 60 52 64 126 97 148 133 121 96 100 121 102 154 197 165 155 118 135 139 110 99 86 108 166 178 185 192 197 196 191 149 153 169 168 187 158 157 133 149 157 182 170 194 170 178 185 100 107 148 202 233 236 218 205 141 114 67 98 98 110 200 204 207 191 148 131 127 124 168 186 189 195 150 126 121 124
107 86 67 70 60 151 196 171 115 92 174 208 201 141 125 138 147 80 104 131 149 117 83 156 150 87 151 135 120 56 56 95 88 131 115 123 128 113 114 93 143 186 161 126 144 171 181 181 130 82 144 131 141 70 155 171 111 192 202 205 177 134 133 113 80 66 59 36 34 44 74 72 58 54 95 69 76 72 64 137 58 51 58 77 98 58 64 96 53 111 127 151 167 148 162 164 149 113 106 139 182 188 192 188 188 190 187 208 197 191 190 194 196 191 186 186 172 158 180 185 211 212 219 222 218 206 213 216 204 221 207 213 198 184 169 140 133 137 130 87 120 137 175 176 171 126 149 141 128 103 115 100 106 108 120 125 140 144 139 185 149 147 146 146 133 140 138 131 136 137 160 156 161 169 187 167 156 150 140 109 125 179 221 201 192 207 200 202 213 208 216 212 200 205 218 219 207 209 205 204 185 202 202 212 200 196 189 180 162 158 165 174 186 188 171 174 187 196 192 194 196 185 187 187 192 180 182 189 186 159 117 117 100 119 125 149 148 179 143 157 160 130 95 75 75 69 83 145 149 117 162 197 190 150 86 76 118 149 108 137 195 197 134 96 125 127 111 166 124 144 156 184 137 162 158 188 153 128 190 196 139 150 161 117 124 120 190 157 121 124 165 178 206 230 206 209 197 188 177 177 156 154 192 215 186 181 176 192 200 209 222 207 120 147 94 87 67 52 76 131
83 83 100 105 73 80 139 137 63 137 192 190 208 166 107 155 136 99 93 190 145 138 125 108 154 191 190 190 137 82 174 202 218 231 229 159 95 93 105 113 207 185 194 191 162 177 174 137 145 94 197 189 166 124 102 104 98 161 176 118 167 141 172 89 83 177 117 63 67 90 107 67 108 128 126 205 204 138 147 100 150 127 118 115 111 146 110 90 94 141 167 168 186 172 162 170 174 168 150 133 165 176 187 187 194 196 191 199 200 190 196 200 196 191 195 182 186 191 182 191 207 202 207 227 219 207 210 221 209 196 213 207 219 209 133 125 119 125 110 96 138 184 176 143 148 129 128 143 117 120 107 108 109 106 115 99 124 121 151 140 134 128 138 130 129 133 143 145 145 157 157 139 162 177 150 144 154 154 153 93 118 174 181 188 184 196 197 208 207 216 216 226 207 213 207 205 202 209 216 205 215 217 210 201 195 180 144 168 161 169 185 184 179 178 191 195 195 187 191 187 188 186 188 185 189 185 170 151 143 160 107 105 151 137 86 87 89 104 115 161 179 158 103 149 119 127 117 107 85 80 137 175 198 199 129 114 106 137 171 197 197 166 172 182 195 190 172 168 217 185 161 192 174 143 106 107 168 208 169 121 184 195 192 194 211 220 191 195 159 155 141 156 175 188 190 200 221 219 196 184 202 204 210 189 220 220 151 111 174 188 109 131 167 157 93 97 109 97 67 69
82 131 72 114 158 99 90 88 140 148 76 109 86 66 76 154 165 155 179 102 53 87 119 176 208 167 151 103 97 69 151 182 130 167 131 139 137 154 177 159 200 187 184 186 194 177 178 197 192 188 123 76 92 66 123 204 202 197 102 155 140 180 178 115 151 95 70 113 178 48 49 92 92 92 99 110 115 85 78 116 140 97 109 108 130 129 75 67 98 134 176 176 181 185 196 179 186 188 178 180 144 169 178 192 195 185 189 200 190 200 209 205 192 204 201 188 202 202 197 167 199 209 211 208 219 226 227 223 229 221 205 205 200 205 139 123 127 119 117 134 162 180 149 182 164 147 148 135 135 124 123 114 93 103 108 116 138 131 161 169 165 153 139 141 139 134 130 138 145 165 141 137 148 141 148 156 125 130 138 97 126 197 216 201 208 206 213 209 217 204 211 207 219 208 209 211 210 207 219 218 209 207 196 184 158 164 174 190 190 190 186 192 175 168 186 189 194 204 198 186 186 187 198 185 186 166 164 151 153 103 113 94 77 60 114 121 107 107 115 143 129 117 185 148 159 134 128 161 177 141 134 168 165 106 76 109 76 107 115 117 185 144 121 130 191 197 228 201 164 137 134 172 195 171 136 148 124 123 145 161 151 141 210 198 155 194 206 207 225 219 177 146 182 171 150 169 168 137 165 189 121 121 121 88 113 99 95 77 119 136 184 188 150 136 89 82 83 62 85 98
105 77 97 201 177 119 184 96 95 105 56 62 67 83 87 64 51 65 97 137 160 201 208 148 139 134 187 172 154 144 202 216 188 191 164 106 118 134 134 180 88 118 83 121 169 161 174 188 194 155 141 138 139 196 177 135 129 156 192 172 147 116 87 115 184 130 133 110 73 75 74 105 181 212 201 155 181 131 127 118 157 158 97 60 99 54 31 74 126 148 176 179 180 190 172 185 189 181 168 168 106 133 184 187 185 186 190 192 187 189 205 204 192 190 195 198 188 190 191 190 206 210 204 207 217 228 223 225 222 220 219 220 187 187 146 130 131 119 100 121 165 164 189 186 131 156 154 131 128 127 100 90 111 131 128 128 113 113 148 179 146 162 151 148 133 129 140 146 140 137 136 137 156 175 172 148 151 137 129 138 130 180 182 199 219 211 201 206 204 213 205 210 207 213 211 206 212 216 227 222 208 198 179 166 165 165 178 180 195 187 189 184 188 196 191 195 188 188 192 206 197 187 185 180 168 164 141 134 109 150 166 138 121 115 138 119 161 127 129 129 170 179 109 138 170 151 186 148 96 180 139 138 139 139 149 165 116 160 144 116 85 127 189 170 182 162 200 207 162 156 226 184 182 187 149 137 178 149 137 147 213 227 222 204 223 210 190 139 154 154 176 143 138 189 200 222 194 192 151 211 199 201 184 154 204 197 126 150 176 220 167 134 174 153 159 135 207 184 97 181
115 149 121 104 145 201 166 155 89 147 162 178 158 80 63 78 67 89 138 207 213 218 190 170 115 144 93 63 67 190 188 111 72 130 174 166 206 169 137 185 201 184 172 210 198 131 172 127 117 117 98 87 119 208 197 77 78 106 140 79 55 47 36 87 124 207 149 126 148 134 117 104 120 150 156 140 147 95 117 133 145 82 75 107 80 45 37 56 131 177 186 187 182 186 185 189 178 198 201 160 150 114 164 176 186 191 177 202 201 196 192 196 202 207 210 198 195 210 197 196 196 199 218 210 221 216 229 212 216 202 199 198 209 174 150 151 129 130 133 118 166 177 160 180 145 155 140 124 127 96 109 123 111 120 127 129 145 137 147 160 144 147 143 135 144 135 130 134 138 129 160 147 131 138 181 148 165 136 178 127 120 197 205 206 204 196 202 200 199 211 220 211 200 199 216 210 220 219 221 210 196 175 175 185 188 188 194 196 189 197 195 199 185 186 191 194 188 190 195 192 177 174 167 157 124 145 154 170 135 150 161 129 126 96 119 110 167 194 150 167 151 108 111 119 156 164 137 141 161 178 105 139 145 160 106 84 114 165 159 199 171 117 117 120 216 172 159 177 211 194 154 165 165 153 157 160 171 145 157 189 217 210 199 221 236 233 231 223 212 190 212 188 158 204 215 199 196 191 165 187 184 150 164 145 108 111 84 95 190 199 230 205 178 148 99 86 95 117 84 95
124 109 147 131 144 158 148 164 159 160 225 210 162 100 88 99 89 160 175 181 38 60 80 75 94 134 113 129 85 115 181 158 110 96 103 121 79 73 73 118 139 151 162 171 197 182 175 158 144 120 206 182 151 93 96 119 139 77 106 121 174 189 207 191 139 76 136 133 102 145 171 178 207 153 141 114 168 154 95 72 161 145 98 70 62 83 85 97 137 170 190 192 200 198 200 168 176 176 179 192 167 177 153 179 180 190 194 184 189 185 192 196 199 194 208 205 215 197 198 205 200 187 199 198 212 225 222 223 222 219 226 219 209 207 134 129 120 123 96 130 150 197 182 185 131 139 123 128 124 127 138 117 131 128 131 134 131 138 145 159 143 147 137 130 136 129 133 137 130 137 145 141 130 136 143 139 150 156 151 130 137 176 191 202 198 212 219 212 222 209 206 209 211 211 219 215 228 228 216 210 184 181 196 191 187 187 195 189 181 185 188 184 179 187 191 197 192 189 196 185 164 153 129 133 131 156 179 188 182 153 162 159 108 104 84 82 97 99 133 179 185 154 155 167 169 166 159 156 156 134 190 181 143 138 205 210 198 197 197 191 90 134 166 144 94 99 103 126 208 225 190 180 186 197 205 176 202 211 222 221 211 187 143 156 127 129 202 212 198 190 119 130 114 108 160 97 176 205 225 211 169 211 177 144 199 219 217 180 194 192 185 198 125 117 103 111 129 140 174 185
74 45 65 77 93 73 89 78 68 48 44 78 95 157 124 181 143 143 99 144 106 88 102 55 72 133 129 133 146 144 75 77 83 58 70 59 99 155 138 165 154 145 150 137 130 140 157 177 157 99 140 124 127 154 149 82 95 134 189 206 87 94 94 125 121 161 215 223 219 150 83 96 129 166 115 99 74 93 58 56 62 83 64 80 140 119 86 62 74 178 181 192 195 200 197 191 194 191 188 201 184 186 158 130 160 190 185 197 195 200 194 186 210 205 209 208 197 208 207 189 206 195 188 194 204 212 230 226 225 226 216 208 208 199 135 130 133 106 107 106 189 177 144 143 136 137 133 115 123 121 111 116 108 125 128 141 138 159 145 151 146 140 140 131 129 126 113 129 134 133 149 144 166 158 170 177 169 164 166 113 124 174 178 192 212 209 209 206 202 215 209 204 226 222 218 216 220 218 213 198 187 189 194 196 200 191 198 194 197 188 202 192 187 190 184 181 188 186 182 169 129 98 129 165 177 178 170 177 176 182 186 179 159 139 109 124 162 162 182 136 120 114 105 114 167 165 136 136 151 89 168 169 129 128 166 170 204 226 178 171 191 211 194 192 208 205 145 184 189 176 127 176 219 220 196 180 202 223 218 216 191 194 227 222 215 218 188 195 204 191 160 188 175 159 151 172 166 199 207 160 168 184 109 131 128 134 172 169 145 133 138 154 170 178 165 187 175 113 80 93
102 105 85 55 67 117 154 106 106 97 94 84 115 100 155 145 156 204 194 95 48 87 102 155 171 154 145 168 188 130 138 176 194 190 167 73 73 57 83 117 182 160 113 87 75 127 120 175 188 182 138 111 121 116 124 179 160 188 190 131 115 146 154 188 176 118 138 175 192 143 106 135 202 168 178 211 204 133 109 105 111 85 84 41 47 68 73 95 94 166 181 189 184 182 178 191 194 201 200 202 199 190 150 134 113 188 190 200 192 208 204 192 199 197 200 208 206 210 204 202 199 204 205 207 208 208 222 229 227 230 198 200 198 197 155 129 121 125 141 133 205 158 160 162 147 154 139 128 123 129 134 117 100 111 127 130 143 150 148 144 149 150 143 154 141 136 134 135 137 138 137 165 143 160 149 154 179 151 164 150 113 138 191 191 200 205 202 208 216 207 222 220 215 210 229 227 216 209 201 205 190 196 199 195 201 202 205 200 201 196 191 190 207 205 189 191 190 185 179 164 151 160 166 157 179 182 196 209 202 186 182 172 145 121 104 103 114 126 120 105 148 148 123 127 194 168 169 136 126 94 116 134 151 154 164 139 130 144 175 185 146 156 160 208 218 225 201 168 161 169 87 192 195 216 208 198 184 178 190 190 198 208 196 191 206 187 201 198 171 184 159 198 210 150 172 195 191 219 229 216 160 75 92 84 121 98 135 165 216 205 186 196 125 129 135 175 103 70 75 96
80 106 136 94 79 121 179 196 153 89 99 156 179 74 59 79 106 138 139 114 188 151 95 78 62 97 151 188 172 169 154 111 121 107 124 145 83 106 121 179 205 176 167 162 191 166 170 180 166 161 186 164 138 190 182 157 148 176 169 177 200 177 131 167 141 161 96 69 76 109 197 162 140 89 82 139 134 177 174 171 77 59 51 100 104 103 105 97 80 180 177 171 167 169 172 196 196 195 196 192 194 177 199 188 169 168 185 195 198 195 195 196 198 200 196 201 208 213 210 202 209 211 199 206 199 209 208 211 220 229 215 192 207 190 121 124 121 121 140 135 158 148 162 165 141 154 134 127 126 123 129 128 136 136 114 131 145 154 158 165 141 144 155 150 148 145 150 136 137 135 138 157 161 147 167 170 179 150 159 178 116 149 201 199 205 208 215 201 201 202 215 219 223 233 220 217 208 204 200 189 200 196 197 207 198 197 196 202 202 195 190 187 204 197 197 190 189 182 178 139 144 175 169 169 176 178 199 204 206 205 184 182 174 165 136 117 141 114 123 155 171 182 143 88 138 115 103 102 140 207 147 121 118 119 165 165 130 92 168 205 166 138 157 150 148 143 147 157 129 168 213 210 212 206 189 209 175 201 191 184 209 175 186 222 220 197 125 123 161 190 194 206 180 177 187 187 134 123 149 126 96 114 89 169 210 227 204 178 114 100 154 140 143 200 97 137 95 83 136 164
120 103 140 118 98 86 117 133 137 72 125 140 134 181 121 74 77 95 105 177 140 153 134 131 117 89 55 167 200 197 216 201 151 125 130 167 143 118 148 178 176 164 145 86 84 106 140 197 202 90 139 114 139 105 100 105 127 201 178 174 194 143 149 207 182 195 192 131 153 181 147 113 92 110 130 174 207 162 115 124 161 171 131 98 74 89 107 98 90 156 180 187 197 199 189 184 186 194 187 206 201 181 188 179 158 148 176 191 181 200 201 204 202 197 200 200 195 201 208 205 204 201 195 192 205 220 225 223 228 225 213 201 174 143 125 133 127 119 123 131 174 158 148 151 159 157 136 121 127 120 123 126 133 129 148 153 150 159 165 148 159 133 143 151 177 147 139 138 146 137 138 137 146 131 149 159 172 150 170 164 126 172 207 202 199 200 200 202 201 213 220 218 227 219 223 225 210 198 206 187 198 191 208 204 195 199 205 209 207 204 196 202 198 206 191 195 191 166 175 139 175 184 179 191 196 206 181 186 186 186 185 170 157 159 127 121 168 156 136 110 111 109 167 181 161 136 113 90 96 111 160 191 196 215 185 147 155 148 66 98 158 139 191 199 197 210 187 168 191 200 159 130 137 151 162 184 201 212 169 162 210 217 218 225 209 197 119 150 146 195 218 216 168 140 178 170 222 219 172 99 135 139 143 157 158 190 160 190 154 196 138 160 229 195 211 217 149 118 114 87
111 114 115 116 171 90 88 110 143 156 59 60 78 138 153 185 190 215 189 161 111 154 148 151 140 157 157 118 131 134 197 172 194 161 186 108 114 161 172 186 154 201 212 195 204 175 200 108 83 124 148 160 171 118 137 115 117 86 69 90 161 197 204 178 171 109 118 99 63 143 94 102 88 126 151 151 177 147 157 155 137 113 137 109 105 69 98 105 113 137 182 174 195 198 188 206 205 196 206 188 195 191 200 206 192 155 159 192 201 199 204 197 201 202 200 204 205 215 208 207 208 207 199 209 200 211 211 213 211 200 201 218 209 160 133 121 127 131 144 143 178 159 150 135 149 141 160 115 141 168 123 121 121 128 145 154 181 150 165 139 144 143 153 155 141 144 148 138 133 126 135 137 136 135 158 146 144 166 165 164 119 180 194 195 198 209 202 202 206 215 219 221 220 216 220 226 215 219 215 201 210 200 207 199 205 204 202 201 198 197 185 182 198 190 190 188 174 158 146 185 162 161 178 189 198 197 197 191 186 195 187 194 188 174 138 125 155 156 139 125 102 181 213 178 134 113 107 119 140 107 157 150 115 130 167 181 176 137 143 140 145 202 176 200 154 153 191 207 191 190 208 219 189 157 129 146 167 194 206 168 205 169 165 141 78 116 176 161 186 164 168 184 195 188 198 185 185 165 177 218 245 240 194 143 118 127 156 162 106 124 137 88 106 144 117 129 157 157 123 82
206 195 131 95 110 66 47 94 120 120 168 141 67 125 137 125 85 59 66 76 119 171 186 127 164 177 174 149 130 124 139 184 188 197 186 110 94 107 105 106 205 168 106 191 195 190 181 113 153 143 77 88 124 133 117 110 92 107 115 102 191 171 162 185 161 84 74 79 102 97 146 153 150 99 114 146 120 143 146 137 107 116 151 131 92 137 151 103 136 102 180 176 177 187 196 187 200 184 191 209 199 209 194 189 186 189 182 148 174 199 196 200 187 198 191 189 206 204 202 198 209 213 209 206 197 205 200 217 228 228 222 215 209 147 134 127 137 128 159 146 164 141 158 116 136 143 147 146 138 136 143 126 140 153 153 162 166 155 164 164 146 157 151 141 146 151 151 144 138 140 143 141 146 150 187 169 165 140 164 170 147 180 190 192 202 199 198 198 209 209 221 221 215 220 210 215 198 202 201 209 207 209 209 205 205 201 211 205 191 206 204 199 190 187 177 174 170 166 175 191 190 196 194 192 182 189 194 199 198 184 184 177 166 157 148 111 141 137 124 146 161 114 128 160 118 123 157 177 160 139 229 219 213 199 184 213 169 166 166 169 119 113 157 182 170 189 170 157 174 186 181 204 192 176 145 164 197 209 144 121 197 158 114 140 145 167 147 130 151 151 172 166 175 154 200 216 207 196 210 209 180 170 106 135 128 109 95 111 176 180 76 94 87 109 136 154 181 170 118 126
118 76 68 84 62 55 87 123 82 63 68 80 133 107 93 121 164 137 87 109 85 102 74 100 87 56 117 179 186 198 58 48 88 162 194 197 166 177 97 90 164 119 63 59 87 111 130 200 210 204 200 179 190 155 124 167 160 204 208 209 148 128 104 80 83 127 140 179 147 86 102 129 184 156 155 141 168 178 155 87 53 45 110 86 105 171 157 154 151 83 158 180 180 179 175 178 172 195 190 201 211 199 207 200 207 196 197 136 161 184 201 202 199 200 196 191 190 201 204 200 197 196 204 212 205 209 209 215 217 223 212 213 199 170 141 128 126 139 143 153 171 140 157 149 127 120 130 121 116 133 144 136 158 154 143 141 151 168 157 143 137 133 153 137 144 139 141 140 162 139 138 137 147 140 162 185 156 150 179 162 154 185 207 198 200 202 200 212 216 223 199 215 226 222 219 206 198 201 205 204 211 215 208 208 205 205 207 199 202 195 202 196 197 185 168 158 182 181 181 185 189 190 197 196 212 205 201 192 180 191 192 185 184 171 146 109 146 149 168 165 181 181 129 102 143 136 134 159 168 165 146 133 145 128 167 176 166 145 190 219 209 180 121 148 208 219 172 133 119 113 151 206 213 222 190 159 115 164 114 156 96 105 137 156 169 192 243 239 213 199 117 119 153 187 212 200 196 146 119 119 160 155 143 111 83 107 147 141 96 64 90 109 94 83 154 204 223 219 213 149
107 125 102 59 77 99 98 107 129 74 94 62 59 79 58 60 70 95 87 78 189 170 160 184 162 89 56 117 143 134 139 73 97 75 148 86 114 148 154 146 111 76 69 120 145 178 166 157 157 171 199 190 184 107 58 60 75 185 207 149 128 111 107 96 155 202 170 157 165 160 135 154 158 149 174 129 116 99 74 49 108 128 66 117 125 135 137 170 169 124 175 182 182 186 195 195 199 200 200 197 206 212 202 207 199 200 187 164 157 194 200 205 199 192 201 199 184 197 194 210 198 182 205 201 211 191 191 210 221 216 197 197 191 167 145 129 136 136 136 151 177 148 134 144 155 171 153 126 128 127 126 131 151 151 153 145 174 154 158 151 143 136 138 133 146 147 131 134 147 136 134 144 165 177 161 150 164 141 156 141 146 188 190 188 201 206 208 213 218 212 218 225 225 222 217 211 194 198 192 210 219 217 217 210 206 200 207 197 204 195 207 202 192 189 158 171 187 191 186 181 179 184 200 197 197 197 204 196 197 191 190 175 170 160 135 123 127 158 190 157 158 169 182 153 144 99 98 70 104 192 144 172 125 147 144 113 89 97 148 166 191 194 195 170 130 153 200 200 118 153 196 201 230 221 196 154 161 148 208 197 201 188 134 135 98 95 150 182 150 144 169 197 190 187 144 117 147 146 175 201 92 154 194 191 153 107 113 145 133 141 218 210 124 95 162 107 100 98 95 182
110 133 106 119 125 123 103 77 64 67 104 153 175 139 99 68 113 146 177 166 75 94 155 178 178 116 48 96 106 64 153 186 171 159 158 227 221 177 103 125 147 127 165 180 167 107 93 87 108 177 185 191 191 182 192 208 200 153 164 121 141 176 189 179 198 201 208 164 92 82 182 213 178 156 119 109 96 153 161 141 144 138 157 127 128 147 141 164 166 117 189 180 198 191 182 177 180 188 191 195 201 206 213 206 190 198 198 180 159 188 194 200 201 206 207 201 199 201 201 199 200 191 202 202 194 200 195 206 204 226 215 216 190 157 121 124 121 144 151 182 141 171 161 138 131 146 138 120 113 121 149 128 144 141 147 146 140 147 146 146 151 130 139 135 137 134 129 127 124 134 135 144 141 144 170 155 174 147 179 158 166 192 194 187 202 207 216 216 223 228 229 227 216 223 200 194 199 211 210 218 212 211 209 201 207 198 208 202 204 199 200 190 189 182 169 184 192 182 194 200 207 207 191 181 190 181 187 185 192 179 179 180 175 158 123 134 146 133 137 114 181 172 127 155 186 154 113 125 133 116 187 157 166 204 221 198 119 172 189 169 189 178 158 189 221 230 236 230 200 188 150 143 133 135 211 220 199 189 145 153 159 168 218 201 206 198 188 202 198 205 199 157 178 197 147 119 105 106 158 175 151 162 164 159 110 120 127 139 198 177 168 147 198 180 108 143 138 121 80 115
89 103 106 79 83 182 156 94 108 144 63 76 85 139 133 147 171 164 171 166 102 134 191 185 120 118 73 153 151 87 64 73 78 76 66 80 90 80 83 89 131 99 92 103 150 159 151 215 220 172 157 172 171 127 106 98 146 158 125 116 85 127 137 161 130 126 96 119 134 144 106 113 94 104 128 79 116 133 109 107 80 113 136 144 165 145 160 178 190 174 186 180 188 185 187 184 177 190 178 189 184 199 198 205 207 188 190 186 184 156 191 197 205 216 199 215 211 201 205 195 189 195 213 196 201 199 200 199 216 215 215 209 210 181 123 131 129 135 162 190 178 159 145 155 143 140 143 135 129 124 137 136 138 137 149 144 146 151 141 162 131 138 140 156 136 138 140 134 125 131 140 134 146 156 143 149 147 162 161 164 160 192 195 198 206 216 217 212 225 220 216 216 221 219 195 196 204 210 211 212 206 211 205 211 191 191 207 213 206 199 204 201 175 175 196 181 196 196 202 205 204 196 190 184 188 187 195 200 194 186 174 174 138 131 174 165 127 109 106 134 138 113 177 162 153 159 181 177 179 189 184 202 206 164 156 85 131 177 171 181 221 204 196 182 180 160 166 148 175 155 109 107 179 221 195 186 200 209 181 222 215 202 175 192 205 205 192 198 195 206 200 197 135 137 156 160 171 177 218 232 180 130 92 90 108 108 129 123 201 222 216 171 128 98 145 134 149 143 73 73
72 73 80 96 95 84 79 111 75 103 124 107 125 123 159 189 179 72 63 42 60 60 68 85 113 140 141 111 85 146 84 125 155 140 120 75 70 60 111 207 221 215 192 140 158 121 64 129 156 127 206 208 209 217 215 174 140 107 151 104 157 157 162 194 175 184 164 127 126 88 126 171 197 202 187 78 106 54 43 60 67 66 127 146 147 174 180 184 182 160 166 178 169 177 185 188 192 197 204 197 201 210 207 199 197 188 197 167 176 165 198 192 198 207 209 202 202 204 199 201 200 204 195 195 187 195 192 192 191 204 202 200 198 158 124 138 138 145 148 146 151 145 149 137 128 145 136 134 143 139 136 135 145 141 157 161 146 140 146 143 150 143 137 134 140 137 151 137 134 131 128 128 149 147 156 156 166 156 144 139 153 179 194 198 210 219 215 207 228 233 220 228 219 208 202 201 207 209 202 222 208 209 198 198 206 200 205 209 197 207 194 178 180 181 184 197 201 205 209 219 208 200 179 185 188 188 189 186 187 181 184 174 156 149 159 145 138 120 133 135 137 127 150 138 165 179 129 129 126 199 196 181 159 138 180 213 179 190 175 159 144 139 103 170 219 235 225 206 197 179 208 197 178 167 194 153 89 84 151 135 192 200 190 153 161 155 176 187 154 161 146 141 190 205 225 225 213 194 196 216 141 111 156 157 207 188 166 146 131 106 171 168 145 140 135 157 120 144 187 151
93 105 120 120 126 95 111 134 100 104 72 46 85 160 140 89 146 175 187 182 160 176 127 105 145 107 127 175 153 148 162 148 165 95 88 86 70 60 58 51 64 83 120 170 191 168 191 151 133 135 172 184 187 117 117 191 180 73 116 172 167 165 154 124 86 73 76 162 134 134 171 169 92 68 68 42 51 98 131 72 51 54 153 175 167 179 171 194 186 143 131 181 189 190 194 202 200 195 200 194 196 191 213 206 198 210 208 187 189 179 198 202 198 194 201 215 217 195 196 201 205 197 197 199 197 199 204 217 200 201 206 190 201 160 129 131 137 157 160 150 170 158 143 135 133 134 134 126 128 125 127 134 139 146 170 150 150 149 149 154 136 141 147 137 135 137 133 131 131 139 135 139 153 153 154 166 158 150 146 136 186 187 206 209 221 216 220 222 229 232 222 226 185 200 198 212 208 213 211 204 207 194 197 194 209 207 204 204 207 201 179 174 180 184 196 200 209 202 209 201 199 204 201 202 197 198 189 187 179 177 168 160 147 148 177 182 166 143 131 128 159 167 126 119 162 133 150 110 108 65 177 175 179 178 208 204 200 187 180 156 213 220 188 167 147 141 200 218 202 190 204 204 180 186 198 215 175 175 176 175 170 156 125 144 137 162 168 178 161 130 196 184 191 167 206 222 225 219 172 161 181 164 154 171 184 169 137 131 129 127 73 109 176 155 102 107 125 180 124 84
157 118 77 111 128 105 80 66 96 151 124 130 131 119 137 113 128 115 107 118 102 90 67 56 96 177 145 110 124 144 159 147 158 171 209 166 168 89 106 123 175 141 123 128 151 145 118 125 156 184 206 174 139 126 138 160 174 197 210 135 164 175 181 169 150 168 139 80 98 149 169 148 88 95 95 104 77 58 55 74 133 113 79 126 149 172 188 188 176 169 134 159 186 192 188 182 186 196 194 191 194 201 208 207 205 198 202 207 199 196 178 188 197 207 209 199 204 209 190 204 194 188 198 208 208 196 199 208 195 216 213 218 190 140 123 125 129 139 153 156 177 155 148 159 134 136 126 119 116 131 127 136 136 130 146 162 177 149 154 169 145 137 143 134 136 138 141 137 136 129 144 131 148 155 141 141 150 156 172 129 153 178 208 205 220 217 209 226 229 231 217 202 188 199 207 211 215 209 206 218 186 197 206 211 206 205 206 201 196 190 189 189 189 182 205 205 201 199 200 194 197 192 201 201 194 200 187 188 191 184 177 175 174 172 175 175 150 130 144 121 103 99 93 141 165 185 144 124 147 123 156 160 127 148 108 120 195 162 100 137 124 146 196 219 236 227 223 229 209 186 155 170 184 169 154 131 127 149 185 187 228 208 192 216 216 186 199 192 178 161 160 149 126 151 172 194 161 155 136 111 138 192 157 113 144 170 184 166 136 134 79 75 184 202 207 192 139 86 98 84
118 92 79 103 111 123 136 98 110 133 93 88 121 182 213 175 140 100 121 124 105 154 201 96 129 149 184 195 198 168 166 180 170 161 178 98 157 206 185 137 220 180 97 165 185 158 158 172 181 177 192 176 164 144 156 126 118 139 159 174 134 143 128 141 99 178 146 191 192 129 93 65 72 131 79 51 55 97 90 49 113 121 99 134 125 177 186 191 190 188 118 150 184 176 171 186 177 205 200 194 195 199 205 204 208 209 207 199 198 195 187 169 205 210 204 204 211 200 201 195 201 189 198 202 209 205 206 202 200 197 217 207 192 153 135 138 130 138 141 161 137 148 144 135 129 133 125 124 123 130 135 135 126 144 170 172 166 147 159 148 159 147 135 141 138 138 133 135 136 140 137 130 144 137 143 147 153 136 139 135 151 171 204 206 221 210 209 222 228 225 211 188 207 201 221 225 205 205 212 199 205 201 196 208 206 211 209 210 199 189 199 202 194 197 198 206 205 197 201 202 192 188 191 194 199 186 196 195 186 186 160 176 169 174 169 174 178 157 136 135 86 117 147 98 88 133 129 164 181 204 160 150 170 145 164 197 218 208 197 199 150 181 135 170 182 185 175 156 156 135 178 174 147 143 169 141 158 146 215 204 167 167 147 130 154 172 171 174 140 150 154 202 220 212 166 125 146 147 155 150 109 139 169 182 145 130 98 89 100 109 85 74 65 92 103 99 184 171 161 116
75 89 121 141 120 120 133 158 182 174 181 176 165 150 153 104 96 62 83 144 69 65 85 80 85 147 166 187 191 187 186 189 192 164 180 176 120 72 146 172 162 146 121 117 109 177 145 191 211 174 156 106 124 153 137 174 158 102 128 135 103 127 171 186 175 144 126 77 102 120 133 116 168 182 155 69 56 103 94 90 51 52 95 116 158 167 179 191 199 190 137 111 178 195 189 190 186 194 196 209 202 198 190 200 201 208 208 201 201 161 200 180 192 187 204 210 204 201 202 191 195 192 192 204 207 204 201 195 194 201 209 208 180 144 135 136 161 137 154 139 174 159 162 136 127 131 141 131 125 128 130 134 140 137 164 166 158 158 171 164 154 138 149 141 143 135 130 135 128 130 135 131 129 148 139 158 157 137 140 144 170 194 199 207 209 215 218 229 226 223 195 191 208 206 215 216 217 212 202 205 205 206 204 212 213 196 205 197 197 180 180 181 199 208 204 205 205 200 192 200 202 199 196 201 197 197 191 188 182 181 184 190 162 162 191 188 191 178 158 131 165 139 108 109 109 104 100 85 108 119 160 141 92 160 104 99 138 143 206 221 217 189 157 167 168 180 187 195 215 218 170 210 198 187 172 146 117 157 182 184 145 192 187 169 178 172 99 108 185 168 104 99 107 124 184 196 178 136 137 103 126 146 110 124 133 118 106 125 114 114 82 97 115 129 166 154 133 127 114 95
118 82 106 62 64 60 64 65 63 84 131 151 134 77 80 123 141 88 90 55 113 157 156 198 200 204 194 143 124 181 90 73 84 164 147 124 147 114 118 169 160 120 147 186 199 207 208 204 208 105 111 106 124 153 129 180 194 189 165 113 165 169 108 107 144 135 89 68 60 90 63 74 80 128 154 130 88 126 107 120 104 85 116 136 176 191 198 206 195 192 174 128 174 181 188 196 197 190 197 199 201 192 200 195 201 195 204 206 208 189 190 189 188 197 205 205 204 202 215 201 198 197 192 204 196 215 204 204 199 186 215 222 188 160 139 159 157 146 144 141 165 164 151 131 127 125 121 119 117 119 128 135 137 149 151 150 145 170 145 176 150 143 144 146 141 140 143 128 131 136 133 139 133 135 145 154 147 166 135 126 162 188 204 208 223 219 223 222 231 201 196 208 212 206 213 208 209 199 197 198 216 216 202 207 200 206 199 192 186 184 206 204 202 207 200 205 207 207 202 196 201 192 197 198 196 191 192 192 185 166 196 198 198 191 186 185 182 182 177 137 117 89 115 172 119 87 182 172 158 145 108 127 141 162 134 134 73 150 221 202 131 155 140 181 198 191 190 178 219 206 161 187 169 145 141 199 180 179 169 154 144 162 222 215 209 170 145 129 98 119 126 159 182 186 165 146 149 170 176 144 145 128 107 133 209 177 178 180 118 140 75 87 69 89 113 137 136 113 126 94
120 84 127 139 104 90 107 116 115 174 105 93 68 107 108 76 74 65 74 41 68 116 124 190 221 106 108 136 130 86 141 139 169 185 164 150 153 62 63 90 174 207 177 82 88 110 151 150 177 135 197 166 144 200 140 153 149 150 191 178 64 59 84 140 139 146 146 128 131 159 98 78 175 149 124 133 108 95 64 45 80 105 123 145 180 194 197 194 192 204 180 168 150 182 192 197 178 190 190 185 200 197 190 198 194 207 206 197 190 191 190 188 194 194 200 205 201 211 212 202 202 196 190 204 208 201 206 202 212 198 210 206 197 167 139 150 144 157 145 139 141 146 143 131 125 123 125 120 126 124 124 134 141 140 149 147 137 150 147 154 148 144 149 146 154 135 138 131 136 133 137 135 130 128 148 153 135 155 139 154 164 206 217 206 215 218 222 232 218 199 197 207 210 204 208 201 209 206 205 210 221 215 210 217 201 215 196 186 187 176 198 199 199 206 213 208 191 204 205 202 200 202 205 204 194 184 191 188 181 141 189 195 205 196 185 189 186 176 157 126 130 104 82 93 82 84 120 126 167 180 181 190 118 181 176 151 170 212 188 178 172 181 126 117 192 204 191 178 178 186 205 184 162 171 194 192 131 159 130 123 176 161 164 168 168 198 165 177 170 148 162 175 161 166 170 181 144 117 110 77 70 106 184 146 98 106 145 103 108 85 76 90 99 111 100 78 78 69 114 139
110 97 85 89 98 153 107 131 154 88 141 135 98 78 78 73 90 137 177 177 120 78 105 160 148 99 102 109 88 123 129 143 120 191 196 137 185 216 215 206 157 168 134 167 140 141 167 139 158 96 110 114 137 158 187 209 181 155 167 119 137 126 179 121 63 85 73 119 178 124 174 115 96 125 118 117 93 99 128 87 127 137 134 149 184 184 189 189 199 209 185 176 127 164 177 201 197 189 199 196 198 199 194 195 196 208 204 204 191 199 199 201 197 191 191 204 201 219 207 206 219 205 191 199 207 197 200 202 202 198 210 212 187 141 125 138 134 154 181 147 135 141 140 128 130 129 130 129 126 120 136 138 143 130 139 134 130 150 148 141 149 150 133 136 147 130 128 134 134 131 130 136 136 133 147 146 155 153 144 148 171 185 201 222 227 228 220 220 219 194 211 210 218 217 210 201 208 210 205 204 212 207 209 209 220 204 184 184 189 191 205 208 196 207 211 208 200 197 194 198 206 202 199 198 188 184 178 190 176 172 159 179 185 189 196 202 182 171 156 134 99 121 135 108 114 145 150 191 170 170 179 162 139 127 87 93 148 182 103 110 109 129 148 147 149 155 139 170 167 182 198 199 199 186 159 151 211 190 188 164 171 131 131 150 162 190 121 104 123 165 168 171 141 145 160 177 155 123 117 154 165 207 202 186 191 198 162 117 145 182 148 95 106 103 83 74 79 97 169 144
179 141 93 73 103 162 198 201 196 181 72 85 69 78 64 65 69 63 77 116 198 185 131 75 102 87 139 168 178 172 165 137 92 105 103 111 111 102 94 80 154 175 205 207 194 107 120 161 141 206 207 191 197 189 182 159 141 154 139 80 98 166 143 88 63 55 76 169 131 127 85 120 157 133 113 139 144 86 88 66 106 115 100 140 166 190 187 204 206 202 187 165 133 141 162 186 194 188 190 198 187 194 192 194 191 191 204 204 201 191 187 196 199 207 197 201 201 219 212 208 201 201 196 200 204 208 208 201 194 208 202 202 200 157 149 149 156 148 153 148 146 134 134 131 126 126 124 127 125 123 140 136 134 136 160 153 139 141 156 149 147 145 136 135 137 139 137 127 130 126 137 144 128 133 144 139 157 161 149 149 186 195 209 226 222 216 222 220 221 191 205 210 221 216 211 196 202 205 200 206 209 211 210 208 210 204 195 197 197 201 202 201 202 215 201 210 197 205 200 192 209 198 184 182 194 190 188 175 166 187 170 186 198 192 178 188 172 157 148 160 146 129 137 136 124 103 178 189 189 141 109 121 162 157 147 126 139 166 156 156 162 164 111 128 200 218 166 184 180 191 171 176 202 200 179 194 196 172 136 161 198 216 196 192 147 136 107 90 153 172 192 204 140 104 89 82 88 87 97 95 192 160 104 93 96 102 103 133 158 146 103 114 90 73 90 68 86 93 95 99
155 100 96 57 74 69 75 119 154 78 98 92 99 105 96 87 67 120 140 102 208 185 137 100 93 151 192 117 83 86 92 79 119 72 51 80 124 150 164 187 160 170 130 175 166 130 128 134 111 124 133 127 85 115 145 170 145 103 95 131 165 140 149 104 96 108 158 174 186 123 174 140 128 169 205 146 100 79 51 33 108 126 116 156 164 184 190 191 191 206 199 189 139 143 172 195 187 197 197 189 195 199 202 197 200 206 191 211 215 201 187 185 205 213 206 191 200 208 221 204 208 207 199 198 200 201 204 211 206 199 211 221 197 148 135 140 135 146 145 145 157 145 130 133 125 126 134 130 126 124 135 153 137 144 143 149 147 156 146 154 165 141 145 131 130 128 138 129 134 136 131 131 143 135 146 140 138 145 150 131 165 189 222 217 220 223 208 227 207 197 212 211 209 215 205 198 209 204 210 221 208 219 198 205 199 196 209 202 184 187 209 206 204 215 205 209 198 199 196 189 207 205 190 191 198 199 178 166 149 182 188 190 206 204 196 187 184 180 174 153 131 126 160 135 158 157 166 116 125 170 187 162 135 155 143 155 153 149 121 159 213 189 125 92 124 126 177 168 160 197 177 191 208 222 225 212 180 143 150 139 167 197 182 177 186 209 179 178 188 195 141 155 207 219 230 216 202 177 161 139 134 125 154 169 129 115 155 169 178 156 148 133 100 92 72 72 66 77 58 89
138 94 60 82 105 144 110 77 83 68 93 96 116 92 85 75 99 135 140 174 140 136 134 135 128 143 135 174 172 161 109 126 121 104 82 105 140 84 111 161 153 182 159 176 135 206 220 146 140 150 156 124 147 117 123 145 155 187 175 72 55 116 165 175 202 191 209 177 127 216 118 94 74 114 62 44 46 80 92 66 127 121 138 186 189 196 199 184 196 200 195 194 161 147 150 178 177 188 194 195 189 191 200 198 200 199 202 218 218 211 202 194 200 204 205 206 199 197 199 205 205 200 205 192 198 202 208 210 205 192 195 217 172 139 135 148 144 136 145 154 134 134 128 124 126 128 128 139 136 126 139 139 143 137 138 166 164 178 157 162 156 191 185 162 160 151 153 137 145 129 147 130 131 138 156 136 153 154 150 138 192 210 215 221 213 220 230 192 188 199 217 215 215 212 197 198 221 215 209 217 210 212 205 198 195 192 210 194 196 201 208 205 196 194 201 199 202 201 204 197 202 213 202 202 187 181 155 176 179 188 185 180 194 197 190 199 187 180 176 141 172 127 124 125 159 167 186 145 138 172 111 118 170 162 148 160 148 111 83 118 134 118 157 185 154 144 198 211 190 187 178 172 200 204 194 201 195 147 150 134 219 207 228 226 230 215 156 128 139 157 125 138 167 179 186 164 109 116 100 98 108 125 138 150 150 128 111 126 146 166 179 155 128 143 195 179 100 102 121 128
90 78 76 82 116 99 104 79 66 60 96 130 126 118 145 182 184 144 127 84 77 74 87 102 130 77 135 150 156 87 92 90 69 110 115 103 129 155 150 121 187 179 191 177 201 180 141 191 208 149 177 184 157 95 75 120 110 87 108 113 175 186 156 130 110 92 90 149 166 116 67 68 69 96 99 66 104 96 128 80 145 127 133 177 180 192 202 210 207 199 190 179 175 146 103 180 178 190 197 195 192 192 196 202 197 194 201 195 200 210 195 190 190 198 196 202 207 206 205 222 206 206 200 200 200 202 200 202 195 205 202 210 192 174 157 153 170 145 156 131 162 140 133 127 130 127 126 126 126 137 136 141 154 149 146 159 170 182 178 177 169 170 169 148 148 148 135 138 134 127 133 128 127 127 136 138 154 154 151 150 189 201 215 212 216 222 210 184 201 207 213 213 213 210 192 202 212 205 201 222 205 201 200 197 197 190 199 198 198 204 205 218 227 213 206 210 205 206 197 192 199 206 194 194 182 184 156 167 186 185 190 197 170 185 192 187 170 174 168 162 135 130 102 84 97 108 110 97 105 148 170 154 153 157 200 176 181 178 176 165 144 129 130 153 140 139 175 211 218 218 207 199 156 147 148 146 151 168 159 195 155 145 158 151 119 97 114 110 171 202 155 170 181 206 138 107 118 103 121 130 169 165 178 180 148 117 100 88 88 90 82 85 83 79 114 99 120 100 105 118
86 97 88 118 141 105 96 87 94 135 128 146 160 160 139 109 77 52 55 73 68 106 165 178 164 154 189 175 155 100 90 90 137 204 186 179 186 133 170 148 113 77 77 80 95 187 198 199 174 140 134 129 127 176 198 169 154 137 168 117 178 180 136 85 84 56 125 162 109 159 83 73 93 75 59 75 73 49 55 90 153 150 159 192 195 198 199 195 199 202 200 201 178 139 115 170 184 191 190 198 192 188 189 194 197 194 189 196 199 197 197 194 195 187 207 211 207 191 217 219 213 206 202 206 200 201 198 205 212 202 196 208 184 140 156 139 156 156 151 146 175 139 131 131 128 134 125 134 124 197 136 161 158 153 153 150 171 159 157 181 195 162 147 148 146 149 146 129 133 135 130 131 129 127 137 147 143 172 158 130 196 201 222 219 226 211 201 186 199 210 207 208 218 205 201 207 219 213 219 218 208 202 205 206 196 189 187 185 199 211 217 219 210 215 201 213 199 213 206 195 205 206 189 180 178 159 138 144 164 184 201 201 201 192 194 189 192 188 188 124 78 85 73 65 109 97 94 104 120 134 169 200 181 171 184 198 148 156 169 170 166 127 156 166 165 160 181 176 135 158 197 192 188 200 188 164 128 118 149 162 151 165 184 158 171 168 165 158 143 140 196 198 155 141 171 168 180 147 159 166 136 131 125 139 184 160 119 164 184 182 145 88 99 115 128 148 155 146 107 86
159 141 102 92 113 187 176 96 78 150 168 182 150 100 125 87 85 49 53 117 85 64 51 65 82 69 56 62 86 127 95 123 104 129 128 90 116 104 159 126 158 160 205 114 107 89 96 83 143 161 170 187 199 149 124 146 133 168 156 148 186 148 67 104 171 220 195 189 165 130 135 165 143 54 53 96 44 45 44 58 157 134 150 172 186 195 194 188 197 197 205 200 186 170 138 162 175 188 186 200 195 197 195 202 194 195 200 199 199 205 207 192 199 201 186 211 199 222 221 217 212 208 204 207 209 201 202 199 196 213 194 220 177 130 138 156 151 153 166 156 148 138 133 134 141 134 128 125 124 126 144 140 143 151 160 175 170 162 162 148 148 135 141 133 138 136 135 133 130 136 133 128 134 133 136 151 180 175 175 141 196 194 213 208 219 215 184 202 206 216 215 210 216 210 215 209 219 216 215 211 205 199 188 196 196 186 192 195 202 200 206 210 210 201 208 205 205 198 205 198 197 196 198 197 178 153 155 167 178 198 192 202 187 192 191 190 178 171 162 111 93 100 69 63 51 66 62 73 103 136 202 192 168 129 146 170 138 131 124 137 140 165 161 140 158 175 153 174 165 145 166 165 177 188 148 124 133 128 133 130 190 198 190 200 182 165 164 136 166 148 136 135 166 162 188 194 216 206 135 126 131 111 136 141 156 133 120 128 153 126 104 124 137 125 88 90 104 131 133 102
113 117 118 108 109 143 156 134 93 93 182 149 145 137 157 169 150 87 102 68 65 68 107 94 82 74 98 130 115 70 64 69 92 82 141 135 166 168 198 110 76 87 124 51 84 194 219 212 205 167 187 213 221 189 187 146 135 177 207 181 158 157 138 167 156 128 130 182 207 156 162 116 73 137 110 34 54 48 62 74 166 154 175 182 195 190 192 195 190 185 202 197 177 181 165 144 162 189 195 189 197 199 199 201 199 197 201 202 212 202 209 205 197 187 196 208 200 220 217 208 211 207 199 206 210 204 205 195 201 200 192 202 175 145 147 159 156 158 160 141 129 144 137 135 127 130 130 131 134 127 133 145 153 161 151 176 175 205 210 199 178 166 149 156 137 140 141 137 129 125 188 139 134 134 133 138 153 164 154 131 190 210 212 210 212 194 181 201 206 212 208 205 201 206 210 206 218 230 227 213 207 198 200 198 192 190 197 198 204 197 213 206 213 204 208 206 207 197 208 192 192 196 199 200 169 162 166 177 178 178 190 188 196 196 192 180 186 169 172 160 149 135 96 92 88 121 78 98 108 98 129 176 151 110 102 88 120 125 141 110 107 176 156 150 156 184 150 170 150 158 199 188 175 195 230 201 140 136 118 118 158 188 170 144 86 89 114 130 78 115 86 110 129 194 222 215 162 137 111 100 159 187 201 174 158 145 134 143 165 168 95 110 133 133 95 103 123 137 136 128
97 148 182 155 124 104 105 114 78 106 104 139 155 148 143 59 53 70 88 75 76 67 77 93 83 42 57 118 131 96 93 87 106 141 125 98 107 185 189 195 90 104 128 114 86 72 136 140 130 187 181 217 197 172 178 204 191 143 127 104 148 151 165 124 89 121 154 151 85 174 64 64 104 103 89 146 88 24 48 92 170 165 167 172 165 181 188 187 192 189 191 192 185 185 155 145 119 178 184 195 207 212 192 191 188 198 204 194 198 200 210 199 207 194 189 209 201 209 219 226 213 213 206 197 200 198 206 199 202 199 195 207 158 140 157 139 156 150 147 166 131 134 129 128 131 131 128 126 134 130 145 146 139 166 151 174 205 201 190 184 175 171 149 150 144 138 155 139 136 143 133 135 137 145 146 148 140 137 151 127 200 215 206 219 196 180 185 208 211 206 200 198 195 191 200 210 217 217 217 209 205 208 204 208 192 194 200 201 202 200 219 219 206 206 205 216 202 206 208 207 196 202 194 186 151 160 175 172 178 199 201 197 192 187 189 179 177 166 162 123 109 119 110 103 102 107 87 94 96 133 164 128 160 155 181 187 201 196 186 162 143 144 200 218 227 213 174 168 135 138 179 177 175 168 171 170 182 188 221 222 230 220 171 155 167 158 127 188 187 151 119 129 168 184 195 186 172 131 109 109 137 166 167 171 192 179 129 111 153 161 195 175 119 124 118 115 100 125 127 144
79 108 104 125 100 52 43 63 55 94 128 151 134 108 120 182 141 95 94 53 57 66 49 53 93 94 93 135 148 94 117 99 129 105 164 147 159 105 136 190 105 115 107 169 174 130 165 174 186 215 187 153 107 86 82 68 58 92 164 130 165 144 129 144 159 138 115 123 97 85 47 51 65 34 64 93 103 107 88 128 171 176 160 180 169 191 192 195 196 196 195 197 187 191 189 180 162 179 187 174 188 194 204 202 200 200 204 206 206 210 212 220 194 197 194 200 205 204 209 219 225 223 210 204 200 208 216 204 217 205 185 207 159 136 154 134 151 138 147 137 161 135 133 137 130 126 125 126 127 140 144 146 157 164 159 174 185 211 189 148 176 166 171 164 157 162 156 140 137 141 133 138 134 156 146 154 158 140 140 135 198 210 206 215 189 189 206 206 204 205 206 208 204 199 202 212 225 225 215 205 207 204 196 189 188 197 212 208 213 205 220 216 199 206 198 207 200 206 205 206 192 195 184 167 174 187 196 198 202 177 190 196 201 199 205 196 194 186 180 158 140 115 134 131 108 158 170 144 125 90 110 118 130 167 130 129 139 156 184 188 190 202 150 158 134 108 105 119 106 117 186 195 181 169 223 219 212 159 106 111 138 164 186 171 141 165 153 168 184 197 171 138 148 159 131 126 116 111 110 133 130 109 99 69 96 97 102 104 93 82 95 110 166 184 154 149 144 129 133 108
87 85 92 66 64 119 149 135 119 68 58 49 62 86 77 75 66 109 88 28 32 33 25 79 114 111 86 98 134 115 93 116 95 131 174 158 114 103 102 141 140 97 72 120 149 181 188 156 121 95 97 126 157 95 157 218 211 209 205 199 134 161 126 88 108 192 175 127 115 125 60 66 84 65 79 41 34 63 98 139 166 160 147 169 150 180 182 194 196 184 206 205 189 199 195 186 160 141 171 185 179 195 209 208 205 206 202 210 209 215 218 218 210 201 196 199 202 217 212 222 221 221 207 212 202 207 199 199 199 199 177 198 150 121 131 140 164 140 150 155 139 134 131 139 124 123 128 125 131 136 141 141 158 168 153 150 164 165 164 162 174 168 147 168 156 140 136 150 136 139 146 149 135 148 135 129 140 143 140 133 207 207 217 216 180 191 201 207 209 211 205 204 211 211 207 219 226 233 221 209 206 198 182 187 196 197 207 204 208 210 201 201 198 201 206 204 205 207 191 198 194 187 178 155 181 198 199 196 205 204 200 198 190 197 197 195 186 182 168 114 130 106 67 99 96 90 92 95 121 165 123 111 93 97 151 147 171 171 206 184 129 131 120 108 84 123 137 146 165 194 198 168 120 118 185 209 141 154 199 200 129 97 118 103 129 93 100 77 102 59 86 123 194 206 174 157 129 134 110 98 86 72 128 154 148 115 108 111 147 149 138 143 104 88 102 95 102 86 119 125
76 105 110 119 98 43 43 51 87 69 100 124 136 146 117 102 82 97 121 144 111 100 95 97 130 164 133 86 134 155 149 137 149 161 150 114 84 82 144 157 191 159 119 117 135 118 124 74 94 114 188 196 146 108 149 153 103 84 95 99 102 84 141 200 189 103 48 94 129 164 54 67 41 49 43 62 47 74 80 166 176 172 143 175 166 185 200 189 192 188 209 196 205 186 191 172 169 123 160 198 195 192 200 201 205 208 215 208 201 212 215 208 209 201 194 196 195 215 219 225 227 221 223 216 199 205 197 199 190 197 181 201 153 147 141 150 145 148 153 135 136 133 133 134 126 126 130 126 126 124 135 146 140 149 151 157 172 159 157 161 202 198 151 172 165 145 151 139 135 136 144 145 145 161 145 140 158 146 148 160 209 211 212 204 175 195 197 201 205 205 204 199 209 215 223 227 223 217 210 204 212 211 200 197 201 209 208 207 209 218 204 199 204 200 204 197 195 197 194 199 198 184 144 184 185 187 206 209 206 209 192 200 191 191 195 202 182 166 165 123 99 90 76 75 88 90 118 129 123 92 75 67 73 68 118 161 190 185 125 137 118 119 162 140 85 111 83 87 104 147 141 137 108 121 149 143 141 150 131 149 148 144 129 145 157 165 174 160 133 128 98 105 92 89 169 205 177 143 106 106 133 130 89 87 135 167 148 156 114 154 167 176 156 157 154 158 156 133 131 108
123 88 72 94 104 131 117 119 86 95 67 88 77 102 114 160 168 145 157 128 123 135 123 96 104 147 134 93 59 42 52 54 64 104 138 157 195 179 134 176 136 184 199 209 169 157 167 113 125 113 144 143 172 208 168 207 205 148 140 115 151 134 106 157 189 138 73 64 133 191 97 125 56 77 62 48 62 53 59 186 185 184 90 128 146 168 179 190 197 196 204 210 211 208 198 184 187 126 134 192 182 185 201 204 204 202 205 207 202 208 208 205 199 200 202 195 199 206 222 217 208 221 210 216 216 206 201 202 196 199 188 201 146 138 158 151 150 159 158 146 140 140 134 129 138 131 129 126 128 127 145 138 157 157 155 158 166 155 170 139 153 158 155 140 149 159 150 139 148 150 156 137 130 138 150 156 144 143 139 127 207 215 199 192 185 196 197 207 208 199 209 205 204 216 231 227 225 208 209 210 199 191 184 197 201 207 204 207 208 206 202 206 204 202 210 205 206 198 204 196 186 165 138 167 174 167 209 209 206 191 192 197 197 178 187 202 196 184 168 151 130 123 127 164 108 110 103 98 114 162 146 169 131 161 180 127 111 176 174 177 199 196 150 126 128 157 177 192 180 127 118 141 161 174 210 198 167 137 127 157 174 190 170 170 155 133 130 143 109 147 159 169 177 176 185 176 126 119 124 99 94 89 96 118 107 124 129 110 99 99 110 114 128 124 137 129 118 97 79 109
135 88 82 90 80 103 104 135 119 129 124 118 146 105 67 87 77 78 53 79 100 100 113 191 180 151 146 141 158 155 60 69 66 111 133 94 83 161 174 182 129 131 148 176 181 116 64 128 90 119 160 138 119 189 208 184 187 136 114 85 64 74 56 180 155 22 42 58 53 92 46 59 149 157 109 137 69 49 121 185 185 188 145 141 171 181 170 200 198 200 213 206 208 211 212 199 179 147 121 181 191 196 195 205 211 201 210 199 211 199 204 206 202 207 198 205 191 212 206 219 229 227 217 208 206 207 204 210 200 199 191 194 134 150 160 140 139 166 149 147 135 129 129 127 133 123 127 127 127 128 128 136 149 153 159 167 175 201 197 172 149 159 150 157 146 144 151 145 135 145 140 135 130 128 133 131 138 145 146 138 204 212 210 202 187 188 197 201 204 208 200 209 212 225 227 223 219 217 209 212 206 192 200 204 208 208 202 204 207 201 204 200 208 197 200 198 189 191 198 188 149 143 172 175 185 200 201 198 215 197 204 200 199 192 190 192 181 167 137 117 93 78 89 87 75 83 108 106 86 104 124 116 70 99 109 125 149 162 177 179 164 154 130 155 189 201 159 165 219 216 115 129 189 176 168 199 188 168 115 134 147 150 145 158 217 195 206 187 164 158 131 109 125 146 120 113 131 151 131 126 92 106 139 148 113 121 107 106 97 107 129 129 116 154 180 160 116 100 108 121
128 115 137 123 136 148 135 106 124 159 119 96 70 99 85 96 78 109 159 68 70 90 94 98 83 86 78 108 115 138 79 75 73 76 63 113 83 98 108 75 108 133 176 185 169 151 177 154 156 114 57 53 64 117 108 138 195 201 166 86 99 68 150 43 17 56 103 83 79 105 157 125 83 86 143 158 93 69 102 159 192 181 161 96 137 160 179 197 200 189 200 197 202 206 206 191 176 166 168 135 188 189 188 192 197 207 211 204 208 209 202 209 218 208 213 199 195 198 218 223 220 223 226 221 208 200 204 206 208 200 186 201 145 196 178 155 137 165 151 138 129 133 129 123 125 121 124 133 128 134 131 144 153 166 180 171 195 206 206 177 145 143 159 155 147 151 141 143 133 133 137 134 127 129 131 133 138 172 147 153 190 202 205 185 198 192 200 196 199 198 207 215 223 223 218 220 212 218 225 194 190 197 215 216 210 216 202 206 207 211 205 201 201 190 199 195 197 189 196 192 147 167 180 175 205 198 188 194 199 201 196 192 179 189 191 187 189 164 134 100 79 48 67 68 123 169 167 140 145 93 53 86 178 191 198 201 195 217 225 220 185 161 128 130 114 114 140 131 117 121 222 230 209 195 180 180 153 137 145 158 150 140 109 88 140 133 118 131 170 198 175 134 90 118 102 119 187 185 174 159 111 158 190 179 158 125 94 114 93 90 100 116 161 156 127 116 118 125 128 150
131 145 139 125 140 170 138 144 143 158 174 171 126 109 124 127 76 75 67 98 92 88 85 93 99 74 106 141 115 143 116 121 92 75 65 78 86 84 86 65 119 133 172 179 161 175 160 105 93 105 150 169 87 83 63 88 64 66 129 170 188 175 78 46 82 87 70 97 139 110 129 134 135 98 108 75 44 51 107 170 172 184 181 156 136 155 187 187 190 191 206 200 205 216 197 199 162 162 147 126 196 199 202 200 202 205 215 216 202 200 211 210 208 213 213 201 201 194 207 218 226 229 223 211 212 213 190 197 196 197 169 199 144 157 131 146 150 144 143 143 138 129 135 131 119 123 135 125 130 129 146 133 155 155 181 181 197 191 191 175 149 143 148 140 135 138 144 139 135 135 127 134 129 129 134 135 150 126 145 126 213 213 215 189 186 196 195 192 192 205 209 209 210 221 222 210 218 202 205 207 190 204 199 215 201 208 202 208 208 205 196 202 200 196 200 204 194 197 190 182 174 189 167 178 186 192 202 202 209 211 202 188 184 181 181 186 176 185 184 175 87 77 97 134 144 147 120 99 69 66 87 97 88 137 130 184 218 188 136 161 125 138 197 176 162 178 155 164 165 149 100 166 189 174 212 177 146 130 136 131 153 140 145 167 111 130 170 201 201 155 113 127 143 137 125 126 121 108 105 131 164 125 90 88 124 116 118 106 156 134 153 133 150 150 141 129 105 119 169 144
162 157 139 170 134 147 124 130 141 141 107 55 82 65 102 159 181 174 151 118 103 99 58 93 67 68 37 128 104 110 119 85 60 115 139 93 75 63 56 119 125 140 198 196 181 92 115 154 166 92 74 70 95 168 88 104 144 168 215 187 106 67 75 84 94 72 105 103 107 161 104 57 64 52 60 59 64 106 128 168 190 191 185 167 125 160 181 186 196 184 200 199 196 201 197 204 199 180 177 149 187 190 197 180 196 212 212 212 206 215 219 209 213 207 216 201 205 194 211 217 228 229 221 217 218 215 201 194 200 196 192 194 153 143 143 143 139 149 140 167 137 151 128 124 125 135 127 131 124 129 127 133 149 140 157 181 189 198 208 177 160 159 162 155 155 151 134 135 131 131 141 139 139 129 134 128 137 135 129 128 197 210 198 171 195 190 192 197 200 204 213 210 230 229 219 216 215 212 200 202 202 204 209 204 205 216 215 206 211 211 204 196 205 204 196 199 195 188 186 147 162 168 185 189 212 204 191 196 194 211 199 196 160 175 189 195 176 159 125 82 108 114 79 89 75 69 96 116 179 146 94 73 103 146 175 164 158 135 113 133 156 171 191 174 188 156 147 143 178 167 138 120 149 158 133 143 137 120 146 150 204 204 134 166 145 189 178 154 127 117 128 117 105 72 87 78 145 179 175 179 109 113 118 117 147 154 116 105 175 170 108 108 88 89 109 111 125 105 133 159
159 141 145 145 125 135 128 130 137 135 148 146 99 84 95 157 161 166 145 79 88 104 59 89 66 52 60 109 134 103 49 56 59 164 144 97 73 72 79 114 187 202 172 166 162 120 121 141 134 90 79 83 128 110 68 194 172 170 175 96 115 169 165 67 49 59 74 49 103 84 94 139 126 70 65 92 70 70 117 177 188 197 191 167 141 155 182 178 186 190 189 199 205 208 206 199 189 146 169 159 181 191 199 204 204 196 207 216 220 220 210 221 216 212 213 199 200 196 197 220 222 228 226 219 213 204 199 194 179 192 178 191 157 190 156 187 178 154 161 148 133 128 131 129 125 125 124 129 123 130 131 145 149 175 186 204 191 194 210 208 164 172 153 159 145 149 139 135 129 131 144 134 143 133 143 131 130 140 131 126 201 220 192 169 191 199 200 197 205 198 208 211 231 235 210 211 210 211 201 211 200 200 202 200 212 219 212 208 197 209 205 200 201 204 206 202 197 190 186 138 160 170 179 201 209 207 197 197 196 199 201 206 179 179 172 182 165 143 117 98 120 127 114 99 72 88 108 97 134 146 107 133 151 149 219 204 136 116 126 136 137 165 175 171 147 151 182 181 191 198 153 145 139 116 110 153 174 161 172 146 109 119 135 131 126 117 170 184 176 164 149 166 125 111 146 158 164 121 130 139 126 96 120 126 141 155 130 115 124 126 123 108 102 108 98 92 82 88 114 174
157 138 118 94 117 165 169 174 156 149 136 97 123 119 120 130 108 98 60 75 58 69 79 148 188 153 76 32 26 38 33 31 55 151 167 79 110 116 76 100 51 55 49 72 57 106 83 49 41 55 180 179 169 160 169 84 69 62 56 155 95 108 133 115 60 100 118 145 139 48 67 64 78 128 92 41 42 64 70 158 196 204 196 195 146 113 158 172 175 174 189 200 197 204 201 200 198 179 174 176 172 170 201 200 204 208 212 216 219 217 213 213 219 207 201 211 206 191 202 202 229 222 230 227 225 216 210 206 204 195 191 202 146 174 147 147 174 153 141 137 136 127 123 126 124 131 124 126 135 147 130 145 138 144 182 189 195 195 211 182 188 176 164 147 161 161 153 128 134 140 129 130 130 134 133 133 131 143 135 129 205 215 197 181 200 197 197 206 204 204 207 223 228 223 212 215 196 186 195 194 204 206 207 210 216 211 213 218 212 206 199 202 195 205 207 198 191 182 144 205 195 189 206 206 201 201 198 197 197 194 190 185 181 179 179 178 128 111 110 117 69 64 64 74 114 74 66 55 73 116 209 215 147 124 119 94 85 106 109 95 128 134 185 190 215 195 154 135 143 160 175 153 172 195 200 196 141 138 104 110 110 140 149 154 158 174 146 117 131 151 186 165 124 92 84 80 57 82 79 108 134 125 116 111 114 120 107 96 110 114 109 108 92 105 124 128 131 129 123 145
118 110 106 96 79 45 60 126 145 136 133 135 123 121 103 85 65 68 59 58 131 170 212 192 111 53 29 56 49 47 51 65 64 90 96 174 194 175 145 146 111 99 75 62 64 174 139 114 83 64 82 78 66 82 62 52 47 84 116 72 107 135 105 69 99 169 69 73 128 107 52 68 75 67 106 113 52 29 59 151 194 192 171 179 146 73 125 161 170 185 191 201 199 204 201 207 202 187 180 171 158 125 187 199 194 192 197 207 204 209 216 220 217 207 211 208 206 192 188 201 226 218 221 223 230 216 212 202 196 201 197 200 129 134 159 147 138 171 154 136 136 133 129 121 124 143 128 137 138 127 158 153 169 159 171 195 187 197 213 213 166 148 172 147 144 158 151 140 138 133 143 140 131 130 127 135 137 149 133 130 212 211 192 171 195 201 205 196 197 210 217 223 228 223 207 217 202 202 195 197 206 205 207 208 213 207 208 207 210 196 197 200 201 204 204 199 168 154 171 198 187 180 219 223 197 204 196 198 197 194 184 187 201 197 185 164 118 105 116 89 95 67 77 73 90 84 124 166 206 159 116 116 162 196 147 116 126 118 118 114 170 156 119 111 202 218 206 158 140 144 194 164 134 100 127 133 200 194 141 134 100 118 85 96 135 131 135 131 131 145 162 133 93 131 109 111 107 117 92 107 162 192 151 118 127 120 141 156 128 124 135 139 169 160 118 113 127 108 106 137
67 63 84 110 96 119 105 43 79 93 192 179 144 125 130 78 39 45 35 32 96 139 145 131 111 119 85 116 113 75 23 23 53 47 106 88 102 124 149 83 66 59 31 100 130 136 106 116 104 117 87 87 113 67 64 60 65 123 97 95 96 68 95 89 145 125 83 90 149 46 65 80 79 79 111 87 38 41 49 146 188 189 180 174 150 95 115 159 164 189 194 197 201 198 200 198 205 192 180 169 159 161 181 192 190 188 198 210 212 210 209 212 216 211 208 209 207 189 176 204 216 217 230 230 223 225 216 209 196 197 200 194 134 143 147 164 192 178 149 140 135 129 133 127 127 145 134 129 125 133 135 139 172 161 176 190 189 188 199 197 154 155 174 156 138 141 149 138 136 133 151 138 158 159 131 128 135 136 127 135 197 201 180 177 201 213 201 197 200 200 217 228 223 223 202 210 205 194 192 202 213 207 209 213 220 220 215 212 213 204 209 206 208 199 207 196 177 170 191 202 189 190 229 215 199 198 195 191 199 192 182 186 198 199 174 168 144 133 117 137 73 83 67 85 98 126 133 135 124 103 186 194 187 171 141 154 165 153 129 115 141 168 197 167 121 133 207 202 196 166 190 211 145 131 84 104 114 139 139 123 117 111 96 78 79 125 116 135 95 84 128 148 93 90 127 111 141 143 178 167 69 108 151 149 147 130 146 145 138 146 143 156 151 134 141 126 117 125 137 125
92 74 113 133 108 57 102 104 136 196 159 180 195 148 93 57 47 48 65 54 86 66 53 51 45 39 56 85 59 42 77 83 104 135 159 172 169 90 120 76 96 83 90 56 39 69 87 94 94 103 184 116 76 98 109 97 66 83 108 143 44 48 39 72 42 73 120 120 84 86 123 92 34 37 25 43 52 53 54 161 174 175 205 181 176 125 102 149 162 176 170 172 196 194 198 205 199 202 197 179 194 192 153 148 180 196 198 206 219 220 213 215 221 210 208 210 205 198 201 189 221 226 208 218 228 221 221 202 199 200 188 199 130 136 146 149 168 159 143 133 126 127 127 128 129 130 128 131 130 128 134 141 168 185 159 150 156 174 194 166 162 144 143 148 137 144 161 138 133 141 130 135 128 130 127 131 139 137 137 147 212 219 184 182 204 202 201 204 196 199 226 228 221 219 199 196 187 189 202 212 210 208 208 210 216 226 213 216 218 205 208 208 209 201 205 189 127 141 161 181 195 206 204 207 216 218 215 209 212 194 189 196 181 188 166 156 123 102 86 94 100 96 88 82 118 80 105 159 187 140 118 134 121 140 207 210 161 191 169 167 188 150 130 107 99 94 90 89 94 77 104 129 180 187 144 118 113 127 97 105 127 188 209 196 196 168 118 128 178 151 98 102 136 120 113 151 184 181 118 128 144 114 128 127 143 111 153 141 124 116 124 119 116 135 165 149 127 115 108 126
104 109 83 79 128 185 197 180 169 131 103 109 93 75 85 105 119 118 108 96 138 154 139 131 75 60 45 79 92 74 74 94 80 123 143 143 124 78 117 177 127 96 79 84 98 117 133 82 130 179 126 128 98 65 58 105 123 80 70 65 62 66 125 69 98 47 36 73 69 144 97 103 88 48 43 36 47 56 67 139 188 201 182 196 190 158 146 135 167 181 184 192 205 207 208 198 206 204 197 168 185 162 170 164 169 195 198 217 213 220 209 212 212 211 212 209 208 199 195 188 222 223 213 228 227 219 225 205 191 197 189 181 141 130 164 165 138 144 139 139 125 125 129 128 130 133 144 133 125 127 149 155 165 167 131 133 157 184 202 172 171 169 162 156 151 161 144 146 137 131 140 140 131 136 130 136 137 140 141 127 212 217 181 184 196 202 197 197 198 207 232 230 221 223 204 202 198 205 207 201 208 215 223 226 225 223 226 226 215 201 217 217 207 205 174 166 154 186 194 195 206 199 212 210 217 211 210 208 204 195 184 195 190 186 171 145 100 109 127 70 62 58 67 116 134 170 108 118 129 134 103 109 145 141 128 150 114 103 119 130 111 88 70 88 108 161 154 147 143 154 188 171 150 172 161 175 145 129 123 104 147 146 160 139 96 136 137 125 158 169 117 115 123 141 97 110 135 140 192 162 129 105 117 111 125 105 85 80 117 98 133 131 168 177 185 180 160 161 143 102
139 134 141 144 123 114 97 92 108 125 90 90 95 85 93 145 133 109 72 83 66 78 63 105 126 103 114 84 83 102 94 75 87 105 85 73 68 75 82 84 178 161 106 95 47 31 24 74 121 129 125 126 136 85 94 120 106 167 113 73 65 65 45 88 44 41 46 69 94 137 59 60 46 44 56 57 62 38 32 125 171 169 199 194 192 162 141 106 93 169 162 179 191 190 199 200 199 204 196 200 172 197 187 188 174 190 191 205 211 219 219 219 216 212 197 210 198 211 197 192 219 209 219 219 222 207 211 207 198 199 185 165 137 134 138 146 147 145 143 126 130 124 120 124 129 134 129 135 141 138 133 140 158 168 179 162 157 162 160 175 141 147 145 150 160 138 138 134 129 138 146 138 138 131 129 127 125 127 138 134 211 213 171 184 202 202 204 200 206 210 232 228 208 216 208 198 201 208 201 210 210 217 225 226 225 226 226 212 219 212 202 204 195 186 162 171 178 160 174 207 207 208 211 215 208 209 205 208 204 196 205 196 196 188 143 123 84 85 64 59 93 75 104 97 116 103 100 74 80 85 117 121 151 129 153 150 137 135 167 154 158 160 134 140 164 180 168 129 123 119 141 154 130 127 140 124 117 111 115 119 133 149 109 77 103 102 78 78 150 149 97 114 96 98 107 100 84 109 121 118 107 90 108 119 129 139 114 121 115 117 127 169 155 117 96 115 130 135 119 118
164 138 110 118 121 133 124 135 124 188 135 94 110 68 92 134 136 63 48 44 57 67 60 105 75 83 70 139 103 115 47 44 55 43 57 70 89 83 110 124 157 106 58 44 44 53 67 105 72 64 95 100 98 138 99 145 175 146 95 151 66 85 129 128 88 44 47 59 69 79 65 52 53 37 48 44 51 27 26 130 178 179 198 194 190 164 145 118 100 182 186 196 195 196 192 196 187 207 211 194 153 165 185 171 145 176 187 208 212 220 215 211 222 215 205 204 200 202 195 186 215 220 220 222 221 210 213 198 197 202 190 172 131 134 137 149 149 155 153 135 129 129 126 125 128 129 129 133 140 131 145 143 166 179 172 168 162 172 180 198 149 148 156 144 148 139 137 138 133 135 140 141 129 126 126 126 129 134 134 125 223 217 180 170 206 198 200 205 208 212 229 221 215 199 202 195 205 208 206 217 213 218 226 223 227 223 226 223 227 212 208 208 194 188 146 178 175 153 158 205 202 208 213 212 210 208 208 204 197 204 196 186 189 186 131 134 104 115 116 66 77 64 121 96 69 83 83 94 84 164 100 87 102 141 146 144 124 148 194 202 169 133 125 119 96 119 169 134 127 154 135 160 164 143 161 146 171 124 127 124 140 159 135 109 109 130 102 84 69 90 95 97 171 171 175 157 92 97 108 100 123 110 105 115 93 102 79 106 124 134 109 123 155 126 120 118 115 130 100 126
147 150 141 128 124 137 135 153 175 133 107 105 86 102 118 137 114 59 39 41 73 118 161 143 137 89 113 90 90 66 70 68 93 89 74 95 77 102 102 154 98 127 133 150 149 85 87 102 108 62 80 126 127 137 87 69 109 76 43 46 75 59 82 75 55 104 107 69 88 82 58 62 58 54 57 37 48 37 33 105 188 187 205 191 184 175 178 127 111 157 187 191 184 189 188 190 202 206 205 209 197 185 191 190 195 162 174 195 198 217 212 208 209 209 213 201 201 202 201 188 191 207 225 223 226 209 209 210 194 199 190 159 129 135 155 148 139 138 129 130 127 134 133 138 135 136 127 126 128 127 147 150 164 181 172 170 182 190 210 197 180 171 161 160 138 133 137 133 131 139 141 140 133 129 131 129 139 133 139 125 209 209 184 191 201 204 191 200 208 223 225 220 216 208 177 180 206 200 205 213 225 222 221 225 222 217 222 217 221 217 215 209 175 157 155 180 194 186 182 200 206 215 204 194 200 200 194 194 181 205 204 191 179 164 144 141 128 98 83 107 104 123 125 155 117 113 69 73 70 84 177 164 105 96 121 104 72 110 124 136 109 127 160 161 133 128 128 111 113 123 175 189 139 126 117 116 105 83 129 139 121 103 103 106 123 102 117 119 83 80 130 138 109 129 111 111 103 100 105 107 114 89 86 80 119 160 158 175 151 123 147 137 105 108 93 80 87 76 126 133
150 154 145 155 109 129 116 70 77 114 90 87 114 134 127 82 57 69 67 59 82 113 99 37 63 89 86 102 99 105 68 70 46 106 118 158 167 115 84 83 99 69 62 45 47 41 62 78 87 76 29 59 44 79 65 84 75 48 45 46 52 32 42 57 46 46 54 72 113 177 77 57 45 33 38 18 16 43 37 95 167 185 182 189 194 185 182 162 146 123 162 166 171 178 166 196 211 202 207 200 194 202 180 210 198 195 168 189 195 207 220 218 216 216 209 205 206 209 207 196 199 204 222 217 225 218 211 215 199 198 184 168 126 130 153 134 133 131 134 130 133 130 129 139 135 130 127 128 129 145 129 135 164 165 172 182 199 186 200 191 167 157 143 140 145 130 138 133 131 133 162 160 131 128 133 127 131 134 131 125 202 210 181 190 199 204 194 210 217 216 223 225 216 196 186 196 200 204 208 209 219 213 225 215 213 210 209 212 216 201 191 190 140 162 196 182 154 177 208 206 206 199 190 194 196 205 200 200 196 212 199 189 186 146 129 126 87 84 77 70 108 104 92 105 139 133 136 155 176 169 93 65 66 59 74 75 111 121 116 134 113 105 102 126 108 147 197 169 174 179 150 168 179 189 185 168 140 118 134 139 175 188 159 138 82 126 137 109 97 80 107 105 92 87 97 124 93 105 83 108 92 80 78 88 115 125 129 104 84 104 119 89 85 90 93 93 85 87 103 145
96 76 76 119 136 144 134 134 153 172 116 114 116 135 116 100 99 94 102 69 64 74 86 105 123 126 109 53 59 57 92 125 106 75 62 78 86 62 55 64 97 176 176 117 67 46 39 46 34 72 156 96 52 48 51 69 95 113 89 77 87 98 86 124 137 86 98 119 113 68 62 51 44 38 36 33 23 29 28 62 191 196 190 202 190 197 184 176 125 111 167 176 189 185 187 204 205 205 195 210 197 192 186 189 170 189 185 185 198 199 218 229 219 209 219 221 213 204 204 200 198 211 226 225 222 219 215 204 199 195 195 191 126 140 141 145 148 129 134 134 134 127 131 139 128 128 136 131 129 126 124 127 144 179 186 182 172 208 208 160 159 166 143 133 144 149 134 133 135 135 148 134 131 129 134 134 131 141 131 127 201 199 181 195 198 192 200 204 212 226 218 202 207 175 191 200 205 208 210 217 225 225 227 225 225 222 213 219 212 211 196 181 178 181 187 176 197 191 198 210 205 205 200 201 185 187 198 200 201 204 197 184 153 143 131 136 94 102 87 72 69 66 117 164 100 131 172 154 126 177 127 117 140 127 115 117 100 125 127 140 138 162 165 134 198 161 126 157 124 134 74 106 113 129 131 125 106 111 128 136 178 157 151 117 141 136 92 85 82 87 80 77 138 159 138 115 108 95 106 106 141 141 138 137 114 125 86 97 89 110 107 90 85 84 128 148 111 76 75 69
119 114 110 128 128 154 145 140 145 114 141 145 128 135 150 145 156 171 145 121 87 65 70 130 158 164 137 92 80 96 64 88 64 70 96 72 88 136 126 102 107 69 87 96 87 115 87 62 42 66 105 76 80 147 116 90 83 77 75 87 104 82 58 73 58 48 72 54 69 69 67 92 75 37 25 41 34 23 16 33 185 186 194 191 206 189 189 192 164 128 170 184 170 187 190 194 189 211 216 195 202 204 191 194 189 196 189 189 186 199 213 221 216 223 222 222 207 201 204 206 189 199 192 204 223 226 221 202 207 199 187 171 121 121 141 159 139 131 127 126 133 129 129 133 129 128 125 137 128 144 145 171 184 177 178 153 186 168 189 174 164 160 143 139 140 139 134 143 138 139 136 137 128 127 133 131 129 133 127 128 209 207 186 198 201 199 198 211 212 222 220 202 188 172 201 207 210 208 205 216 231 225 213 216 208 216 221 220 219 205 160 134 185 174 153 161 191 196 195 207 217 219 205 196 200 197 196 195 199 208 171 164 164 164 141 131 98 103 93 130 154 123 119 105 107 100 104 134 146 120 141 130 158 161 123 140 169 181 116 88 149 140 127 104 60 87 117 170 113 136 133 118 124 110 140 111 196 228 202 158 126 96 99 117 83 96 102 115 127 110 119 140 135 120 92 92 133 137 119 105 79 97 85 107 135 156 150 151 100 103 109 80 125 120 99 90 94 87 93 98
99 97 93 88 102 120 131 145 157 148 160 147 148 157 147 83 87 75 82 95 105 111 147 99 116 135 140 144 127 96 135 106 64 53 62 65 84 63 46 60 37 59 62 123 133 120 80 76 68 66 66 54 131 86 140 175 170 72 78 96 76 113 130 107 93 73 76 42 58 75 43 39 57 38 33 42 33 17 24 21 176 187 188 194 191 189 176 187 188 150 150 177 178 175 186 189 187 188 198 202 206 202 191 177 182 171 182 185 180 202 207 196 218 210 213 221 219 202 198 198 186 181 215 200 201 231 226 210 208 202 194 162 128 123 139 135 127 124 130 130 130 129 126 125 129 127 129 126 146 136 145 155 151 176 187 205 211 211 206 185 136 140 154 145 144 138 136 131 135 137 130 130 129 125 129 130 130 135 131 131 202 211 177 195 209 208 209 217 211 219 211 217 188 189 201 205 205 210 215 225 223 222 213 206 218 209 223 215 205 201 166 177 191 186 186 178 204 195 206 198 206 204 204 202 195 187 198 206 205 215 182 168 149 153 150 144 102 99 99 123 118 102 134 150 155 141 121 102 97 126 159 129 86 79 117 90 110 107 139 118 138 146 151 158 145 155 128 123 166 148 187 202 148 130 175 140 86 126 143 165 131 120 148 169 134 156 113 87 115 110 148 143 161 164 149 143 115 117 83 84 88 89 100 109 140 123 87 129 113 121 127 108 104 107 134 113 107 84 65 83
113 118 127 164 161 147 133 109 109 149 192 185 177 147 128 143 155 140 146 164 119 84 89 100 97 96 92 77 85 96 121 119 103 99 87 89 89 120 125 57 42 37 42 48 78 149 134 64 45 52 76 77 73 83 102 102 76 63 73 57 62 55 69 83 77 45 44 67 85 49 59 79 39 35 43 23 19 19 21 36 181 186 205 191 182 182 191 200 185 157 129 165 190 188 192 180 176 197 201 204 200 198 204 201 189 185 207 172 178 199 206 204 204 208 210 225 223 215 205 196 182 184 212 230 228 222 211 207 208 196 188 172 137 137 136 134 138 130 126 128 127 124 131 126 126 124 124 121 137 130 146 160 144 158 161 174 148 202 189 159 171 176 154 138 141 134 135 133 128 134 129 134 134 133 126 133 126 130 123 159 208 208 188 196 204 201 199 201 209 215 216 200 199 192 207 211 204 213 215 226 216 209 201 207 223 222 228 228 212 181 174 188 204 185 179 189 207 207 209 197 199 192 194 189 186 190 192 205 188 188 174 154 160 154 148 97 97 110 94 66 97 131 147 130 138 116 121 89 83 133 113 90 114 145 147 150 137 145 188 190 146 161 146 123 123 104 93 89 128 118 97 72 141 121 149 147 124 117 86 89 87 90 97 80 85 76 153 135 115 100 96 127 126 137 118 94 88 95 129 114 109 106 109 100 119 118 116 102 109 87 115 111 106 124 114 114 99 99 88 109
166 176 177 128 134 136 135 148 157 172 146 144 161 126 119 135 127 126 137 153 125 134 111 120 118 133 115 80 98 92 158 159 147 89 84 70 82 63 66 70 80 115 119 83 41 44 56 53 69 147 136 151 158 144 108 65 56 62 52 100 59 56 48 53 36 37 32 51 79 76 82 83 103 93 76 31 28 25 7 14 140 176 165 177 182 177 198 201 199 178 105 138 171 174 190 195 194 190 196 205 217 215 210 200 208 195 188 181 178 187 204 215 225 216 194 199 210 220 220 200 186 181 204 213 223 222 223 212 201 199 207 181 131 124 141 143 133 128 128 126 125 125 126 121 133 123 121 125 128 126 138 141 148 169 200 198 200 168 174 178 161 158 157 162 133 131 135 126 129 130 135 141 130 131 130 130 128 141 136 158 210 198 192 191 206 199 205 206 216 222 196 189 182 200 201 204 213 210 217 218 205 202 219 227 227 225 219 213 191 164 202 199 174 171 199 207 202 197 206 207 198 199 194 195 204 195 198 206 204 181 164 171 184 162 153 124 85 97 86 82 79 108 84 116 105 137 117 90 86 95 119 86 102 110 200 179 103 103 129 138 93 89 118 115 136 121 99 92 113 124 97 83 93 92 80 83 134 145 114 108 102 106 124 98 106 124 105 131 145 161 113 86 127 138 109 76 94 89 78 79 106 110 99 99 94 93 107 99 106 100 94 103 97 78 74 103 123 144 116 104
174 188 176 131 126 123 133 141 162 181 155 174 184 161 153 150 155 154 138 151 167 176 171 153 159 192 187 98 89 64 68 74 59 99 79 131 136 58 45 53 80 119 67 55 54 70 96 97 94 86 72 82 123 84 72 59 58 77 68 56 105 97 107 80 47 35 55 168 155 79 47 55 57 59 48 43 23 18 5 12 105 157 168 171 190 178 179 184 175 174 124 130 181 172 189 185 189 192 197 200 210 218 213 211 212 184 165 180 178 190 215 220 212 209 197 201 197 222 218 204 187 184 208 204 221 220 227 212 206 201 194 178 127 124 127 130 129 119 126 124 126 120 123 124 126 125 121 130 127 120 141 143 139 166 208 192 199 176 172 207 207 202 177 146 147 147 151 130 136 128 136 141 133 133 129 126 139 140 130 176 199 198 194 201 202 206 216 211 228 220 195 188 189 201 211 211 205 210 218 209 200 201 220 222 222 220 209 207 185 168 198 186 166 181 197 200 206 206 212 208 197 204 192 190 201 198 197 198 202 180 137 150 182 159 145 121 89 85 109 95 62 72 118 149 131 95 78 68 60 92 85 103 199 189 130 151 99 126 128 167 144 135 121 104 127 134 144 110 110 121 103 94 92 94 92 86 76 97 86 104 92 119 90 114 124 126 109 113 121 123 113 109 88 118 97 102 117 104 96 76 109 96 109 94 92 93 90 103 86 96 111 115 115 123 108 103 106 102 113 102
170 175 146 135 155 155 144 124 125 131 117 117 131 168 167 179 185 147 139 105 127 144 159 164 174 134 100 94 107 171 140 127 144 160 161 134 147 147 130 114 108 92 115 162 121 64 38 65 121 139 136 107 73 89 106 25 16 32 25 94 84 89 98 100 97 128 102 43 65 46 85 51 73 84 106 65 32 15 31 77 68 144 158 177 171 194 194 204 188 207 156 113 141 170 177 190 197 192 198 207 213 208 213 213 220 188 189 197 181 176 195 211 209 206 197 190 194 211 207 198 197 186 171 206 215 212 215 217 219 217 204 186 146 136 125 123 123 125 121 131 124 130 131 120 129 126 121 133 125 130 137 150 133 156 175 181 200 176 201 217 212 216 206 191 156 144 134 143 137 136 130 129 135 131 133 128 129 124 124 205 192 176 189 185 205 201 197 218 228 218 180 184 192 202 205 211 207 210 220 217 210 222 228 227 222 209 198 187 167 160 208 188 189 200 225 216 217 206 202 205 201 198 192 191 188 199 201 197 191 184 171 190 184 178 121 111 83 78 106 78 89 95 67 76 96 134 93 87 104 130 146 136 129 115 107 103 118 107 74 59 80 83 165 191 123 127 88 75 73 95 120 113 87 123 119 158 117 99 96 118 108 104 116 107 90 100 108 118 114 103 103 84 124 127 165 130 104 107 96 84 80 108 63 86 94 110 133 140 125 99 103 93 109 110 111 120 89 95 111 100
149 165 166 161 148 151 172 194 180 157 158 155 164 165 172 172 181 162 155 177 125 116 134 149 147 157 151 133 129 161 160 169 153 129 127 167 159 148 123 89 156 153 113 59 55 85 92 69 95 96 73 63 76 44 45 51 52 123 114 44 46 70 123 177 156 88 100 54 25 54 52 46 52 48 55 32 24 12 11 16 33 82 172 170 156 186 189 175 189 190 114 118 123 172 168 185 191 198 195 200 217 209 206 212 201 194 188 192 200 171 197 205 207 207 210 189 201 196 211 201 196 196 179 184 201 221 206 227 228 218 201 192 156 141 145 126 125 127 121 133 124 125 123 124 124 125 120 119 128 133 141 166 185 191 196 210 199 199 212 204 221 208 204 199 158 160 165 139 130 136 129 126 130 126 126 128 128 121 120 196 207 179 197 204 198 198 200 223 218 219 185 184 200 202 211 204 205 205 205 212 210 219 225 226 209 202 174 174 182 186 185 177 211 209 211 208 216 212 215 195 191 189 196 196 201 199 189 176 181 153 179 196 165 168 105 100 97 107 104 84 59 95 73 78 99 97 92 111 128 113 135 146 159 151 138 146 161 149 141 146 54 64 126 124 135 105 153 167 114 113 84 113 92 105 153 136 118 110 85 113 114 107 83 88 104 128 108 97 90 80 95 100 117 138 115 102 166 147 119 123 94 97 135 124 97 87 85 94 123 117 72 93 89 113 130 116 100 120 124 102
161 175 181 162 171 157 156 151 134 170 171 178 170 184 169 137 135 129 111 153 156 155 136 154 149 181 172 170 184 179 140 145 124 114 126 119 107 102 86 131 123 89 55 35 45 82 78 90 84 69 67 74 58 54 100 44 88 65 41 56 87 133 121 96 89 41 43 31 39 69 57 56 57 60 63 45 28 21 16 31 46 33 145 156 150 187 181 196 207 217 168 153 92 133 177 187 196 190 190 210 218 211 192 212 220 186 189 191 191 169 187 201 206 206 202 196 186 202 205 198 192 184 172 171 192 217 216 213 216 222 201 190 154 139 139 130 129 129 129 125 137 138 123 126 124 126 125 123 125 151 141 126 172 165 194 197 156 186 215 218 220 205 181 177 171 146 136 135 125 135 137 133 134 129 129 125 128 124 133 197 185 167 195 194 200 199 200 217 210 222 188 190 197 207 196 206 205 206 199 220 215 223 230 228 204 199 172 185 168 157 200 201 212 206 201 195 201 210 218 208 185 182 189 198 199 202 194 178 179 133 178 189 172 169 100 97 110 106 90 120 87 97 66 79 128 168 153 154 118 190 125 116 110 103 106 104 120 141 129 140 74 73 98 165 187 159 82 89 108 103 114 96 75 79 79 115 124 141 104 95 144 138 151 103 88 87 107 127 107 87 114 116 94 123 158 128 118 123 105 78 87 100 127 135 97 110 68 95 125 119 82 68 99 89 118 96 85 82 98 88
165 161 166 176 162 165 169 148 141 126 147 154 188 161 187 190 195 202 204 151 131 147 160 175 178 146 148 135 111 125 150 127 97 56 56 73 104 113 114 103 74 59 65 93 114 140 134 95 85 73 60 74 70 145 139 125 84 55 78 39 51 47 39 129 135 109 97 141 140 136 96 75 85 54 51 43 42 28 64 10 111 73 155 143 159 180 194 198 196 208 165 157 162 139 169 185 188 194 182 197 204 210 204 197 199 198 178 213 204 196 192 195 201 205 209 198 191 200 198 204 195 190 191 175 169 215 225 216 211 200 205 191 166 130 125 128 130 126 125 129 123 125 123 130 129 123 127 121 125 125 144 150 155 156 177 178 182 221 225 191 208 217 216 199 179 143 149 130 133 146 134 126 136 129 138 141 135 123 141 206 209 189 199 201 198 200 207 206 225 223 188 194 195 198 202 216 227 216 209 208 219 223 226 221 196 186 150 177 177 195 192 189 210 212 219 208 218 209 215 198 197 195 195 189 191 198 192 192 181 128 192 180 170 135 70 102 59 67 96 83 78 82 79 115 143 115 103 105 116 99 117 93 153 137 135 145 128 124 135 129 117 109 83 56 124 131 121 94 130 175 128 120 97 95 67 72 92 96 140 139 79 82 130 140 116 110 94 126 114 103 125 160 160 133 130 115 100 118 108 136 113 131 90 97 111 95 103 77 98 118 94 96 88 85 106 106 73 86 93 77
158 180 186 190 202 191 172 166 167 176 192 178 164 200 184 144 153 156 145 126 100 77 76 79 129 149 138 126 107 90 149 144 127 129 119 138 110 104 99 104 131 155 160 110 96 102 98 121 116 84 62 59 42 43 33 45 37 82 90 26 129 116 94 59 53 98 77 65 76 75 104 85 76 76 56 33 32 19 25 19 44 48 96 131 165 187 188 188 186 187 159 140 119 114 170 194 185 191 190 194 215 219 219 207 201 197 211 191 179 196 186 190 205 219 213 209 200 209 201 201 188 197 178 179 165 200 219 228 223 217 197 195 178 150 134 126 138 123 121 124 133 128 126 134 133 133 138 124 134 128 154 166 167 157 182 188 211 206 200 167 179 195 192 208 151 137 143 130 143 141 130 125 134 134 139 128 127 134 175 212 190 178 192 199 210 202 217 227 225 201 184 198 194 197 205 220 217 205 215 206 225 229 227 220 191 178 175 182 185 196 210 223 222 220 218 210 223 218 206 200 199 200 205 199 185 179 189 181 171 153 187 175 164 127 75 102 93 102 104 79 106 121 97 97 95 82 149 147 158 149 145 123 134 118 135 131 180 147 136 115 146 138 115 97 84 108 164 172 98 72 139 113 67 82 115 68 93 96 180 181 125 139 139 119 126 138 109 107 123 125 133 107 120 105 111 127 89 80 102 100 88 100 121 119 106 88 99 84 80 86 115 115 121 115 85 96 96 82 103 70
178 179 151 184 178 198 204 208 189 184 177 164 155 158 145 197 145 162 164 164 157 162 167 170 157 139 134 177 177 139 150 146 150 161 147 158 158 151 169 136 83 82 87 106 127 58 66 62 53 60 57 58 66 46 49 35 59 34 70 57 123 129 113 48 18 52 93 55 37 62 53 65 52 48 36 26 32 53 54 25 37 107 59 116 155 179 167 174 184 201 190 190 168 127 124 158 176 182 189 197 210 219 219 222 217 202 192 179 164 176 181 191 210 217 209 216 209 209 212 206 191 192 196 197 182 186 209 209 223 218 206 199 185 177 136 123 128 126 124 129 123 119 125 137 123 127 126 119 124 126 137 164 182 178 199 196 192 174 196 180 172 176 207 188 166 161 150 149 146 164 131 128 134 130 129 130 135 148 194 205 180 194 200 213 215 216 222 221 222 186 202 201 209 199 227 226 206 204 207 219 228 228 202 191 168 174 167 185 198 198 209 217 226 227 219 213 211 192 197 194 194 198 199 200 201 202 172 138 128 158 162 170 131 80 80 94 63 60 57 60 87 102 83 76 86 62 57 72 104 144 160 140 120 123 166 143 93 103 83 105 134 111 129 133 115 104 182 191 119 77 87 77 135 116 140 131 110 120 99 104 130 108 90 69 84 69 114 130 121 117 113 145 123 123 155 140 115 117 95 94 146 136 131 111 98 83 94 97 106 85 77 97 99 105 102 90 88 86 78 93
148 151 178 179 187 205 199 185 168 168 174 178 174 147 149 192 191 158 156 150 168 181 186 179 168 155 157 160 160 157 140 138 137 139 130 140 139 188 174 168 98 93 89 124 88 47 56 38 38 41 55 82 64 46 60 37 63 126 111 62 113 93 59 31 44 42 51 80 47 75 70 49 42 29 35 44 51 28 29 126 74 113 44 93 133 162 155 157 160 196 211 206 171 147 143 157 188 187 188 188 208 209 218 221 220 201 194 186 176 191 181 199 205 213 218 205 213 205 212 198 199 200 194 194 188 191 201 218 213 222 207 201 194 164 155 147 137 130 125 130 124 124 127 140 125 128 128 130 130 128 138 129 149 140 175 206 201 170 164 156 170 161 165 167 160 178 164 146 144 187 131 127 145 137 130 133 135 175 207 209 180 197 211 205 219 223 231 219 226 180 197 206 201 207 220 218 196 202 202 220 225 227 200 190 174 184 171 187 195 195 217 216 228 228 222 215 212 194 190 197 201 204 199 195 199 194 171 151 147 166 174 174 92 72 53 69 64 72 57 77 87 113 72 65 65 57 59 74 85 106 140 136 116 114 127 149 137 92 93 90 93 103 127 123 126 105 97 130 121 107 74 100 102 103 127 134 116 96 103 104 85 96 108 103 77 106 92 95 154 147 115 133 113 72 167 159 117 120 118 104 121 138 111 100 106 89 82 95 96 92 98 96 78 85 97 73 86 83 76 87
140 140 145 141 145 165 171 199 196 211 164 155 159 127 138 123 165 148 164 166 174 165 159 157 169 169 166 172 179 164 146 156 157 174 192 158 147 182 177 140 127 123 103 75 80 32 34 57 44 69 65 55 49 70 55 111 116 43 88 80 65 73 121 67 39 69 57 77 55 63 54 77 66 35 49 31 39 27 25 16 52 66 92 108 138 164 174 165 168 174 211 217 189 162 154 129 166 180 188 189 202 206 211 220 223 221 218 191 196 158 167 181 204 211 218 212 218 201 212 216 218 213 191 201 194 167 175 222 228 221 208 205 199 186 136 131 138 129 127 129 145 127 146 155 120 123 124 123 127 125 168 150 147 137 144 117 143 179 200 166 184 189 169 146 139 139 143 133 140 140 136 128 141 127 129 128 124 189 202 215 190 200 199 204 219 222 225 226 210 174 196 199 208 217 213 211 206 208 201 218 225 220 187 175 181 185 179 185 197 200 213 209 228 232 225 218 207 206 204 209 207 201 199 201 200 188 145 162 199 178 155 148 52 52 103 104 76 65 102 100 59 75 117 82 80 89 66 62 60 147 102 137 141 135 127 121 120 88 108 97 141 123 165 170 107 120 114 119 116 85 135 110 114 149 138 129 111 133 171 150 65 76 97 146 131 124 111 133 103 98 144 139 138 125 102 114 119 109 110 130 141 107 116 70 78 86 80 104 94 93 68 103 84 90 90 82 98 98 93 119
164 160 150 178 179 175 166 139 149 162 189 186 185 175 154 143 147 186 158 191 161 151 143 160 166 151 155 165 161 176 190 176 170 178 169 169 170 172 174 135 160 124 85 45 42 39 90 46 70 105 99 95 88 87 52 37 59 113 95 38 65 57 53 93 100 161 133 43 64 55 74 92 63 53 49 43 46 34 28 25 45 68 116 78 115 157 181 172 174 195 229 215 181 147 116 131 174 186 186 198 219 211 205 208 217 216 212 205 205 166 149 170 210 213 223 216 202 205 199 206 208 198 191 190 185 186 180 223 223 211 215 207 195 186 153 147 129 124 128 125 135 125 134 155 124 118 121 121 123 134 137 116 145 137 160 191 190 150 136 140 149 167 156 146 153 155 147 128 128 131 125 145 164 134 130 118 118 202 212 223 188 198 202 207 226 225 223 210 195 174 202 204 213 221 221 200 194 197 215 228 223 211 169 140 161 176 187 195 205 215 229 230 228 228 207 209 195 211 206 194 204 194 206 201 188 164 114 150 181 185 177 138 124 134 111 67 98 111 97 69 49 55 99 109 65 84 140 105 86 70 77 86 69 62 90 113 118 80 114 134 88 89 87 94 133 113 90 76 145 119 120 123 111 120 155 149 143 138 135 124 118 113 74 56 83 85 149 154 128 90 117 135 108 120 103 93 102 117 97 123 114 84 84 90 82 92 87 93 99 93 105 109 95 86 82 99 90 109 90 87
147 166 164 166 156 147 154 179 192 185 184 179 170 150 143 158 160 197 192 154 187 184 190 202 204 197 188 185 181 155 166 176 170 159 162 179 178 164 156 177 75 82 109 60 56 92 84 87 80 86 79 69 69 46 53 48 47 79 53 47 51 79 49 47 60 60 73 42 54 38 54 44 39 52 66 65 46 60 34 25 12 21 159 134 57 108 157 161 162 185 199 200 220 199 161 115 128 185 192 202 208 217 217 219 213 199 212 207 195 211 164 176 204 208 216 221 215 209 199 217 217 221 195 187 190 185 174 194 213 222 206 204 202 202 169 164 156 128 124 139 138 134 133 134 118 114 124 118 121 135 138 133 156 179 200 182 140 166 192 181 195 187 174 171 158 146 145 130 138 129 124 131 134 131 130 133 153 194 204 209 209 207 197 207 221 227 230 216 189 175 204 199 206 210 218 209 211 217 221 218 197 190 143 143 189 200 207 207 205 222 228 231 218 222 210 196 204 204 200 204 192 202 190 194 180 131 202 204 192 159 125 79 62 45 80 97 66 53 55 48 121 111 75 76 87 88 110 111 97 124 105 106 93 106 88 90 86 95 78 85 99 109 109 74 75 67 95 134 98 84 87 103 102 84 137 130 130 129 114 104 111 109 105 108 102 146 189 144 126 105 118 129 117 107 100 92 102 100 115 125 160 129 115 139 127 121 114 110 95 114 103 82 95 65 75 75 89 98 93 80
139 160 177 172 177 179 167 175 176 189 182 189 195 177 169 174 170 205 204 180 154 159 178 187 189 191 192 168 168 179 156 148 155 174 157 121 113 99 84 44 70 70 55 36 43 58 38 42 56 43 51 64 55 47 54 88 98 104 108 128 31 33 29 53 45 56 67 45 57 65 33 55 79 54 51 43 35 44 63 38 34 38 121 148 158 109 148 162 172 179 180 190 202 197 170 159 120 178 187 190 200 213 219 222 221 223 216 200 194 207 184 166 188 197 206 227 225 215 223 199 218 216 209 206 195 187 184 176 201 222 205 206 200 200 174 148 136 150 149 131 139 153 125 125 120 124 126 130 126 125 159 162 171 162 133 154 174 151 135 126 171 179 168 181 151 145 131 126 124 121 144 127 123 130 125 145 184 219 223 211 201 205 204 215 227 226 227 177 157 182 198 207 205 219 220 216 207 218 220 226 200 169 190 168 176 200 205 223 222 232 230 232 211 215 204 200 199 189 197 211 202 202 201 184 117 150 194 180 182 187 85 41 36 47 56 56 66 67 89 106 41 48 82 79 96 100 113 108 107 109 98 102 78 62 98 80 100 119 111 111 96 109 192 187 100 111 127 140 105 99 123 141 123 121 129 180 128 94 58 63 95 96 136 128 102 98 95 94 93 73 84 80 86 100 93 84 130 120 92 119 133 102 89 123 103 106 94 80 109 105 92 74 143 110 86 84 89 108 102 68
130 121 111 133 140 180 169 180 195 200 200 182 187 186 172 166 161 164 164 204 201 196 192 174 176 166 176 174 167 145 169 157 130 118 103 67 85 75 88 73 39 35 58 92 82 57 37 97 107 74 83 66 63 72 80 54 59 49 64 42 37 43 34 29 37 43 38 63 87 83 54 48 64 54 45 37 39 33 26 34 18 22 139 138 123 74 107 171 178 174 187 195 208 219 209 159 149 159 184 191 204 206 220 223 221 225 216 213 213 215 140 146 181 187 198 223 223 213 221 197 217 205 207 198 196 187 179 186 210 226 219 217 208 211 188 175 179 140 143 131 135 128 131 137 124 124 126 121 119 135 140 129 167 151 169 162 153 151 165 182 165 154 138 136 137 131 140 125 123 138 121 126 123 123 131 176 201 215 212 198 198 207 206 223 230 220 211 169 140 189 200 201 221 228 218 208 220 216 207 221 182 180 185 202 184 175 195 207 223 228 226 221 222 220 201 208 201 205 205 209 204 206 191 172 169 172 191 189 192 192 100 86 124 138 98 79 72 60 57 95 66 48 64 82 102 88 66 75 105 124 135 117 96 65 77 96 151 126 89 103 130 121 114 105 168 182 135 124 139 133 97 113 134 117 117 109 115 118 88 97 93 100 134 124 126 114 86 102 96 75 94 96 89 82 134 129 93 147 125 129 106 108 137 134 107 109 130 150 116 109 99 80 79 73 90 105 105 98 89 86
148 147 157 181 157 151 155 170 180 180 178 180 171 186 204 191 184 182 182 185 146 155 168 159 149 139 117 115 120 118 151 99 96 87 78 82 67 86 98 53 79 114 115 94 73 54 78 67 63 123 68 56 51 49 56 58 36 73 99 130 85 92 41 29 51 78 75 76 70 67 59 76 55 42 39 26 32 63 41 25 39 43 124 149 143 83 64 128 149 171 178 181 199 206 206 190 182 136 169 180 185 195 218 225 228 228 217 208 199 205 155 166 179 182 192 226 229 219 218 207 221 221 222 212 201 189 186 171 210 218 213 220 200 204 187 175 154 137 145 129 151 153 134 128 130 131 124 125 118 128 133 136 139 146 135 138 146 155 139 127 155 131 145 146 148 135 140 124 129 121 125 123 125 121 144 198 208 219 218 189 200 205 217 229 219 209 208 149 153 199 209 213 219 226 219 212 218 213 211 221 174 146 198 192 195 196 217 221 227 222 218 219 199 198 188 198 204 205 198 206 204 202 151 105 161 174 184 176 178 167 44 34 44 73 114 111 68 73 69 93 56 55 114 130 123 104 94 88 107 72 88 82 84 102 127 151 158 127 111 109 106 85 92 62 96 111 109 98 125 135 135 148 111 78 68 67 82 87 109 90 97 115 123 123 88 90 137 119 94 88 93 97 104 100 88 88 114 125 113 110 100 89 96 110 88 82 94 119 109 105 77 78 78 97 97 111 96 75 82 57
146 155 153 150 164 164 185 194 191 192 205 205 190 194 155 148 151 184 194 185 206 185 136 130 119 153 146 125 117 140 114 97 116 116 98 85 72 87 94 95 73 77 60 87 103 105 85 51 52 54 57 42 64 75 62 54 47 42 42 68 77 69 63 63 63 53 53 75 75 56 76 70 45 46 49 103 58 52 35 56 22 26 59 113 119 133 94 131 165 175 184 177 192 188 202 198 182 153 155 170 197 200 216 221 223 230 228 219 215 199 175 165 153 179 169 218 209 211 208 213 199 209 219 216 202 195 194 180 202 211 225 218 204 211 197 174 167 151 144 126 130 130 121 118 119 120 125 124 121 124 126 125 127 136 137 120 134 145 146 171 150 166 145 155 144 143 140 140 124 123 135 143 125 120 175 195 207 221 217 179 200 208 210 225 212 213 192 156 172 200 209 212 223 220 207 210 213 216 212 204 169 171 177 189 206 207 207 226 228 217 225 220 195 196 199 200 205 205 201 199 196 187 153 146 187 180 184 181 190 137 100 82 74 62 73 74 62 70 72 77 68 38 87 120 114 105 97 124 128 140 165 196 172 161 124 109 136 179 95 124 99 108 131 131 80 82 88 110 136 138 93 74 116 125 85 74 95 97 148 100 97 160 119 124 105 68 84 78 111 118 98 100 106 106 106 85 82 95 113 92 106 114 124 121 113 103 106 111 134 126 103 94 82 89 94 83 74 82 76 68
166 158 154 168 174 182 180 175 174 195 201 190 182 182 175 164 185 197 189 168 156 205 170 165 167 151 117 104 115 118 76 90 69 76 58 68 84 75 74 55 94 102 79 86 93 87 73 54 48 32 51 43 62 48 47 83 54 39 47 60 39 42 42 46 44 82 51 59 58 58 65 75 43 46 51 62 77 72 39 51 39 39 96 141 138 139 109 125 161 169 180 188 192 198 201 216 209 140 147 186 197 200 226 222 226 231 225 219 206 196 204 197 145 149 159 212 222 213 208 216 199 207 212 215 205 198 199 169 204 209 227 225 199 204 188 176 165 138 135 125 133 133 120 116 120 127 121 123 117 124 133 133 150 156 139 176 206 206 189 191 176 162 175 154 137 133 140 128 127 117 128 128 123 118 188 215 218 226 216 189 206 208 226 227 215 208 195 153 179 202 209 209 220 215 209 208 223 212 205 219 179 184 179 176 198 197 201 219 216 211 220 219 196 191 195 201 199 208 207 195 190 176 158 182 190 178 181 169 182 136 66 67 95 102 73 73 96 67 53 76 64 66 107 118 131 98 110 106 121 104 96 103 144 137 95 111 96 92 158 154 115 119 109 114 92 55 79 90 111 118 82 90 95 138 98 77 114 110 137 140 97 109 114 102 75 92 80 83 100 75 109 111 135 135 103 102 88 96 109 98 93 82 108 114 121 86 98 104 116 128 102 105 83 93 85 87 83 102 100 72
145 177 185 168 180 194 191 162 160 158 172 168 171 189 167 166 165 184 195 171 159 182 188 196 208 166 172 145 134 108 137 134 127 138 129 127 119 151 160 129 133 130 93 104 115 109 70 53 126 64 35 46 54 62 72 62 83 63 90 83 67 62 57 77 55 35 48 99 120 77 47 54 78 83 87 53 31 38 32 17 28 60 21 43 70 154 175 106 87 170 186 182 195 184 187 202 190 182 171 149 186 184 186 195 217 228 229 230 221 205 182 181 167 176 174 179 177 182 200 188 205 210 219 212 210 195 186 176 181 195 219 211 213 205 194 187 169 157 165 128 127 138 127 123 115 120 123 120 123 117 126 130 126 131 165 202 190 195 181 204 150 137 146 136 138 133 131 130 131 126 120 123 130 126 196 197 207 188 189 196 185 194 197 209 217 206 178 178 199 201 205 216 218 212 210 206 206 215 210 199 161 188 178 181 194 194 196 207 223 230 206 198 190 195 204 194 213 202 200 197 114 123 204 197 190 195 184 182 158 94 68 79 77 43 35 44 53 52 62 108 80 103 100 92 75 67 79 77 88 85 110 131 114 107 102 85 90 99 126 118 79 105 137 145 169 131 133 136 83 53 131 141 127 92 135 155 138 140 147 115 70 96 137 124 135 130 116 117 107 108 105 123 111 121 73 88 96 80 108 109 126 109 109 126 111 136 134 134 100 107 111 111 105 74 82 78 78 95 72 90
157 158 139 187 191 187 191 171 182 190 178 187 182 170 180 195 192 175 162 164 169 155 130 96 95 184 190 130 131 136 143 138 149 125 117 100 108 106 99 123 143 123 128 115 103 36 58 118 104 38 36 57 52 75 70 55 57 44 49 66 32 34 39 62 62 49 37 36 43 70 62 45 59 68 68 58 51 29 34 62 36 43 35 42 70 167 157 139 76 166 174 178 184 189 199 201 215 184 176 124 190 190 181 187 206 220 227 223 223 210 200 200 126 161 166 190 194 180 167 182 196 199 215 211 206 201 190 190 161 201 210 219 197 194 200 197 181 145 147 127 129 130 118 123 123 128 124 129 127 120 129 166 160 148 143 137 128 125 130 159 130 127 130 127 137 128 124 120 125 123 124 119 120 120 195 217 220 192 186 196 207 207 225 223 191 182 164 186 195 198 215 221 211 211 213 212 222 228 220 186 156 143 170 167 191 196 221 228 227 222 196 192 196 190 200 205 207 205 187 179 150 178 200 199 186 166 186 170 147 79 111 96 37 76 57 57 72 75 75 104 98 92 103 94 100 98 156 131 111 93 62 74 105 102 109 119 161 153 157 147 150 114 73 93 158 147 88 107 64 89 146 131 118 123 115 126 129 116 130 125 88 72 82 82 87 98 97 105 104 130 102 106 113 105 95 97 90 102 90 97 104 93 113 99 98 111 89 95 118 102 109 103 108 99 102 106 83 106 92 99
175 180 189 187 192 179 179 192 187 191 181 194 192 177 184 170 179 187 184 181 134 116 113 159 159 133 131 198 198 159 158 161 137 104 94 126 127 100 119 139 59 36 36 28 24 45 69 49 52 45 56 62 51 64 53 55 63 51 66 38 28 23 31 41 57 36 48 57 57 52 45 58 66 69 56 48 38 38 37 43 23 29 38 34 26 160 177 175 141 89 192 186 189 194 190 205 202 201 170 109 180 177 187 187 191 220 225 210 206 205 175 170 156 177 179 202 215 219 205 178 185 186 191 196 199 187 190 199 176 182 226 215 207 200 201 196 184 154 166 136 129 133 121 128 118 123 121 118 127 126 130 137 124 131 143 133 133 144 133 134 157 158 144 141 124 126 129 130 130 135 123 118 130 136 213 225 211 190 189 190 201 192 216 211 197 169 120 186 197 206 202 207 210 202 217 216 221 217 210 181 181 182 171 174 209 220 222 216 215 218 192 182 188 192 207 201 202 188 186 147 168 174 192 187 189 187 181 148 131 148 72 65 51 59 55 55 48 38 42 38 64 86 114 95 77 94 83 106 98 123 120 106 88 93 154 159 170 153 110 97 95 131 109 92 145 129 114 115 138 103 93 177 129 124 98 86 92 78 106 115 114 105 88 93 85 96 95 93 118 118 115 131 137 109 128 128 85 94 87 108 98 109 107 109 90 83 79 85 80 94 93 95 89 100 111 125 108 95 111 104
184 190 194 186 191 188 192 197 191 187 182 196 197 176 164 176 170 188 182 156 148 150 166 153 129 135 144 153 197 184 146 150 158 129 111 86 87 126 128 140 27 23 17 24 26 46 57 25 34 49 42 60 52 52 55 62 51 42 57 44 66 47 39 51 28 66 64 43 48 42 85 68 69 55 43 42 45 32 31 26 69 97 140 75 53 126 151 181 175 88 157 154 180 182 184 200 198 205 188 125 174 191 201 204 202 213 218 209 205 199 190 175 180 187 189 198 212 216 210 181 190 189 191 192 200 184 190 189 169 179 206 215 205 201 199 202 197 161 150 127 136 140 121 129 119 119 125 124 126 134 129 138 129 153 150 156 143 134 157 164 133 133 136 133 135 135 129 127 128 127 126 121 120 137 216 221 217 178 191 190 194 202 196 207 181 172 137 178 190 200 208 206 218 210 223 216 221 209 190 176 160 168 170 185 210 222 223 216 219 209 188 190 187 194 199 202 195 195 192 139 169 158 200 195 197 201 180 137 117 76 55 52 53 48 58 56 54 44 53 56 96 77 89 105 77 77 119 108 95 67 85 94 138 129 141 177 161 138 168 158 149 145 87 86 86 96 115 88 85 121 78 117 143 133 92 105 121 116 130 109 116 109 102 72 88 92 98 93 84 109 129 150 176 159 135 128 116 103 80 78 78 86 89 102 93 98 93 98 82 76 94 92 93 80 110 103 96 114 80 104
192 189 197 189 178 192 196 175 186 190 190 190 181 188 201 194 177 172 185 159 187 179 154 160 170 170 166 161 181 150 198 136 126 113 108 149 140 75 119 93 49 23 37 26 53 89 62 47 65 84 80 78 65 64 57 37 33 38 48 77 39 34 34 22 22 24 36 47 65 52 48 60 69 69 69 55 32 32 26 16 19 26 49 47 51 94 123 161 159 67 167 187 182 188 195 195 213 210 201 162 137 164 189 190 189 205 210 200 210 200 199 178 175 180 165 187 186 201 201 220 212 196 175 180 181 185 180 188 185 177 198 199 217 208 213 202 201 179 135 120 130 137 121 123 125 127 126 123 130 124 129 134 133 133 175 178 165 175 137 135 141 135 139 129 139 131 121 136 135 121 124 119 138 170 222 215 204 176 192 184 204 217 202 192 141 119 175 205 207 206 191 201 200 202 200 195 186 190 179 172 138 143 184 196 223 219 225 221 210 194 190 187 182 185 197 195 198 198 185 108 218 200 200 200 189 196 159 118 77 73 34 52 59 79 106 83 52 69 66 70 59 72 87 94 83 97 92 85 96 69 126 137 100 154 136 93 92 102 128 170 94 106 148 133 92 103 78 77 84 82 103 89 80 78 78 88 104 96 109 105 106 100 95 97 108 107 89 103 113 87 114 103 109 105 108 93 102 109 94 104 106 102 116 126 89 102 83 93 115 105 117 126 110 104 93 114 90 103 93 107
160 177 188 202 200 180 176 168 172 175 184 194 197 174 168 179 177 137 144 171 170 170 167 184 178 156 159 140 145 147 126 128 140 168 161 221 219 157 134 68 45 80 69 89 76 74 80 60 57 88 60 46 55 48 55 70 69 57 54 26 52 62 49 93 118 84 57 189 174 57 62 73 109 94 67 29 55 38 52 43 25 28 32 68 88 82 58 108 110 120 114 155 180 181 177 191 189 201 210 190 141 174 194 186 186 181 186 189 192 221 188 206 155 170 162 159 174 205 210 223 222 204 229 223 213 188 175 202 204 169 196 197 208 190 206 210 204 176 144 136 134 131 125 125 131 123 121 119 118 119 136 139 125 123 130 136 147 185 195 166 135 130 139 150 137 135 130 140 131 120 124 117 189 202 217 192 169 196 202 212 222 199 157 187 133 153 188 199 195 194 200 201 211 220 202 191 182 172 167 139 171 195 194 210 206 211 220 220 216 196 188 178 186 187 189 191 134 111 121 204 205 199 176 180 179 161 114 121 108 54 37 55 77 103 78 72 62 67 63 59 86 68 65 63 75 100 78 93 80 149 104 127 140 140 124 110 103 127 150 153 93 88 96 87 100 129 161 131 126 114 105 100 97 72 78 62 96 95 87 108 108 135 113 113 111 131 95 100 114 89 105 111 128 131 125 116 96 108 127 102 82 84 89 74 89 104 85 98 78 107 116 111 97 116 117 104 103 104 100 88
190 199 204 207 200 180 174 190 195 190 178 172 161 167 185 175 160 146 179 191 180 172 180 180 170 167 161 164 165 149 144 141 148 154 134 129 170 192 138 51 74 62 82 102 86 100 86 58 53 95 51 65 56 43 49 82 70 69 42 28 49 56 37 48 77 82 63 86 156 131 94 100 84 97 74 43 28 70 41 70 82 82 136 92 62 49 57 119 124 149 124 153 171 178 175 182 192 205 222 198 139 168 188 184 190 190 180 205 204 218 200 206 174 156 165 159 148 194 195 222 226 206 223 213 213 200 179 189 195 166 195 185 209 207 182 180 192 186 147 141 135 135 125 124 127 124 119 124 115 124 139 134 137 140 166 189 207 154 136 124 144 139 134 159 161 146 135 135 135 124 119 123 170 207 215 177 161 202 209 205 222 205 150 154 117 158 188 195 197 216 208 205 217 223 207 216 187 177 151 123 167 191 195 196 218 226 226 210 199 190 187 188 159 161 194 189 135 97 107 198 200 201 182 198 178 147 149 154 115 60 123 123 62 63 44 64 49 54 48 66 63 78 99 85 105 109 100 95 94 105 84 102 105 123 125 114 129 117 107 144 104 95 94 65 80 73 102 113 105 105 130 98 107 102 72 74 126 111 89 86 121 114 111 105 89 111 107 116 116 97 85 114 116 120 133 124 95 123 138 147 97 104 120 116 116 127 102 97 97 102 109 105 98 97 103 89 89 110 89 96
176 180 182 167 179 179 178 185 182 174 175 190 196 186 189 169 188 172 174 172 189 197 194 160 135 126 110 134 138 150 137 156 143 88 58 80 93 113 89 190 92 83 86 72 65 86 75 47 57 57 69 67 74 56 56 60 38 38 32 26 143 55 45 57 45 34 35 41 45 82 145 64 43 59 66 100 128 59 128 97 164 147 47 52 42 41 90 75 92 162 89 121 166 184 191 191 190 191 204 196 130 143 185 182 156 151 159 186 199 207 178 188 140 153 168 167 181 210 200 212 218 205 217 215 221 205 200 209 201 182 186 191 204 200 204 196 202 165 134 134 134 127 117 115 121 124 121 124 121 127 130 133 156 148 189 188 170 169 184 156 158 139 139 143 140 130 123 131 131 134 117 125 205 204 216 182 184 211 207 216 219 199 161 171 129 181 198 192 200 182 190 204 215 219 215 213 185 188 175 116 153 177 202 223 229 217 210 185 178 195 177 172 169 177 197 169 128 155 179 212 184 192 200 177 157 121 136 116 82 80 76 92 79 93 94 98 54 75 49 57 63 64 83 72 77 59 69 80 108 59 77 93 98 97 75 86 88 84 87 72 117 94 68 96 93 103 92 105 98 119 99 106 120 99 106 77 107 157 151 141 188 158 117 114 108 103 108 141 139 128 105 90 110 103 119 121 108 104 121 121 109 105 98 133 99 82 90 93 73 84 90 100 103 120 102 104 107 94 118 90
189 178 161 149 165 169 159 157 184 177 186 188 179 178 169 164 166 179 180 184 159 147 141 157 172 178 150 133 143 160 118 104 124 121 130 97 99 113 75 115 121 172 197 82 62 76 78 54 59 82 68 72 52 37 42 43 49 73 62 31 103 63 56 34 23 31 22 47 38 56 62 97 175 123 60 24 45 124 135 144 42 34 37 49 35 45 96 76 73 145 129 90 115 164 186 181 180 189 194 210 154 129 184 186 195 204 202 196 196 191 194 174 141 161 164 174 181 205 215 223 223 217 213 207 196 207 195 195 196 179 188 185 192 206 196 197 186 131 126 120 128 123 116 114 120 119 116 126 120 126 133 125 138 136 158 159 165 170 178 168 141 147 155 159 134 141 148 140 139 138 129 147 187 206 201 171 178 215 221 222 206 169 148 126 144 182 198 200 200 208 204 217 229 220 198 192 177 167 136 109 169 190 213 225 220 206 190 182 184 194 184 184 175 182 172 125 176 180 194 213 172 178 181 177 149 100 104 127 96 69 110 99 143 147 75 83 46 44 44 129 76 75 80 66 45 51 43 69 78 100 121 114 121 92 65 66 114 138 140 169 108 94 87 82 137 98 88 77 75 58 83 73 85 104 129 85 70 88 106 123 138 153 145 143 103 88 97 102 151 140 131 125 99 120 121 127 105 95 108 117 88 97 80 70 80 76 77 90 114 113 102 118 92 103 110 99 99 105 108 102
174 172 182 177 171 177 182 187 180 171 171 176 185 175 181 182 186 191 175 164 170 176 176 162 148 141 157 144 147 107 148 124 98 117 119 96 92 165 147 111 98 106 118 138 168 179 124 63 53 68 43 43 60 86 66 64 67 37 38 52 47 38 35 39 33 57 44 42 36 42 78 63 43 59 73 168 178 146 105 18 10 14 19 19 22 27 27 93 94 135 181 131 103 129 160 188 194 192 197 201 153 113 153 179 182 178 188 192 206 208 169 157 141 150 136 151 175 181 191 213 219 208 204 196 196 200 200 213 213 202 151 179 194 208 206 208 180 130 124 123 120 118 120 117 120 121 121 126 124 119 124 124 151 170 144 134 130 147 144 138 138 140 147 143 127 149 153 133 130 129 130 129 155 185 171 179 186 220 223 215 208 184 110 96 185 191 199 206 202 206 210 218 219 205 205 195 159 131 106 115 186 194 204 211 207 199 180 194 196 189 184 181 201 191 136 109 128 185 216 177 178 190 176 169 111 154 156 126 84 99 84 92 64 51 73 75 117 98 70 46 85 165 204 200 156 155 103 84 73 59 134 133 100 114 165 168 196 211 206 191 103 106 92 96 134 135 93 72 118 89 76 66 78 74 124 127 106 113 128 137 117 108 110 127 124 110 105 106 121 116 151 140 116 93 146 159 110 104 87 96 96 86 99 100 69 93 84 67 90 76 88 84 90 67 87 89 99 107 87 104
180 181 190 191 191 200 196 189 191 186 191 175 179 166 170 169 176 169 174 178 150 149 149 120 136 169 172 158 168 159 161 160 135 125 136 149 144 137 131 111 116 125 125 89 129 59 57 82 143 189 25 26 32 46 38 21 18 17 28 67 42 27 29 41 36 49 110 103 78 60 39 36 67 83 82 34 32 31 39 136 186 188 145 106 113 38 23 104 111 78 150 150 92 93 125 169 180 189 188 187 167 170 103 145 166 187 191 196 191 197 179 154 136 124 111 157 158 182 189 197 205 202 197 210 208 192 190 202 205 188 147 177 190 197 208 186 174 143 135 134 119 124 124 116 115 124 126 125 135 128 153 145 131 138 136 149 169 154 167 168 150 133 154 145 144 147 138 134 146 131 120 124 168 196 181 204 216 211 220 211 191 164 105 133 195 191 202 206 213 204 219 225 196 188 175 161 138 123 102 134 197 201 218 223 201 200 189 186 180 194 188 184 186 162 110 139 178 202 159 154 195 192 157 115 117 98 115 121 92 123 139 121 134 140 98 108 192 160 138 80 105 84 64 66 72 74 62 96 111 87 88 66 97 95 103 86 90 90 108 74 53 56 121 184 206 175 84 68 87 104 135 115 100 98 70 83 77 98 84 83 100 87 99 93 104 118 114 105 125 127 120 105 104 124 111 125 138 150 137 140 114 94 87 89 108 108 98 119 115 95 82 96 97 109 88 74 85 109 99 104
174 175 182 174 179 161 149 141 149 165 177 169 180 188 188 182 186 171 182 153 169 161 141 143 171 140 144 134 153 140 143 158 144 146 150 120 111 114 124 131 139 116 110 125 110 76 34 46 38 43 189 198 148 36 38 15 22 14 27 103 34 32 31 42 41 104 106 108 87 130 128 90 65 57 54 63 41 35 35 41 65 67 46 86 88 42 39 57 98 106 168 175 162 86 90 178 180 178 178 144 184 206 124 102 147 182 191 194 189 192 172 186 154 161 171 125 128 184 172 196 170 190 181 187 182 184 182 191 182 196 126 164 187 196 211 195 160 134 127 131 125 118 123 117 120 125 124 137 141 134 156 156 156 145 157 149 144 157 164 149 135 138 134 134 135 131 145 133 135 144 120 121 179 167 176 197 212 218 217 223 176 127 119 169 205 204 208 202 192 181 204 190 213 215 190 185 140 124 107 114 199 216 210 202 184 190 187 188 195 177 164 176 165 125 162 159 185 190 160 147 185 170 144 170 189 158 78 80 89 86 65 70 96 138 123 78 75 57 79 54 46 64 45 65 56 67 70 84 100 88 93 82 79 58 64 59 127 148 153 118 78 103 68 72 67 82 165 198 120 105 116 108 98 116 115 102 105 95 87 80 82 76 89 77 88 88 135 125 110 118 126 134 109 116 116 109 110 134 123 119 126 126 121 124 80 95 89 87 94 104 87 103 115 92 87 83 83 94 103 106
172 184 195 181 181 174 169 176 178 182 196 196 187 195 190 178 168 167 184 158 170 151 149 128 133 118 97 121 124 138 125 121 133 151 134 148 144 147 144 169 128 120 104 86 99 60 37 35 23 32 23 38 65 182 206 98 25 28 107 36 31 28 14 21 32 48 118 198 182 68 139 119 51 38 39 69 74 41 28 28 126 92 54 88 126 93 67 74 83 137 138 127 131 108 88 148 157 178 174 120 196 185 158 110 107 161 176 192 179 167 199 192 178 166 134 160 141 145 164 164 169 162 156 190 189 184 186 178 196 194 158 135 164 207 186 171 156 148 158 129 119 121 118 121 123 124 126 126 124 135 130 140 155 150 167 161 169 143 151 150 131 141 138 130 143 146 139 141 138 134 119 119 150 207 210 210 208 207 211 217 139 113 113 172 198 197 197 195 185 184 197 186 185 194 182 176 136 113 123 147 208 212 191 181 189 182 185 185 186 196 169 174 118 139 157 143 167 169 162 158 176 137 119 136 194 156 129 94 96 82 119 143 127 129 118 93 106 109 69 75 73 82 100 99 94 90 66 70 66 96 72 60 93 102 114 87 66 72 106 99 108 141 110 80 64 69 68 72 93 157 151 160 159 147 134 114 82 103 135 110 95 72 83 118 108 92 111 131 107 103 98 113 109 113 134 119 130 123 128 111 109 136 118 127 105 86 83 93 110 113 93 86 89 90 76 93 110 103 86 93
185 187 187 197 198 184 179 181 178 170 180 186 187 178 160 164 160 160 159 178 140 126 126 120 108 104 128 141 154 144 128 145 157 124 130 187 170 157 179 125 78 75 65 63 49 36 45 38 52 32 42 25 36 35 39 64 109 205 201 113 32 62 99 157 172 85 58 67 84 36 49 47 49 56 59 57 53 46 41 58 65 29 55 53 59 79 78 67 37 105 99 138 157 180 174 104 154 139 137 194 143 166 134 125 99 130 164 180 179 158 174 195 192 182 148 127 127 156 171 189 176 170 191 199 205 194 201 194 199 185 185 171 158 168 156 172 158 156 144 125 127 120 129 125 119 123 127 124 127 133 149 139 126 135 144 164 181 165 175 171 140 133 135 133 139 144 137 133 150 135 127 123 135 162 201 211 206 205 196 170 114 87 111 168 191 186 192 204 199 207 199 197 206 194 161 157 126 106 103 115 191 199 194 186 178 175 185 189 200 181 160 139 116 160 205 201 179 176 169 151 133 92 153 146 160 165 102 148 166 119 80 54 87 75 80 98 73 63 73 85 78 77 77 66 69 79 107 106 97 134 104 106 99 88 83 95 100 80 103 125 126 131 124 105 88 65 164 199 165 145 102 166 158 90 106 89 70 90 115 123 107 102 84 106 104 93 125 127 103 96 92 76 85 78 100 118 109 131 117 99 84 119 120 108 121 99 82 89 86 111 108 70 77 78 76 77 83 70 99 102
192 187 195 189 187 172 176 182 185 186 186 185 178 168 179 155 160 147 169 171 161 140 139 98 103 129 130 137 139 145 144 166 154 158 187 165 138 147 141 115 97 99 89 55 52 54 46 49 37 48 43 29 22 31 32 21 31 79 126 205 185 187 141 45 28 36 35 48 63 155 38 44 102 62 62 60 56 59 47 64 43 44 108 99 95 52 49 24 28 74 84 123 155 157 153 95 128 144 149 175 184 154 164 145 118 106 137 170 170 135 178 200 190 186 182 155 139 136 145 172 197 194 191 205 206 191 191 190 187 180 182 154 133 141 141 153 168 159 134 123 133 135 124 121 126 129 126 127 125 136 139 138 144 150 145 148 157 156 158 149 133 135 137 138 143 148 158 153 180 136 125 123 157 180 205 210 202 206 181 187 123 86 126 170 199 182 191 201 200 198 210 201 199 184 170 149 99 98 99 139 186 186 182 182 180 184 182 195 195 166 130 102 123 137 202 192 185 164 162 144 106 88 181 190 171 157 93 124 136 161 102 79 57 83 67 94 78 67 69 124 121 88 67 69 76 66 86 87 114 97 89 96 74 90 111 102 106 136 68 77 96 103 108 90 166 190 144 121 117 97 129 114 196 179 92 110 109 85 116 137 109 106 109 85 115 98 110 121 130 113 87 90 77 83 100 94 118 138 145 113 95 74 98 113 88 103 99 92 92 94 110 98 85 86 99 120 90 83 93 124
182 188 176 168 169 192 194 197 198 197 159 140 148 162 166 144 141 169 177 165 120 114 133 127 147 149 166 149 149 157 161 137 138 158 160 156 164 174 135 107 76 82 74 73 64 78 83 98 92 94 74 53 78 102 115 140 76 111 120 100 55 33 39 69 72 85 90 86 67 111 68 66 48 56 54 46 33 60 57 113 52 64 34 57 59 107 58 18 51 107 110 89 97 144 179 140 89 123 166 169 192 196 201 192 185 98 77 105 144 158 180 204 199 177 150 140 136 115 118 182 190 194 210 218 220 208 202 189 176 200 200 182 134 159 170 143 133 137 135 133 139 127 133 129 137 135 123 129 130 129 143 149 158 168 170 157 150 159 165 138 139 139 140 136 144 134 128 131 129 135 130 121 134 150 192 205 196 206 199 197 126 93 148 162 189 195 192 204 196 195 189 191 191 157 131 118 123 96 88 176 182 196 162 160 161 182 184 182 164 147 85 120 169 201 184 181 162 167 147 104 129 166 178 162 133 90 174 158 119 117 134 117 119 102 108 121 104 79 77 62 60 70 77 79 55 86 67 72 76 83 69 75 74 76 138 113 108 90 94 150 126 100 95 111 94 99 128 118 97 83 86 102 110 95 78 80 84 98 97 103 103 110 92 106 105 103 93 103 147 124 137 119 131 143 111 119 129 137 120 98 114 127 134 125 127 113 110 109 90 88 104 104 102 106 92 85 82 80 92 109
198 204 211 201 198 189 188 197 195 201 198 200 187 165 175 198 194 164 138 126 141 144 146 176 184 170 169 141 143 149 125 127 155 135 121 139 168 153 128 129 76 83 80 94 97 102 89 90 93 60 60 48 54 43 59 51 56 26 19 17 44 21 38 70 53 99 73 80 83 62 57 64 47 35 88 74 93 38 15 25 74 108 116 84 84 124 100 57 48 60 130 111 88 108 157 178 184 104 121 147 195 198 195 189 149 99 78 119 126 146 159 164 164 168 140 115 108 100 89 164 188 196 204 206 207 207 209 189 188 196 195 169 138 165 138 137 149 144 129 127 130 126 129 125 140 138 125 130 131 137 149 141 126 125 137 141 149 134 143 155 138 144 139 148 150 148 133 129 123 124 134 128 134 135 177 211 209 201 209 207 114 98 180 189 199 208 221 236 222 221 192 190 162 113 123 127 99 84 126 140 150 155 158 138 127 149 185 195 196 144 141 137 200 199 178 174 123 95 70 77 182 172 120 94 75 102 172 154 127 135 124 105 109 129 85 96 130 104 90 133 107 82 72 59 87 102 100 84 98 80 107 113 69 93 124 108 127 144 86 103 74 82 100 86 88 67 96 88 85 93 87 68 98 100 92 73 75 77 120 126 120 117 105 127 98 100 95 82 109 161 150 153 117 120 111 102 135 130 100 102 105 125 123 130 123 115 89 90 93 70 99 119 104 93 97 96 96 93 78 113
188 194 199 192 190 180 188 194 195 186 167 159 164 176 184 165 149 130 134 139 158 177 180 164 147 160 155 148 159 140 140 135 126 150 156 145 127 110 103 93 109 119 125 31 34 60 100 56 36 38 48 49 52 51 68 44 53 51 75 49 63 62 58 49 37 53 59 47 54 64 73 59 57 60 64 80 72 48 31 38 83 65 42 99 124 89 94 92 65 38 97 148 158 121 94 140 159 143 98 123 190 189 199 189 164 134 116 78 98 117 162 169 189 204 194 140 113 100 88 144 199 206 202 197 201 186 181 150 187 197 179 194 179 150 138 141 143 130 129 130 130 135 136 133 126 138 137 139 137 134 133 133 134 140 174 196 176 157 151 140 134 131 144 137 143 136 134 136 131 125 156 154 135 128 168 190 207 218 205 201 89 94 178 191 190 191 198 213 219 205 200 192 147 129 133 120 103 130 160 118 153 127 133 144 176 178 202 202 187 121 164 192 202 196 177 155 139 130 86 43 128 133 151 145 127 138 110 126 114 109 136 121 87 90 102 111 116 98 88 87 99 159 128 88 77 58 70 63 68 70 67 90 84 103 153 121 73 77 82 84 94 85 89 89 110 97 94 92 111 111 103 94 87 88 111 98 114 104 124 199 128 120 115 103 131 113 131 120 90 87 92 105 104 114 124 121 114 119 111 93 106 97 114 105 106 116 109 96 96 79 98 99 116 105 115 131 120 133 118 107
194 195 192 194 177 187 188 196 191 188 170 167 181 172 150 161 164 148 133 126 172 176 170 155 154 166 159 161 160 144 123 147 157 155 148 140 120 127 115 95 89 93 93 75 39 64 60 54 43 31 57 54 54 80 127 55 48 34 38 73 45 32 38 32 37 38 29 23 42 47 85 60 90 85 66 41 58 97 69 87 36 47 60 109 116 66 56 72 32 72 84 146 156 115 89 137 127 118 86 119 187 181 185 171 155 130 137 82 111 120 124 130 184 178 179 135 134 104 97 153 185 197 201 209 209 196 191 174 178 196 197 196 154 144 144 141 129 128 129 137 135 124 133 129 139 141 130 126 131 137 154 147 155 150 175 175 165 143 169 136 136 133 148 138 140 141 139 140 130 135 150 160 133 129 159 159 185 211 204 198 77 96 169 174 200 200 210 219 212 207 185 186 139 121 114 89 102 149 179 128 147 143 151 150 166 191 196 190 175 103 134 182 192 194 162 133 130 110 79 136 164 150 147 130 123 147 137 138 151 168 136 140 103 102 120 134 125 127 129 97 135 124 109 94 86 100 68 74 68 79 87 92 121 147 167 139 88 102 63 87 93 99 100 96 102 99 100 97 109 107 106 110 104 104 111 105 107 125 99 129 129 140 120 118 154 158 103 117 80 100 121 109 99 105 125 139 110 110 108 93 83 106 115 115 116 125 106 98 75 93 107 97 104 107 133 117 130 125 124 97
186 182 181 180 186 197 199 199 187 189 189 179 171 168 191 159 134 116 140 168 168 156 151 135 144 171 171 149 127 126 174 175 171 165 162 141 133 117 130 66 93 55 56 37 38 68 76 64 44 60 111 72 75 74 65 46 36 67 43 33 62 36 39 29 52 36 39 42 67 45 37 55 79 74 67 69 59 66 62 76 66 90 66 69 62 48 38 65 36 58 119 99 166 138 155 140 131 127 157 79 169 180 169 155 156 170 175 87 113 136 133 130 177 185 207 181 144 109 97 159 172 186 184 194 194 190 171 165 195 208 197 169 148 154 137 131 127 123 128 131 129 130 133 131 137 137 129 126 125 128 136 140 155 168 175 148 143 149 146 139 136 129 128 134 139 134 139 140 131 144 144 149 130 147 143 144 166 186 189 149 80 128 137 171 192 198 209 207 201 206 167 149 115 97 85 96 167 186 176 168 170 167 164 177 175 182 189 186 150 100 180 192 162 180 131 100 86 45 110 187 149 145 131 106 169 177 104 138 114 139 165 168 159 134 120 87 97 90 85 93 181 194 117 73 76 65 86 86 86 107 128 164 93 95 105 98 69 83 94 102 102 116 88 102 120 120 90 99 113 119 90 85 103 116 104 128 117 100 82 100 106 105 107 93 105 105 141 126 107 86 96 111 94 105 93 85 124 99 87 75 97 80 120 147 129 119 128 113 95 89 120 117 117 97 107 100 109 134 110 111
196 197 198 177 189 196 191 168 174 181 179 184 187 192 175 174 160 179 192 175 185 190 195 184 189 188 200 161 144 149 153 149 166 190 191 177 146 63 38 83 52 33 67 60 100 78 42 38 51 73 98 66 35 52 47 48 47 42 29 43 62 58 70 76 66 58 63 43 51 95 111 117 108 77 66 74 105 96 110 47 11 31 46 107 108 86 79 97 123 72 107 158 104 147 165 174 181 202 198 169 125 162 123 109 138 187 189 107 82 176 190 187 192 204 211 192 170 109 107 177 185 174 169 172 180 190 188 202 205 181 159 149 131 131 140 144 131 138 137 123 126 125 129 129 127 126 130 124 130 133 147 139 140 154 153 174 169 146 144 140 153 144 155 153 156 134 135 156 151 144 133 129 133 131 166 155 171 170 151 88 164 178 188 195 213 205 207 195 198 192 162 138 104 94 148 198 172 175 179 188 166 166 198 191 201 192 151 115 125 176 143 150 157 127 75 60 114 111 144 185 136 109 68 83 136 100 139 137 120 143 153 144 133 95 96 103 111 123 133 130 98 100 106 153 99 89 102 114 90 73 68 65 85 104 107 98 129 130 119 111 123 155 146 164 148 136 83 88 83 89 125 111 90 66 116 143 87 94 107 88 92 110 105 124 86 93 83 92 119 129 109 93 113 104 118 113 123 120 134 108 106 105 108 98 100 94 109 103 103 125 118 106 99 116 97 108 102 106 103 118
192 182 192 187 188 200 184 167 175 186 195 184 198 186 181 172 171 168 170 207 179 172 190 188 197 181 175 154 164 150 179 176 176 191 200 147 114 58 72 98 52 45 55 75 68 38 60 45 44 52 55 78 62 103 136 153 130 100 75 31 24 8 26 22 28 62 57 47 57 53 59 69 155 181 199 198 202 202 201 199 196 181 89 62 66 87 74 64 73 59 103 105 76 104 135 159 185 171 174 144 93 145 139 103 113 160 166 118 102 157 189 190 190 192 205 190 161 117 127 167 180 188 186 202 190 194 205 213 215 195 149 134 131 127 140 133 134 138 125 128 130 126 135 131 125 129 128 124 131 157 140 135 161 150 147 139 146 134 134 135 145 137 137 139 138 130 133 143 148 149 141 138 135 129 155 160 166 166 129 89 182 197 211 207 208 216 211 202 207 210 140 107 104 83 158 206 191 186 184 149 156 182 201 196 205 192 129 96 113 176 155 160 143 124 59 48 151 130 181 165 125 98 83 87 126 128 120 145 148 102 126 119 136 125 124 106 95 84 98 57 66 83 105 106 181 116 109 86 79 99 65 66 77 93 84 100 107 97 127 108 106 110 109 109 120 129 96 78 76 114 110 98 86 89 88 104 104 87 80 78 89 70 80 76 92 100 104 109 113 110 99 106 115 117 130 123 108 105 116 129 129 116 111 94 95 100 95 103 129 119 121 119 117 102 115 107 78 97 87 129
189 184 187 180 188 192 188 201 200 200 199 202 200 194 190 153 133 184 196 201 198 200 207 180 187 198 195 160 162 136 167 174 167 168 145 124 128 82 99 85 72 68 66 34 49 45 42 48 85 138 134 100 85 105 85 47 38 27 18 18 28 29 33 31 28 36 43 53 66 149 149 103 100 78 60 43 37 34 31 27 39 66 60 96 146 166 131 134 130 76 98 125 141 136 144 143 150 190 201 189 55 65 161 170 160 111 110 148 115 90 184 188 199 194 207 187 153 93 93 156 172 175 185 198 198 198 212 211 209 177 137 146 131 129 137 134 136 129 133 136 129 129 143 135 126 131 134 135 136 134 133 139 147 156 160 143 144 144 139 141 143 140 137 140 136 135 145 137 137 139 155 146 140 141 133 133 150 168 176 188 218 229 207 189 207 219 208 194 189 194 135 100 110 128 190 207 207 188 164 175 139 184 202 201 187 166 92 104 138 174 172 138 109 85 77 125 169 195 186 178 94 95 100 109 126 103 92 74 94 102 145 127 114 116 100 99 70 92 70 72 62 89 125 120 89 64 140 164 96 95 104 98 86 100 62 74 141 123 117 97 76 89 75 88 98 96 119 138 104 98 100 79 86 69 107 98 115 88 72 62 72 73 114 151 149 133 105 147 110 116 105 97 95 80 103 95 103 92 107 110 107 113 135 145 102 100 86 95 117 116 123 111 113 117 129 129 127 119 104 120
178 184 190 200 199 194 199 202 205 196 199 196 188 170 160 165 184 201 187 189 186 167 176 206 212 178 160 156 168 162 170 180 176 141 167 120 107 108 90 77 93 83 68 14 22 33 48 108 147 172 185 196 191 195 198 197 201 161 151 151 138 137 92 96 104 108 118 165 217 136 159 159 190 189 195 166 169 159 104 24 15 24 36 28 45 92 59 85 104 123 70 80 151 87 82 97 130 172 202 198 63 46 68 87 96 105 154 126 98 85 126 107 138 154 161 172 164 99 90 118 162 184 206 204 207 198 206 205 192 153 137 130 127 123 148 145 129 131 133 130 131 127 141 129 129 135 144 130 138 154 165 161 162 189 158 167 157 141 138 138 146 138 136 146 138 139 135 136 143 136 143 139 144 144 153 143 135 172 188 208 219 222 215 212 185 185 187 179 174 191 115 105 102 140 206 218 209 196 169 143 171 171 179 185 166 127 129 177 195 197 131 99 73 52 128 138 192 200 187 140 116 63 143 140 87 80 153 161 134 104 127 105 149 144 137 148 117 128 123 104 107 82 64 48 48 58 93 95 123 159 105 100 83 93 111 114 117 120 120 115 83 75 102 99 68 80 94 90 102 98 88 88 85 87 93 139 90 105 87 103 107 108 117 164 92 100 123 89 139 111 107 98 94 87 93 97 106 100 103 94 92 96 97 99 123 117 108 102 87 129 124 120 97 111 107 116 125 118 121 109
195 204 206 199 209 198 201 196 201 197 194 190 180 174 172 184 199 191 197 200 192 198 208 198 188 179 169 171 171 188 215 209 200 211 209 207 204 207 212 218 217 202 187 147 131 108 103 72 65 60 58 67 64 80 124 146 92 110 106 10 53 56 84 138 137 100 185 148 111 135 85 90 85 90 75 64 72 68 59 93 25 41 22 48 89 70 119 113 111 95 73 88 86 72 55 140 114 158 179 162 108 53 84 99 99 105 175 156 97 60 84 94 83 95 119 120 138 96 94 138 207 199 205 207 210 190 166 155 155 151 139 129 139 127 143 128 137 135 125 125 129 131 126 128 134 127 133 128 137 154 146 143 149 159 145 158 150 144 155 148 138 135 143 140 137 140 141 149 150 137 139 135 137 131 131 143 135 147 175 210 185 197 199 190 195 202 184 159 165 157 130 99 119 164 192 201 179 154 134 146 194 172 166 141 97 83 133 134 172 188 105 110 72 66 139 166 191 175 162 105 130 161 187 162 136 149 124 109 96 113 153 126 42 63 116 121 139 103 89 99 111 72 102 111 99 90 75 84 66 68 165 103 103 103 114 77 73 95 143 149 113 120 107 150 108 107 82 77 83 78 95 102 89 98 65 95 85 95 82 78 137 168 135 180 114 85 95 113 103 116 131 125 115 117 109 100 78 79 73 86 115 110 121 109 111 106 119 116 118 116 129 135 128 110 113 109 97 111 124 128
197 209 212 204 206 196 201 208 206 195 176 179 185 187 186 197 196 197 195 195 212 208 198 195 175 170 179 189 174 160 178 148 140 145 155 151 135 125 125 120 84 41 74 48 47 35 46 67 59 49 32 48 56 87 99 95 100 86 108 106 162 131 68 84 189 110 85 78 59 70 121 92 131 176 200 171 151 98 110 49 49 54 68 84 94 138 143 192 181 194 155 111 95 87 86 64 74 93 106 160 157 144 84 123 138 116 145 120 93 136 116 139 188 176 186 186 179 177 182 195 206 209 184 170 175 148 128 139 143 130 128 146 159 144 146 138 131 128 134 127 129 124 138 126 137 135 130 134 136 148 143 146 144 140 140 144 149 139 137 139 138 140 149 144 136 144 154 148 140 145 135 144 139 140 130 127 131 128 146 158 209 221 220 215 206 207 187 201 210 202 116 78 98 118 181 172 140 148 144 102 169 164 117 99 98 118 166 157 134 119 110 86 128 153 170 156 129 133 134 97 134 126 85 111 128 95 129 128 114 108 147 123 114 106 151 166 117 80 64 93 105 78 110 103 87 69 60 65 68 77 88 113 135 190 108 76 109 140 110 121 125 109 99 119 118 129 138 118 96 89 148 121 98 88 102 97 93 97 98 110 100 105 100 100 121 102 90 77 87 80 89 111 104 109 117 125 119 118 75 90 110 111 126 117 125 110 111 99 108 119 100 100 111 121 109 100 95 105 117 135
184 181 181 194 205 200 211 204 204 194 197 208 199 195 204 207 208 202 202 200 205 207 206 186 179 181 189 174 170 190 174 165 161 137 143 118 93 90 103 156 109 79 86 42 47 46 49 41 55 47 57 111 147 130 130 96 82 119 114 99 120 129 167 205 150 129 139 117 128 160 216 185 107 97 102 59 52 35 46 36 56 87 65 100 56 45 41 51 93 94 89 66 104 125 139 98 79 121 82 113 180 137 78 95 139 111 98 131 134 80 177 189 200 194 185 188 185 198 180 207 172 165 138 123 123 125 130 129 146 141 145 141 136 126 129 125 126 125 128 127 134 141 137 126 126 130 136 134 130 155 153 149 165 157 160 147 146 136 144 147 143 155 159 154 149 138 144 151 145 137 134 137 140 134 141 147 149 151 147 135 171 192 201 198 202 206 199 199 198 191 140 114 134 146 189 186 169 174 165 161 177 168 110 84 108 121 191 176 159 121 99 98 124 164 164 133 99 105 74 62 188 170 131 127 135 186 217 210 204 129 88 85 87 102 106 90 65 75 95 88 74 77 65 78 94 93 58 104 104 94 88 86 85 86 135 169 131 125 131 131 128 137 118 124 93 99 89 98 96 102 102 93 85 64 85 88 109 87 79 79 93 92 97 78 94 97 94 114 103 107 105 86 116 104 108 100 138 128 94 97 87 92 125 119 118 125 109 100 117 115 104 109 109 106 119 111 109 109 98 117
185 178 191 205 208 209 208 204 198 204 205 202 202 202 206 205 210 207 206 189 211 212 199 184 188 192 186 194 195 207 155 154 126 114 110 72 67 103 126 136 150 155 148 145 161 177 192 200 205 211 208 205 215 220 229 212 206 150 139 149 185 206 168 158 160 148 151 190 192 162 164 187 211 195 198 177 162 90 64 26 36 38 34 34 35 51 58 113 148 104 117 144 126 140 159 139 109 76 94 143 127 102 111 98 97 121 111 157 180 140 176 177 177 167 169 178 176 161 150 147 147 141 135 128 127 127 130 133 135 128 125 127 129 127 131 128 138 123 129 135 129 135 134 126 140 146 137 140 130 135 135 140 154 156 154 140 148 141 143 143 135 153 151 145 153 140 150 144 149 140 138 141 143 129 139 137 144 144 140 136 146 150 166 171 199 179 186 175 180 184 149 121 161 170 185 191 188 196 178 162 171 153 95 105 120 139 131 140 160 139 100 109 127 165 125 113 134 129 116 114 169 158 130 154 53 74 117 102 62 124 210 222 201 150 96 89 148 121 104 96 75 85 92 119 92 93 110 88 89 85 117 103 118 102 95 116 119 145 179 99 96 102 124 127 137 114 123 124 93 108 103 118 104 113 113 125 95 98 98 108 93 77 84 78 85 104 102 104 104 99 118 117 98 114 98 84 114 107 124 133 99 90 107 114 109 117 120 126 116 128 120 121 113 110 125 120 129 128 121 126
195 181 189 202 208 208 197 204 204 204 198 192 195 205 207 201 207 207 207 205 215 206 198 199 194 198 190 178 175 159 171 153 134 129 116 102 124 127 130 83 88 87 89 82 74 53 59 89 69 52 114 105 107 95 86 96 133 146 150 192 212 211 207 209 212 213 215 196 216 209 160 164 148 174 164 109 82 59 67 83 170 151 90 36 93 92 109 103 103 79 150 115 80 97 110 113 96 92 88 75 149 117 114 105 95 157 172 146 135 135 133 140 146 150 147 154 144 144 138 140 125 127 128 130 138 138 134 129 137 134 127 128 135 138 131 131 130 136 133 131 135 143 138 148 138 140 130 141 155 151 135 150 149 146 138 136 136 145 149 143 148 137 147 160 147 141 140 137 140 137 136 134 131 134 135 135 135 137 136 140 133 129 138 140 155 157 174 189 174 190 158 161 179 186 187 179 184 176 186 146 181 168 113 115 154 196 189 186 168 118 111 124 149 154 107 105 104 97 74 114 98 88 125 123 85 70 67 67 106 128 75 113 84 128 205 229 156 126 110 100 99 124 119 111 72 70 86 76 111 124 130 107 100 104 107 109 114 114 121 134 166 94 95 84 105 102 127 125 138 155 89 117 108 117 100 96 75 100 103 107 121 111 104 70 96 103 116 104 97 108 111 97 77 94 119 124 118 111 113 123 102 114 108 108 137 126 133 119 110 107 108 102 116 134 128 138 120 121 118 118
191 188 180 201 200 200 198 196 196 196 199 205 204 213 209 202 202 212 200 207 208 198 190 191 187 189 188 179 180 166 167 156 146 201 190 136 125 108 104 85 113 92 68 60 79 125 148 90 51 62 76 72 109 88 96 144 170 170 153 201 125 162 189 217 205 195 179 197 185 165 166 172 157 135 99 84 90 69 130 36 58 88 56 56 80 76 70 58 74 95 107 100 55 62 121 133 106 79 103 73 97 111 85 90 103 149 155 146 119 129 136 130 134 137 145 147 138 137 134 137 130 140 133 133 140 140 140 148 144 130 139 141 140 137 135 126 134 131 140 136 138 148 139 140 137 134 144 138 144 150 146 149 161 146 146 140 141 149 148 134 151 137 146 143 147 141 140 144 159 146 133 126 136 134 136 137 137 133 135 138 135 137 138 138 135 137 147 154 160 192 186 185 185 188 190 165 194 204 190 177 159 158 110 115 176 192 191 174 162 127 155 150 154 146 96 114 92 119 109 141 94 106 105 69 94 68 58 62 64 118 127 86 104 113 73 141 221 213 155 121 130 107 106 89 68 95 88 87 86 77 108 131 143 133 131 98 137 128 133 124 181 199 98 108 103 123 128 128 110 128 110 100 123 146 124 110 75 73 93 89 98 105 108 103 84 100 82 109 94 94 110 99 78 92 117 114 113 93 88 92 98 97 104 109 106 130 130 131 124 107 94 110 105 117 135 118 124 130 123 120
207 197 189 199 196 191 200 209 209 205 205 212 210 195 192 206 205 192 199 209 210 218 215 204 202 215 213 196 180 171 143 134 154 156 135 166 154 109 96 133 144 113 116 89 85 103 68 58 58 75 90 106 127 130 116 192 208 170 197 199 202 202 197 202 191 188 197 166 179 131 182 202 213 206 196 197 196 175 154 54 69 92 86 56 67 63 100 128 110 74 47 83 85 118 153 170 109 121 126 137 140 158 117 94 102 124 124 135 131 135 130 135 141 146 147 147 135 136 133 136 141 144 145 139 145 149 144 145 128 130 130 134 138 133 131 129 131 136 140 137 135 145 144 137 133 133 138 138 138 140 143 141 166 166 138 134 145 143 141 140 138 139 140 155 137 134 138 143 149 138 134 130 137 135 143 143 146 140 137 149 136 136 138 137 138 135 143 143 134 134 145 149 135 136 151 178 186 177 168 179 179 168 92 93 184 180 107 102 89 108 167 158 133 145 150 182 185 157 133 74 70 66 107 121 128 140 87 90 105 84 100 86 162 162 140 108 90 99 87 117 218 176 116 114 52 86 182 201 213 178 99 94 100 84 75 86 68 63 86 87 75 78 97 95 92 159 178 136 106 114 98 118 168 184 192 164 96 92 80 92 109 133 119 117 114 110 130 117 125 115 118 114 103 79 88 90 97 103 99 108 79 102 99 104 117 108 124 121 121 125 117 117 125 119 114 133 118 127 125 125
201 200 195 192 198 201 208 207 201 205 208 205 199 197 204 204 198 198 208 210 212 215 210 202 210 212 217 175 176 159 146 155 154 145 138 146 118 92 100 143 119 99 111 166 120 66 63 32 29 64 42 54 74 170 200 191 185 207 210 189 146 151 170 185 205 221 231 216 206 190 114 117 169 181 156 109 98 48 26 38 96 92 103 64 77 41 52 57 62 88 123 76 57 86 120 86 88 136 159 137 106 87 117 110 119 119 126 131 129 143 149 159 166 164 166 134 147 159 153 133 144 140 138 143 141 134 138 133 125 138 131 130 134 137 135 129 126 133 141 145 159 151 141 146 145 130 137 151 139 145 145 141 145 145 149 157 159 149 149 151 153 155 149 145 125 128 133 140 146 144 141 141 137 137 146 147 147 149 145 143 147 157 147 145 144 148 144 136 136 135 136 130 143 139 129 141 156 156 150 144 166 155 110 116 159 160 138 113 115 136 138 114 133 118 133 143 98 109 135 126 164 172 139 115 69 43 43 56 92 97 79 102 117 103 94 114 114 82 113 118 94 87 225 211 128 96 96 161 185 154 164 162 166 172 153 156 171 189 196 198 180 168 106 90 76 109 89 111 197 127 84 88 126 129 114 99 97 138 179 169 82 102 98 90 109 109 79 93 93 117 110 92 116 99 107 64 95 84 123 100 85 113 108 108 99 116 129 143 131 135 120 118 136 133 140 139 121 110 111 121
201 207 200 199 197 205 206 209 205 211 195 192 199 207 202 194 200 213 213 213 217 217 207 216 213 213 209 170 182 195 160 174 157 165 159 125 103 94 141 149 106 118 135 73 90 128 98 33 72 140 189 175 123 143 158 199 182 165 176 211 195 189 189 199 196 153 120 164 164 128 126 167 205 222 223 179 170 118 126 110 54 32 67 72 73 85 121 131 97 99 111 94 116 95 68 89 94 79 90 126 78 97 115 116 115 128 128 139 147 138 179 162 161 150 143 156 147 140 155 148 149 144 141 137 144 137 141 147 148 140 129 135 133 136 135 131 144 136 139 158 149 140 139 138 141 134 135 140 145 145 136 153 159 148 139 143 143 143 150 140 130 130 139 135 140 147 146 138 141 134 139 135 136 131 140 134 138 143 145 144 139 147 148 146 139 138 141 136 138 141 130 146 138 133 133 131 137 138 134 140 134 147 139 159 150 175 118 114 129 150 124 128 131 161 109 124 171 155 145 138 135 111 136 161 127 76 123 139 104 93 157 136 155 129 110 96 124 116 161 197 130 171 110 137 190 129 99 117 111 85 87 104 92 108 106 110 144 169 198 208 198 185 131 95 167 178 191 155 116 105 153 105 98 110 87 108 119 107 78 74 137 172 108 99 85 95 83 93 82 86 72 85 100 96 103 93 93 83 99 107 113 99 100 105 108 131 130 124 147 125 107 118 124 129 137 121 124 116 109 141
200 201 204 198 206 204 208 208 202 201 200 201 207 202 200 201 208 210 219 209 221 213 205 213 208 210 205 180 189 198 165 176 165 158 151 105 116 134 149 160 108 141 108 80 60 55 67 129 162 133 92 108 144 176 157 117 165 205 199 172 170 201 204 176 167 147 150 165 159 154 221 220 171 161 149 124 107 105 96 21 36 24 38 43 89 111 95 111 96 145 126 117 127 114 99 86 127 129 102 141 80 79 120 127 127 130 137 155 146 141 174 144 146 151 159 160 155 158 157 155 144 147 155 155 149 150 150 138 141 140 131 136 135 136 136 127 131 127 138 147 139 141 138 139 133 138 134 145 143 175 129 154 162 151 134 144 145 137 149 151 147 143 153 159 143 144 151 136 133 151 131 128 130 131 140 134 144 146 154 144 157 150 150 153 146 148 150 147 147 157 141 143 135 133 137 138 139 130 128 128 161 180 147 169 162 167 123 154 149 154 124 102 124 137 135 158 139 133 127 116 136 133 123 138 89 166 165 154 123 116 135 128 139 154 128 120 70 93 95 116 181 124 57 60 150 178 109 93 103 110 103 99 83 80 115 107 104 96 104 97 129 162 210 207 171 144 129 160 151 115 177 175 120 103 100 99 110 128 79 103 73 86 133 134 97 100 100 77 76 74 113 95 121 98 102 79 88 72 111 99 88 115 99 111 105 128 121 118 141 138 131 117 118 121 134 141 134 131 113 131
204 207 206 208 211 211 206 207 200 189 206 202 195 196 198 204 204 215 219 211 213 206 207 213 211 206 198 176 190 184 155 151 146 139 113 79 74 149 149 171 134 117 123 82 70 117 95 68 53 82 154 148 149 182 179 140 109 147 180 178 194 171 161 158 151 141 130 198 227 189 151 154 160 157 151 165 139 83 68 27 55 103 102 80 60 82 95 66 67 157 119 104 107 110 147 118 125 123 154 155 97 115 119 125 127 137 139 154 151 137 127 131 144 147 146 157 156 155 150 164 159 160 160 154 157 147 144 134 130 135 133 133 138 141 143 141 136 151 147 139 147 143 141 140 146 151 151 139 141 148 156 161 140 137 143 139 137 143 140 136 148 147 143 136 145 141 138 147 137 133 138 130 134 134 154 147 149 149 145 156 167 167 154 160 159 161 159 162 162 149 154 158 147 145 147 144 143 135 138 120 111 162 176 181 136 160 180 165 146 168 141 177 139 136 145 126 118 139 172 154 117 121 105 127 158 99 106 100 90 128 110 140 131 150 153 138 113 134 114 66 92 124 157 123 110 95 174 157 167 95 97 123 89 103 108 104 107 94 95 109 104 76 75 74 118 104 130 157 202 204 137 119 149 175 140 137 110 118 118 96 85 88 104 94 119 103 100 84 80 82 106 107 98 125 114 108 89 85 102 100 115 110 121 107 92 111 129 129 137 137 121 118 117 118 110 126 135 115 117 123
199 200 192 205 208 205 201 198 185 190 200 201 211 210 211 213 210 216 216 215 202 206 205 199 197 186 185 182 177 165 141 156 168 124 129 145 134 140 155 118 107 92 126 111 102 107 113 130 138 201 168 141 161 172 160 175 185 178 165 198 189 166 133 210 169 160 174 189 197 206 181 177 211 209 194 192 211 115 72 41 27 49 78 79 63 104 70 87 87 130 166 108 119 135 134 114 98 120 106 110 118 118 128 125 128 131 134 137 136 130 127 133 138 129 129 138 146 144 143 148 162 158 160 160 169 169 182 178 187 172 149 149 151 159 153 166 154 140 145 135 139 147 138 136 144 140 147 149 148 160 148 158 150 146 144 161 162 150 147 145 139 145 136 134 144 141 137 127 139 139 138 154 154 167 169 162 164 175 185 186 182 187 177 180 170 175 172 172 169 170 156 166 168 166 170 158 160 148 151 140 123 120 128 172 115 115 145 128 134 148 159 168 121 153 138 126 137 138 129 118 145 136 147 167 98 78 105 124 135 149 123 124 119 141 95 83 135 141 141 113 102 83 126 120 114 109 116 104 82 103 130 104 116 158 155 149 115 121 134 106 97 100 96 109 156 180 199 207 151 111 84 68 77 77 103 114 199 223 199 169 154 151 119 145 130 123 97 111 75 92 116 95 100 79 103 103 102 102 90 103 129 124 110 110 125 105 116 108 134 134 140 137 123 126 107 121 126 130 130 119
190 187 186 192 196 196 202 189 189 182 207 202 198 208 211 211 202 213 208 200 198 197 204 199 189 188 175 177 159 174 172 166 172 147 158 150 138 148 135 129 105 116 113 76 65 85 57 195 187 100 116 137 128 133 160 196 200 180 192 184 220 177 190 186 208 187 141 115 135 172 184 162 172 164 172 153 161 159 125 57 116 60 120 130 157 194 204 209 213 204 180 162 143 146 133 130 118 127 108 96 120 128 124 123 128 134 128 127 138 137 129 127 130 130 127 119 133 135 128 136 147 151 153 155 178 179 180 171 174 174 162 171 177 175 168 166 159 149 150 151 153 146 145 129 141 147 151 157 154 145 155 151 144 136 147 161 155 140 145 137 148 141 159 140 137 139 131 143 138 143 150 165 181 190 199 190 195 211 215 196 174 178 165 167 166 165 154 162 164 166 149 151 159 159 158 153 162 160 145 138 131 129 110 128 148 143 107 114 153 146 104 130 116 109 125 145 157 177 180 140 127 133 99 160 160 134 80 114 139 148 159 129 161 146 113 119 160 164 130 88 115 143 131 138 144 150 109 109 129 159 141 149 138 100 108 127 135 140 127 128 138 137 135 115 103 107 98 97 99 107 209 205 127 86 88 94 95 97 168 180 211 207 114 108 113 94 103 76 97 66 121 92 89 93 90 100 96 120 93 88 116 129 118 123 128 116 106 118 119 141 154 149 135 136 114 103 144 129 134 120
184 178 178 191 190 207 194 189 188 206 198 201 200 201 210 204 208 210 211 209 202 202 201 200 200 189 172 165 150 171 166 175 175 144 148 130 120 109 120 110 94 80 84 94 108 68 105 181 100 48 97 143 138 168 195 158 156 148 166 171 212 186 201 207 213 155 160 192 204 215 179 210 162 191 201 202 191 144 169 161 182 197 207 186 172 137 125 131 126 125 171 140 107 89 111 110 100 117 104 117 130 126 133 133 144 137 129 125 130 129 131 134 129 133 128 134 126 134 127 131 133 136 150 159 167 174 168 171 168 177 188 188 185 179 181 182 172 138 159 160 154 151 150 141 149 153 157 166 168 149 157 156 147 146 143 148 141 148 138 138 148 149 158 156 147 137 138 144 153 145 168 179 188 204 211 204 201 202 195 174 174 166 160 158 158 151 146 156 149 159 145 148 153 153 159 151 161 155 153 151 131 134 116 131 136 136 138 159 170 165 105 96 118 123 85 109 158 147 149 175 159 137 97 133 170 176 108 110 134 149 158 146 124 124 120 98 107 92 108 82 113 139 106 97 89 103 120 95 124 189 139 119 184 179 115 115 138 145 146 133 146 141 165 144 117 109 100 103 96 109 108 128 210 208 102 83 82 72 95 154 111 174 211 176 106 113 86 106 97 92 102 104 97 90 105 85 113 107 97 83 107 114 118 107 115 126 126 127 138 138 164 146 146 138 121 110 123 136 137 115
187 189 181 197 195 198 197 197 191 196 206 199 202 210 208 207 211 207 208 204 205 202 202 208 201 184 186 170 172 187 172 172 176 137 127 153 147 118 146 114 97 98 123 97 75 95 167 78 125 171 198 192 196 174 160 198 192 200 219 196 143 117 129 117 156 177 208 222 208 205 164 185 192 181 177 158 174 216 229 168 38 36 42 62 79 29 67 73 77 130 56 75 104 102 100 95 118 93 98 109 135 126 141 139 140 137 126 124 128 127 127 125 126 128 125 114 110 100 106 114 126 115 118 136 153 153 151 149 156 181 187 191 166 186 177 170 164 164 170 175 162 153 150 147 138 145 145 150 144 158 172 178 145 164 138 146 145 148 149 156 164 174 168 168 157 160 171 164 174 198 201 208 196 192 192 179 180 167 161 155 157 153 151 153 150 157 148 138 149 154 147 153 145 145 147 155 164 154 156 150 137 141 125 116 146 126 144 155 157 150 128 96 154 140 126 155 131 160 153 139 113 92 108 128 121 133 94 128 177 129 97 109 154 206 158 151 126 82 87 65 93 102 153 127 109 106 134 147 153 145 143 139 147 149 197 204 182 180 160 151 110 111 123 118 131 131 147 144 123 129 118 130 121 95 111 166 204 162 66 78 149 128 93 82 169 174 102 89 95 125 100 87 129 105 111 113 125 134 116 105 98 106 116 131 127 125 126 127 118 137 158 150 139 138 130 126 124 123 135 143
182 182 179 206 198 192 194 196 196 199 210 202 202 199 196 215 216 209 206 201 202 208 209 199 192 187 176 166 165 175 169 154 144 121 126 149 146 120 125 114 110 120 130 124 105 176 133 138 136 144 181 188 199 179 150 117 138 195 130 136 108 161 197 228 221 204 197 202 192 199 204 167 174 167 200 219 199 83 62 48 169 191 187 167 151 86 99 88 145 121 88 113 109 129 135 114 126 97 108 111 133 138 144 141 141 134 127 128 128 137 129 130 117 126 117 97 94 82 80 66 75 96 98 99 109 121 124 143 153 160 167 166 178 189 170 165 171 186 177 165 164 161 165 154 166 150 146 167 155 170 151 143 151 156 145 151 154 167 168 157 176 174 178 172 178 176 171 200 191 182 180 180 176 175 166 167 162 154 156 137 143 145 140 149 148 151 143 139 148 146 143 141 146 146 157 150 157 159 164 153 145 140 134 127 129 135 134 177 184 143 117 150 123 130 133 118 149 144 178 174 99 85 100 105 126 114 138 129 151 154 120 139 62 65 98 124 192 201 171 45 83 108 161 151 124 125 95 98 95 95 95 75 136 118 111 118 135 139 134 139 127 120 128 147 162 158 153 130 131 106 129 123 105 106 123 105 78 87 180 208 89 90 99 108 96 110 104 83 107 111 107 115 82 114 114 134 136 138 133 121 106 109 131 135 144 133 126 118 131 130 154 156 136 146 130 147 137 135 137 134
181 175 182 202 198 192 199 202 201 207 204 200 202 206 207 200 207 207 208 198 206 208 207 206 199 196 192 198 197 179 164 164 140 140 139 138 109 147 126 114 145 158 113 111 116 57 96 94 131 82 121 125 100 133 174 212 169 181 184 218 159 113 95 144 174 148 124 191 185 198 196 227 196 202 212 200 164 84 54 56 100 93 135 92 99 42 24 35 80 125 104 88 90 115 98 97 117 106 106 124 136 133 130 131 127 134 141 138 137 136 135 138 141 147 154 139 136 128 124 99 67 74 76 66 65 59 60 99 130 153 145 156 166 166 159 159 157 159 168 172 171 168 172 177 180 160 170 160 160 176 170 174 164 172 147 160 172 177 177 171 197 200 189 181 172 181 177 165 164 160 161 166 157 150 144 129 113 78 73 73 66 65 54 65 77 93 111 130 148 134 153 155 150 145 139 151 147 146 156 154 141 131 127 124 128 130 117 141 131 125 109 145 114 136 159 144 108 168 134 138 176 153 117 105 165 121 143 143 175 113 51 62 129 185 221 213 186 174 156 117 158 201 187 136 82 53 131 134 130 87 92 118 162 169 175 187 167 153 121 131 145 111 118 117 127 127 119 118 127 114 118 119 120 113 107 100 80 95 98 99 95 109 205 174 85 88 98 93 108 89 149 106 129 125 98 110 115 125 130 126 119 114 137 130 134 121 116 110 108 119 134 140 145 151 137 148 144 145 130 140
190 189 197 198 188 200 199 204 204 204 206 204 197 195 198 207 202 205 205 210 204 200 202 204 213 199 195 204 204 181 169 154 143 161 175 127 121 102 85 100 156 117 125 96 126 141 148 105 119 106 150 117 87 196 186 129 194 191 180 129 190 195 201 215 220 215 225 210 190 201 210 219 176 143 123 123 167 191 178 78 87 99 35 15 24 140 181 149 60 54 151 114 133 111 105 89 105 93 109 121 131 131 134 128 130 134 123 129 129 136 137 137 165 167 156 154 167 139 138 141 115 102 77 65 56 67 65 60 58 129 138 147 149 161 162 164 159 175 171 156 171 177 160 164 196 166 165 186 191 192 184 179 194 185 159 169 181 185 184 164 184 178 159 172 159 154 158 160 160 155 153 154 139 129 82 62 69 56 63 73 75 83 89 86 69 74 85 123 121 140 144 149 151 148 130 139 144 157 162 145 139 140 133 128 130 124 108 124 135 158 131 121 131 113 146 147 162 157 174 146 125 117 148 147 126 153 153 154 134 67 89 106 117 88 76 63 109 159 206 194 116 105 96 75 139 167 175 156 147 127 184 197 164 143 85 93 154 115 115 135 170 172 149 149 129 147 155 143 144 131 116 107 106 121 127 111 93 95 113 109 113 145 123 109 206 185 150 124 100 107 84 166 144 137 134 134 135 127 118 127 127 125 125 128 126 133 130 127 137 131 114 124 141 151 153 145 138 149 140 137
200 202 208 205 206 196 196 204 205 197 191 189 179 196 202 209 208 210 200 199 200 191 200 215 213 204 205 220 208 178 157 135 131 159 144 144 119 109 106 113 83 105 115 121 149 156 162 96 74 98 117 124 184 194 174 177 151 124 127 85 97 94 123 186 211 212 160 199 201 230 197 209 219 221 217 198 182 155 117 111 59 111 209 177 133 53 39 55 57 103 88 133 168 186 189 140 140 128 120 114 134 135 136 135 133 137 135 133 134 130 133 135 143 146 149 175 161 151 148 138 147 129 124 114 100 73 63 63 62 47 140 140 146 156 164 160 153 168 164 156 157 172 168 151 168 147 166 191 194 179 155 135 175 177 175 195 191 181 182 180 174 158 179 174 164 170 158 154 158 157 129 121 66 62 74 78 64 70 89 114 136 141 139 158 155 170 140 125 125 136 147 149 140 140 144 145 153 150 150 151 140 148 130 134 130 135 130 130 135 126 133 131 159 135 96 99 197 190 184 115 100 133 159 126 87 80 70 76 97 118 89 103 156 127 109 141 107 147 160 187 212 204 212 216 194 198 189 180 175 123 165 155 151 134 124 161 171 141 167 155 141 151 154 154 149 139 130 150 143 125 137 135 129 125 124 120 116 98 116 119 109 116 119 116 137 110 202 194 116 115 102 96 98 130 116 126 125 118 126 118 123 114 104 117 119 134 134 139 129 144 137 134 149 154 159 157 146 125 137 147
194 207 210 207 197 197 194 204 198 191 188 202 208 210 210 210 204 198 199 205 192 197 199 207 194 207 208 212 195 199 170 143 135 149 154 138 120 134 135 96 95 97 82 133 178 145 119 128 144 148 103 192 215 151 171 185 191 186 158 186 189 222 223 143 178 179 217 231 219 175 180 135 137 146 158 166 148 189 175 211 164 92 97 97 65 56 100 165 168 186 128 96 63 73 55 57 79 111 129 113 130 134 128 137 130 134 130 140 144 135 154 149 141 143 145 145 157 146 160 168 172 167 154 156 156 116 98 58 51 66 89 125 143 148 151 154 160 156 166 147 151 164 164 175 164 151 169 179 185 197 160 167 180 180 175 164 175 170 168 161 156 158 170 169 166 165 155 160 153 151 87 60 80 74 90 85 114 135 143 146 148 151 139 150 154 144 143 141 137 138 154 156 140 140 137 139 140 136 145 144 136 138 131 131 129 135 134 127 113 128 144 148 143 171 167 119 126 127 146 124 126 110 76 106 147 138 115 87 113 118 110 165 161 139 140 140 76 63 47 88 90 131 200 128 63 116 134 124 155 121 129 130 138 176 110 104 90 123 141 170 179 137 146 141 146 139 151 143 134 150 140 130 137 141 123 129 123 127 114 115 137 109 120 109 127 110 105 83 211 192 94 102 95 103 120 141 119 128 121 139 124 110 114 117 124 134 146 130 126 128 147 144 146 154 162 162 157 148 149 153
201 205 205 189 195 191 194 181 188 195 209 216 211 210 209 204 195 197 194 196 195 189 197 197 201 209 200 198 182 192 179 148 146 150 124 136 143 157 145 131 110 89 98 175 153 129 135 145 135 94 208 181 172 188 191 188 190 176 179 212 191 187 199 215 213 227 220 196 201 187 185 167 147 153 153 190 170 225 201 146 111 137 156 181 184 170 146 67 31 62 60 109 123 114 77 64 107 116 128 110 123 128 128 127 131 129 130 127 133 127 134 133 143 144 140 149 140 149 150 176 153 146 145 141 161 174 160 119 121 64 52 66 137 138 147 148 158 148 150 147 144 138 155 147 157 153 161 180 180 184 204 194 170 170 166 174 169 169 157 162 158 157 162 161 162 165 161 156 147 115 46 45 100 113 141 141 145 153 149 148 150 150 154 147 179 172 170 159 154 164 150 156 146 144 138 143 148 148 141 137 133 139 133 138 133 131 136 127 99 114 146 138 107 98 84 133 200 215 200 148 127 117 82 86 124 114 109 103 95 153 118 148 72 93 184 191 160 155 153 92 84 93 77 151 162 67 56 62 57 73 165 147 190 195 213 210 213 207 194 180 149 133 187 197 195 172 171 155 147 143 143 175 129 131 130 108 104 117 133 140 136 119 116 106 116 99 92 82 96 107 139 106 108 107 111 102 172 166 104 120 128 129 124 125 129 131 137 125 139 126 138 145 164 174 169 161 151 148 139 140
201 199 198 196 200 185 192 194 200 205 210 216 209 209 208 208 208 194 197 191 201 200 204 210 209 196 189 191 195 188 161 165 178 168 160 154 177 146 130 82 51 49 105 111 96 85 115 109 54 79 199 199 201 170 135 151 185 141 144 177 127 123 160 226 211 125 130 88 98 162 206 185 182 220 220 141 146 174 127 185 121 106 41 90 93 114 86 68 74 51 66 74 80 113 113 57 92 115 125 107 121 131 127 129 129 133 129 138 135 133 140 141 136 144 153 140 135 145 143 137 145 157 137 141 153 177 165 153 138 113 68 65 68 94 146 141 144 166 169 159 144 143 149 156 141 145 149 167 184 164 162 160 175 176 175 174 170 164 154 159 160 159 156 155 159 155 145 123 80 85 115 134 133 150 158 157 148 147 161 171 166 157 157 162 158 154 153 168 151 151 135 140 130 130 138 141 134 143 158 139 138 139 128 131 130 131 114 119 133 123 100 149 198 143 119 144 164 134 69 62 210 212 143 86 125 135 124 109 99 174 105 99 113 77 86 93 164 171 181 178 82 89 74 79 121 129 191 106 129 177 86 109 130 151 145 159 175 150 124 141 129 136 130 139 133 135 188 202 192 174 141 151 119 126 151 138 121 129 126 133 114 106 134 140 111 89 99 86 82 90 84 139 129 108 114 117 117 127 107 151 137 145 130 119 127 124 133 116 128 130 144 140 148 150 167 156 153 144 143 149
201 201 198 185 180 194 197 199 206 205 207 209 211 204 198 207 206 196 196 190 209 209 208 207 190 186 190 200 206 185 172 153 168 169 146 148 158 116 99 84 48 90 104 128 162 196 199 164 137 207 115 144 181 131 120 76 119 134 171 180 208 218 207 166 144 176 199 196 178 149 200 227 199 208 221 223 174 196 192 118 129 79 17 37 90 59 55 26 29 23 97 94 106 82 96 200 186 118 139 137 118 120 134 119 128 127 127 130 129 136 141 143 159 145 155 145 145 141 136 140 149 145 155 155 165 184 161 136 144 151 109 102 77 73 99 128 140 149 159 154 133 131 136 135 146 145 146 146 147 161 168 161 164 164 143 148 154 159 149 157 158 162 155 156 151 140 117 76 77 121 144 151 151 155 164 162 167 158 157 139 147 161 157 157 157 157 162 160 146 156 151 147 133 133 129 136 135 139 134 140 126 131 128 138 133 129 120 136 150 105 133 97 78 161 192 169 170 147 110 93 126 107 145 202 168 107 119 120 102 127 89 155 155 153 88 92 164 169 177 160 176 169 89 107 131 124 96 204 179 90 149 155 148 140 141 138 182 166 162 177 137 144 140 134 131 135 144 156 169 162 172 196 191 176 124 118 129 128 134 140 114 104 80 108 123 107 98 95 107 107 119 102 114 106 105 115 108 118 130 111 165 188 135 130 123 126 120 125 124 126 141 134 148 148 162 166 155 150 144 151
202 194 198 188 198 192 192 205 209 201 197 205 205 201 208 211 202 192 207 208 200 196 181 188 180 190 181 194 197 184 149 140 162 170 168 128 136 135 151 96 187 188 165 113 92 70 77 70 74 168 140 170 160 106 105 156 171 194 200 208 206 216 187 137 145 151 167 160 168 204 197 207 209 208 204 157 174 87 86 129 95 154 212 208 160 94 88 88 64 58 77 145 201 171 105 65 110 93 109 127 130 131 133 129 130 126 129 131 129 134 138 136 145 140 137 144 145 140 138 175 150 147 192 171 153 162 151 139 138 153 125 115 105 95 76 99 126 144 145 151 135 138 145 144 130 143 150 159 156 150 154 147 157 159 148 153 151 154 148 159 157 159 161 158 130 100 75 110 118 138 137 143 154 156 150 158 158 151 161 151 145 145 157 153 157 155 153 153 141 146 134 137 141 140 135 137 138 140 146 135 135 135 135 134 131 130 129 123 103 120 149 135 126 82 108 175 158 151 134 138 77 69 94 114 166 202 164 102 110 95 135 127 64 69 89 137 184 131 87 66 105 129 216 222 170 140 181 161 182 158 94 100 135 108 120 157 155 180 140 149 149 157 177 164 143 150 145 151 140 149 154 157 155 161 191 211 213 211 151 153 139 124 114 102 100 109 126 136 108 116 128 133 111 113 118 108 129 111 140 126 125 135 154 145 128 129 129 129 131 124 146 137 141 143 156 159 158 149 145 143
204 211 197 194 196 192 194 209 209 206 199 204 211 201 204 208 195 199 207 208 194 182 176 196 184 180 186 194 192 182 149 140 177 189 175 117 133 148 170 123 138 141 130 95 51 92 72 63 128 145 177 188 164 168 181 205 200 215 209 189 206 207 204 207 208 226 220 209 219 222 192 186 164 160 195 139 106 100 115 210 207 225 189 131 129 102 73 116 127 43 202 209 89 73 62 86 114 90 93 123 124 134 134 129 125 127 124 131 134 134 151 140 155 145 138 134 134 136 134 153 166 167 192 196 184 139 129 141 131 153 126 120 114 111 85 80 104 138 139 153 134 146 136 133 138 146 150 164 161 151 143 147 154 156 156 154 157 154 158 161 162 167 165 146 109 95 88 120 128 137 146 131 150 158 149 158 156 145 153 140 158 148 151 151 141 139 136 138 143 148 133 134 138 154 148 146 144 144 146 135 134 136 135 130 134 131 153 127 105 107 148 109 121 102 110 131 172 192 215 150 84 52 113 143 65 100 202 160 75 151 79 94 97 69 87 48 131 117 124 74 126 96 89 134 194 194 175 179 182 215 170 125 139 147 127 144 147 158 148 125 166 172 164 170 145 148 148 175 185 175 180 156 136 144 179 167 154 171 206 191 116 123 104 111 87 102 111 120 129 106 114 116 125 114 128 126 118 115 135 143 128 136 147 147 131 133 134 128 131 133 148 130 143 121 148 160 153 153 154 145
200 191 182 197 194 191 201 204 208 210 204 209 209 199 197 196 206 201 207 207 200 211 211 188 160 181 195 195 185 197 141 133 182 195 155 150 138 134 123 102 144 150 121 58 77 68 86 143 205 129 204 182 178 157 153 177 172 185 184 153 158 158 170 189 198 150 166 207 172 194 174 176 188 211 201 136 140 191 134 171 184 137 102 159 179 108 69 127 178 213 117 73 42 64 76 67 85 103 119 126 129 125 143 124 123 138 137 133 133 139 146 148 146 138 143 157 167 158 148 143 158 160 172 143 145 148 149 137 138 146 155 145 133 124 116 107 96 118 135 147 140 145 143 147 143 159 157 157 156 151 145 150 155 161 156 151 149 158 164 165 167 164 149 130 111 117 124 141 150 140 153 160 147 151 138 143 139 134 143 134 140 141 136 144 154 145 139 145 148 139 139 134 147 139 144 148 151 149 137 133 135 135 137 133 137 128 116 105 111 98 131 126 135 154 127 109 111 131 106 160 179 86 89 104 90 119 113 150 195 190 128 94 88 96 88 83 108 137 114 82 96 73 76 66 55 46 126 202 219 191 107 141 148 177 191 186 201 190 176 190 162 156 181 189 180 167 156 153 136 145 149 185 179 178 172 159 168 175 166 153 191 209 200 194 162 143 134 123 120 124 115 99 118 134 108 131 134 109 123 120 121 144 155 154 135 133 126 133 134 144 140 147 138 135 149 159 150 157 159 143
198 199 201 197 202 206 211 207 200 190 198 202 201 197 196 167 177 179 187 189 187 190 191 182 174 169 172 199 194 166 154 197 189 169 143 144 136 135 117 82 119 172 175 94 95 99 139 137 133 169 108 98 127 180 196 159 209 164 143 107 178 174 177 210 188 194 192 133 127 133 178 187 157 125 195 195 187 216 162 108 67 111 150 150 117 212 189 180 135 75 113 187 172 103 126 179 141 93 94 99 138 110 124 131 135 137 128 127 146 128 160 153 147 154 151 169 159 178 164 153 164 159 134 134 148 146 171 134 148 149 136 139 144 144 134 125 119 109 106 125 158 145 156 148 159 159 158 160 158 147 150 138 143 140 146 161 160 158 156 148 137 124 119 133 130 145 148 143 141 131 141 136 162 148 136 141 143 138 136 138 138 143 134 141 133 130 133 131 134 145 144 136 144 149 136 131 135 138 136 140 135 133 130 130 144 139 141 115 121 125 123 120 164 130 109 116 60 74 108 87 65 57 108 184 201 115 130 151 143 78 105 47 48 54 73 133 210 192 137 82 89 109 186 180 148 174 99 86 58 105 215 198 178 182 143 148 172 185 189 179 177 189 144 150 172 157 157 176 167 138 136 162 166 143 125 137 145 129 145 156 125 110 126 120 109 102 107 115 100 150 205 191 127 111 127 123 114 200 129 126 121 135 137 145 139 141 143 135 141 138 141 140 158 154 138 160 150 143 159 151
202 207 200 208 206 207 206 209 202 206 207 196 201 195 197 187 188 184 187 177 201 205 198 186 179 184 189 189 184 175 188 210 199 162 153 133 134 113 114 90 135 157 138 118 107 151 212 105 117 164 157 135 118 154 133 204 134 135 111 106 118 180 170 128 118 162 164 155 169 161 146 207 213 161 139 213 207 97 116 176 215 190 146 205 215 159 90 96 109 192 107 147 123 90 52 55 87 114 94 125 106 100 121 120 123 148 139 129 135 150 143 138 140 158 148 144 143 194 172 135 154 148 168 166 147 149 140 161 165 141 144 148 168 171 137 129 134 121 116 105 147 144 159 143 160 147 153 164 161 140 138 148 144 154 146 156 151 144 154 136 116 119 135 143 148 165 154 147 153 144 158 141 147 157 138 138 138 138 141 137 138 127 134 128 135 138 129 133 127 130 140 139 136 135 134 134 144 138 139 140 133 134 140 153 124 138 114 100 126 161 96 95 129 124 143 151 92 92 77 103 213 162 46 43 124 207 153 64 59 133 196 160 83 56 117 87 115 139 160 190 75 72 66 68 154 179 188 167 157 79 172 170 206 190 162 191 154 139 170 205 153 178 196 181 172 181 164 155 156 154 137 134 145 150 174 154 176 172 150 160 129 139 126 127 120 120 114 117 111 110 99 100 108 141 161 154 120 130 127 128 126 138 139 143 137 144 147 137 129 133 148 155 153 146 139 161 148 150 167 158
197 207 210 207 212 205 205 206 208 200 202 198 191 198 185 181 189 188 188 181 199 204 201 188 172 186 182 197 182 171 196 204 172 176 158 145 151 116 106 124 103 118 151 85 94 189 209 136 159 145 98 99 136 143 185 159 149 145 155 113 188 189 168 194 191 170 150 138 150 172 184 198 168 144 172 202 137 184 191 164 202 139 207 204 192 135 138 158 198 154 180 153 70 43 35 77 105 100 133 129 134 113 118 126 138 138 137 145 140 141 147 144 140 145 148 133 130 153 147 148 148 154 143 140 137 147 134 156 156 139 145 139 145 146 136 140 138 119 111 99 124 145 149 149 148 146 146 149 160 149 140 153 148 153 146 150 153 158 160 137 125 129 139 144 133 150 151 159 158 157 160 150 141 143 149 144 140 135 147 149 143 125 137 136 136 138 134 133 148 135 136 138 137 133 130 140 140 141 138 134 131 137 144 136 137 133 134 127 126 161 128 116 108 97 154 108 129 129 99 100 200 181 95 45 60 145 212 182 109 92 157 174 97 105 88 84 37 49 104 160 83 51 114 99 84 87 190 207 175 179 100 185 134 200 153 180 210 191 148 140 171 164 151 189 180 174 171 154 160 159 165 172 159 151 156 164 155 145 148 150 139 125 137 139 126 109 96 118 103 124 121 111 94 97 110 116 130 116 135 115 137 136 143 150 148 141 151 139 133 133 139 151 147 160 154 156 144 161 157 149
210 212 210 209 208 195 202 201 209 205 174 189 192 192 188 176 190 180 190 177 204 204 197 185 185 186 189 189 185 171 195 189 187 161 175 159 156 135 108 110 95 110 107 72 80 210 162 138 107 111 120 135 136 192 171 135 150 207 177 157 197 190 177 136 148 190 185 202 195 184 226 213 164 221 213 194 191 192 170 121 180 217 212 165 85 172 211 158 178 120 73 98 62 73 53 66 87 170 117 110 107 104 117 120 136 126 138 141 135 146 138 136 138 137 144 136 141 134 135 156 138 131 143 137 146 155 134 141 134 137 146 136 134 150 136 130 139 139 123 110 93 110 161 154 156 153 147 153 151 164 151 159 140 147 154 149 153 140 135 124 140 148 149 161 162 166 147 153 137 149 137 139 151 150 138 144 144 135 134 131 133 139 139 129 126 128 135 138 137 136 134 136 133 134 137 141 141 136 135 138 127 131 150 141 126 125 105 120 124 125 141 147 121 93 119 120 166 168 161 93 124 168 64 80 79 59 89 139 198 145 83 171 131 98 95 68 92 77 76 106 175 199 165 166 135 127 72 78 162 201 176 164 109 92 205 179 166 178 202 181 200 201 187 164 204 198 174 153 151 150 157 159 156 166 160 161 144 145 160 160 169 172 179 171 172 180 165 169 150 138 130 127 120 104 113 107 125 108 148 165 189 148 134 138 154 146 156 149 137 144 150 158 154 146 161 166 145 156 155 158
210 207 195 204 197 201 206 191 196 172 198 196 202 196 189 194 192 186 189 182 197 190 185 180 179 197 199 186 187 151 202 185 168 167 156 168 157 166 151 117 96 79 84 99 158 180 165 129 113 133 140 127 169 171 166 130 176 143 144 172 108 153 140 146 172 133 164 144 156 155 174 218 206 166 191 176 168 208 213 219 196 178 110 195 209 181 118 162 194 170 77 49 75 55 42 32 65 116 141 113 95 102 136 118 115 121 127 127 137 130 140 148 154 147 146 139 131 138 133 155 143 137 131 131 141 128 127 136 137 144 140 136 147 146 147 148 147 151 141 137 125 144 158 143 153 154 155 155 170 169 175 180 165 174 170 165 161 138 121 121 137 139 128 141 145 145 149 148 146 185 154 143 144 147 137 139 139 137 139 139 130 128 135 143 149 162 138 140 136 131 151 158 144 136 143 131 138 138 137 135 149 181 166 131 134 136 149 153 143 121 109 106 89 99 110 133 117 85 128 93 150 138 74 53 70 80 92 76 93 200 99 92 194 134 125 158 90 83 63 149 94 105 175 200 206 188 133 165 155 105 174 128 166 106 143 158 176 138 182 168 196 170 174 182 205 213 200 178 180 179 188 188 177 169 169 176 185 175 143 144 144 133 133 139 121 124 120 116 126 126 146 130 115 104 124 127 115 130 143 169 133 128 196 200 148 133 159 150 148 147 141 153 144 161 170 172 157 160 159 157
205 198 200 209 211 189 189 178 190 187 192 209 207 199 194 197 189 196 191 192 199 190 178 190 195 177 188 196 195 172 180 164 174 172 180 176 175 177 162 138 98 75 73 167 180 185 174 143 140 120 184 194 125 121 128 98 97 162 206 161 124 159 195 178 169 164 185 199 222 219 219 221 194 179 176 171 166 176 190 192 207 141 102 108 174 206 149 195 180 45 69 54 176 212 204 86 83 131 117 162 192 138 110 124 133 129 138 131 137 135 128 129 133 133 130 141 133 135 136 133 140 136 143 138 146 145 136 126 131 144 154 153 135 141 136 139 134 137 140 135 125 146 150 154 157 162 162 167 168 171 164 170 170 156 153 151 141 135 140 148 143 154 145 148 149 141 131 148 138 151 146 153 151 161 139 139 154 136 143 137 126 123 149 144 141 136 171 151 135 130 130 128 128 130 140 135 136 139 131 135 128 128 124 123 197 162 113 102 139 123 79 92 166 133 73 114 186 172 104 56 82 70 187 204 197 127 35 53 64 109 211 217 207 208 201 189 80 68 60 111 185 135 171 167 175 186 178 104 85 84 102 167 212 137 200 178 144 191 153 124 143 145 201 202 177 190 181 185 197 185 190 201 209 208 196 186 179 180 186 192 164 156 151 138 136 136 116 124 120 125 126 131 117 109 121 117 124 128 120 157 134 133 127 130 138 127 205 197 146 145 157 155 139 150 174 176 158 153 165 153
199 202 205 179 185 189 190 192 189 190 199 204 196 187 190 200 202 192 199 208 188 172 160 186 188 188 202 198 197 172 180 187 188 195 190 161 168 150 150 154 117 89 90 178 194 187 171 119 140 144 176 133 104 117 128 111 86 199 169 157 121 184 175 170 172 199 205 232 221 200 201 186 192 189 169 155 166 199 188 225 129 166 216 181 171 199 158 119 73 45 197 218 194 123 78 178 155 190 222 159 107 118 121 126 135 136 140 146 140 141 135 130 136 130 133 143 145 120 124 128 134 133 125 128 139 128 129 134 127 143 148 137 145 147 134 149 137 138 131 143 175 140 150 140 149 149 151 159 167 153 145 143 156 160 148 145 136 145 141 136 157 147 182 150 147 154 144 153 156 149 147 167 164 162 146 146 153 143 150 169 154 154 144 135 134 131 138 141 134 136 134 128 136 133 131 134 133 133 130 129 137 184 120 113 119 184 162 92 86 106 154 126 114 179 128 88 89 147 208 135 95 66 117 84 143 202 205 135 49 47 57 76 219 221 166 167 197 202 186 127 170 201 156 150 168 196 191 223 208 130 79 97 202 198 176 147 168 125 208 197 191 202 154 143 182 209 187 181 184 188 145 145 156 178 187 190 168 153 158 162 137 149 166 167 153 143 129 118 126 119 125 129 131 118 118 108 116 125 114 164 129 137 150 135 151 140 155 140 205 190 153 166 140 155 169 174 150 148 151 149
204 192 184 185 192 191 188 197 192 201 200 197 196 186 200 191 207 205 204 204 188 185 185 186 168 180 192 192 184 174 167 179 178 191 180 181 179 137 140 105 115 106 153 186 192 154 126 180 165 160 174 151 115 150 153 111 184 118 123 140 160 195 189 204 211 182 227 217 202 213 188 131 147 185 206 195 175 222 227 188 184 168 110 123 191 218 147 58 153 223 222 153 57 75 110 201 229 180 92 93 118 111 114 117 140 151 131 123 129 141 135 145 141 140 133 128 133 121 121 130 134 127 126 131 148 136 148 135 131 144 146 131 141 137 143 135 146 133 151 140 119 119 146 139 155 156 172 162 169 162 164 160 149 158 127 124 130 136 141 139 140 133 140 141 134 155 160 149 147 154 156 158 140 139 138 147 139 141 130 137 137 136 158 150 204 177 150 145 128 128 138 129 134 129 134 126 130 133 131 130 140 139 199 170 90 64 158 206 189 120 96 124 117 125 145 176 79 74 69 167 73 41 87 109 52 54 145 192 213 111 89 58 102 188 179 117 155 136 166 106 130 166 196 212 174 134 84 144 206 114 104 149 174 187 147 202 188 209 143 166 154 143 195 209 179 172 188 211 177 165 196 171 195 200 181 168 185 153 162 171 158 153 127 137 140 133 128 129 129 131 137 121 125 127 138 134 126 123 115 138 128 137 141 141 141 137 149 146 138 141 175 157 150 158 164 158 155 151 157 154
198 180 175 182 184 184 185 195 188 202 186 189 187 197 191 206 206 201 199 200 191 200 201 170 164 191 192 190 186 171 170 170 186 187 191 168 159 156 161 126 126 151 170 148 165 125 135 148 145 187 157 130 146 174 154 133 127 111 146 185 182 196 205 177 177 223 222 205 223 170 206 204 188 185 148 137 206 192 182 175 116 67 115 153 218 157 156 229 228 220 86 64 134 199 223 149 92 75 88 121 114 113 143 114 115 120 120 123 124 139 138 130 143 133 135 135 147 134 133 135 125 126 139 128 131 121 121 126 123 130 145 133 144 140 136 135 130 139 128 128 126 125 130 146 145 144 144 157 139 147 147 151 140 131 127 135 138 150 156 135 137 134 135 144 128 138 158 162 156 149 137 133 137 149 150 157 148 140 148 149 133 134 138 129 130 128 131 133 136 133 136 136 134 125 135 134 156 141 129 140 124 136 107 179 151 98 84 178 228 176 78 102 160 166 85 70 125 108 82 72 177 194 148 149 178 84 46 47 70 182 54 62 94 98 169 159 141 186 145 191 83 95 111 120 160 172 149 92 106 210 105 139 160 151 205 200 179 206 186 141 209 179 188 190 201 213 170 141 182 207 195 206 171 180 181 177 176 194 175 149 137 125 123 118 123 128 119 118 121 123 134 127 104 123 137 139 131 134 134 126 145 134 147 155 145 157 140 145 149 146 164 200 161 153 164 157 164 160 151 169
184 191 184 185 181 196 198 200 201 198 179 179 185 195 199 205 197 199 197 207 198 194 180 167 191 184 191 178 184 180 158 170 195 168 165 156 149 174 161 111 137 126 143 156 158 128 141 128 151 160 166 154 147 128 126 181 162 158 172 194 187 159 155 192 227 199 177 212 191 202 171 157 100 97 99 205 184 211 211 153 181 184 205 212 220 211 229 228 216 191 119 179 191 167 131 134 80 78 123 181 88 90 145 144 113 134 139 139 139 125 129 134 130 128 127 127 128 128 131 129 137 127 131 125 130 146 130 129 126 134 144 135 136 131 130 133 134 130 131 124 127 129 128 150 140 138 141 150 149 153 147 138 138 124 137 145 155 139 139 136 127 127 155 165 139 148 151 140 143 147 145 133 140 134 134 136 135 146 138 135 135 134 136 144 131 140 139 131 131 129 130 135 137 126 136 137 135 134 129 136 131 118 128 98 200 180 72 69 92 228 94 98 116 96 150 127 105 88 88 136 64 97 215 208 159 206 77 58 44 119 206 184 84 177 210 175 198 145 210 166 184 127 153 78 87 63 178 171 180 120 137 162 178 175 136 174 150 157 201 209 160 202 174 167 155 150 192 211 204 185 191 168 207 199 198 192 171 149 147 144 131 126 124 117 134 123 143 128 129 127 139 135 121 120 124 121 124 133 119 134 135 143 137 147 147 147 154 158 151 148 157 162 180 160 159 166 175 164 153 159
202 188 190 200 196 200 198 202 188 191 191 187 195 191 188 190 192 195 200 204 192 196 205 185 198 171 176 170 179 184 175 175 160 153 141 153 162 148 118 113 160 155 176 172 143 131 139 117 115 160 133 121 123 140 206 160 192 155 158 181 208 196 226 205 184 198 197 131 107 187 174 200 157 199 166 164 211 204 199 133 151 182 209 212 211 177 204 188 178 198 212 217 201 178 90 131 167 171 116 192 128 94 90 99 118 125 148 114 118 124 148 176 129 150 189 162 138 131 136 128 130 128 126 126 126 129 131 139 138 131 129 126 130 125 128 126 139 129 137 144 123 120 126 133 135 146 153 154 156 162 149 139 125 131 140 149 137 137 149 146 131 146 154 144 135 129 134 137 138 156 139 144 138 136 144 143 141 131 133 134 148 139 134 139 138 137 133 133 146 127 135 131 129 125 138 140 133 129 121 138 138 156 100 97 83 148 155 100 95 68 221 181 86 123 165 168 154 175 165 136 45 100 150 170 188 187 174 216 210 119 109 153 204 187 192 205 127 194 199 215 137 194 130 149 54 36 56 48 44 196 213 172 137 213 165 180 181 211 174 180 194 148 201 220 176 165 172 167 167 180 210 176 196 167 172 184 161 160 157 151 124 125 141 133 147 133 140 158 121 125 106 137 125 131 113 108 124 128 128 147 137 131 148 136 149 146 154 149 156 151 156 151 159 158 155 156 176 181 158 158
187 197 198 195 186 205 199 192 190 207 191 181 184 194 200 205 200 205 191 197 208 208 199 188 189 182 177 158 172 190 178 162 166 154 165 176 156 113 121 117 174 167 177 146 151 149 155 114 146 148 123 121 120 178 197 149 168 177 167 208 225 196 145 168 153 199 136 116 115 187 158 217 195 199 137 174 215 177 136 105 155 172 225 204 116 178 199 198 213 226 178 188 179 167 178 197 131 200 196 100 128 191 165 95 99 124 143 166 157 131 128 120 182 180 153 125 126 128 128 119 125 124 131 131 136 131 139 130 133 128 126 123 127 125 127 125 130 124 130 124 128 124 126 124 145 150 155 155 148 147 138 135 125 121 134 141 145 133 140 136 133 135 131 125 153 137 133 158 155 136 138 136 134 146 140 146 137 143 146 143 144 137 135 130 136 137 128 134 130 126 127 126 129 133 181 198 148 130 135 128 149 138 192 126 96 75 196 137 119 69 130 217 182 121 119 77 102 111 147 107 182 160 63 58 192 210 155 192 200 210 162 145 174 206 172 141 215 188 194 209 171 125 134 128 109 108 88 102 84 67 216 215 124 207 159 165 166 191 200 179 207 200 197 180 216 196 161 177 178 172 181 185 190 192 169 144 198 176 161 157 162 158 150 146 128 136 134 131 130 107 103 110 118 117 114 110 110 128 126 160 131 137 138 143 155 150 149 150 153 148 159 149 153 161 144 156 167 166 164 166
187 188 185 188 197 199 195 210 210 202 190 190 185 202 202 210 202 199 189 204 206 202 196 176 185 186 182 157 167 184 169 170 174 188 165 133 155 130 119 107 181 166 154 147 157 138 119 143 174 117 137 136 167 219 201 205 195 160 149 187 115 133 160 146 155 145 119 161 135 135 121 207 139 83 102 185 182 147 127 201 221 200 160 46 29 206 166 221 230 227 209 205 217 181 177 212 227 108 77 100 189 124 77 97 120 176 133 118 179 148 130 186 128 121 128 127 125 125 125 129 133 125 123 125 127 138 135 136 136 128 127 120 128 134 131 131 127 129 128 125 127 128 116 119 137 143 150 167 184 178 130 127 126 131 144 146 139 137 137 128 148 144 136 128 131 138 133 128 133 136 134 135 133 131 138 143 138 139 133 135 134 130 138 137 135 128 129 125 130 126 126 133 126 131 133 129 154 197 188 119 111 118 105 177 149 82 147 196 103 199 78 74 220 192 104 60 68 51 57 121 82 93 127 128 67 141 159 178 186 210 117 150 128 143 207 189 212 161 150 195 135 170 205 144 74 64 82 65 77 86 154 177 216 211 139 149 166 169 204 218 155 160 199 218 162 196 170 160 192 191 165 155 159 157 191 217 189 176 175 182 157 133 131 135 128 126 126 140 137 137 118 108 115 117 116 121 123 139 159 153 130 138 139 140 141 143 150 153 154 162 147 150 150 153 168 162 176 167 164 172
186 179 181 200 204 191 194 209 206 199 189 185 199 195 200 209 204 187 186 197 195 199 200 191 196 182 180 159 177 179 179 172 180 191 159 174 150 164 134 126 171 159 160 133 166 118 146 156 148 143 162 144 161 216 171 155 126 102 92 210 115 141 190 137 179 120 108 156 114 129 140 216 94 104 184 176 201 139 119 181 190 211 72 23 38 194 187 227 220 184 212 227 168 189 209 222 176 84 89 208 84 79 87 110 184 117 144 206 211 90 179 182 121 117 128 118 120 120 121 121 133 124 123 126 130 128 136 135 135 128 134 135 126 127 129 139 127 131 127 135 123 120 124 114 145 144 144 164 171 159 130 127 126 131 130 130 135 137 129 129 136 128 134 134 131 138 135 127 133 130 136 128 134 136 139 138 141 129 130 138 136 137 143 137 136 129 130 131 135 129 128 131 137 130 129 125 134 148 195 160 111 111 83 89 213 155 115 206 157 92 97 48 182 223 128 120 77 57 78 56 156 79 130 127 128 82 201 134 180 165 129 109 144 171 189 200 215 199 181 200 118 106 188 199 67 68 77 72 89 151 140 156 220 221 182 164 186 192 158 179 181 166 172 194 186 178 217 190 174 155 169 174 190 181 175 191 200 201 198 181 154 150 128 131 126 123 126 148 143 120 110 118 114 120 131 121 120 125 150 150 136 123 140 140 144 136 157 157 153 155 147 143 145 143 171 162 178 175 164 174
185 194 198 204 196 201 201 204 190 180 201 195 201 200 208 204 201 185 178 197 188 187 187 185 172 161 177 160 178 174 175 177 179 157 190 166 180 139 137 133 157 171 170 161 191 171 177 166 162 127 121 104 120 191 116 116 92 206 201 166 106 177 185 135 187 123 150 119 171 134 201 191 204 189 162 202 212 153 204 209 160 198 175 171 189 219 190 169 109 201 198 166 228 223 202 187 106 209 211 190 73 162 192 178 137 169 221 115 167 191 131 109 114 116 123 157 143 120 121 115 121 126 128 128 153 125 130 131 130 130 134 131 130 127 123 128 126 123 128 130 131 127 123 115 147 149 157 153 141 141 127 135 123 133 130 137 140 138 140 133 127 126 123 121 125 129 130 124 131 126 148 143 136 143 131 131 134 134 129 137 136 144 135 138 138 135 140 138 128 126 127 120 123 125 136 137 164 141 116 179 131 88 96 86 146 220 182 192 205 98 149 196 72 80 228 200 180 169 100 77 65 115 177 182 141 177 146 200 185 184 192 117 73 178 158 167 205 191 171 177 207 139 82 191 145 202 136 111 120 134 160 144 194 222 190 189 164 157 182 207 220 196 177 171 177 190 156 212 175 146 172 172 184 191 188 181 209 195 200 200 154 149 140 148 133 137 116 133 135 129 107 125 121 115 127 126 131 129 148 146 126 121 133 121 149 139 150 149 154 151 154 149 148 141 158 158 184 174 161 170
204 205 205 201 202 200 196 194 198 204 198 202 192 204 202 198 204 188 186 195 191 185 189 187 179 156 161 180 187 194 141 156 154 181 180 148 164 149 148 178 145 159 159 155 182 141 141 149 170 136 164 158 140 198 161 200 137 104 107 111 192 170 157 209 190 196 171 145 196 206 135 143 221 209 191 222 217 182 201 117 186 156 220 213 125 150 190 204 165 222 194 206 217 206 218 215 188 199 180 188 159 151 204 228 219 182 117 134 204 177 117 138 126 121 125 121 130 149 197 166 125 123 160 126 131 188 146 124 123 160 123 126 128 127 127 127 129 131 125 124 129 131 121 116 125 148 186 159 147 125 128 124 135 135 129 130 130 136 127 124 133 127 131 129 130 127 131 128 126 125 127 129 129 126 136 131 140 134 133 128 171 175 139 141 151 165 148 127 127 130 124 123 125 119 128 116 125 131 123 123 157 140 212 180 106 94 84 98 196 204 191 161 84 179 169 79 194 188 211 204 135 159 191 161 200 205 170 210 177 200 104 180 174 105 97 100 162 167 186 176 169 194 180 177 206 137 190 180 164 123 194 174 204 176 196 184 195 198 197 195 179 180 164 210 150 148 160 207 184 208 186 178 188 194 178 174 160 177 176 174 131 160 184 162 136 119 139 135 117 145 141 119 120 115 106 106 115 131 134 128 130 128 146 141 141 149 147 155 158 147 150 155 150 147 134 130 162 170 157 160
204 200 201 194 190 196 196 201 202 184 202 205 196 206 205 196 196 195 195 197 192 200 201 190 179 164 153 186 182 194 167 175 172 181 162 187 178 165 189 194 151 148 137 169 177 141 146 179 202 139 124 159 196 144 166 144 146 147 147 164 134 138 107 201 166 127 120 211 223 153 189 180 213 176 130 226 198 207 158 85 228 206 217 176 169 171 207 200 222 157 158 181 226 221 229 186 187 225 211 155 166 222 205 133 167 58 174 186 204 92 150 113 180 210 166 130 181 200 134 130 119 123 124 125 164 140 125 123 124 127 121 121 127 136 128 123 121 119 128 131 133 146 129 123 117 159 176 131 130 119 119 130 131 125 133 133 137 141 126 125 130 130 137 131 131 127 127 128 128 131 129 130 131 127 143 134 131 128 129 130 145 171 139 127 157 165 156 131 127 126 121 124 118 133 167 136 100 130 133 111 93 96 159 195 158 109 80 72 115 208 139 103 179 154 182 211 149 206 136 205 162 188 151 179 148 156 205 165 205 93 158 139 115 191 66 63 70 99 170 131 188 174 179 124 202 220 208 181 176 175 176 195 195 199 179 202 191 194 175 181 185 164 176 175 200 210 171 157 189 179 154 162 161 166 168 178 179 161 158 168 172 161 164 174 141 136 123 140 145 153 127 119 129 120 125 126 117 124 129 135 134 133 136 144 147 149 154 150 164 153 153 154 156 141 144 135 164 169 161 172
201 199 192 188 181 206 199 201 192 178 201 189 180 205 200 195 198 196 187 197 188 194 200 185 177 156 170 186 177 186 171 170 157 179 180 186 179 184 194 187 157 139 169 167 175 137 151 174 199 137 157 199 161 194 168 140 157 139 153 139 136 90 78 206 180 151 154 195 216 148 179 198 207 196 166 223 170 172 128 147 198 197 207 134 148 195 195 220 218 75 83 141 192 200 207 189 213 217 200 190 205 230 167 172 198 155 213 178 167 99 109 128 211 148 117 192 220 109 118 115 115 115 125 156 166 121 121 128 125 126 139 130 129 139 151 127 128 127 125 129 127 148 149 123 123 165 162 137 127 141 134 139 137 160 139 137 139 133 135 131 129 129 129 130 129 126 133 129 127 125 125 128 130 125 138 133 135 135 133 134 128 141 166 127 126 131 151 126 127 125 126 128 124 139 199 133 119 121 129 105 100 99 117 159 199 161 120 172 165 139 215 149 127 143 140 199 176 185 195 190 202 196 139 161 155 170 175 206 211 111 198 143 107 147 159 104 89 97 150 199 204 187 189 141 191 209 209 217 194 181 189 208 185 192 196 197 141 169 171 186 168 154 180 200 174 185 189 160 190 150 114 114 138 140 157 158 188 187 176 176 164 169 148 141 171 143 123 114 140 146 137 129 125 131 121 133 130 126 136 128 137 147 145 136 166 155 150 146 146 157 161 159 149 145 146 129 166 170 164 168
201 196 192 188 191 206 196 197 192 198 190 190 197 205 195 199 194 187 192 195 184 192 191 179 167 185 179 174 185 170 169 148 172 185 191 169 180 194 196 169 141 170 181 178 162 177 168 146 155 140 151 156 165 164 118 135 150 108 110 148 127 117 126 204 172 168 196 215 199 180 179 181 187 210 225 158 205 149 126 195 200 160 160 116 211 216 219 185 143 65 219 194 135 218 206 185 192 210 204 230 222 210 182 172 176 219 138 198 110 206 145 209 125 178 219 151 107 103 124 104 100 108 159 124 114 121 124 126 119 134 143 129 126 141 144 129 127 120 130 147 147 164 127 124 107 159 179 129 119 125 126 128 128 146 138 131 134 140 138 135 143 141 129 124 129 119 123 125 129 127 124 136 130 135 135 129 131 131 130 133 126 130 164 154 128 137 128 151 131 172 129 118 98 109 195 194 141 133 125 154 94 99 162 89 151 208 129 165 159 180 177 221 162 75 139 131 174 205 216 164 205 216 137 180 136 167 130 85 125 191 191 195 162 108 174 107 105 67 67 140 149 201 151 204 153 212 184 202 200 213 200 182 153 161 136 138 205 201 190 181 195 204 180 169 187 189 186 212 195 210 202 187 195 199 192 179 176 190 153 143 156 154 150 161 149 149 167 138 134 140 151 133 126 123 129 125 116 109 139 125 140 147 140 157 161 167 151 147 141 146 155 162 160 148 150 140 164 166 162 159
182 189 188 189 201 195 187 192 204 205 197 198 198 196 179 192 192 199 198 192 181 184 184 178 179 180 171 168 167 174 167 176 182 185 185 182 184 196 182 166 176 204 184 175 180 160 159 138 154 156 167 149 177 141 129 121 155 111 107 130 97 103 116 196 161 182 170 178 197 110 182 189 190 225 219 208 153 145 198 120 178 191 198 211 219 171 111 169 74 188 156 140 197 120 72 184 201 225 228 218 212 209 220 225 228 154 215 141 120 207 202 160 227 194 127 116 115 212 164 138 154 136 174 123 116 113 125 128 131 161 131 123 166 147 126 125 126 126 128 129 159 124 123 110 118 159 171 120 127 177 150 133 143 172 151 130 140 126 137 133 136 129 126 128 145 129 123 121 128 130 131 136 137 153 172 141 134 134 134 145 131 131 126 140 136 135 133 133 144 133 189 147 116 123 105 191 136 155 141 99 146 94 118 188 86 94 208 153 185 215 184 103 226 210 175 116 208 155 177 212 222 220 187 115 119 93 165 139 76 156 118 184 206 145 107 166 67 98 109 182 80 147 188 139 179 164 137 153 171 202 209 179 160 155 184 184 189 210 190 194 181 172 171 176 170 186 184 176 195 219 208 200 151 158 154 165 170 170 175 189 195 192 172 153 167 160 156 178 144 131 148 141 128 121 136 110 115 125 129 134 147 148 140 150 168 165 154 143 145 129 143 161 157 156 149 141 166 159 154 146
209 194 197 197 182 199 199 200 197 190 190 182 171 192 199 192 194 189 186 190 187 190 188 187 184 182 182 191 172 169 196 184 181 186 170 177 168 175 186 148 167 149 146 181 180 141 143 143 139 129 124 188 189 145 140 107 78 98 106 115 182 153 129 213 186 213 167 138 189 167 162 212 165 220 202 211 143 174 175 127 221 218 208 137 187 182 185 219 174 75 96 158 213 229 223 185 144 216 220 184 222 218 219 164 131 226 172 220 155 232 151 149 189 135 99 194 213 150 157 161 160 195 172 159 104 100 123 159 184 119 155 174 121 115 159 147 125 117 120 175 147 165 123 113 149 158 156 120 120 174 151 141 117 119 174 151 141 168 137 124 126 123 147 143 121 125 126 137 175 165 127 135 129 131 134 157 176 127 123 127 145 167 169 138 182 147 138 123 131 133 115 209 98 93 143 140 175 176 171 200 199 176 95 79 129 212 162 108 206 221 194 218 150 128 228 225 190 185 184 145 216 189 217 199 172 93 100 115 121 161 69 121 176 160 161 155 196 160 139 206 80 97 198 148 180 147 217 171 151 194 165 178 174 159 199 169 168 179 205 178 154 172 196 181 167 170 158 154 169 171 213 171 194 157 145 153 145 153 136 160 133 138 137 154 184 187 144 134 127 134 149 137 123 128 114 130 123 131 130 128 135 138 137 136 155 148 149 144 130 141 134 138 140 144 156 156 171 156 148 162
196 201 200 200 192 199 207 198 189 194 190 170 174 202 197 204 196 192 196 182 189 188 195 181 169 185 195 190 184 168 191 182 186 185 179 174 165 187 166 128 157 153 157 187 187 133 144 130 144 140 120 188 194 140 126 97 74 136 103 171 147 120 161 205 190 207 146 117 196 185 175 221 172 215 213 195 162 174 153 130 216 192 197 174 205 198 170 200 123 84 186 210 222 189 187 186 179 226 222 222 227 185 196 115 156 225 201 204 191 200 167 171 202 130 96 210 176 161 118 150 201 180 198 127 108 114 146 187 184 109 182 145 117 116 206 157 119 116 167 133 166 151 116 118 167 159 150 134 135 181 137 129 126 129 170 162 140 168 135 127 148 130 147 150 127 126 126 150 172 200 139 143 131 131 131 143 180 153 123 130 129 131 187 126 188 150 131 124 123 202 102 177 149 93 118 141 210 206 127 226 213 215 86 90 117 178 215 134 179 223 194 221 145 114 222 220 220 204 181 169 220 199 219 194 207 133 86 114 124 168 34 56 196 148 167 92 198 151 117 215 167 159 205 176 188 156 211 208 149 179 170 182 159 139 156 191 168 166 194 175 145 174 157 151 133 134 136 141 124 148 162 185 209 200 170 166 145 127 119 127 161 147 143 133 126 151 174 167 143 127 131 135 131 127 126 115 106 126 121 140 144 137 134 147 144 147 153 146 131 127 135 139 139 158 153 154 154 148 148 162
200 191 199 198 204 200 201 191 199 196 168 180 188 187 196 205 194 195 186 168 196 190 177 164 158 192 195 176 167 176 189 182 188 171 159 180 187 138 137 153 150 159 158 186 189 195 167 170 165 129 143 154 182 124 125 77 98 143 140 118 124 195 196 155 215 143 144 148 206 129 220 206 216 201 168 171 207 129 96 198 222 189 165 169 189 222 207 188 200 153 192 195 194 204 190 145 172 221 148 94 190 220 179 161 216 205 233 222 227 197 190 187 177 121 162 195 130 144 150 191 195 158 129 170 119 127 136 200 117 182 133 115 106 117 146 115 119 187 208 102 139 127 118 154 206 166 128 148 194 133 117 121 114 121 165 172 140 167 170 121 186 160 147 145 126 126 121 123 133 160 126 128 123 121 127 119 135 174 123 128 144 131 161 199 176 184 134 155 123 159 105 100 220 167 102 105 196 217 194 165 130 176 213 151 188 130 225 222 192 215 154 195 216 160 172 217 205 209 204 202 135 204 195 202 206 212 77 58 65 146 39 37 57 168 222 160 104 201 164 198 128 148 200 184 110 100 118 191 200 144 178 171 182 179 164 147 199 175 149 181 136 144 126 123 126 119 111 141 154 148 140 153 136 182 147 133 130 116 126 137 134 143 135 139 127 133 125 134 135 135 130 133 136 124 125 123 133 130 139 138 133 138 139 140 147 153 168 158 141 140 144 143 143 153 166 161 150 143 133 153
182 195 199 200 202 207 198 191 188 195 187 189 188 201 201 189 188 185 177 182 185 176 176 158 168 184 178 181 171 180 198 192 182 179 143 175 159 136 146 129 168 157 158 182 165 149 148 150 136 121 140 168 178 141 146 157 150 165 169 115 191 191 137 146 212 127 174 194 210 149 209 221 162 148 149 206 192 218 221 192 178 169 114 176 206 176 118 178 215 211 206 198 78 83 111 164 202 192 196 111 215 127 145 218 196 229 220 213 219 178 199 196 161 200 227 156 195 189 174 216 194 198 204 167 84 133 150 139 117 182 116 148 120 191 131 107 113 211 180 180 118 109 121 185 189 141 116 186 160 141 113 110 115 119 147 171 149 125 181 118 162 169 141 160 129 139 120 119 119 185 118 121 127 133 202 147 120 189 162 119 144 146 121 135 209 213 207 114 139 95 187 107 192 223 153 97 141 196 223 147 219 181 207 219 164 189 182 181 170 215 199 176 218 212 121 134 162 155 201 213 64 103 208 141 198 200 209 143 76 184 130 129 126 160 219 228 135 126 184 205 175 147 133 204 131 127 135 146 201 165 131 128 139 138 147 137 155 156 157 149 156 140 145 146 130 133 155 155 130 141 162 191 177 147 198 171 121 128 136 138 133 136 121 130 134 123 127 125 115 131 137 126 140 137 121 130 126 139 149 149 141 134 144 141 145 156 154 159 138 143 149 143 139 147 157 144 150 131 154 153
189 178 174 200 204 189 185 191 187 188 192 194 201 194 182 176 189 179 171 185 187 177 165 175 179 167 174 178 172 191 190 186 192 195 181 170 133 154 133 162 181 171 174 162 158 182 194 149 138 133 151 159 144 137 166 121 130 159 144 153 168 116 90 165 205 140 165 188 205 186 175 158 160 190 201 136 184 174 194 206 196 184 103 210 219 161 198 171 180 157 157 184 177 146 123 204 149 169 182 210 145 95 227 218 223 155 208 212 194 202 210 212 208 228 221 143 202 184 185 182 204 107 206 126 75 130 213 119 191 207 187 185 133 201 125 125 197 199 166 159 126 133 175 188 197 126 157 175 123 140 125 119 116 116 177 170 162 120 172 136 138 188 182 167 116 125 125 111 144 184 133 129 117 109 190 171 118 161 200 125 127 143 117 98 157 205 189 137 141 182 200 194 100 194 201 181 118 179 185 177 204 222 213 220 206 191 169 197 179 197 208 211 207 206 160 111 194 184 143 199 98 77 196 210 126 182 215 218 184 166 54 42 97 108 149 168 228 185 185 207 185 182 170 190 140 126 114 123 117 218 158 160 172 185 174 168 187 184 174 176 162 184 162 170 184 177 161 151 140 150 135 196 182 151 109 192 131 127 110 120 141 145 133 131 130 128 130 129 128 129 130 136 133 138 141 141 126 137 150 145 143 134 143 145 141 145 147 166 165 140 149 144 143 145 149 136 148 141 150 155
166 175 182 179 188 188 188 185 190 192 189 191 184 190 190 186 186 179 187 199 171 181 179 159 144 176 177 175 174 181 187 182 185 181 161 176 178 166 154 181 127 155 160 158 171 169 153 140 133 130 188 156 149 147 141 140 137 149 165 166 130 121 121 184 185 158 121 109 168 158 171 158 168 174 161 148 182 212 202 174 125 140 219 219 197 201 164 138 206 195 148 139 116 88 181 170 213 212 225 204 186 223 207 219 185 188 226 198 209 210 216 209 223 213 212 207 198 191 212 219 196 189 149 141 169 216 196 192 213 124 185 153 206 200 188 200 186 154 117 199 139 169 209 178 201 208 133 215 190 137 109 121 123 128 196 175 176 131 158 206 108 181 215 182 169 150 139 114 121 158 113 148 135 119 137 195 158 114 175 157 181 118 124 100 119 197 212 201 174 202 154 215 199 147 223 210 195 179 209 221 181 192 197 219 148 189 202 190 195 129 212 205 156 199 117 176 120 130 199 180 215 202 158 182 171 83 107 189 176 212 99 95 90 88 83 162 198 180 119 205 151 175 147 140 135 138 143 153 160 158 191 169 159 154 189 184 178 172 174 159 150 149 196 192 186 188 178 167 164 151 178 194 164 174 160 151 212 174 155 160 144 153 139 139 136 141 127 126 127 135 140 139 133 126 139 143 118 137 151 155 138 130 149 130 146 137 146 148 162 149 136 137 134 146 148 141 147 135 150 157
175 181 188 190 181 182 184 196 202 202 194 182 186 184 182 185 189 180 194 196 162 168 167 143 167 179 178 171 175 187 194 195 192 168 146 189 150 145 123 159 140 170 172 175 168 143 130 157 148 170 145 153 139 144 129 156 151 146 153 164 151 154 177 186 158 102 136 211 200 178 130 121 129 139 151 210 185 140 121 117 204 226 182 205 131 105 144 195 148 195 129 146 169 208 221 207 174 221 198 169 205 176 206 179 150 222 202 208 213 219 215 226 200 220 202 211 190 204 218 211 205 215 113 102 158 201 125 223 197 128 154 184 206 129 205 161 206 115 147 185 149 146 205 172 218 162 129 206 174 156 165 143 191 155 196 213 196 159 192 216 89 180 221 199 179 154 110 121 196 185 121 115 168 143 115 187 195 119 194 204 209 135 187 158 140 188 168 225 221 167 98 162 216 201 205 228 177 177 208 210 188 194 157 209 168 170 206 223 216 200 165 206 215 164 144 104 187 137 67 201 165 171 124 136 212 136 113 105 134 137 184 134 59 90 181 119 124 191 139 178 169 192 202 200 177 182 172 169 151 131 215 207 170 185 172 180 188 186 199 198 210 200 170 185 200 204 176 179 158 158 170 145 121 123 128 107 178 192 162 153 150 151 128 133 124 130 125 125 135 131 139 137 130 129 128 134 118 131 141 148 130 126 145 149 145 148 140 139 154 147 144 138 144 138 150 148 147 151 159 153
185 178 177 194 186 194 194 200 188 186 177 179 189 196 194 179 175 182 185 181 171 167 159 167 164 137 157 185 190 187 167 184 178 180 192 166 136 157 147 147 157 184 190 167 147 148 125 171 175 177 170 159 161 146 165 156 178 138 129 127 177 154 140 125 99 169 125 204 176 192 145 114 201 147 148 205 195 177 166 184 219 157 160 179 119 205 208 158 196 130 190 196 179 190 170 188 171 221 205 212 213 218 103 141 172 194 167 200 184 161 229 230 218 210 212 188 185 201 226 206 213 207 146 153 164 205 178 215 198 165 192 210 175 160 192 194 188 141 186 216 164 192 204 180 207 116 169 209 198 171 187 184 191 141 208 206 185 192 205 208 137 189 221 190 195 156 137 137 210 181 176 113 160 174 126 146 210 96 139 209 205 196 171 184 198 196 186 188 211 182 155 156 196 216 151 213 180 195 176 194 211 209 160 182 212 167 119 195 216 177 177 149 215 212 198 110 74 172 140 126 205 141 211 149 229 174 109 131 63 189 116 202 199 165 75 77 73 168 198 116 141 197 93 93 159 148 140 147 155 146 201 212 170 169 170 158 158 161 177 178 179 188 179 162 154 153 130 128 159 171 169 168 176 176 167 174 133 206 134 136 120 143 134 117 109 124 123 135 126 127 115 137 130 121 127 120 137 141 150 143 124 125 124 148 156 154 149 148 148 162 151 141 149 141 150 145 154 151 169 148
175 176 177 195 192 180 179 177 178 189 180 191 184 188 181 158 177 192 195 159 165 141 129 169 170 182 197 189 191 171 192 187 184 185 160 149 176 158 182 160 172 195 194 149 141 134 144 176 172 150 166 153 160 161 144 191 161 150 135 125 128 136 177 181 146 126 197 146 154 185 104 161 125 164 212 153 150 174 209 195 136 156 207 185 186 168 162 169 148 212 177 179 138 206 188 161 220 225 218 116 194 111 172 177 221 79 121 128 160 107 225 168 217 177 208 191 175 192 219 188 213 198 182 171 191 140 197 170 202 191 206 211 182 178 191 208 141 209 174 195 195 181 181 177 174 102 165 211 174 197 196 155 198 171 198 179 162 197 213 172 185 176 209 209 208 166 191 178 207 174 210 138 165 188 135 124 199 113 107 215 187 218 120 197 191 170 166 179 202 209 211 160 177 167 204 181 223 198 154 176 196 155 199 216 184 208 100 182 188 191 167 218 139 207 191 200 111 141 170 57 191 207 177 191 208 201 83 62 94 177 166 147 204 147 72 104 109 103 161 72 137 189 164 189 146 156 182 155 141 123 125 191 215 179 189 185 182 170 157 155 177 184 174 185 167 162 159 161 140 153 148 143 144 140 133 130 129 185 137 119 115 116 126 130 116 114 128 133 118 113 135 128 131 125 127 135 146 155 145 135 116 129 129 139 151 151 129 144 137 156 165 153 155 151 141 136 146 151 169 154
171 172 188 189 191 186 186 178 184 185 185 188 182 179 171 175 176 185 175 164 165 148 139 190 186 200 197 187 181 174 184 175 189 167 159 171 181 170 182 169 181 191 189 151 144 140 137 160 157 124 167 156 158 148 168 167 149 147 144 148 129 159 192 129 97 150 200 110 181 167 134 167 156 208 215 139 143 220 208 204 116 119 212 206 204 167 201 186 210 144 194 135 178 213 207 207 218 225 204 141 158 187 133 210 210 68 103 110 125 76 207 126 204 177 205 168 159 202 207 168 210 190 182 177 198 189 216 136 201 201 219 204 191 147 191 201 129 196 179 178 192 195 181 184 155 117 188 212 191 196 171 169 168 191 194 185 161 204 212 185 182 195 202 210 202 170 202 184 205 133 210 155 190 188 136 121 190 124 100 213 184 219 135 191 202 188 171 178 207 212 221 182 175 179 209 208 225 207 146 178 207 153 215 217 172 210 134 171 157 199 199 200 145 164 186 202 129 125 116 137 211 200 141 194 204 206 49 96 135 153 178 123 144 181 69 63 120 115 141 110 187 199 106 139 148 136 146 176 159 156 151 156 216 207 169 162 176 181 182 170 160 153 150 160 158 148 153 146 123 166 150 133 137 143 126 120 104 148 138 113 119 114 127 138 111 127 130 136 131 120 120 133 130 140 129 134 140 144 140 150 129 123 133 147 143 144 140 139 145 143 155 151 149 134 129 116 136 140 169 150
159 170 192 179 178 169 176 167 153 174 194 192 189 172 169 164 165 178 178 168 156 156 171 204 202 175 168 177 189 179 164 164 178 174 159 150 147 156 171 167 159 169 171 165 159 165 164 135 129 165 176 178 171 158 140 137 127 146 133 147 177 157 131 121 111 128 84 136 165 185 102 155 129 123 168 175 143 144 199 136 187 155 200 212 205 174 185 165 191 155 211 221 204 221 209 212 190 215 168 215 116 120 192 131 145 86 74 135 95 221 165 199 211 177 153 184 161 220 195 186 162 130 143 185 212 202 176 135 150 160 187 205 147 119 199 210 198 153 134 185 205 205 187 204 189 182 169 187 141 201 164 204 176 204 205 185 195 208 205 222 189 190 211 211 205 210 177 225 229 139 219 196 195 186 159 164 165 189 121 218 177 206 208 158 179 126 144 176 154 177 192 185 204 137 127 184 200 217 218 212 192 201 165 207 204 149 212 215 139 111 208 227 146 95 154 225 154 69 66 52 54 48 216 208 176 202 110 102 167 54 194 156 131 121 145 143 85 96 149 192 111 189 160 169 181 169 168 192 177 145 166 162 140 209 210 170 181 182 167 170 120 118 137 155 155 134 139 119 197 161 149 157 138 126 127 126 100 126 148 146 135 130 107 113 127 115 134 129 117 115 120 119 114 131 148 143 124 149 151 154 119 139 136 140 147 146 153 143 134 143 161 160 136 129 126 130 120 127 141 135
174 192 182 186 175 178 164 160 165 190 188 181 169 177 175 179 175 188 189 157 170 177 185 194 190 176 182 180 180 156 191 196 199 149 147 143 154 167 178 168 176 172 184 169 162 175 161 123 150 176 178 174 180 158 123 136 144 156 151 149 158 120 130 121 117 116 178 84 76 186 174 191 172 208 181 127 140 201 182 134 189 212 179 216 202 156 135 189 160 206 159 161 216 220 208 188 213 223 227 103 136 212 168 123 89 85 92 175 197 229 130 215 148 184 98 66 120 219 208 204 207 196 144 194 209 155 110 149 178 153 197 186 129 129 195 209 185 139 141 144 194 188 129 188 161 180 154 171 137 174 190 199 207 209 200 164 176 200 209 221 190 201 216 196 194 221 199 169 196 131 217 211 191 177 160 139 162 205 128 196 151 179 211 189 200 151 127 167 157 169 210 175 215 165 133 126 212 211 213 217 133 197 160 201 201 220 169 210 156 189 89 189 198 110 94 157 205 96 70 58 147 72 117 215 133 189 210 128 159 99 130 166 182 165 144 174 157 143 174 165 147 209 171 169 178 174 149 134 146 196 135 153 156 168 199 216 159 146 130 143 167 172 161 160 155 156 168 158 167 144 146 143 167 143 138 136 123 157 135 129 131 135 136 128 118 127 131 129 125 128 124 120 123 123 136 139 130 139 153 139 124 139 135 135 136 138 135 140 147 134 156 153 153 137 130 124 123 121 113 140
186 182 178 179 179 149 143 164 176 189 165 169 177 188 192 172 188 177 185 160 174 179 189 190 171 185 185 166 171 169 197 200 189 157 168 138 150 180 171 162 186 176 184 175 169 180 147 135 177 182 166 177 174 133 127 130 147 155 145 141 146 136 135 119 102 73 184 126 129 125 210 167 213 182 121 105 120 208 150 174 209 200 155 216 198 137 185 159 169 204 165 194 217 204 195 189 199 229 212 170 176 207 100 83 130 128 194 188 220 218 172 188 134 189 137 64 164 212 215 217 206 210 156 206 212 157 111 148 208 188 196 191 160 140 196 195 169 144 135 147 198 189 139 188 150 167 150 170 151 144 184 189 186 207 182 157 175 196 200 220 189 178 215 182 175 209 176 180 202 135 220 205 184 187 176 139 170 208 128 185 140 162 212 202 206 169 120 141 170 174 212 194 213 157 145 141 198 210 215 212 116 181 160 177 172 215 160 218 202 145 83 109 222 182 95 110 212 165 80 68 144 119 57 155 164 159 223 181 116 138 90 175 120 175 92 119 170 195 178 149 177 210 191 187 168 172 158 151 140 150 174 165 169 164 207 198 191 191 170 174 180 182 169 177 174 167 145 151 170 130 125 127 154 159 144 144 128 160 119 126 131 134 130 135 121 124 128 129 126 123 129 123 118 121 125 137 133 146 155 137 127 134 129 144 144 149 139 135 143 136 151 155 159 155 139 140 127 121 121 137
182 177 176 165 159 155 155 180 190 178 188 186 190 186 175 186 180 170 159 157 179 171 178 179 181 178 168 158 160 181 192 177 162 153 146 161 162 167 158 153 182 181 165 175 174 178 177 164 159 160 174 188 179 134 119 143 135 133 114 154 146 119 113 92 85 164 140 136 159 191 219 210 109 103 107 144 165 143 120 194 153 157 210 210 146 161 175 211 175 165 180 182 220 215 204 196 153 222 192 143 212 147 179 211 210 207 217 172 219 194 209 165 99 167 198 205 226 217 221 215 204 206 185 195 217 136 126 147 197 211 153 175 146 185 202 171 167 145 148 140 199 178 144 191 148 153 147 151 172 119 177 154 201 189 136 134 144 175 204 212 201 151 197 170 205 194 192 179 185 133 215 197 181 196 167 133 141 207 130 154 138 144 208 204 181 195 136 125 149 187 198 208 184 190 123 117 162 207 218 197 100 113 201 194 128 158 200 185 211 139 77 76 177 196 158 162 174 226 216 77 51 134 94 41 210 168 225 181 194 162 133 178 133 104 174 160 148 169 210 124 191 199 182 168 164 172 169 164 179 168 195 198 169 172 201 186 199 146 99 123 169 164 160 170 154 153 185 194 149 131 129 126 109 126 154 130 147 140 102 106 106 117 111 124 130 126 127 131 153 136 109 97 119 114 119 133 136 147 151 137 117 126 120 126 135 149 155 148 149 150 146 149 158 153 150 140 128 127 104 126
165 172 162 167 164 154 155 165 178 190 191 184 180 164 171 182 188 182 174 164 177 164 178 168 174 168 174 167 171 180 175 172 165 164 153 149 157 162 171 162 170 167 161 179 181 170 174 149 151 161 174 189 159 149 154 146 139 117 136 166 131 108 124 93 78 165 90 175 115 131 135 102 107 124 166 108 201 136 159 165 147 164 202 217 201 217 195 186 180 188 191 195 223 217 209 169 200 221 206 156 197 205 161 148 182 190 131 210 182 167 210 148 102 146 206 189 222 218 225 218 201 200 195 212 205 157 129 153 185 178 100 149 161 187 170 137 138 126 129 131 196 168 144 197 128 137 154 159 158 157 172 151 184 170 118 127 139 168 210 212 166 116 204 164 177 160 185 167 160 131 205 190 167 208 170 148 133 208 160 136 156 143 196 212 145 192 181 125 136 151 171 207 134 187 120 108 106 155 211 154 108 104 194 115 143 140 146 195 218 127 113 94 94 172 139 79 174 221 232 179 65 68 146 84 104 195 211 201 98 197 123 105 181 145 187 197 115 117 156 194 202 187 198 172 178 188 165 165 180 176 176 185 204 194 184 217 194 212 156 140 138 159 181 171 177 177 170 202 176 172 153 156 151 134 140 131 143 125 127 116 115 124 114 117 117 124 119 129 146 164 102 96 113 108 139 138 138 135 137 143 115 129 133 134 127 154 141 147 140 147 138 147 150 148 149 139 137 133 125 140
160 166 172 186 190 185 189 181 175 157 180 179 171 171 169 176 155 140 161 180 166 171 177 198 189 161 162 172 161 157 196 187 182 162 158 138 156 160 149 162 171 175 170 160 166 172 167 149 172 140 159 169 167 127 150 124 134 166 160 143 135 120 111 125 128 199 150 207 196 186 100 130 153 136 102 190 139 121 124 109 125 205 155 206 177 194 177 174 169 197 168 209 211 188 161 219 212 222 210 225 208 220 154 198 160 202 192 172 212 172 123 124 220 187 123 215 180 144 166 162 165 181 221 218 157 146 157 181 199 107 106 110 192 162 166 116 117 136 131 119 151 121 146 165 144 138 127 172 150 166 158 182 138 161 141 136 145 194 217 195 128 136 176 154 141 128 131 160 160 137 198 160 161 205 148 143 133 205 170 166 147 126 149 129 200 158 184 145 180 130 113 126 225 200 197 179 103 92 109 216 208 189 189 198 74 86 140 116 87 209 82 80 129 153 159 219 111 74 191 178 124 161 147 148 79 64 172 157 190 74 157 134 157 206 127 140 191 157 135 144 188 161 184 189 185 174 160 172 176 167 160 169 174 172 175 168 164 147 187 150 171 168 150 156 174 175 181 170 147 145 140 121 164 157 138 139 156 167 120 120 121 121 119 126 116 120 135 124 133 121 118 111 123 134 126 141 136 137 130 147 120 125 134 137 140 143 145 137 125 134 141 145 137 137 119 127 127 138 139 123
157 172 177 188 190 184 194 166 153 160 178 172 176 161 166 164 145 153 170 150 172 176 171 188 190 166 161 174 171 167 192 195 185 166 156 145 156 169 154 151 187 178 172 162 166 171 159 160 182 151 157 164 166 137 148 125 166 154 148 124 128 100 139 114 157 150 162 172 157 165 125 126 139 114 128 172 141 111 143 105 184 199 151 199 182 207 202 129 187 218 181 213 202 162 155 223 210 217 209 205 216 202 204 205 188 204 177 206 209 191 148 194 169 139 116 211 153 186 188 172 170 206 225 208 148 161 143 201 169 90 114 115 191 133 167 135 139 145 143 133 153 131 144 140 164 141 121 154 138 140 174 177 150 164 143 147 143 196 210 187 126 134 175 157 126 140 136 145 144 121 196 158 145 202 134 140 134 212 172 138 159 124 141 125 205 176 161 140 140 131 125 110 217 201 180 199 118 82 77 206 202 180 141 201 86 103 100 121 117 184 108 90 100 125 116 191 178 104 153 167 154 147 106 135 143 63 158 196 199 54 178 153 174 202 172 130 184 162 126 118 190 166 168 194 161 182 184 171 161 133 134 144 149 161 148 157 171 175 187 170 161 148 148 138 150 141 164 162 144 143 141 148 140 144 143 134 115 131 140 115 99 104 114 125 115 125 118 127 126 116 118 111 127 137 133 138 139 131 139 155 126 127 125 123 126 144 141 148 127 128 130 140 148 135 129 114 124 139 143 136
167 181 194 194 178 155 148 146 162 192 189 176 168 161 166 154 166 159 160 165 171 172 175 187 190 156 157 160 159 166 181 185 172 162 156 161 172 184 178 172 174 160 150 157 164 165 149 156 180 139 155 175 176 160 153 170 165 156 140 117 102 107 123 125 196 150 138 135 94 103 168 166 127 140 213 125 105 113 149 175 202 164 174 191 180 131 172 209 187 160 186 209 196 192 213 169 153 216 221 211 187 205 165 188 201 207 221 201 208 177 196 188 178 128 107 217 165 174 185 139 176 118 206 176 131 201 160 170 133 121 134 144 109 107 190 161 165 143 138 135 138 125 147 160 118 119 137 150 145 139 192 156 138 141 166 168 140 185 179 194 141 138 166 129 129 123 138 134 153 151 179 145 143 200 166 145 120 209 153 127 161 130 120 141 199 196 164 181 131 111 141 131 166 218 147 182 135 123 100 186 201 219 204 197 78 86 89 86 95 120 204 139 90 78 108 150 179 182 106 220 149 100 187 171 149 194 87 137 198 129 179 154 157 169 155 156 170 196 169 129 205 185 137 189 162 177 179 172 167 197 143 148 148 145 121 127 130 134 134 150 141 111 106 92 118 116 128 134 134 134 124 130 144 138 127 133 138 136 117 114 107 106 118 105 105 123 116 136 145 146 116 111 113 125 137 157 130 134 143 157 139 149 140 139 118 137 143 146 130 127 138 145 140 139 127 136 137 146 136 126
198 202 194 179 172 151 159 174 182 189 186 168 164 155 158 178 171 170 165 169 180 162 172 170 169 174 174 182 185 170 177 172 165 154 172 172 177 162 162 175 166 155 162 156 165 159 155 159 168 140 157 185 185 168 156 162 156 141 116 124 128 130 129 190 156 97 190 106 147 108 137 135 125 184 190 107 98 135 161 125 202 140 145 169 181 202 179 185 208 182 200 212 195 201 223 174 188 215 211 216 185 210 215 204 216 195 216 210 174 208 184 204 169 176 147 181 184 174 198 190 131 125 205 181 178 161 158 167 153 100 131 143 176 166 147 119 131 139 129 125 135 124 187 169 123 125 148 146 131 182 139 124 141 160 139 129 134 189 175 171 127 149 131 156 136 133 143 126 135 165 156 137 156 204 188 161 135 199 147 159 174 171 114 121 128 194 178 184 123 105 118 124 100 161 215 181 195 129 123 189 198 200 146 207 130 111 137 157 98 78 116 188 108 121 82 86 170 167 200 208 198 127 54 95 118 90 176 190 172 180 186 175 156 155 181 149 116 130 168 154 138 208 143 166 127 130 175 172 174 185 192 196 196 172 129 105 119 124 128 106 130 145 145 127 98 113 113 126 96 106 128 115 141 137 127 116 120 127 129 117 106 107 117 115 100 116 113 115 147 151 116 105 107 105 126 137 125 127 131 135 146 145 139 137 118 123 137 147 121 126 134 126 135 140 136 145 136 140 131 128
195 186 186 168 172 178 189 174 180 175 155 161 169 184 190 182 174 158 159 168 161 175 166 178 170 166 167 175 171 168 175 164 166 175 179 177 175 174 177 170 166 177 171 147 160 166 171 177 171 158 161 174 165 164 179 158 151 125 138 134 98 121 138 138 136 137 174 124 116 100 139 124 138 196 125 114 114 118 130 134 176 124 172 213 205 187 199 184 167 170 198 206 197 223 190 206 216 201 216 200 202 205 210 216 186 221 220 202 210 188 186 194 161 159 192 206 189 190 178 139 210 153 199 195 174 192 184 204 186 93 197 197 175 143 165 124 117 115 118 126 187 175 110 111 114 145 134 121 186 178 125 130 130 133 148 133 126 174 168 182 125 157 153 149 124 126 135 157 121 170 156 119 180 186 172 160 124 201 144 162 143 147 111 118 100 148 199 187 165 98 93 105 113 104 195 199 202 204 139 174 204 189 76 74 217 166 75 78 111 69 148 88 204 154 106 93 140 199 190 182 162 200 75 128 78 102 156 125 134 207 156 155 155 138 190 149 154 171 166 172 153 158 174 140 131 128 174 172 168 156 161 162 148 133 179 180 151 157 180 149 131 131 123 114 139 154 144 138 135 113 105 127 138 127 123 119 120 128 128 128 103 102 117 119 110 113 111 113 133 148 123 109 104 109 124 125 125 134 134 136 166 157 146 131 121 118 125 135 125 128 127 125 133 138 137 140 139 140 131 113
184 181 178 150 155 153 159 172 167 156 175 165 166 156 157 184 175 157 155 160 164 166 168 164 174 175 179 176 155 177 170 175 185 185 178 180 195 184 187 162 178 189 172 155 169 167 164 171 143 141 171 168 166 176 153 162 133 117 119 99 133 161 154 158 128 162 164 103 75 102 114 89 189 108 136 104 111 97 159 98 207 138 105 188 201 161 136 184 180 147 205 208 218 205 184 204 220 206 212 188 191 198 209 209 182 218 202 197 200 168 218 212 202 201 199 171 179 202 221 162 138 160 194 149 138 191 171 201 174 125 100 93 161 107 116 124 117 176 127 148 109 125 128 130 133 139 190 150 117 136 134 137 125 134 138 136 138 175 194 125 164 164 140 144 128 120 115 168 123 172 143 126 185 147 147 196 161 184 121 196 114 127 189 119 119 95 146 197 176 165 99 87 141 138 188 176 186 184 210 155 199 184 106 80 199 155 184 186 114 99 181 102 97 127 198 148 100 134 202 192 179 137 160 94 151 172 158 151 143 189 187 149 167 151 182 199 107 99 110 190 95 96 198 154 194 136 139 150 180 170 135 170 156 153 141 119 138 125 111 125 124 111 123 123 115 123 133 133 128 131 140 126 119 103 116 108 133 140 130 123 118 116 103 117 114 121 111 102 131 136 124 121 103 104 115 125 117 127 134 129 150 167 149 155 129 115 135 137 119 123 108 114 123 136 130 146 133 148 128 130
174 144 155 160 160 162 170 158 154 164 169 158 159 165 175 174 160 168 166 164 176 169 165 171 169 170 174 159 167 190 166 178 182 180 182 182 178 180 188 167 171 176 175 158 167 161 175 164 141 136 168 162 169 171 160 155 144 123 117 123 128 146 138 121 129 181 202 78 78 108 110 104 146 98 110 105 107 113 119 184 175 127 154 181 210 172 137 174 194 161 207 221 198 217 198 204 198 189 198 200 217 208 215 198 188 210 202 209 179 198 209 216 211 196 210 208 204 189 195 185 118 156 124 159 175 171 135 198 151 151 124 157 106 119 144 170 195 100 156 119 125 148 128 135 127 144 170 129 119 124 119 172 130 133 140 124 117 204 208 124 153 153 118 128 146 131 161 156 136 146 133 127 167 138 138 200 186 171 124 188 107 108 188 179 109 114 105 207 198 98 146 105 95 139 176 202 107 166 171 199 199 178 185 97 174 192 151 186 170 134 202 139 110 108 190 209 146 95 124 171 210 168 202 186 120 143 175 186 198 150 200 198 127 159 175 209 160 155 124 136 144 100 170 204 195 161 100 107 119 143 186 161 162 164 167 151 140 127 144 139 138 134 114 113 123 126 127 113 127 121 140 144 121 109 104 121 117 136 129 131 118 104 103 110 121 120 111 100 138 148 134 137 109 113 117 114 114 127 120 121 138 143 143 133 130 134 133 149 133 120 95 114 129 133 128 139 151 165 140 133
156 165 167 145 143 171 167 161 169 157 155 160 161 170 172 151 161 159 157 148 169 176 172 166 157 179 174 164 165 177 182 175 170 185 192 177 179 175 174 157 174 174 160 128 160 161 166 162 145 149 154 149 162 167 174 179 162 116 109 130 128 169 161 155 143 179 149 60 85 123 117 137 102 98 111 127 95 200 194 104 146 85 151 178 125 147 126 184 143 170 220 217 202 179 196 194 184 170 201 206 201 211 195 189 209 208 206 215 202 192 211 215 205 205 216 208 198 175 165 187 135 174 196 205 161 135 155 196 192 133 159 135 151 150 191 156 106 154 113 165 187 168 119 114 108 165 168 129 118 120 167 164 130 110 121 141 113 197 177 126 120 164 120 116 126 111 129 130 125 174 138 130 170 127 125 162 220 153 160 189 133 107 108 194 120 120 103 201 211 90 141 116 123 113 118 186 105 95 139 220 202 184 159 135 148 199 89 82 145 160 194 175 140 151 126 128 188 197 160 191 217 199 192 207 189 171 165 146 141 185 201 168 182 153 148 169 181 166 187 144 151 136 131 160 156 149 115 123 75 166 131 128 145 128 171 133 141 169 137 127 156 129 128 129 106 102 119 118 126 127 124 119 124 119 107 118 130 125 125 129 128 114 96 94 111 110 106 115 160 156 140 146 100 110 128 131 125 119 103 104 125 120 130 131 120 131 125 136 125 138 116 120 123 130 125 121 131 133 129 121
178 169 156 146 160 169 172 182 182 150 151 170 160 149 151 160 170 156 140 154 168 184 179 167 171 182 176 179 172 186 175 161 167 176 176 177 171 165 160 175 178 171 161 149 151 161 175 168 155 164 150 143 153 154 169 165 149 129 133 136 125 147 154 147 148 167 139 87 95 134 117 116 89 90 82 185 194 127 93 57 180 126 130 161 141 144 169 157 149 215 222 195 191 197 188 181 197 181 185 190 220 208 200 205 202 204 212 199 182 212 215 190 219 217 217 192 187 204 198 197 195 213 191 159 146 182 161 201 182 207 167 208 167 126 151 126 160 103 106 157 143 118 106 119 172 170 127 121 131 158 169 115 119 119 141 172 121 162 174 107 105 174 146 113 128 131 138 200 171 192 153 158 175 124 111 124 213 121 176 133 150 157 115 121 156 115 125 124 182 146 201 140 133 99 143 185 137 109 128 197 188 202 158 164 121 201 102 121 98 143 195 175 157 170 188 147 147 166 187 211 204 216 158 184 181 184 161 164 149 191 189 199 180 166 187 159 200 190 186 161 110 149 139 166 171 150 115 114 129 150 135 119 174 146 146 161 127 130 153 159 166 139 108 119 118 109 125 129 137 138 124 115 94 97 115 120 140 128 135 115 118 114 97 97 102 116 119 113 140 151 138 138 118 97 166 168 123 119 129 124 105 120 121 125 108 125 105 126 133 145 134 113 120 113 108 108 115 136 134 120
177 164 146 156 170 174 179 191 177 157 150 162 167 143 149 169 181 161 151 170 185 179 175 172 176 180 186 178 179 185 172 162 176 170 174 177 177 160 160 174 170 171 162 154 169 172 170 167 161 167 157 147 148 158 166 151 131 137 135 130 114 153 156 149 121 166 129 87 102 119 126 99 79 84 151 171 116 92 77 55 171 164 141 159 150 147 176 175 213 153 209 147 187 192 182 182 187 181 201 216 221 207 201 204 207 207 207 180 192 204 206 198 218 215 212 195 192 192 211 199 206 210 172 175 157 177 198 169 177 205 209 210 164 156 149 184 159 99 181 105 116 113 150 143 174 174 111 129 126 158 158 121 149 120 160 171 128 159 170 137 99 175 140 123 151 120 118 187 160 187 140 157 159 171 126 129 216 167 186 116 146 189 109 110 181 131 140 127 154 175 197 176 156 130 125 196 129 117 169 140 196 176 156 157 114 194 121 125 116 106 196 188 177 161 190 201 162 161 177 205 196 218 161 172 177 186 157 154 148 181 178 171 187 196 170 180 210 178 184 166 143 140 138 155 182 171 103 119 120 136 126 123 136 141 146 134 169 138 123 124 169 154 124 134 131 131 125 135 121 128 137 123 115 106 95 109 123 137 126 115 114 111 95 80 109 119 119 113 154 143 131 136 99 108 162 170 129 124 128 126 113 116 128 126 119 118 117 124 135 134 130 137 105 108 107 99 114 124 113 114
168 170 184 185 178 146 140 157 159 139 133 137 161 175 171 169 160 147 154 153 181 192 187 171 180 176 186 172 159 174 174 172 165 161 155 155 164 170 177 187 169 153 168 167 170 165 165 154 145 146 148 116 138 149 166 143 147 149 150 145 138 153 134 107 110 136 148 99 96 103 167 150 104 99 127 108 78 57 99 83 176 121 185 170 157 164 166 153 180 199 170 164 164 181 198 172 185 210 202 218 190 216 200 191 180 199 185 196 218 212 213 218 154 189 186 210 202 206 190 220 200 195 202 204 207 192 166 197 170 204 179 180 189 179 177 150 171 167 139 151 176 166 159 174 159 154 153 164 195 165 164 212 153 124 206 167 124 134 194 130 138 166 202 145 131 149 197 150 195 137 133 143 145 184 185 184 198 182 190 167 148 182 179 164 187 208 198 140 148 189 166 197 144 124 151 146 200 198 125 126 205 161 199 186 119 172 123 111 136 174 160 196 211 218 202 197 189 191 192 202 207 192 219 182 201 170 158 165 170 185 168 154 143 172 140 175 186 211 186 140 186 179 165 139 206 195 111 89 103 114 148 126 134 129 147 184 123 120 136 140 133 137 148 135 136 97 119 120 127 115 100 115 92 114 113 108 116 135 119 117 109 107 94 84 84 75 120 100 131 119 133 146 139 118 177 178 129 135 124 126 97 116 106 103 106 117 116 110 105 120 128 116 90 98 83 72 75 83 93 109
178 188 184 167 150 131 140 164 148 136 160 166 172 168 169 156 159 165 161 165 172 174 169 181 180 172 190 172 170 169 168 166 167 154 133 131 139 167 167 178 164 148 154 158 169 164 171 150 145 143 138 130 146 166 154 146 149 151 159 140 160 131 131 77 114 111 135 103 85 162 125 123 86 105 127 108 76 88 78 110 139 180 104 124 120 141 136 136 172 144 155 141 160 185 195 182 160 202 220 174 206 198 192 171 180 207 218 212 198 219 206 174 187 206 213 200 209 204 217 206 201 188 200 210 199 171 204 205 207 166 170 199 182 195 187 177 184 150 145 171 182 200 178 188 157 166 199 195 171 201 210 191 169 171 195 169 127 158 213 154 138 155 200 160 160 170 186 170 202 169 181 187 180 186 196 162 166 186 166 150 150 159 202 174 161 188 197 172 170 176 165 172 197 172 155 146 206 180 164 100 207 199 210 207 131 145 181 164 158 184 175 211 184 202 209 209 169 179 174 189 217 208 222 210 216 184 164 155 129 179 181 194 131 118 170 177 189 205 181 144 141 154 158 168 196 182 121 97 97 88 128 138 136 137 130 128 161 180 109 130 126 118 127 135 139 131 117 114 144 125 120 114 118 111 121 95 100 141 118 120 110 113 93 92 97 103 119 95 126 131 117 130 143 143 161 161 127 135 128 120 93 104 100 89 106 102 118 121 89 82 121 103 114 111 84 92 75 98 87 89
177 179 176 146 137 143 168 153 156 137 166 158 155 171 167 151 148 175 178 180 158 162 175 170 174 175 180 180 172 172 166 166 169 160 148 117 135 161 165 166 158 159 164 160 165 161 154 147 139 147 135 140 143 161 162 141 146 146 149 139 130 140 131 106 96 99 106 88 141 164 116 94 126 124 154 103 80 76 99 108 88 180 96 117 129 139 126 120 189 125 150 156 154 186 208 168 202 209 213 211 182 201 191 172 188 216 209 205 210 217 186 175 198 210 211 200 210 215 210 215 212 200 215 191 192 196 207 202 187 168 196 204 188 196 206 192 186 192 186 184 191 187 200 179 149 169 191 196 145 201 215 176 176 178 186 164 123 182 204 126 138 134 199 156 175 177 186 175 198 187 161 160 179 179 190 161 170 178 160 158 165 164 205 190 167 184 199 176 178 181 175 170 210 190 192 179 205 188 179 125 182 206 191 210 176 129 198 184 180 184 190 208 194 192 207 215 199 171 166 181 216 211 213 225 209 192 172 165 161 176 160 201 139 133 137 161 150 196 177 146 143 140 144 159 202 181 123 138 157 94 143 126 119 124 129 143 118 150 153 118 100 121 131 130 147 147 109 107 143 135 104 117 104 121 102 98 107 137 126 121 113 97 97 79 95 82 108 97 144 139 119 131 147 161 161 147 116 127 118 120 92 87 86 85 108 115 124 118 97 88 115 121 110 105 85 80 79 77 92 97
169 149 133 153 157 165 166 154 154 137 165 157 154 166 169 146 169 174 160 159 158 166 172 164 176 174 169 174 171 167 169 161 155 166 150 134 141 175 172 156 169 167 175 156 145 140 153 145 133 139 157 160 143 160 165 136 138 146 140 144 153 121 125 83 93 84 115 162 129 107 145 161 125 144 157 115 97 97 109 110 78 123 98 137 128 128 151 118 202 134 153 125 128 187 175 211 191 198 206 196 184 201 210 192 212 185 198 213 204 208 171 215 206 207 205 211 210 209 207 212 213 207 204 204 209 204 209 204 187 210 175 199 201 177 201 178 196 190 186 204 192 171 204 165 169 197 199 191 200 196 198 170 146 201 180 178 149 192 186 164 155 138 202 167 174 176 194 176 189 200 181 181 180 180 180 189 170 160 149 201 187 195 198 208 188 171 197 205 200 205 194 171 201 199 181 198 184 169 189 165 189 155 179 196 207 189 188 209 202 195 196 211 197 189 194 220 216 201 178 195 200 199 194 220 211 180 186 176 169 149 138 149 179 178 137 135 134 162 171 179 139 151 117 141 181 185 154 150 144 121 157 151 124 123 119 121 141 124 120 123 154 145 156 140 139 126 137 114 128 111 94 105 102 109 107 94 105 128 121 130 110 97 108 99 95 86 99 77 144 136 118 119 139 164 141 121 103 120 126 116 93 103 104 103 120 133 131 135 108 94 99 99 102 110 82 103 82 78 77 75
153 157 178 164 139 151 162 161 151 154 162 148 148 151 157 160 184 150 150 143 162 164 167 172 161 148 170 174 167 162 159 159 172 159 158 169 174 177 177 177 158 151 138 140 146 144 149 150 141 150 167 154 148 154 166 143 141 146 145 143 135 131 129 100 92 162 157 97 109 117 155 121 117 134 148 148 114 97 107 99 59 57 143 121 104 113 119 174 164 134 150 146 79 151 178 200 219 182 184 208 206 207 178 190 209 205 206 206 212 188 209 200 215 204 194 217 215 215 210 211 211 208 208 210 201 215 212 187 204 182 188 208 190 199 188 192 200 176 178 187 187 204 178 172 175 198 210 205 204 197 181 171 181 191 181 189 166 185 194 164 150 153 198 191 187 170 196 172 187 204 177 174 170 189 162 195 187 178 179 204 201 205 202 198 209 201 190 202 207 180 187 178 189 208 177 171 207 168 153 202 190 182 206 198 194 208 204 198 217 188 212 219 201 189 201 200 208 204 208 187 187 202 201 194 219 207 180 177 174 157 184 150 161 171 136 189 147 135 156 145 155 157 129 141 171 176 128 138 127 96 107 131 110 121 115 94 110 115 108 114 108 115 125 113 106 120 123 120 117 107 94 90 120 85 106 103 106 123 129 115 92 107 119 117 80 85 96 97 131 138 137 128 130 145 148 128 106 90 117 117 96 103 97 111 123 133 117 123 123 118 99 105 97 100 79 84 92 94 77 86
161 154 149 144 156 154 149 144 148 139 148 162 159 166 154 159 148 146 154 166 145 138 157 161 160 153 146 153 155 149 165 168 165 182 187 176 166 162 166 166 161 159 161 157 139 130 135 139 148 153 165 153 144 154 133 126 134 143 135 160 135 135 129 155 140 124 114 97 107 125 108 104 85 90 133 103 92 111 129 139 62 43 138 194 119 113 96 155 77 143 178 105 162 198 211 188 164 178 178 205 189 200 200 202 210 206 206 200 176 208 211 211 210 221 219 200 209 212 205 199 190 188 215 215 201 192 208 212 172 215 213 219 217 209 198 199 194 190 182 184 202 179 206 215 185 190 194 179 200 176 195 179 171 189 172 205 207 205 201 185 202 204 205 207 175 179 190 179 184 197 191 182 189 185 179 182 191 210 198 185 195 208 198 197 194 189 204 186 179 202 197 192 159 199 210 200 179 191 201 201 207 201 208 212 199 212 204 208 217 208 192 205 216 208 189 200 192 197 202 210 192 187 186 161 215 215 181 169 196 174 139 158 157 165 199 185 137 113 116 107 160 165 124 129 145 160 138 130 130 116 102 106 98 82 88 111 94 107 123 116 82 110 83 93 110 97 106 108 106 100 113 113 85 104 94 103 129 110 108 114 99 100 127 100 94 97 113 139 127 114 100 115 135 145 146 138 107 92 75 100 106 113 102 110 114 103 98 80 110 103 96 117 95 107 92 109 108 121 84 82
130 141 159 149 153 165 162 143 137 130 154 157 159 156 155 153 148 135 156 166 149 148 154 170 165 150 143 156 157 155 165 148 162 184 186 177 171 170 169 168 161 165 161 166 148 140 143 146 144 165 170 155 164 146 137 124 128 129 160 148 131 123 121 137 127 120 97 103 107 130 134 115 99 94 125 96 78 121 116 135 47 74 110 185 114 108 84 127 69 127 161 116 207 200 213 161 151 161 162 210 190 196 197 206 211 207 209 184 177 207 202 211 215 221 199 201 206 210 201 210 185 204 219 208 199 206 215 201 160 212 211 212 205 212 200 198 195 188 201 190 192 194 206 217 189 194 201 185 200 185 191 185 162 200 170 204 201 209 205 210 199 205 205 208 202 191 201 179 175 212 194 181 186 184 192 198 190 206 186 198 198 204 205 189 195 189 211 194 189 206 186 194 166 202 207 211 199 197 207 199 205 202 206 204 206 210 199 209 207 205 201 205 210 213 205 197 200 169 194 212 194 190 205 162 204 208 194 167 168 176 150 155 145 168 179 160 129 111 120 125 119 154 149 140 143 147 125 151 141 120 99 133 104 94 108 104 102 95 115 111 108 86 75 80 97 94 99 103 124 94 118 120 98 88 83 95 106 110 96 109 100 99 125 108 88 97 121 150 111 109 111 108 131 144 144 144 128 95 100 89 103 96 102 95 78 97 82 85 86 114 103 103 110 108 110 114 119 105 98 93
125 133 144 164 167 145 148 149 141 150 174 168 164 133 155 146 139 141 150 164 159 159 168 170 167 155 157 165 147 166 168 170 169 185 182 187 182 174 161 154 161 156 162 174 161 129 131 130 120 165 176 162 159 155 151 133 131 144 146 135 123 116 123 118 123 120 110 96 104 141 130 121 94 121 130 93 103 129 126 136 92 126 110 121 198 116 128 59 53 134 170 130 211 177 166 148 145 181 187 202 201 194 187 204 207 200 208 197 210 195 201 208 219 212 206 204 206 205 209 200 206 217 211 212 202 216 212 189 209 207 192 208 208 197 216 212 200 212 207 211 199 191 206 216 207 210 189 199 172 202 140 200 162 201 186 194 196 187 206 206 202 207 190 205 191 198 202 202 200 211 182 184 188 191 187 194 188 205 190 200 200 197 209 206 200 202 209 197 208 195 201 204 201 212 201 204 210 192 190 198 197 205 206 204 206 198 202 211 211 192 216 212 177 206 201 211 192 198 171 202 180 178 196 187 197 220 187 154 128 171 150 134 150 131 170 148 150 126 124 136 128 108 147 131 144 134 110 103 131 116 104 104 94 83 95 113 93 107 99 94 108 98 78 62 93 67 92 89 108 105 125 116 85 94 70 77 102 95 113 99 106 98 134 107 95 89 124 149 118 106 102 107 133 138 139 150 129 108 77 94 118 107 97 96 92 85 90 98 108 99 108 106 102 94 98 100 103 114 107 95
106 126 151 165 143 129 139 143 145 151 168 151 145 150 159 140 139 147 164 165 162 155 162 157 158 153 162 148 146 154 167 168 162 188 185 185 186 174 168 150 162 139 154 165 166 155 143 126 120 160 179 164 154 150 137 128 118 147 146 127 118 116 136 125 119 119 125 96 98 136 110 106 121 145 128 86 96 135 144 119 127 129 119 109 164 72 140 57 88 120 162 220 143 130 105 158 155 186 196 201 188 196 195 211 207 187 172 213 199 206 216 216 201 204 205 210 209 209 208 199 211 196 211 207 212 213 213 209 197 212 198 215 207 205 198 184 208 208 190 215 202 175 215 215 212 208 202 192 185 208 205 210 161 195 125 184 191 170 205 208 206 206 201 202 198 204 195 204 206 188 197 191 192 197 207 209 207 207 212 207 211 200 201 213 198 202 206 200 208 194 197 202 200 207 199 204 216 201 197 199 199 197 204 206 200 195 194 202 211 184 179 204 189 187 209 206 195 194 198 200 176 178 211 197 196 200 181 181 141 154 161 176 157 162 144 134 138 167 139 123 135 146 121 136 134 129 119 102 113 99 96 97 106 96 78 94 70 86 84 86 82 93 68 67 79 58 113 110 85 118 134 119 114 96 85 63 104 89 115 117 103 102 116 117 74 93 118 140 98 93 98 106 145 136 129 129 131 120 89 102 121 118 98 98 77 74 89 78 99 92 100 92 83 77 73 80 84 115 107 94
11 12 14 15 16 22 18 18 19 17 23 22 21 21 21 21 19 22 23 22 19 22 21 23 22 21 19 17 18 17 12 11 14 12 8 12 14 6 2 1 3 4 5 6 4 3 2 2 3 4 5 5 6 6 8 16 15 18 18 18 21 19 18 17 16 17 17 21 21 21 21 22 22 18 19 16 15 16 17 16 16 17 18 21 18 19 19 19 19 19 19 18 18 18 17 17 17 17 14 16 14 10 11 8 5 4 5 6 4 5 0 0 0 0 0 0 0 0 0 0 0 0 6 17 10 1 0 0 1 0 6 6 6 7 4 4 4 4 3 4 4 2 4 3 2 3 2 3 2 3 3 3 3 4 5 5 5 5 4 6 12 10 16 17 21 22 21 19 21 19 21 21 22 19 18 19 19 21 23 22 23 23 23 23 22 19 17 16 17 16 16 15 16 10 6 12 9 6 3 4 11 12 12 11 6 3 2 3 3 4 4 4 5 5 10 17 18 19 21 22 21 21 19 18 17 16 21 21 21 19 19 22 21 19 18 19 18 18 18 17 15 16 18 21 21 21 21 21 21 21 22 19 19 18 19 18 17 18 16 16 14 10 12 8 5 3 3 4 4 5 3 0 0 0 0 0 0 0 0 0 0 1 7 18 5 3 1 1 0 0 5 5 5 6 3 3 3 3 2 3 2 0 3 3 2 3 2 2 2 1 2 2 2 3 3 4 4 4 3 4
