P2
320 240
255
29 41 141 206 200 196 199 196 190 194 200 201 201 200 202 198 200 200 200 200 200 201 202 203 203 204 204 203 203 204 205 205 205 205 205 205 205 205 205 206 206 207 208 209 209 209 209 209 210 210 210 210 210 211 211 211 211 211 211 212 212 212 212 212 214 214 214 214 214 214 215 215 214 216 220 227 234 235 234 235 236 234 233 233 234 233 233 232 230 227 223 221 220 220 219 219 219 219 220 221 221 219 219 220 221 221 220 220 220 220 220 220 222 224 228 232 235 238 239 240 241 242 241 242 242 242 240 238 236 235 233 233 231 231 231 231 233 234 235 236 237 237 238 237 235 235 236 237 238 239 238 237 235 234 233 233 234 234 235 237 239 238 238 240 242 239 242 244 244 242 239 238 238 238 238 240 244 244 244 244 244 241 241 242 243 243 244 244 242 243 245 247 246 246 244 240 237 230 225 224 224 222 222 223 225 227 230 230 231 231 230 228 225 219 219 219 219 219 217 217 217 217 217 217 217 217 217 217 217 216 216 216 216 216 216 216 216 216 216 215 213 213 213 213 213 214 214 214 214 214 214 214 213 212 212 213 213 212 212 211 211 210 210 210 210 210 211 211 210 209 209 210 210 209 209 208 207 206 208 209 207 204 206 206 205 204 204 205 205 204 204 203 202 201 203 203 206 209 211 213 217 221 225 228 230 232 233 233 234 235 233 232 232 232 231 226 223 222 220 218 
25 55 167 200 195 197 199 196 192 196 193 189 204 201 199 201 200 200 200 200 200 202 203 203 204 204 204 204 204 205 205 205 205 205 205 205 205 205 205 206 206 207 208 209 209 209 209 209 210 210 210 210 210 211 211 211 211 211 211 212 212 212 212 212 214 214 214 214 214 214 216 215 214 216 222 229 234 235 234 234 235 234 233 234 234 235 235 234 232 230 226 224 222 221 219 218 219 219 220 220 220 219 220 220 220 221 221 221 221 221 221 220 224 225 228 232 235 237 238 239 240 241 241 241 241 241 239 238 236 236 234 234 233 231 231 231 232 233 234 234 235 235 236 236 235 235 235 236 237 237 236 236 234 234 233 232 234 234 235 235 236 235 235 236 239 238 240 242 242 241 239 238 238 238 238 239 240 240 240 240 240 240 241 240 241 242 243 242 242 242 245 246 244 245 243 239 236 232 228 226 224 221 221 222 224 225 227 228 228 228 227 225 223 219 219 219 219 219 217 217 217 217 217 217 217 217 217 217 217 216 216 216 216 216 216 216 216 216 216 215 213 213 213 213 213 214 214 214 214 214 214 214 214 213 213 213 213 213 212 212 211 210 210 210 210 210 211 211 211 210 210 210 210 210 209 209 208 207 208 208 207 205 206 206 206 205 205 205 205 205 204 204 202 202 203 203 204 207 211 213 216 221 224 227 230 232 233 235 235 235 234 232 232 233 231 226 223 222 220 218 
27 68 198 199 196 199 199 198 195 198 192 187 205 201 200 202 201 201 201 201 201 202 203 204 204 205 205 204 204 205 205 206 206 206 206 206 206 207 207 207 208 208 209 210 210 210 210 210 211 211 211 211 211 212 212 212 212 212 212 213 213 213 213 213 215 215 215 215 215 214 216 216 214 217 222 229 233 232 231 232 233 232 232 234 236 237 237 237 235 233 230 229 226 224 221 219 219 219 219 220 220 220 220 220 220 220 221 221 221 221 221 222 224 225 227 230 233 234 235 236 237 238 238 238 239 238 237 236 236 235 234 234 233 231 230 230 230 231 231 232 232 233 233 234 234 233 233 233 235 234 234 233 232 232 232 232 232 232 233 233 234 234 234 234 235 235 237 239 239 238 237 237 237 237 237 237 238 238 238 238 238 240 240 240 241 242 242 242 242 243 244 244 244 244 243 239 237 233 229 226 224 221 220 220 221 222 224 224 223 223 223 221 220 219 219 219 219 219 218 218 218 218 218 218 218 218 218 218 218 217 217 217 217 217 217 217 217 217 217 216 215 215 215 215 215 215 215 215 215 215 215 214 214 213 213 214 214 213 213 212 212 211 211 211 211 211 212 211 211 210 210 211 211 210 210 209 209 209 209 208 207 206 207 206 206 205 205 206 206 205 205 204 204 205 205 203 202 205 211 212 215 219 222 225 228 230 233 234 234 233 233 232 232 233 230 225 222 222 221 221 
28 68 207 201 199 201 199 198 197 199 199 200 203 201 201 199 201 201 201 201 201 202 203 204 204 205 205 204 205 205 206 206 206 206 206 206 206 207 208 208 209 209 209 210 210 210 210 210 211 211 211 211 211 212 212 212 212 212 212 213 213 213 213 213 215 215 215 215 215 215 217 216 215 217 222 227 230 230 229 231 231 231 231 234 236 238 238 238 237 235 233 232 230 226 223 222 221 220 220 220 220 220 220 220 220 220 221 221 221 221 221 222 224 224 226 228 230 232 233 234 235 236 236 237 237 237 235 234 234 234 234 233 233 231 229 229 229 229 230 230 231 231 232 232 233 232 231 232 233 232 232 231 231 230 231 232 232 232 231 232 234 234 234 234 233 233 234 234 235 235 235 235 235 235 235 235 236 236 236 236 236 239 239 239 241 241 240 241 242 242 243 242 242 242 242 239 236 232 227 225 224 221 220 220 220 220 220 221 220 221 221 220 218 219 219 219 219 219 218 218 218 218 218 218 218 218 218 218 218 217 217 217 217 217 217 217 217 217 217 216 215 215 215 215 215 215 215 215 215 215 215 215 214 214 213 214 214 213 213 212 212 211 211 211 211 211 212 212 211 211 210 211 211 210 210 209 209 209 209 208 207 208 207 207 206 206 205 206 206 205 205 204 204 205 206 203 202 204 210 212 214 218 221 224 227 229 230 231 231 231 231 231 231 233 230 225 222 223 222 224 
26 68 204 201 196 199 199 199 200 201 202 205 201 201 204 199 202 202 202 202 202 203 204 205 205 206 206 205 205 206 206 207 207 207 207 207 207 208 209 210 210 211 211 211 211 211 211 211 212 212 212 212 212 213 213 213 213 213 213 214 214 214 214 214 216 216 216 216 216 215 217 217 215 218 221 223 226 226 227 229 228 229 231 234 237 238 238 238 238 236 236 235 233 229 227 225 223 223 223 222 221 221 221 220 219 219 219 219 219 219 219 220 223 222 223 225 226 229 230 231 232 233 234 234 235 234 232 232 231 231 231 231 231 230 229 228 227 228 229 230 231 231 232 232 232 231 229 229 230 229 229 229 229 229 230 231 230 230 229 231 232 233 233 232 229 231 231 231 232 232 232 232 232 232 232 232 234 234 234 234 234 234 234 235 235 236 235 236 238 238 237 237 237 238 237 235 232 228 224 223 223 222 220 220 220 220 219 218 220 221 220 220 220 219 219 219 219 219 219 219 219 219 219 219 219 219 219 219 219 218 218 218 218 218 218 218 218 218 218 218 217 217 217 217 217 216 216 216 216 216 216 215 215 214 214 215 215 214 214 213 213 212 212 212 212 212 213 212 212 211 211 212 212 211 211 210 210 210 209 207 208 209 208 207 207 206 206 207 207 206 206 205 205 205 205 203 203 205 210 211 212 217 219 223 224 226 227 226 227 228 228 228 229 230 229 225 222 223 222 224 
28 77 206 203 195 200 199 199 201 202 200 201 202 203 206 202 202 202 202 202 202 203 204 205 205 206 206 205 205 206 207 207 207 207 207 207 207 208 209 210 210 211 211 211 211 211 211 211 212 212 212 212 212 213 213 213 213 213 213 214 214 214 214 214 216 216 216 216 216 216 217 217 216 218 219 220 223 224 226 229 228 229 231 234 238 237 237 238 238 236 236 236 234 231 229 228 225 225 224 223 223 221 221 220 219 219 218 218 218 218 218 219 221 221 221 222 224 228 229 229 231 232 233 233 234 233 232 231 229 230 230 230 230 230 228 227 227 227 229 230 231 231 232 232 231 230 229 229 229 227 228 228 228 228 230 231 230 230 229 228 229 230 230 228 226 229 229 229 230 231 231 230 230 230 230 230 230 230 230 230 230 229 229 230 230 231 230 231 233 233 232 231 231 232 232 230 227 225 222 222 223 222 222 222 220 220 218 219 220 221 222 222 221 219 219 219 219 219 219 219 219 219 219 219 219 219 219 219 219 218 218 218 218 218 218 218 218 218 218 218 217 217 217 217 217 216 216 216 216 216 216 216 215 214 214 215 215 214 214 213 213 212 212 212 212 212 213 213 212 211 211 212 212 211 211 210 211 211 209 207 208 210 208 208 207 206 206 207 207 206 206 205 204 203 204 203 203 206 210 211 212 215 218 223 224 225 224 223 223 226 226 226 227 229 229 224 222 223 223 223 
27 79 210 202 200 200 200 201 201 200 200 201 201 202 203 203 204 204 204 204 204 205 205 205 205 205 206 207 207 207 207 207 209 209 209 209 209 208 208 209 209 210 210 211 211 212 213 213 212 212 212 212 212 213 213 214 214 215 215 215 215 215 215 215 215 215 216 217 217 215 215 215 214 212 213 216 220 220 222 226 226 228 230 233 235 234 235 237 237 237 235 234 233 231 228 227 225 224 224 225 226 224 223 221 219 219 219 219 219 219 219 219 218 220 222 223 223 225 226 227 228 229 231 231 231 231 231 230 228 228 228 228 228 228 228 228 228 228 229 229 229 229 229 230 231 231 231 231 231 229 229 229 229 229 229 229 229 229 229 228 226 227 227 226 225 228 226 225 225 226 227 227 228 228 229 229 227 227 227 225 224 228 227 227 226 227 226 226 226 226 226 226 226 227 227 227 225 224 224 223 222 222 221 221 221 221 221 221 220 219 219 220 221 222 220 218 219 220 222 220 220 221 219 218 219 220 220 219 218 219 219 218 217 217 219 219 218 217 217 217 216 216 216 216 216 216 216 216 216 216 215 215 215 215 215 215 215 215 215 215 214 212 212 212 212 212 211 211 211 211 211 212 211 209 209 209 210 210 210 210 209 207 209 209 208 207 207 208 209 207 207 205 205 205 202 201 202 205 206 208 209 210 218 223 223 222 222 223 223 224 225 226 226 227 223 223 223 223 223 222 
28 74 208 203 200 200 200 201 201 200 200 201 201 202 203 203 204 204 204 204 204 205 205 205 205 205 206 207 207 207 207 207 209 209 209 209 209 208 209 209 210 210 210 211 211 212 213 213 212 212 212 212 212 213 213 214 214 215 215 215 215 215 215 215 215 215 216 217 217 217 216 213 213 214 214 217 220 220 222 224 225 227 229 231 233 234 233 236 237 236 235 234 234 233 230 228 227 226 225 224 226 224 221 219 219 219 218 218 218 218 218 218 218 221 223 223 222 224 225 226 228 229 229 229 229 229 229 228 229 229 229 229 229 229 229 229 229 229 229 229 229 229 229 228 229 229 229 229 229 227 227 227 227 227 226 226 226 226 226 225 224 225 226 225 224 225 224 224 224 225 225 225 226 227 228 227 227 226 226 225 224 227 225 225 225 226 226 225 225 225 225 224 224 225 225 225 224 224 224 223 222 222 221 221 221 221 221 221 221 221 220 220 220 220 222 222 221 221 221 219 219 220 219 218 220 219 220 220 220 219 219 219 218 217 219 219 218 217 217 217 216 216 216 216 216 216 216 216 216 216 215 215 215 215 215 215 215 215 215 215 214 212 212 212 212 212 211 211 211 211 211 212 212 210 209 210 210 210 210 210 209 208 209 209 209 208 208 208 209 207 207 205 205 203 201 200 201 204 207 209 208 209 216 219 219 218 218 219 221 222 222 223 224 224 223 223 223 223 223 221 
27 70 205 204 199 199 200 202 202 200 200 201 201 202 203 203 204 204 204 204 204 205 205 205 205 205 206 207 207 207 207 207 209 209 209 209 209 209 209 210 210 211 211 211 211 212 213 213 213 213 213 213 213 213 213 214 214 215 215 215 215 215 215 215 215 215 216 217 217 218 216 213 213 216 217 217 219 219 220 223 223 224 226 228 230 231 232 233 234 233 233 234 234 232 230 229 229 227 224 224 224 222 220 219 219 219 218 218 218 218 218 218 220 221 223 223 222 224 225 225 226 227 226 226 226 226 226 227 229 229 229 229 229 228 228 228 228 228 227 227 227 227 227 227 226 226 226 226 226 226 226 226 226 226 225 224 224 224 224 224 223 224 226 226 226 225 224 223 224 225 225 225 225 225 225 225 225 226 226 226 225 225 224 224 225 226 225 224 224 224 224 223 223 223 224 223 222 224 224 223 222 222 222 222 222 222 222 223 224 222 220 220 221 221 225 228 226 224 223 221 220 221 220 219 219 219 218 219 219 220 219 219 218 218 219 219 218 217 217 217 217 217 217 217 217 216 216 216 216 216 216 216 216 216 216 215 215 215 215 215 215 213 213 213 213 213 212 212 212 212 212 213 212 210 210 210 211 210 211 210 210 208 210 209 209 208 208 209 209 207 207 205 204 202 201 201 201 203 208 208 208 208 211 214 213 213 213 213 216 218 218 219 219 219 218 218 218 218 218 217 
28 71 205 204 200 200 201 202 202 201 200 201 201 202 203 203 204 204 204 204 204 205 205 205 205 205 206 207 207 207 207 207 209 209 209 209 209 209 209 210 210 211 211 211 211 212 213 213 213 213 213 213 213 213 213 214 214 215 215 215 215 215 215 215 215 215 216 217 217 218 216 214 215 218 218 218 219 218 218 221 221 222 224 225 226 227 228 229 230 229 229 231 231 230 228 228 228 226 223 223 223 222 220 219 219 220 219 219 219 219 219 219 221 222 223 223 222 224 224 224 225 225 225 225 225 225 225 226 228 228 228 228 228 226 226 226 226 226 227 227 227 227 227 226 225 225 225 225 225 226 226 226 226 226 225 225 225 225 225 225 224 226 228 229 229 228 227 225 224 225 225 225 225 225 224 224 225 226 227 228 228 226 224 224 225 226 225 224 224 224 224 223 222 223 223 223 222 224 224 223 222 222 222 222 222 222 222 223 224 223 221 221 222 224 230 234 233 230 229 226 224 226 225 223 221 219 217 218 219 220 220 219 219 218 219 219 218 217 217 217 217 217 217 217 217 216 216 216 216 216 216 216 216 216 216 215 215 215 215 215 215 213 213 213 213 213 212 212 212 212 212 213 212 211 210 211 211 211 211 211 210 208 210 210 209 209 208 209 209 207 207 205 204 202 202 202 202 203 208 207 207 208 207 208 209 207 207 209 210 212 212 212 211 211 210 210 210 210 210 211 
31 76 205 201 199 201 202 203 203 202 201 201 201 202 203 203 204 204 204 204 204 205 205 205 205 205 206 207 207 207 207 207 209 209 209 209 209 210 210 211 211 212 212 211 211 212 213 213 214 214 214 214 214 213 213 214 214 215 215 215 215 215 215 215 215 215 216 217 217 217 217 217 217 219 219 219 220 217 217 219 219 220 222 222 223 223 224 225 225 225 226 226 227 226 224 224 224 223 221 221 222 223 222 221 222 222 222 222 222 222 222 222 223 223 224 223 222 223 223 223 223 223 224 225 225 225 225 225 225 225 225 225 225 225 225 225 225 225 225 225 225 225 225 225 225 225 225 225 225 227 227 227 227 227 226 226 226 226 226 226 227 230 232 234 234 234 232 229 227 227 227 227 226 225 225 224 226 228 230 231 231 229 227 226 224 224 225 225 225 225 225 224 223 224 224 224 223 224 224 223 222 222 223 223 223 223 223 223 223 222 223 224 225 229 234 238 238 237 237 233 231 232 233 231 227 223 220 219 220 221 220 220 219 219 219 219 218 217 217 217 218 218 218 218 218 216 216 216 216 216 217 217 217 217 217 216 215 215 215 215 215 214 214 214 214 214 213 213 213 213 213 214 213 211 211 211 212 211 212 211 211 209 211 210 210 209 209 209 209 207 207 205 205 204 204 204 204 204 205 204 205 208 205 205 206 204 204 206 206 206 206 205 204 204 203 203 203 203 203 205 
32 80 207 198 199 202 202 203 203 202 201 201 201 202 203 203 204 204 204 204 204 205 205 205 205 205 206 207 207 207 207 207 209 209 209 209 209 210 210 211 211 212 212 211 211 212 213 213 214 214 214 214 214 213 213 214 214 215 215 215 215 215 215 215 215 215 216 217 217 216 217 219 219 219 218 219 220 217 216 218 218 219 220 221 222 220 220 222 223 222 222 223 224 223 222 221 221 220 220 221 222 224 223 222 223 224 223 223 223 223 223 223 223 224 224 223 222 223 223 223 223 223 224 225 225 225 225 225 224 224 224 224 224 226 226 226 226 226 225 225 225 225 225 225 225 225 225 225 225 227 227 227 227 227 226 225 225 225 225 226 230 233 236 238 239 239 237 232 228 227 228 227 226 226 225 225 226 229 232 233 233 232 229 227 225 224 225 226 226 226 226 225 224 224 225 224 223 224 224 223 222 222 223 223 223 223 223 223 222 222 224 226 228 233 236 240 242 242 243 239 236 237 239 238 234 227 224 223 223 221 221 220 219 219 219 219 218 217 217 217 218 218 218 218 218 216 216 216 216 216 217 217 217 217 217 216 215 215 215 215 215 214 214 214 214 214 213 213 213 213 213 214 213 211 211 211 212 212 212 212 211 209 211 211 210 209 209 209 209 207 207 205 205 205 206 206 206 204 204 202 205 208 205 204 204 203 203 204 204 202 201 200 200 199 200 200 200 200 200 201 
25 79 210 201 200 202 202 201 201 202 203 202 202 202 203 205 205 207 206 205 206 206 205 206 206 207 207 207 207 208 209 209 208 208 209 210 210 210 210 210 210 210 211 211 211 211 212 214 214 214 214 214 214 214 214 215 215 216 216 216 216 216 217 219 217 217 218 219 219 219 219 219 219 219 219 219 219 219 219 219 219 219 220 221 221 222 222 222 222 222 221 221 221 221 221 221 222 222 222 222 222 222 222 222 222 222 223 223 223 223 223 223 223 223 223 223 223 225 225 225 225 225 224 224 224 224 224 224 225 225 225 225 225 225 225 225 225 225 225 225 225 225 225 225 226 226 226 226 226 226 226 226 226 226 226 225 225 225 227 229 233 236 239 240 241 241 239 234 229 225 225 224 224 224 226 227 229 232 234 236 236 235 233 230 227 225 225 225 225 225 224 224 224 224 224 224 224 224 224 224 224 224 225 227 227 227 225 224 225 227 229 231 233 237 241 244 243 241 242 241 239 239 242 243 238 230 229 229 226 226 221 219 219 218 218 218 219 220 220 220 219 219 219 219 219 217 217 216 215 215 215 215 215 215 215 215 215 215 215 215 215 214 214 214 214 214 215 214 214 213 213 214 214 214 214 212 211 210 210 210 210 210 210 210 209 208 208 208 208 207 207 206 206 205 205 205 206 208 205 205 205 205 205 203 202 203 203 203 203 201 201 201 201 201 203 201 201 201 202 201 
28 79 209 205 204 202 201 200 200 201 202 203 202 203 204 205 205 207 206 205 206 206 206 206 207 207 207 208 208 209 209 209 208 209 209 210 210 210 210 210 210 210 211 212 211 212 213 214 214 214 214 214 214 214 215 215 216 216 216 216 216 216 217 219 217 217 218 219 219 219 219 219 219 219 219 219 219 219 219 219 220 220 221 221 221 222 222 222 222 222 221 221 221 221 221 221 222 222 222 222 222 222 222 222 222 222 223 223 223 223 223 223 223 223 223 223 223 225 225 225 225 225 224 224 224 224 224 224 225 225 225 225 225 225 225 225 225 225 225 225 225 225 225 225 226 226 226 226 226 226 226 226 226 226 226 226 225 226 227 230 235 238 241 242 243 241 239 234 229 226 226 225 225 225 227 228 230 233 236 236 238 239 237 234 231 229 227 227 225 225 225 224 224 225 225 225 225 223 223 223 223 224 224 227 230 231 228 227 229 230 233 235 236 239 242 245 244 243 242 242 241 241 242 244 241 236 237 237 234 230 225 222 221 218 219 219 219 220 220 219 218 218 218 218 218 219 219 218 217 217 217 217 217 216 216 215 215 215 215 215 215 214 214 214 214 214 213 213 213 212 211 212 213 214 214 214 212 210 210 210 210 210 210 210 210 209 209 208 208 208 207 207 206 206 206 206 207 208 205 205 205 205 205 205 204 204 203 202 202 201 201 201 201 201 201 199 199 199 200 200 
25 74 203 203 202 200 201 200 200 201 202 203 203 203 204 206 205 207 206 205 206 206 206 207 207 208 208 208 208 209 209 210 209 209 210 210 211 211 211 211 211 211 212 212 212 212 213 215 215 215 215 215 215 215 215 216 216 217 217 216 216 216 217 219 217 217 218 219 219 219 219 219 219 219 219 220 220 220 220 220 220 220 221 221 222 222 222 222 222 222 222 222 222 222 222 222 223 223 223 223 223 223 223 223 223 223 224 224 224 224 224 224 224 224 224 224 224 225 225 225 225 225 225 225 225 225 225 225 226 226 226 226 226 226 226 226 226 226 226 226 226 226 226 226 227 227 227 227 227 226 226 226 226 226 227 226 226 226 228 231 235 238 240 241 242 240 238 234 229 226 226 226 226 226 228 229 232 235 238 239 240 241 239 237 234 233 230 228 227 226 225 225 226 226 225 225 225 223 223 223 224 224 223 227 233 235 232 230 232 234 236 238 240 240 242 245 245 244 242 242 241 241 242 243 242 239 237 236 235 234 229 226 224 220 219 220 220 220 220 220 220 220 220 221 221 219 219 218 217 217 217 217 216 216 216 216 216 216 216 216 216 215 215 215 215 215 213 215 216 214 213 212 213 214 214 213 212 211 211 211 211 211 211 210 210 209 209 209 209 208 208 207 207 207 206 206 207 208 205 205 205 205 205 206 206 204 203 202 201 202 202 202 202 202 201 200 199 200 201 201 
25 78 202 201 202 200 201 200 200 201 203 204 203 204 204 206 205 207 206 205 206 206 206 207 207 208 208 208 209 209 210 210 209 210 210 211 211 211 211 211 211 211 212 213 212 213 213 215 215 215 215 215 215 215 215 216 216 217 217 216 216 216 217 219 217 217 218 219 219 219 219 219 219 219 219 220 220 220 220 220 220 221 221 222 222 222 222 222 222 222 222 222 222 222 222 222 223 223 223 223 223 223 223 223 223 223 224 224 224 224 224 224 224 224 224 224 224 225 225 225 225 225 225 225 225 225 225 225 226 226 226 226 226 226 226 226 226 226 226 226 226 226 226 226 227 227 227 227 227 226 226 226 226 226 227 227 226 227 228 230 233 236 238 240 241 240 237 233 230 227 227 227 226 227 229 230 234 237 240 241 242 241 240 239 235 234 233 232 230 229 227 227 228 227 226 226 225 223 224 224 225 225 225 228 235 237 233 232 233 235 238 239 241 241 242 243 245 245 243 242 243 243 242 243 245 242 236 233 233 236 232 231 228 222 221 220 220 220 220 219 218 218 220 221 221 219 218 218 217 217 217 217 216 215 214 215 216 216 216 216 216 215 215 215 215 215 215 219 224 224 221 218 217 217 216 212 211 211 211 211 211 211 211 211 210 210 209 209 209 208 208 207 207 208 207 206 207 208 205 205 205 205 205 206 206 205 204 202 202 202 202 202 202 202 203 201 201 201 202 202 
29 89 209 203 205 203 203 202 202 203 204 204 204 204 205 207 205 207 206 205 206 207 207 208 208 209 209 209 209 210 210 211 210 210 211 211 212 212 212 212 212 212 213 213 213 213 214 216 216 216 216 216 216 216 216 217 217 218 218 216 216 216 217 219 217 217 218 219 219 219 219 219 219 219 220 221 221 221 221 221 221 221 222 222 223 222 222 222 222 222 223 223 223 223 223 223 224 224 224 224 224 224 224 224 224 224 225 225 225 225 225 225 225 225 225 225 225 225 225 225 225 225 226 226 226 226 226 226 227 227 227 227 227 227 227 227 227 227 227 227 227 227 227 227 228 228 228 228 228 226 226 226 226 226 227 227 227 227 229 231 234 237 239 239 240 239 237 233 230 228 228 228 228 228 230 232 236 239 242 243 244 244 243 241 239 238 237 236 234 232 230 230 230 229 227 226 225 225 226 226 228 229 228 230 234 235 234 233 232 235 238 238 240 240 240 241 243 244 242 242 244 244 242 242 245 243 237 233 234 235 233 232 230 224 222 222 221 220 220 219 218 218 220 221 221 222 221 221 220 220 220 219 218 217 216 217 217 217 217 217 217 216 216 216 216 216 220 226 233 236 232 229 228 225 220 214 211 212 212 212 212 212 212 211 211 210 210 210 210 209 209 208 209 209 208 207 207 207 205 205 205 205 205 205 205 205 205 204 204 203 203 203 203 203 202 201 200 202 203 202 
29 96 213 203 205 204 205 203 203 205 205 204 204 204 205 207 205 207 206 205 206 207 207 208 208 209 209 209 209 210 211 211 210 210 211 212 212 212 212 212 212 212 213 213 213 213 214 216 216 216 216 216 216 216 216 217 217 218 218 216 216 216 217 219 217 217 218 219 219 219 219 219 219 219 220 221 221 221 221 221 221 221 222 223 223 222 222 222 222 222 223 223 223 223 223 223 224 224 224 224 224 224 224 224 224 224 225 225 225 225 225 225 225 225 225 225 225 225 225 225 225 225 226 226 226 226 226 226 227 227 227 227 227 227 227 227 227 227 227 227 227 227 227 227 228 228 228 228 228 226 226 226 226 226 227 227 227 227 229 231 235 238 240 242 242 239 237 233 230 228 228 229 228 228 230 233 237 240 243 244 245 247 246 244 243 242 240 238 236 234 232 232 230 229 228 227 226 226 227 228 230 231 230 230 232 233 233 232 231 233 236 237 239 240 239 240 242 244 242 243 245 245 242 240 240 241 236 233 235 234 232 233 231 227 222 222 221 220 220 221 223 224 225 226 227 225 224 224 224 223 224 223 222 220 219 218 217 217 217 217 217 216 216 216 216 216 223 232 240 243 241 239 237 233 225 218 214 212 212 212 212 212 212 212 211 210 210 210 210 209 209 208 209 210 209 207 207 207 205 205 205 205 205 204 205 205 205 206 205 203 203 203 203 203 201 200 199 200 200 202 
27 107 215 206 204 203 204 204 204 204 204 206 206 207 208 209 206 206 207 208 208 209 209 209 209 209 209 210 210 210 210 210 211 211 212 213 213 212 212 213 213 214 214 213 213 214 215 215 215 215 216 217 217 215 215 216 216 217 217 217 217 218 219 219 217 217 218 219 219 219 219 220 221 221 221 221 221 221 221 221 222 222 222 222 222 223 223 223 223 223 223 223 223 223 223 223 224 224 224 224 224 225 225 225 225 225 226 227 227 227 227 227 226 226 226 226 226 226 226 226 226 226 227 226 225 225 226 227 228 228 228 228 228 228 228 228 228 228 227 227 227 227 227 227 226 226 226 226 226 228 228 228 228 228 227 226 226 226 228 230 232 234 237 241 243 241 239 236 232 228 231 232 230 231 233 236 240 242 244 245 245 246 245 244 243 242 240 238 235 233 231 231 232 233 233 232 230 229 229 230 230 231 232 233 234 234 233 231 230 231 234 237 239 242 242 242 242 241 244 244 244 244 244 244 242 241 238 236 235 235 234 233 230 229 225 222 221 220 222 228 231 228 226 227 229 231 226 223 225 229 233 234 232 227 223 219 217 218 218 218 218 218 216 215 218 222 228 237 242 244 244 244 240 237 232 223 215 212 213 213 212 211 210 211 212 212 211 209 208 209 209 208 207 208 208 208 208 208 207 206 205 206 206 206 206 207 207 206 205 205 205 204 205 206 203 203 202 201 201 202 
28 98 219 204 201 205 204 204 204 204 205 207 207 207 207 207 206 207 207 208 208 209 209 209 209 209 209 210 210 210 210 210 211 211 212 213 213 212 213 213 214 214 214 214 214 215 215 215 215 216 216 217 217 216 216 216 217 217 217 218 218 219 219 219 217 218 218 219 219 219 220 220 221 221 221 221 221 221 221 221 222 222 222 222 222 223 223 223 223 223 223 223 223 223 223 223 224 224 224 224 224 225 225 225 225 225 226 227 227 227 227 227 226 226 226 226 226 226 226 226 226 226 227 227 226 226 227 227 227 227 227 227 227 227 227 227 227 227 227 227 227 227 227 227 227 227 227 227 227 228 228 228 228 228 228 227 227 227 229 230 232 234 238 239 241 238 237 234 230 226 229 232 232 233 233 235 241 243 245 246 246 247 246 245 244 243 242 240 237 235 233 233 233 234 233 233 231 230 230 231 231 232 233 233 234 234 233 233 232 233 235 238 240 242 241 241 240 239 242 243 243 243 243 243 241 241 238 237 236 234 234 234 231 229 227 226 227 229 232 236 235 231 229 229 231 233 230 227 228 229 239 241 239 236 232 226 221 218 217 219 220 221 221 222 225 227 232 239 244 245 246 246 244 241 237 229 221 214 214 214 213 212 212 212 212 212 212 211 210 210 210 210 209 208 208 208 208 208 207 206 206 206 207 206 206 207 207 206 205 205 205 204 205 206 203 203 203 202 202 201 
29 93 212 202 202 206 205 205 205 205 206 209 208 207 206 205 207 207 208 208 209 210 210 210 210 210 210 211 211 211 211 211 211 211 212 213 213 213 213 214 214 215 215 214 214 215 215 216 216 216 217 217 218 216 216 217 217 218 218 218 218 219 220 220 218 218 219 219 220 220 220 221 221 222 222 222 222 222 222 222 223 223 223 223 223 224 224 224 224 224 224 224 224 224 224 224 225 225 225 225 225 226 226 226 226 226 227 227 227 227 227 227 227 227 227 227 227 227 227 227 227 227 228 227 226 226 227 228 227 227 227 227 227 227 227 227 227 227 228 228 228 228 228 228 228 228 228 228 228 229 229 229 229 229 228 228 228 228 230 230 232 234 236 238 240 237 236 235 231 227 229 232 234 235 233 235 241 243 245 246 246 247 246 246 245 244 243 241 239 237 236 235 234 235 234 233 232 231 231 231 232 232 233 233 235 235 233 233 234 234 236 238 240 243 242 241 240 239 241 242 242 242 242 242 241 240 239 238 236 234 234 234 232 230 229 230 233 236 239 240 238 233 230 230 232 231 232 233 234 234 240 242 242 240 237 233 229 224 222 224 226 228 229 232 234 234 237 242 246 247 247 248 246 245 242 236 227 215 215 213 213 213 213 212 211 211 211 210 210 209 209 210 210 209 209 209 209 209 208 206 206 206 207 206 206 207 207 206 205 205 205 204 205 206 204 203 203 202 202 204 
32 94 198 203 207 205 205 205 205 205 206 209 208 207 206 205 207 208 208 209 209 210 210 210 210 210 210 211 211 211 211 211 211 211 212 213 213 213 213 214 214 215 215 214 215 215 216 216 216 217 217 218 218 216 216 217 217 218 218 218 219 219 220 220 218 219 219 220 220 220 220 221 221 222 222 222 222 222 222 222 223 223 223 223 223 224 224 224 224 224 224 224 224 224 224 224 225 225 225 225 225 226 226 226 226 226 227 227 227 227 227 227 227 227 227 227 227 227 227 227 227 227 228 228 226 226 228 228 227 227 227 227 227 227 227 227 227 227 228 228 228 228 228 228 228 228 228 228 228 229 229 229 229 229 229 229 228 229 231 231 231 233 235 237 238 238 238 237 235 233 231 232 234 235 233 235 239 241 243 244 245 245 245 245 245 244 243 242 239 238 238 237 235 235 235 234 233 231 232 232 233 233 233 234 235 235 234 233 234 234 236 238 240 242 242 241 241 240 242 242 242 242 242 242 241 240 239 238 236 234 235 234 233 231 231 232 234 237 237 237 234 230 227 229 230 229 233 236 239 240 240 242 243 243 240 239 237 232 230 232 235 235 236 239 240 240 241 245 247 247 248 248 246 245 244 238 229 219 217 214 214 215 215 213 211 211 211 213 212 209 208 209 210 209 209 209 209 209 208 207 206 207 208 206 206 207 207 206 205 205 205 204 205 206 204 204 203 203 202 203 
33 92 198 205 207 205 206 206 206 206 206 207 207 207 207 207 208 208 209 209 210 211 211 211 211 211 211 212 212 212 212 212 211 211 212 213 213 214 214 215 215 216 216 215 215 216 216 217 217 217 218 218 219 217 217 218 218 219 219 219 219 220 221 221 219 219 220 220 221 221 221 222 222 223 223 223 223 223 223 223 224 224 224 224 224 225 225 225 225 225 225 225 225 225 225 225 226 226 226 226 226 227 227 227 227 227 227 227 227 227 227 227 228 228 228 228 228 228 228 228 228 228 229 228 227 227 228 229 229 229 229 229 229 229 229 229 229 229 229 229 229 229 229 229 230 230 230 230 230 230 230 230 230 230 231 230 230 230 232 232 231 232 234 235 236 238 239 239 237 235 234 233 233 233 235 236 237 239 241 242 243 243 243 243 243 244 243 241 239 238 238 237 236 237 236 235 234 233 233 234 234 235 234 235 236 236 235 234 233 233 234 236 238 238 238 239 240 241 240 240 240 240 240 240 240 239 239 239 237 234 235 235 234 233 230 231 234 236 236 234 230 227 225 228 230 232 233 237 240 242 239 242 244 244 243 241 241 238 238 238 240 241 240 240 241 243 243 246 247 246 247 248 246 246 244 238 230 225 222 218 218 220 220 218 215 214 215 218 217 213 210 209 211 210 210 210 210 210 209 208 207 208 209 207 206 207 207 206 205 205 205 204 205 206 205 204 204 203 203 202 
31 87 207 206 204 206 206 206 206 206 206 206 206 207 208 209 208 208 209 210 210 211 211 211 211 211 211 212 212 212 212 212 211 211 212 213 213 214 214 215 215 216 216 215 215 216 217 217 217 217 218 219 219 217 217 218 218 219 219 219 219 220 221 221 219 219 220 221 221 221 221 222 223 223 223 223 223 223 223 223 224 224 224 224 224 225 225 225 225 225 225 225 225 225 225 225 226 226 226 226 226 227 227 227 227 227 227 227 227 227 227 227 228 228 228 228 228 228 228 228 228 228 229 228 227 227 228 229 230 230 230 230 230 230 230 230 230 230 229 229 229 229 229 229 230 230 230 230 230 230 230 230 230 230 231 231 230 230 232 232 230 231 233 234 236 238 238 238 237 236 235 234 232 233 236 236 236 238 240 241 241 241 242 242 242 242 241 241 238 238 238 237 237 237 237 236 234 233 234 234 235 235 234 235 236 236 235 234 233 233 233 235 236 233 234 235 237 238 240 240 240 240 240 240 240 239 239 239 237 234 235 235 234 233 229 230 234 237 237 233 227 225 225 229 232 236 236 237 238 240 237 238 241 242 241 240 240 240 241 241 242 245 242 240 241 243 244 246 247 245 247 249 248 247 244 239 233 231 228 224 224 226 226 223 220 219 220 224 223 216 213 212 211 210 210 210 210 210 209 208 207 208 209 207 206 207 207 206 205 205 205 204 205 206 205 205 204 203 203 205 
28 98 207 210 207 207 207 207 207 207 207 207 207 207 207 207 209 209 209 209 209 210 211 212 212 213 213 213 213 213 213 213 213 213 214 215 215 215 215 215 215 215 216 218 218 218 218 218 217 217 218 219 219 219 219 220 220 221 221 220 220 220 220 220 219 219 220 221 221 222 223 224 224 223 222 223 223 223 223 223 223 223 224 225 225 224 224 225 226 226 225 225 225 225 225 225 227 227 227 227 227 228 228 228 228 228 229 229 228 228 227 227 227 227 228 229 229 229 229 229 229 229 230 230 230 230 230 230 230 230 230 230 230 230 230 230 230 230 230 230 230 230 230 230 230 230 230 230 230 229 229 230 231 231 230 230 230 230 230 231 233 233 233 233 233 237 238 236 236 235 235 234 232 233 236 237 237 238 240 241 242 240 240 239 239 238 237 238 239 238 236 235 236 236 235 234 234 232 232 232 232 232 232 233 235 235 235 235 232 228 231 233 231 230 232 233 235 235 237 237 237 237 236 236 236 236 237 237 237 235 234 235 236 236 234 234 235 235 236 234 230 229 230 235 238 239 239 238 237 236 239 236 233 234 238 241 242 244 245 246 245 243 243 244 246 248 248 247 246 247 247 248 248 249 247 244 240 237 234 232 234 236 235 233 230 227 227 226 225 223 220 215 212 211 208 209 211 210 210 210 210 210 210 208 207 208 208 209 208 206 205 205 206 208 208 205 204 204 204 205 
32 116 220 207 204 206 207 207 207 207 207 207 207 207 207 207 209 209 209 209 209 210 211 212 212 213 213 213 213 213 213 213 213 213 214 215 215 215 215 215 215 215 216 218 218 218 218 218 217 217 218 219 219 219 219 220 220 221 221 220 220 220 220 220 219 220 220 221 221 222 223 224 224 223 222 223 223 223 223 223 223 223 224 225 225 224 224 225 226 226 225 225 225 225 225 225 227 227 227 227 227 228 228 228 228 228 229 229 228 228 227 227 228 228 229 229 229 229 229 229 229 229 230 230 230 230 230 230 230 230 230 230 230 230 230 230 230 230 230 230 230 230 230 230 230 230 230 230 230 229 230 230 231 231 230 230 230 230 230 231 233 233 233 233 233 235 234 234 233 233 233 233 232 233 235 236 236 236 238 239 240 239 238 238 237 237 236 236 235 235 234 234 235 234 234 233 233 231 231 231 231 231 231 232 233 234 233 233 230 229 232 231 229 232 232 232 234 234 236 237 237 238 239 239 239 238 237 237 236 237 238 240 241 242 240 238 239 239 238 237 234 232 232 233 235 235 235 236 237 238 238 235 232 232 235 239 241 243 244 244 244 243 243 244 245 247 246 246 246 246 246 246 246 246 245 242 240 238 236 234 236 238 239 237 234 231 230 228 227 226 222 218 214 212 209 210 211 210 210 210 210 210 210 208 207 208 208 209 208 207 206 205 206 207 210 209 208 208 208 209 
30 119 224 209 208 209 207 207 207 207 207 208 208 208 208 208 210 210 210 210 210 211 211 212 212 213 213 213 213 213 213 213 213 213 214 215 215 216 216 216 216 216 217 218 218 218 218 218 217 217 218 219 219 219 219 220 220 221 221 220 220 220 220 220 220 220 221 221 222 222 223 224 224 223 222 223 223 223 223 223 223 223 224 225 225 224 224 225 226 226 226 226 226 226 226 226 227 227 227 227 227 228 228 228 228 228 228 228 228 228 228 228 228 228 229 229 230 229 229 229 229 229 230 230 230 230 230 230 231 231 231 231 231 230 230 230 230 230 231 231 231 231 231 231 231 231 231 231 231 230 230 231 231 232 231 231 231 231 231 231 232 232 232 232 232 233 232 232 231 231 232 232 233 233 234 235 235 235 236 237 237 237 236 236 235 235 235 233 231 231 232 233 233 233 233 232 232 230 230 230 230 230 231 231 232 233 232 230 229 230 231 230 228 230 231 233 236 239 240 240 242 243 244 245 244 243 241 239 239 241 243 244 247 248 246 244 244 242 242 242 240 237 234 233 233 231 233 236 238 240 240 237 234 233 234 237 241 243 244 243 243 243 242 242 244 246 245 246 246 246 245 244 244 243 242 240 240 238 238 238 239 241 244 243 240 237 234 231 231 229 226 221 217 212 209 210 211 210 210 210 210 210 210 209 208 208 208 208 208 207 207 207 207 207 213 214 215 215 214 215 
31 112 216 208 208 208 207 207 207 207 207 208 208 208 208 208 210 210 210 210 210 211 211 212 212 213 213 213 213 213 213 213 213 213 214 215 215 216 216 216 216 216 217 218 218 218 218 218 217 217 218 219 219 219 219 220 220 221 221 220 220 220 220 220 220 221 221 222 222 222 223 224 224 223 222 223 223 223 223 223 223 223 224 225 225 224 224 225 226 226 226 226 226 226 226 226 227 227 227 227 227 228 228 228 228 228 228 228 228 228 228 228 228 229 229 230 230 229 229 229 229 229 230 230 230 230 230 230 231 231 231 231 231 230 230 230 230 230 231 231 231 231 231 231 231 231 231 231 231 230 231 231 232 232 231 231 231 231 231 231 232 232 232 232 232 233 233 232 232 231 231 232 233 233 234 233 233 234 234 234 234 235 234 234 233 233 233 232 230 229 231 231 231 231 231 232 232 230 230 230 230 230 230 230 231 231 229 228 228 230 229 228 227 228 231 236 241 245 245 245 247 248 249 250 249 247 245 243 242 243 244 246 248 250 248 246 246 245 244 244 245 242 239 237 236 235 236 239 241 243 243 241 239 238 238 240 243 244 244 244 243 242 242 242 243 244 243 245 246 245 244 244 243 241 241 240 240 240 239 239 240 239 243 244 242 238 235 233 233 232 228 224 219 213 210 211 212 210 210 210 210 210 210 209 208 208 208 208 208 208 209 210 210 210 215 218 220 220 220 220 
33 110 214 205 205 207 207 207 207 207 208 209 209 209 209 209 211 211 211 211 211 211 211 212 212 213 213 213 213 213 213 213 213 213 214 215 215 216 217 217 217 217 217 218 218 218 218 218 217 217 218 219 219 219 219 220 220 221 221 220 220 220 220 220 221 221 222 222 223 222 223 224 224 223 222 223 223 223 223 223 223 223 224 225 225 224 224 225 226 226 227 227 227 227 227 227 227 227 227 227 227 228 228 228 228 228 227 227 228 228 229 229 229 229 230 230 231 229 229 229 229 229 230 230 230 230 230 231 232 232 232 232 232 230 230 230 230 230 231 232 232 232 232 232 232 232 232 232 232 231 231 232 232 233 232 232 232 232 232 232 231 231 231 231 231 234 233 232 231 231 230 231 233 234 232 232 232 232 232 232 232 233 232 232 231 231 231 231 231 231 230 229 229 229 230 230 230 228 228 228 228 228 229 229 229 229 227 226 228 229 227 226 229 230 235 241 245 246 247 248 248 249 249 249 249 248 246 245 244 243 243 244 246 247 246 245 245 246 246 246 247 246 246 244 243 243 244 244 245 245 245 245 243 243 243 244 245 246 246 246 244 242 241 240 241 242 241 243 245 244 242 243 243 241 240 242 242 242 241 239 238 237 238 240 241 239 234 234 235 233 230 225 221 214 211 211 212 210 210 210 210 210 210 209 209 208 208 207 207 207 211 213 216 216 217 220 223 224 224 224 
30 115 218 205 207 209 207 207 207 207 208 209 209 209 209 209 211 211 211 211 211 211 211 212 212 213 213 213 213 213 213 213 213 213 214 215 215 216 217 217 217 217 217 218 218 218 218 218 217 217 218 219 219 219 219 220 220 221 221 220 220 220 220 220 221 221 222 223 223 222 223 224 224 223 222 223 223 223 223 223 223 223 224 225 225 224 224 225 226 226 227 227 227 227 227 227 227 227 227 227 227 228 228 228 228 228 227 227 228 228 229 229 229 229 230 231 231 229 229 229 229 229 230 230 230 230 230 231 232 232 232 232 232 230 230 230 230 230 231 232 232 232 232 232 232 232 232 232 232 231 231 232 233 233 232 232 232 232 232 232 231 231 231 231 231 232 232 231 230 230 229 231 233 234 232 231 231 231 231 231 230 232 231 231 230 230 230 231 233 232 229 228 228 228 229 230 230 228 228 228 228 228 228 229 229 228 226 226 228 228 225 226 230 234 240 246 246 244 247 248 247 247 247 246 247 246 245 244 243 242 242 243 243 243 243 244 245 245 246 247 248 249 249 249 249 250 249 248 247 247 245 245 245 246 246 246 246 247 247 246 244 242 241 240 241 241 240 243 244 244 242 242 243 241 240 242 243 242 242 240 237 235 235 237 238 237 233 234 235 233 230 226 222 215 212 212 212 210 210 210 210 210 210 209 209 208 208 207 207 207 212 216 218 219 218 220 224 226 226 226 
26 131 220 205 204 208 207 207 207 209 209 207 208 209 210 211 209 210 210 211 211 210 210 211 211 212 212 213 213 214 215 215 214 214 215 216 216 217 217 217 217 217 217 217 217 217 217 217 219 219 219 219 219 218 218 219 219 220 220 221 221 221 221 221 223 222 221 222 223 223 223 223 223 223 223 224 224 224 224 224 224 225 226 225 224 226 227 227 227 227 227 227 227 227 227 227 227 227 227 227 227 227 227 228 229 229 228 228 228 228 228 228 229 229 229 229 229 229 229 229 229 229 230 231 231 231 231 231 231 231 231 231 231 231 231 231 231 231 230 230 231 231 232 232 231 231 231 231 231 231 231 231 231 231 231 231 231 231 231 231 231 231 231 231 231 230 230 230 230 230 231 231 231 231 231 231 231 231 230 229 229 231 231 231 231 231 230 230 230 230 230 230 229 229 229 229 229 228 227 227 226 226 227 226 226 226 228 228 228 229 232 234 236 239 243 246 246 246 248 248 248 248 248 248 246 244 241 240 240 242 244 243 242 244 244 244 246 246 248 248 248 248 248 248 248 247 247 247 247 247 245 245 246 247 247 246 246 248 247 243 240 242 243 244 244 243 240 239 240 241 241 240 240 241 241 242 242 242 242 241 240 240 238 235 233 232 233 234 235 234 232 230 227 220 215 213 213 211 208 210 211 211 210 209 208 208 208 208 208 209 210 212 214 216 214 216 219 223 225 225 
32 135 218 208 208 208 207 207 207 209 209 208 208 210 210 211 211 212 212 213 213 211 211 211 212 212 212 213 213 214 215 215 214 215 215 215 216 217 217 217 217 217 217 217 217 217 217 217 219 219 219 219 219 218 219 219 220 220 220 221 221 221 221 221 223 222 221 222 223 223 223 223 223 223 223 224 224 224 224 224 225 226 226 226 225 227 227 227 227 227 227 227 227 227 227 227 227 227 227 227 227 227 228 228 229 229 228 228 228 228 228 228 229 229 229 229 229 229 229 229 229 229 230 231 231 231 231 231 231 231 231 231 231 231 231 231 231 231 230 231 231 232 232 232 231 231 231 231 231 231 231 231 231 231 231 231 231 231 231 231 231 231 231 231 231 232 232 232 232 232 232 231 231 231 231 231 231 231 230 230 229 231 231 231 231 231 230 230 230 230 230 230 229 229 229 229 229 229 228 228 227 227 228 227 227 227 229 229 229 231 234 237 239 241 244 246 247 247 248 248 248 248 247 247 246 244 242 241 241 241 244 242 241 242 244 244 245 247 247 248 248 248 248 248 248 248 248 248 248 247 244 244 245 245 246 246 247 248 247 245 242 241 242 242 242 241 240 240 240 241 242 241 241 241 241 242 242 241 240 240 239 239 238 236 233 233 234 233 233 232 231 228 226 221 217 215 215 213 210 211 211 210 209 209 209 209 209 209 209 209 210 212 213 214 214 216 219 222 224 225 
33 135 212 207 208 207 207 207 207 209 209 209 209 210 211 211 211 211 211 212 213 212 211 212 212 213 213 213 213 214 215 215 215 215 215 215 215 216 217 217 217 217 217 218 218 218 218 218 219 219 219 219 219 219 219 220 220 221 221 221 221 221 221 221 223 222 221 222 223 223 223 223 223 223 224 225 225 225 225 225 225 226 227 226 225 227 227 227 227 227 227 227 227 227 227 227 228 228 228 228 228 228 228 229 229 230 229 229 229 229 229 229 230 230 230 230 230 230 230 230 230 230 231 231 231 231 231 231 231 231 231 231 231 231 231 231 231 231 231 231 232 232 233 233 232 232 232 232 232 232 232 232 232 232 232 232 232 232 232 232 232 232 232 232 232 232 232 232 232 232 232 232 232 232 232 232 232 231 231 230 230 231 231 231 231 231 230 230 230 230 230 230 230 230 230 230 230 230 229 229 228 228 228 228 228 228 230 230 231 233 238 241 243 243 245 246 248 248 248 248 247 247 247 246 245 244 242 241 241 241 243 242 240 242 243 243 245 246 247 248 248 248 248 248 248 248 248 247 247 247 245 245 245 246 247 247 248 248 247 245 242 240 241 241 240 239 240 240 240 241 241 241 240 241 241 241 241 239 239 239 238 238 238 236 233 233 233 232 232 231 230 228 227 223 218 217 217 215 212 212 212 211 209 208 208 208 208 208 208 208 209 211 212 213 214 215 217 219 220 222 
34 132 213 207 209 208 207 207 207 209 210 210 210 210 211 211 209 210 210 211 211 211 211 212 212 213 213 213 213 214 215 215 215 215 215 215 215 216 217 217 217 217 217 218 218 218 218 218 219 219 219 219 219 219 219 220 220 221 221 221 221 221 221 221 223 222 221 222 223 223 223 223 223 223 224 225 225 225 225 225 225 227 227 227 225 227 227 227 227 227 227 227 227 227 227 227 228 228 228 228 228 228 229 229 230 230 229 229 229 229 229 229 230 230 230 230 230 230 230 230 230 230 231 231 231 231 231 231 231 231 231 231 231 231 231 231 231 231 231 231 232 232 233 233 232 232 232 232 232 232 232 232 232 232 232 232 232 232 232 232 232 232 232 232 232 232 232 232 232 232 232 232 232 232 232 232 232 232 231 231 230 231 231 231 231 231 230 230 230 230 230 230 230 230 230 230 230 230 230 230 229 229 229 229 228 229 231 231 233 236 239 243 245 245 245 245 247 248 248 248 247 247 246 246 245 243 242 242 241 240 242 241 239 241 243 243 244 245 247 248 248 248 248 248 248 248 247 246 245 244 246 246 246 247 248 248 247 246 245 244 242 240 241 241 239 237 238 239 239 240 240 240 239 239 239 238 238 237 237 237 238 238 237 235 232 231 232 232 231 231 230 228 227 225 221 219 219 217 216 216 215 213 210 208 207 207 207 207 207 208 209 210 211 211 211 212 213 215 216 216 
28 121 215 205 204 208 207 207 207 209 210 211 211 211 211 211 210 210 211 211 212 212 212 213 213 214 214 213 213 214 215 215 216 216 215 214 214 216 217 217 217 217 218 219 219 219 219 219 219 219 219 219 219 220 220 221 221 222 222 221 221 221 221 221 223 222 221 222 223 223 223 223 223 223 224 226 226 226 226 226 226 227 228 227 226 227 227 227 227 227 227 227 227 227 227 227 229 229 229 229 229 229 229 230 230 231 230 230 230 230 230 230 231 231 231 231 231 231 231 231 231 231 231 231 231 231 231 231 231 231 231 231 231 231 231 231 231 231 232 232 233 233 234 234 233 233 233 233 233 233 233 233 233 233 233 233 233 233 233 233 233 233 233 233 233 232 232 232 232 232 233 233 233 233 233 233 233 232 232 231 231 231 231 231 231 231 230 230 230 230 230 230 231 231 231 231 231 232 231 231 230 230 231 230 230 230 232 233 235 237 240 242 244 245 243 243 245 246 248 248 247 246 244 244 244 242 242 243 242 239 241 239 238 239 242 242 244 245 246 247 248 248 248 248 248 246 245 244 243 242 244 244 245 245 246 246 246 244 243 242 242 242 242 241 240 238 236 237 237 238 238 238 237 237 237 236 235 235 235 236 236 237 235 233 230 229 230 231 232 232 232 230 229 227 223 221 221 219 220 219 218 215 212 210 209 209 209 209 209 208 208 208 209 209 209 210 210 211 211 211 
29 120 221 207 207 210 207 207 207 209 210 211 211 211 211 211 211 211 212 213 213 212 212 213 213 214 214 213 213 214 215 215 216 216 215 214 214 216 217 217 217 217 218 219 219 219 219 219 219 219 219 219 219 220 220 221 221 222 222 221 221 221 221 221 222 222 221 222 224 224 223 223 223 223 224 226 226 226 226 226 226 227 228 227 226 227 227 227 227 227 227 227 227 227 227 227 229 229 229 229 229 229 229 230 231 231 230 230 230 230 230 230 231 231 231 231 231 231 231 231 231 231 231 231 231 231 231 231 231 231 231 231 231 231 231 231 231 231 232 232 233 233 234 234 233 233 233 233 233 233 233 233 233 233 233 233 233 233 233 233 233 233 233 233 233 234 234 234 234 234 233 233 233 233 233 233 233 233 232 231 231 231 231 231 231 231 230 230 230 230 230 230 231 231 231 231 231 232 232 231 231 230 231 231 230 230 232 234 236 237 240 241 243 245 243 242 244 245 248 248 246 245 244 243 244 243 242 243 242 238 240 239 238 239 242 242 244 244 246 247 248 248 248 248 247 245 244 242 241 240 241 241 242 242 243 245 245 243 242 241 242 243 243 241 240 238 235 235 236 236 237 236 236 235 234 234 234 234 234 235 236 236 233 231 229 228 229 231 232 233 233 231 231 228 223 221 222 220 222 221 220 217 214 212 212 212 212 212 210 207 208 208 208 209 207 208 208 208 208 209 
30 130 220 208 208 209 209 209 209 209 210 211 211 211 211 211 211 211 212 213 213 213 213 214 214 215 215 216 216 216 216 216 215 215 216 217 217 218 218 218 218 218 218 219 219 219 219 219 219 219 220 221 221 221 220 219 219 220 221 222 222 222 222 222 221 223 223 223 228 224 223 224 225 226 225 225 225 225 225 225 226 226 226 226 226 226 226 227 228 228 228 228 228 228 228 228 230 230 230 230 230 230 230 230 230 230 231 231 231 231 231 231 232 232 232 232 232 231 231 231 231 231 233 233 231 231 233 233 231 231 231 231 231 232 232 233 234 234 233 233 233 233 232 233 234 234 234 234 234 234 234 234 234 234 234 234 234 234 234 234 234 234 234 234 234 233 233 233 233 233 232 232 232 232 232 232 233 233 233 233 233 232 232 232 232 232 231 230 230 230 230 230 230 230 229 230 231 231 231 230 229 229 231 231 231 231 231 231 233 235 238 241 242 244 243 243 244 245 247 247 246 246 245 245 244 243 241 239 237 235 236 236 237 237 239 239 242 244 245 246 246 245 245 244 244 243 243 242 240 238 240 241 241 241 241 241 241 240 240 239 239 240 240 239 239 238 237 237 237 237 237 235 234 234 234 234 234 235 235 234 233 232 233 233 232 231 231 232 232 231 230 228 228 227 226 224 222 221 221 221 220 217 215 213 212 210 210 210 211 210 210 209 208 208 209 209 208 207 207 208 
33 134 221 209 210 210 209 209 209 209 210 211 211 211 211 211 211 211 212 213 213 213 214 214 215 215 215 216 216 216 216 216 215 216 216 217 217 218 218 218 218 218 218 219 219 219 219 219 217 218 218 219 219 221 221 220 220 221 221 222 222 222 223 224 226 221 220 223 222 224 224 225 225 225 225 225 225 225 225 225 226 226 226 226 226 226 227 227 228 228 228 228 228 228 228 228 230 230 230 230 230 230 230 230 230 230 231 231 231 231 231 231 232 232 232 232 232 231 231 231 231 231 232 232 232 233 235 235 233 233 233 233 233 233 233 232 232 232 233 234 234 234 234 234 234 234 234 234 234 234 234 234 234 234 234 234 234 234 234 234 234 234 234 234 234 233 233 233 233 233 232 232 232 232 232 232 233 233 233 233 233 232 232 232 232 232 231 230 230 230 230 230 231 230 230 230 231 231 231 230 229 229 231 231 231 231 231 231 233 234 237 239 240 242 242 242 243 244 245 245 245 244 244 243 242 241 239 237 235 233 234 234 235 235 237 237 240 242 243 244 244 243 243 242 242 243 243 243 241 239 241 241 241 241 241 242 242 241 241 240 240 241 240 238 237 236 237 236 235 235 235 233 232 232 232 232 232 233 233 233 234 234 234 233 233 232 232 231 231 229 228 227 226 225 224 222 220 219 219 219 218 217 216 214 212 210 210 210 211 210 210 209 208 208 209 208 208 208 207 207 
32 135 220 207 208 210 210 210 210 210 210 211 211 211 211 211 211 211 212 213 213 214 214 215 215 216 216 216 216 216 216 216 216 216 217 217 218 219 219 219 219 219 219 219 219 219 219 219 219 219 219 219 219 221 221 220 220 221 222 222 222 223 223 224 222 221 224 226 225 228 228 226 225 224 224 226 226 226 226 226 227 227 227 227 227 227 227 228 228 229 229 229 229 229 229 229 230 230 230 230 230 231 231 231 231 231 231 231 231 231 231 231 232 232 232 232 232 232 232 232 232 232 233 232 231 232 233 234 233 233 233 233 233 233 233 233 232 232 232 232 232 232 232 232 234 234 234 234 234 234 234 234 234 234 234 234 234 234 234 234 234 234 234 234 234 233 233 233 233 233 233 233 233 233 233 233 233 233 233 233 233 232 232 232 232 232 231 231 231 231 231 231 231 230 230 230 232 231 231 230 229 229 231 231 231 231 231 231 230 231 233 234 235 239 240 241 241 241 243 243 242 242 241 240 238 238 236 235 234 232 232 233 234 234 235 235 237 239 239 241 242 241 241 240 240 241 242 242 240 238 240 241 241 241 241 241 241 240 240 240 240 240 239 237 236 235 237 236 235 233 232 231 231 231 231 231 231 231 231 233 233 234 234 233 233 232 232 231 229 228 227 226 225 221 221 219 218 217 216 217 217 216 216 214 212 210 210 210 211 210 210 209 208 208 208 208 208 208 208 206 
34 141 221 208 209 210 210 210 210 210 210 211 211 211 211 211 211 211 212 213 213 214 214 215 215 216 216 216 216 216 216 216 216 217 217 218 218 219 219 219 219 219 219 219 219 219 219 219 222 221 221 221 221 222 222 220 220 222 222 222 222 223 224 225 223 225 224 222 220 224 225 225 225 226 226 226 226 226 226 226 227 227 227 227 227 227 228 228 229 229 229 229 229 229 229 229 230 230 230 230 230 231 231 231 231 231 231 231 231 231 231 231 232 232 232 232 232 232 232 232 232 232 233 233 231 230 230 231 233 233 233 233 233 234 233 233 234 234 234 234 234 234 234 234 234 234 234 234 234 234 234 234 234 234 234 234 234 234 234 234 234 234 234 234 234 233 233 233 233 233 233 233 233 233 233 233 233 233 233 233 233 232 232 232 232 232 231 231 231 231 231 231 232 231 230 231 232 231 231 230 229 229 231 231 231 231 231 230 227 227 228 229 230 235 237 238 238 237 238 238 238 237 237 236 234 234 232 231 231 232 232 233 234 234 232 232 233 234 235 238 239 239 238 237 237 237 238 238 237 235 237 237 237 237 237 237 237 237 237 238 238 238 237 236 235 234 236 236 234 232 232 231 231 231 231 231 231 230 231 232 232 232 232 232 231 231 230 229 228 227 226 224 223 220 219 218 217 216 215 216 217 215 214 213 212 210 210 210 211 210 210 209 208 208 208 208 208 208 208 206 
37 145 223 209 211 211 211 211 211 211 211 211 211 211 211 211 211 211 212 213 213 214 215 216 216 217 217 216 216 216 216 216 217 217 218 218 219 220 220 220 220 220 220 219 219 219 219 219 222 222 221 220 220 222 222 221 221 222 223 222 223 224 225 228 231 220 224 232 232 232 232 230 227 225 226 227 227 227 227 227 228 228 228 228 228 228 228 229 229 230 230 230 230 230 230 230 230 230 230 230 230 232 232 232 232 232 231 231 231 231 231 231 232 232 232 232 232 233 233 233 233 233 233 232 232 233 235 236 237 237 237 237 237 235 236 236 238 239 236 235 235 234 234 234 234 234 234 234 234 234 234 234 234 234 234 234 234 234 234 234 234 234 234 234 234 233 233 233 233 233 234 234 234 234 234 234 233 233 233 233 233 232 232 232 232 232 232 232 232 232 232 232 232 232 231 232 233 231 231 230 229 229 231 231 231 231 231 230 228 228 227 228 227 230 233 235 234 231 233 233 233 232 232 231 231 231 230 229 229 230 231 231 232 232 230 230 231 232 232 233 233 232 232 231 231 231 232 233 232 231 232 232 232 232 232 231 232 232 233 234 234 236 235 235 236 236 235 235 235 234 234 232 232 232 232 232 232 231 231 230 230 230 230 230 229 229 228 227 226 225 224 223 221 219 218 218 217 217 216 216 216 214 212 212 212 210 210 210 211 210 210 209 208 208 207 207 208 209 209 208 
35 146 220 207 210 210 211 211 211 211 211 211 211 211 211 211 211 211 212 213 213 214 215 216 216 217 217 216 216 216 216 216 217 217 218 219 219 220 220 220 220 220 220 219 219 219 219 219 221 221 220 219 219 222 222 221 221 222 222 223 222 227 228 217 174 158 173 202 209 206 208 213 220 229 232 228 227 227 227 228 228 228 228 228 228 228 228 229 230 230 230 230 230 230 230 230 230 230 230 230 230 232 232 232 232 232 231 231 231 231 231 231 232 233 231 231 232 234 234 234 233 233 232 232 239 241 239 236 233 234 231 231 233 227 228 232 237 237 239 236 235 238 236 240 233 235 234 235 233 234 234 234 234 234 234 234 234 234 234 234 234 234 234 234 234 233 233 233 234 233 234 234 234 233 234 234 233 232 232 232 233 231 232 232 232 232 231 232 232 232 233 232 232 233 232 233 232 231 231 230 230 230 231 231 231 231 231 231 230 229 229 229 228 227 230 232 231 228 230 230 230 229 229 228 229 229 229 228 228 228 228 229 229 230 229 229 230 230 230 229 227 227 226 225 225 228 229 229 229 228 228 228 229 229 229 229 229 230 231 231 231 233 234 235 236 237 236 236 236 236 236 234 232 232 232 232 232 231 231 230 229 228 229 228 228 227 227 226 226 224 223 222 221 219 218 218 217 216 216 215 215 213 210 211 212 210 210 210 211 210 210 209 208 208 207 207 208 209 209 209 
35 155 218 209 208 211 210 210 210 212 212 211 211 211 211 211 212 212 213 214 214 215 215 215 215 215 216 217 217 217 217 217 220 217 216 217 220 219 218 219 219 220 220 220 220 220 220 220 221 221 221 221 221 222 222 222 222 222 222 223 224 231 206 148 118 125 136 142 155 151 151 161 172 197 224 231 229 227 229 230 228 228 228 228 228 228 228 229 230 230 229 229 229 230 231 231 232 232 231 230 230 231 231 231 231 231 233 233 232 231 233 234 232 234 231 235 231 232 234 230 233 235 245 237 236 210 187 175 167 161 148 158 160 151 146 165 180 173 190 191 187 210 200 228 233 241 230 235 234 235 236 237 235 233 234 235 235 235 235 235 235 235 235 235 235 230 230 233 237 235 234 235 236 235 235 237 234 232 233 229 232 233 234 233 230 232 232 232 231 231 232 233 233 231 230 232 231 232 232 233 233 232 232 232 231 231 230 230 230 230 230 230 230 230 230 230 230 230 228 228 228 228 228 229 230 230 229 228 228 228 228 228 228 228 227 227 227 227 227 226 225 224 224 223 223 226 226 226 226 225 227 227 229 232 233 234 235 235 235 235 235 235 236 237 237 238 238 238 238 238 238 236 234 234 233 233 232 232 231 229 229 228 227 227 226 225 225 224 223 222 222 221 220 219 218 217 214 212 212 212 211 210 210 211 212 211 211 210 210 209 209 208 209 210 209 209 208 207 207 207 
41 162 221 212 208 211 211 210 211 213 213 212 212 212 212 212 212 213 213 214 214 215 215 215 215 215 216 217 217 217 217 217 219 218 218 218 219 218 219 219 220 220 220 220 220 220 220 220 221 221 221 221 221 222 222 222 222 222 227 221 237 201 145 104 114 124 139 140 136 137 144 157 163 165 180 218 234 229 233 224 228 228 228 228 228 228 229 229 230 230 229 230 230 231 231 231 230 230 232 232 233 231 231 231 231 231 236 235 231 232 231 230 236 230 228 235 232 237 242 247 245 210 198 172 131 87 84 103 119 124 120 131 121 120 112 127 134 130 135 137 130 166 173 185 221 218 238 242 232 235 236 237 235 234 234 235 235 235 235 235 235 235 235 235 235 233 228 231 237 235 235 235 235 236 233 230 229 230 232 231 235 231 234 236 236 238 236 233 232 232 232 234 233 236 238 229 228 232 236 235 231 232 232 232 232 231 231 230 230 230 230 230 230 230 230 230 230 230 228 228 228 228 228 229 230 230 229 228 228 228 228 228 228 228 227 227 227 227 227 226 225 225 224 224 224 225 223 223 223 225 225 225 227 230 231 233 235 235 235 235 235 234 234 235 235 235 235 235 235 235 235 234 233 232 232 231 231 229 229 227 226 226 225 224 224 223 223 222 221 220 220 219 218 218 218 216 214 212 212 212 212 211 211 211 212 211 211 210 210 210 209 209 209 210 209 209 209 208 208 209 
37 162 220 212 212 212 211 211 211 213 214 213 213 213 213 213 213 213 214 214 215 216 216 216 216 216 217 218 218 218 218 218 219 219 218 219 219 219 219 220 220 221 221 221 221 221 221 221 222 222 222 222 222 223 223 223 223 223 221 231 215 133 98 103 107 118 133 134 134 141 145 155 167 171 175 187 217 235 228 229 229 229 229 229 229 229 229 230 230 231 231 230 231 231 232 232 230 231 232 233 234 232 232 232 232 232 229 227 229 231 233 230 225 237 239 240 246 242 208 169 145 103 87 80 79 63 54 64 104 90 66 96 122 107 111 129 119 112 117 108 81 111 162 210 209 186 210 225 240 237 237 236 235 235 235 236 236 236 236 236 235 235 235 235 235 239 236 234 234 235 234 232 231 232 235 236 234 237 242 240 241 241 238 231 226 226 238 242 242 242 244 242 239 234 228 236 236 233 231 231 231 232 233 233 232 232 231 231 231 231 231 231 231 230 230 230 230 230 229 229 229 229 229 229 230 230 229 228 228 228 228 228 228 228 227 227 227 227 227 227 226 225 225 224 224 224 221 219 221 224 223 223 225 227 227 228 228 228 228 228 228 229 229 229 229 229 228 228 228 228 228 228 228 227 227 226 226 225 225 224 223 223 222 221 221 220 220 219 218 218 217 217 216 217 217 216 214 212 213 212 212 211 211 212 212 211 211 210 210 210 209 209 209 211 210 209 209 208 208 210 
35 163 217 208 209 211 212 211 212 213 214 213 213 213 213 213 213 214 214 215 215 216 216 216 216 216 217 218 218 218 218 218 219 219 220 219 219 219 219 220 220 221 221 221 221 221 221 221 222 222 222 222 222 223 223 223 223 223 222 237 153 87 87 105 116 116 115 113 124 133 139 150 166 172 175 178 191 217 230 233 229 229 229 229 229 229 230 230 231 231 231 230 231 231 232 232 233 232 232 232 232 231 231 231 231 231 230 234 237 233 232 238 243 242 240 214 180 123 94 72 77 84 93 91 101 102 90 79 97 76 59 78 95 92 108 122 111 116 119 93 58 53 99 162 139 200 225 208 228 239 237 236 235 235 236 236 236 236 236 236 236 236 236 236 236 232 237 235 230 235 236 240 244 240 240 243 243 240 231 212 199 170 155 137 129 133 141 148 159 173 184 199 213 228 241 231 238 239 231 230 233 233 233 233 232 232 231 231 231 231 231 231 231 230 230 230 230 230 229 229 229 229 229 229 230 230 229 228 228 228 228 228 228 228 227 227 227 227 227 227 226 225 225 224 224 224 221 220 221 224 223 223 224 225 226 224 223 223 223 223 223 224 224 223 223 223 222 222 222 222 222 223 223 222 222 221 221 222 222 222 221 221 220 220 219 218 218 217 217 216 216 215 215 216 216 215 214 212 213 213 212 212 211 212 212 211 211 210 210 211 210 209 210 211 210 210 209 209 208 209 
43 172 222 212 212 212 212 212 212 214 215 215 215 215 215 215 214 214 215 215 216 217 217 217 217 217 218 219 219 219 219 219 219 220 221 220 219 220 220 221 221 222 222 222 222 222 222 222 223 223 223 223 223 224 224 224 224 223 232 214 118 100 102 121 127 112 108 109 114 122 135 147 162 165 165 179 181 186 213 231 230 230 230 230 230 230 230 231 231 232 232 231 232 232 233 233 232 232 233 233 234 232 233 234 234 234 239 242 244 249 249 247 235 202 151 100 82 77 86 90 97 97 100 91 97 98 93 74 84 93 75 71 107 108 116 118 117 124 143 99 51 42 51 51 38 129 213 210 205 238 238 236 236 237 237 237 237 237 237 236 235 235 235 236 235 236 239 242 241 239 245 243 227 215 207 195 169 144 123 109 111 112 121 130 132 132 133 130 126 120 117 124 137 158 182 188 210 230 235 237 233 231 234 234 233 233 232 232 232 232 232 232 232 230 230 230 230 230 230 230 230 230 230 230 230 230 229 228 228 228 228 228 228 228 227 227 227 227 227 227 227 226 226 225 225 225 224 224 224 225 223 223 224 224 225 224 223 223 223 223 223 222 222 221 220 220 221 221 221 221 221 221 221 220 220 219 219 220 220 220 220 220 219 219 218 217 217 217 217 216 216 215 215 215 215 215 214 212 214 213 213 212 212 212 212 211 211 210 211 211 211 210 211 212 211 210 210 209 209 208 
38 169 219 211 213 212 212 212 212 214 215 215 215 215 215 215 214 214 215 216 216 217 217 217 217 217 218 219 219 219 219 219 218 220 221 221 219 219 220 221 221 222 222 223 222 222 221 223 222 222 224 223 223 225 224 224 225 223 235 173 111 100 79 120 112 96 105 112 111 118 131 142 155 168 160 158 172 160 163 214 231 232 231 231 230 231 230 232 232 232 229 230 233 232 232 233 230 232 238 241 241 247 245 238 234 231 227 209 188 175 156 131 111 93 85 81 85 84 89 91 94 94 101 95 93 92 103 101 105 105 98 89 125 122 123 119 123 111 131 117 63 42 67 55 43 52 121 155 193 237 238 238 235 238 235 238 240 242 242 241 242 245 242 239 239 234 227 228 229 212 191 154 117 110 112 108 107 111 122 130 140 149 144 141 144 150 153 151 143 137 130 120 131 136 124 161 172 203 229 239 231 231 235 234 234 234 232 231 232 232 232 232 232 230 230 230 230 230 230 230 230 230 230 230 230 230 229 228 228 228 228 228 228 228 227 227 227 227 227 227 227 227 226 225 225 225 227 227 227 225 224 224 224 224 225 223 222 222 222 222 222 223 223 222 221 220 222 222 222 222 222 222 221 221 221 220 220 220 220 220 220 220 219 219 218 217 217 217 217 216 216 215 215 214 215 215 214 213 214 214 213 212 212 212 212 211 211 210 211 211 211 210 211 212 211 211 210 209 209 209 
40 171 220 212 210 212 211 212 212 213 214 215 215 215 215 215 216 216 216 216 216 216 216 217 217 218 218 218 218 219 220 220 216 218 218 220 221 221 221 221 221 221 221 223 225 224 218 225 224 221 227 222 229 226 224 225 225 227 226 122 110 105 85 104 113 86 99 105 106 112 121 150 160 175 168 156 155 165 162 176 205 228 236 232 230 227 229 233 231 230 231 232 233 228 230 238 241 239 227 200 181 172 158 135 126 118 102 95 90 82 80 82 87 91 90 91 95 94 91 87 89 93 90 85 94 91 92 92 117 106 108 96 110 117 120 101 111 116 122 133 79 73 88 60 52 69 110 136 170 217 245 243 240 242 244 243 237 230 218 198 186 197 192 187 164 152 153 138 136 131 112 117 116 109 110 119 141 136 134 148 153 154 141 139 140 130 136 143 134 148 124 102 110 134 124 139 114 167 198 226 235 230 232 231 233 234 233 232 232 232 232 232 232 231 231 231 231 231 231 231 231 231 231 230 229 229 229 229 229 230 230 230 230 230 228 227 227 227 227 227 226 226 226 226 226 226 226 227 228 228 227 227 226 225 225 224 223 223 223 223 223 222 222 221 220 220 221 221 221 221 221 220 219 220 220 221 221 219 219 219 219 219 219 219 218 217 217 217 217 216 216 215 215 216 216 215 214 214 214 214 214 214 214 213 213 212 212 211 211 211 211 210 209 209 209 210 210 210 210 210 
39 171 220 212 211 212 212 212 213 213 214 215 215 215 215 215 216 216 216 216 216 216 217 217 218 218 219 219 219 219 219 219 218 218 219 220 221 221 221 221 221 221 220 223 225 226 223 221 225 223 222 224 225 220 227 224 229 245 211 98 97 102 98 101 128 87 92 98 100 108 121 137 159 160 161 162 138 150 172 174 165 183 217 233 233 236 230 229 235 233 238 235 230 235 213 179 180 192 184 154 128 110 107 100 102 106 99 96 96 94 93 93 91 92 96 99 98 96 95 94 91 89 89 87 92 89 95 90 99 104 101 107 108 121 130 103 107 128 128 132 130 119 101 66 72 107 113 129 152 203 230 217 231 227 207 176 150 137 139 146 143 134 116 140 153 154 173 152 155 180 163 138 151 151 126 121 144 150 144 156 150 141 134 127 125 127 134 138 126 148 147 121 104 107 117 127 104 146 171 196 235 238 233 234 231 228 232 234 232 232 232 232 232 231 231 231 231 231 231 231 231 231 231 230 229 229 229 229 229 230 230 230 230 230 228 227 227 227 227 227 226 226 226 226 226 226 227 227 227 228 227 227 226 225 225 224 223 223 223 223 223 222 222 221 221 220 221 221 221 221 221 220 219 220 220 221 221 219 219 219 219 219 219 219 218 217 217 217 217 217 216 216 215 216 216 215 215 214 214 214 214 214 214 213 213 213 212 212 211 211 211 210 210 210 211 211 210 209 209 209 
40 172 222 214 214 213 212 213 213 214 214 215 215 215 215 215 217 217 217 217 217 217 217 218 218 219 220 220 220 219 218 217 218 219 220 221 221 221 221 221 221 221 224 224 188 222 225 224 221 227 226 212 151 130 131 127 155 157 116 74 98 110 122 103 111 102 103 100 110 123 140 134 158 159 154 160 149 143 159 187 159 147 180 213 237 227 230 229 230 240 231 191 166 181 176 149 141 109 115 148 156 122 105 95 93 90 92 95 92 87 87 91 92 89 94 99 98 94 93 95 97 97 97 89 90 89 98 90 75 92 97 112 111 115 113 121 105 114 133 144 159 132 112 83 80 117 119 132 146 176 173 143 137 100 100 116 130 140 142 153 165 183 165 121 192 202 188 182 182 168 165 158 177 169 144 144 134 131 155 147 142 146 134 120 118 125 126 133 118 128 144 145 139 126 147 136 148 157 144 169 225 236 233 235 235 234 231 230 233 233 233 233 233 232 232 232 232 232 231 231 231 231 231 231 230 230 230 230 230 230 230 230 230 230 228 228 228 228 228 228 227 227 227 227 227 227 227 227 227 227 227 227 226 225 225 224 224 224 224 224 224 223 222 222 221 221 221 221 221 221 221 220 220 220 220 220 220 220 220 220 220 220 219 219 218 217 217 218 218 217 217 216 216 217 216 216 215 215 215 215 215 215 215 214 214 213 213 212 212 212 211 211 210 210 213 211 210 209 208 210 
37 169 219 212 212 213 212 213 213 214 214 215 215 215 215 215 217 217 217 217 217 217 217 218 218 219 220 220 220 219 218 217 219 220 220 221 221 221 221 221 221 221 222 220 139 225 224 223 228 222 210 138 69 56 57 54 71 59 49 54 67 96 123 95 105 107 102 108 118 110 132 131 147 148 147 158 163 155 144 175 169 160 155 167 217 236 235 240 236 187 131 115 127 136 103 62 80 81 73 88 112 117 100 93 94 90 89 90 87 88 95 102 98 92 92 97 100 94 92 92 94 98 101 94 93 94 102 91 65 75 92 104 111 114 112 116 111 112 123 148 162 133 127 115 102 112 131 137 146 157 183 164 107 62 129 128 137 142 148 174 153 187 190 147 136 202 151 151 153 145 141 139 148 148 142 144 142 135 139 128 131 139 122 108 112 120 123 140 127 106 116 126 145 133 130 136 156 155 135 154 188 229 240 231 231 236 236 234 233 233 233 233 233 232 232 232 232 232 231 231 231 231 231 231 230 230 230 230 230 230 230 230 230 230 228 228 228 228 228 228 227 227 227 227 227 227 227 227 227 227 227 227 226 225 225 224 224 224 224 224 224 223 223 222 222 221 221 221 221 221 221 220 220 220 220 220 220 220 220 220 220 220 219 219 218 217 217 218 218 217 217 216 216 217 217 216 216 215 215 215 215 215 215 214 214 213 213 212 212 212 212 211 211 210 213 211 210 209 208 210 
35 167 217 211 212 214 213 214 214 215 215 215 215 215 215 215 218 218 218 218 218 218 218 219 219 220 219 219 219 219 219 219 221 221 221 221 221 221 221 221 221 221 222 226 117 224 231 222 224 183 121 69 59 60 57 51 49 44 42 46 58 72 95 94 98 115 75 77 101 109 125 136 147 152 147 156 162 163 144 157 177 158 150 161 177 205 238 228 188 146 138 150 151 152 140 124 127 134 118 106 96 98 96 98 93 86 89 91 88 86 88 95 99 99 98 100 103 103 102 100 100 100 104 98 100 101 103 90 74 65 73 96 104 108 116 94 105 110 115 144 161 159 150 137 109 118 141 132 123 132 161 195 79 102 133 123 113 106 118 143 162 164 182 160 107 231 179 147 139 151 150 148 146 137 137 141 139 151 131 128 135 128 116 102 104 120 130 143 132 100 112 121 134 155 137 122 142 153 139 144 158 186 232 242 239 234 234 236 234 234 234 234 234 233 233 233 233 233 231 231 231 231 231 231 231 231 231 231 231 230 230 230 230 230 229 229 229 229 229 229 228 228 228 228 228 228 228 227 226 226 227 227 226 225 225 225 225 225 225 225 225 224 223 223 222 222 221 221 221 221 221 221 221 220 220 219 219 221 221 221 221 221 219 219 218 217 217 218 219 218 218 217 217 218 217 217 216 216 216 216 216 216 216 215 215 214 214 213 213 213 212 212 211 211 211 210 210 210 210 209 
39 171 223 215 216 215 213 214 214 215 215 215 215 215 215 215 218 218 218 218 218 218 218 219 219 220 219 218 219 219 220 221 221 221 221 221 221 221 221 221 221 221 223 230 99 196 229 223 239 162 35 56 71 66 49 38 39 40 43 41 44 56 59 52 90 106 79 102 113 127 123 130 139 154 140 153 160 155 149 154 176 161 151 157 164 169 168 144 125 137 139 140 142 142 140 141 146 147 137 136 126 92 96 102 92 91 89 91 91 92 90 88 92 100 105 103 104 102 105 105 104 100 103 102 104 105 104 90 88 67 60 93 96 105 114 103 102 102 118 130 148 166 150 150 131 126 130 141 142 134 144 180 151 150 127 123 114 107 119 131 142 170 175 162 100 190 169 148 159 163 158 142 143 150 150 158 135 160 153 122 126 127 117 96 89 107 117 141 165 145 137 120 127 145 128 142 139 153 134 140 164 153 178 214 239 236 232 235 234 232 234 235 233 232 234 233 232 231 231 230 231 232 232 232 231 231 231 231 231 230 230 230 230 230 229 229 229 229 229 229 229 228 228 228 228 228 228 227 226 225 227 227 226 225 225 225 225 225 225 225 225 224 224 223 222 222 221 221 221 221 221 221 221 220 220 219 219 221 221 221 221 221 220 219 218 217 217 218 219 218 218 217 217 218 218 217 216 216 216 216 216 216 216 215 215 214 214 213 213 213 213 212 211 211 209 210 210 210 210 210 
38 169 225 214 216 214 213 214 214 215 215 216 216 216 216 216 216 216 217 218 218 218 217 217 217 219 220 221 221 221 221 221 219 219 220 221 221 222 222 222 222 222 224 233 99 173 232 226 242 124 37 52 68 59 53 47 45 49 43 47 41 42 53 48 111 121 90 99 114 134 131 138 144 148 138 146 156 157 151 154 160 152 148 133 128 123 115 122 116 137 134 137 145 146 147 146 141 137 139 151 156 154 134 105 87 92 88 95 95 97 91 95 91 98 109 111 111 107 106 107 107 112 109 110 105 108 112 98 92 85 77 87 89 107 112 113 114 110 129 131 150 157 154 155 136 141 135 144 135 132 139 159 193 154 123 121 119 107 105 121 149 162 176 149 104 180 167 161 174 151 149 135 138 143 155 171 143 174 185 127 125 140 126 94 68 78 98 117 140 144 151 138 110 128 159 134 142 140 132 155 153 149 135 153 222 243 233 234 233 234 236 236 235 230 238 232 235 232 235 232 231 232 229 231 231 231 231 231 231 230 230 230 230 230 231 231 230 229 229 230 230 229 229 228 227 228 229 229 226 223 225 225 225 225 225 226 226 226 226 226 226 224 224 223 222 222 222 222 221 220 220 221 221 221 221 221 221 219 219 220 221 221 221 220 220 218 218 217 217 217 217 217 217 218 218 217 216 216 216 216 216 216 216 214 213 213 213 213 212 211 211 211 211 211 209 209 209 209 209 209 
34 172 221 211 215 213 214 214 215 215 215 216 216 216 216 216 216 217 217 218 218 218 218 217 218 220 220 221 221 221 221 221 219 220 220 221 221 222 222 222 222 222 224 236 119 156 242 240 185 64 37 45 56 55 48 54 63 61 50 51 51 50 44 45 115 143 78 97 117 126 131 132 145 149 146 147 150 138 116 112 118 115 120 112 97 107 115 127 126 127 124 121 144 136 142 148 153 148 135 133 139 158 155 159 151 115 100 82 96 97 88 97 97 104 103 106 117 116 103 118 113 106 115 109 103 105 104 100 99 98 84 74 81 101 101 103 117 124 137 133 141 156 160 152 150 150 146 133 143 128 125 142 173 155 126 113 89 72 72 71 120 147 189 114 84 183 169 160 164 149 147 140 139 134 142 158 156 143 169 162 125 132 141 112 67 67 91 91 103 133 146 129 114 122 146 157 143 139 96 125 155 133 129 158 231 243 232 237 232 233 233 233 235 234 234 230 235 231 233 234 235 235 232 228 231 231 231 231 231 230 230 230 230 230 231 231 230 229 229 229 228 228 229 229 229 227 228 228 228 225 225 225 225 225 225 226 226 226 226 226 226 224 224 223 223 222 222 222 222 221 221 221 221 221 221 221 221 219 220 220 220 221 218 219 219 220 220 219 217 217 217 217 217 218 218 217 216 216 216 216 216 216 216 214 213 213 213 213 213 213 213 213 213 213 211 211 211 211 211 211 
42 181 224 212 215 213 214 215 215 216 216 217 217 217 217 217 217 217 218 218 219 219 218 218 218 220 221 221 221 221 221 221 220 220 221 221 222 223 223 223 223 223 223 239 133 101 219 211 67 48 44 41 49 55 61 62 51 52 56 55 42 45 47 36 101 125 67 96 104 126 143 135 140 132 126 104 92 86 79 79 83 86 99 110 114 118 123 121 111 107 113 102 107 113 106 116 113 132 132 118 117 128 127 127 194 170 136 93 88 91 97 89 101 108 101 103 114 128 126 117 115 114 130 117 107 114 108 104 98 104 98 74 82 100 105 102 103 102 122 130 130 147 162 142 148 151 161 169 156 143 132 133 152 145 146 111 85 96 81 54 62 112 129 71 70 146 137 137 144 144 145 144 140 129 137 147 160 159 151 161 134 134 136 130 103 80 100 88 86 133 150 121 113 148 110 169 149 161 134 124 153 151 138 147 201 236 239 236 237 238 249 247 239 240 245 242 236 232 229 210 228 232 230 231 232 232 232 232 232 231 231 231 231 231 231 231 230 229 229 230 231 230 230 230 229 227 228 228 228 228 226 226 226 226 226 226 226 226 226 226 226 225 224 224 223 223 223 222 222 221 221 222 222 222 222 222 222 220 220 220 220 220 220 220 220 220 220 219 218 218 218 218 218 218 218 217 216 216 216 216 216 216 216 215 214 214 214 214 214 213 213 213 213 213 211 211 211 211 211 212 
36 171 221 210 213 213 214 215 215 216 216 217 217 217 217 217 217 218 218 219 219 219 219 218 219 220 221 221 221 221 221 221 220 221 221 222 222 223 223 223 223 223 220 238 173 67 119 96 44 48 50 46 41 48 56 59 52 41 35 83 99 59 41 32 80 86 77 107 104 125 141 138 140 132 122 95 81 89 93 92 96 102 96 92 94 104 96 104 108 98 101 99 81 110 95 109 99 108 110 106 117 125 116 102 196 205 195 146 124 104 84 90 98 109 107 113 118 127 120 116 111 117 145 124 113 122 114 105 101 105 107 83 79 79 98 105 97 88 108 128 131 141 162 143 132 144 158 170 178 150 133 124 133 127 115 58 48 74 67 61 51 86 72 47 70 142 129 127 122 119 132 146 139 128 141 147 144 171 151 152 141 140 140 139 122 105 102 104 107 129 158 159 122 161 124 145 153 159 127 128 144 146 141 140 154 188 235 246 239 215 179 153 143 142 163 196 221 239 236 200 236 236 229 234 232 232 232 232 232 231 231 231 231 231 231 231 230 229 229 230 231 231 228 227 227 229 228 228 228 229 226 226 226 226 226 226 226 226 226 226 226 225 225 224 224 223 223 223 222 222 221 222 222 222 222 222 222 220 220 220 220 220 223 221 221 219 218 218 218 218 218 218 218 218 218 217 216 216 216 216 216 216 216 215 214 214 214 214 214 212 212 212 212 212 210 210 210 210 210 212 
30 158 223 214 214 215 215 216 216 217 217 218 218 218 218 218 218 218 219 219 220 220 219 219 219 221 222 221 221 221 221 221 221 221 222 222 223 224 224 224 224 224 225 232 215 82 51 45 47 44 46 39 44 47 37 44 57 47 30 76 95 70 88 115 139 132 134 146 143 134 136 136 133 132 123 111 106 111 109 103 102 109 102 98 96 98 98 114 93 85 86 79 74 97 103 106 96 98 107 103 104 131 98 55 154 179 188 175 148 139 103 82 86 109 108 118 131 123 117 144 131 103 137 138 130 126 119 112 112 113 109 85 71 69 91 109 113 101 107 122 129 138 155 149 138 146 145 147 176 181 142 136 107 76 88 49 39 46 37 45 45 45 39 49 106 142 122 125 117 112 126 142 130 124 142 148 133 145 151 147 137 145 152 140 117 120 121 104 102 121 127 160 151 129 132 130 154 137 126 104 131 144 135 132 134 137 178 205 175 121 93 87 83 80 103 186 245 245 188 171 233 233 232 234 233 233 233 233 233 232 232 232 232 232 231 231 230 229 229 229 230 230 230 230 230 231 228 227 227 229 227 227 227 227 227 226 226 226 226 226 226 226 225 225 224 224 224 223 223 222 222 223 223 223 223 223 223 221 221 220 219 219 222 222 221 220 219 219 219 219 219 219 219 218 218 217 216 216 216 216 216 216 216 215 215 215 215 215 215 213 213 213 213 213 211 211 211 211 211 211 
39 153 225 219 220 217 215 216 216 216 217 219 217 218 219 218 218 218 219 220 220 220 219 219 219 221 222 221 221 221 221 221 221 221 222 223 223 224 224 224 224 224 225 218 248 144 37 44 47 45 47 48 29 27 46 73 101 125 136 147 141 146 152 144 141 138 127 125 131 122 119 120 116 123 117 116 114 109 107 110 111 105 97 103 106 112 95 108 89 77 79 75 85 71 83 81 97 92 105 107 108 109 115 49 118 153 125 182 188 152 130 88 96 116 102 103 114 110 105 120 125 105 120 137 137 121 116 115 117 119 106 86 72 78 86 100 109 98 106 121 131 144 157 145 126 135 128 157 159 168 175 139 139 111 70 36 35 57 45 33 26 32 41 61 118 127 106 118 115 108 120 137 123 119 141 147 146 137 150 147 143 150 150 141 124 123 130 115 114 122 112 146 155 138 154 143 152 124 142 138 119 110 130 121 131 118 110 117 109 100 90 78 78 85 92 194 244 175 125 172 240 232 238 231 233 233 232 232 232 232 231 231 232 233 232 232 231 229 229 231 232 234 237 239 239 234 232 228 227 228 227 227 227 227 226 225 225 226 226 226 226 226 226 225 224 224 224 224 223 222 222 223 223 223 223 223 223 221 221 220 219 220 220 221 221 221 222 220 219 219 219 219 219 218 218 217 216 217 216 216 216 216 216 215 215 215 215 215 215 214 214 214 214 214 213 213 213 213 213 212 
32 116 168 162 196 226 225 220 217 220 218 214 219 217 217 218 217 217 218 219 219 220 221 221 221 221 221 221 221 221 221 221 222 222 222 222 222 224 224 223 223 224 225 217 232 232 104 34 42 45 33 42 73 106 144 160 156 152 151 157 148 126 121 120 119 119 115 121 121 122 129 128 129 131 131 124 120 115 117 109 104 106 102 106 109 112 111 114 108 86 82 80 80 75 74 100 93 89 94 103 110 113 118 78 124 139 82 80 172 159 145 122 91 100 105 110 109 102 106 118 109 110 111 113 123 121 114 119 118 114 98 92 74 74 76 91 98 101 101 110 127 137 153 149 125 128 115 137 149 144 173 159 103 78 55 28 32 50 51 48 30 31 52 70 84 113 103 121 114 105 107 126 114 114 138 137 138 146 141 144 143 147 150 149 132 117 128 114 103 119 108 126 140 147 150 158 155 115 116 138 126 124 131 105 109 115 111 103 99 78 80 65 77 85 97 131 138 74 124 227 244 231 234 230 231 232 232 233 235 237 233 233 238 244 243 241 239 237 237 241 243 244 245 246 246 245 242 236 230 227 227 226 227 228 227 225 226 226 226 224 224 226 226 226 226 226 225 225 224 223 223 223 223 222 222 221 221 223 222 221 222 223 220 220 220 220 220 219 219 219 219 219 219 218 218 217 218 219 217 217 217 217 217 216 216 216 216 216 215 212 212 212 212 212 212 212 212 212 212 213 
38 88 155 160 147 146 164 203 224 223 224 226 216 217 219 218 218 218 218 219 219 220 221 221 221 221 221 221 221 221 221 221 222 222 222 222 222 224 224 223 223 224 224 226 218 243 204 53 24 37 71 129 153 152 149 149 152 140 127 120 124 129 116 124 121 113 118 125 124 126 129 126 129 137 137 125 123 120 124 117 108 113 111 113 114 111 115 112 119 111 86 73 77 78 76 99 107 97 91 104 108 124 106 66 129 128 128 96 121 148 163 148 95 77 92 104 103 92 101 105 104 112 111 105 110 117 110 111 115 109 97 81 54 53 64 89 101 102 106 113 121 128 150 153 127 117 115 105 122 123 139 139 63 31 30 26 35 37 50 66 34 40 61 79 79 87 104 116 107 115 108 122 112 118 136 126 122 135 135 141 142 149 152 150 136 125 124 124 97 97 117 129 131 160 153 154 171 126 100 140 123 119 131 111 102 103 106 77 72 61 69 69 79 80 88 78 64 86 205 253 237 240 231 233 234 236 239 242 244 247 245 245 247 249 251 250 248 247 247 248 248 248 249 250 250 250 248 243 236 230 228 228 229 231 230 228 228 226 225 223 224 226 226 226 226 226 225 225 225 224 224 223 223 223 222 222 222 223 222 221 222 223 220 220 220 220 220 219 219 219 219 219 219 218 218 217 218 219 217 217 217 217 217 216 216 216 216 216 216 214 214 214 214 214 212 212 212 212 212 212 
26 54 91 107 92 95 91 102 123 151 179 206 231 225 214 225 219 219 219 219 219 220 221 221 221 221 221 222 222 222 222 222 223 223 223 223 223 224 224 223 223 224 224 225 225 229 249 112 74 137 160 158 134 125 135 142 141 139 138 120 114 124 119 129 136 126 128 127 130 134 136 129 127 130 125 118 123 116 122 125 119 120 115 120 125 118 100 105 109 108 101 88 93 88 73 79 94 106 98 108 107 123 112 80 147 128 135 143 145 151 149 149 127 82 80 97 92 86 100 95 96 107 100 96 104 113 106 107 110 101 94 76 49 50 62 79 87 103 103 106 118 125 146 152 138 118 119 98 110 118 111 123 72 32 34 28 28 36 41 43 26 53 91 64 84 80 105 109 102 109 104 111 106 111 121 119 124 138 135 139 140 145 147 147 136 129 133 127 112 95 98 123 128 157 165 149 168 143 98 99 143 120 122 136 114 86 98 68 50 67 70 62 60 71 69 69 65 152 255 243 252 245 236 241 241 243 246 249 250 248 249 249 249 248 251 251 249 249 249 249 248 248 248 248 249 250 251 250 244 237 229 228 230 234 233 229 226 225 225 226 226 226 226 226 226 226 226 225 225 224 224 224 224 223 223 222 222 222 222 221 222 223 220 220 220 220 220 220 220 220 220 220 220 218 218 217 218 219 217 217 217 217 217 216 216 216 216 216 215 214 214 214 214 214 213 213 213 213 213 214 
34 77 78 85 83 90 89 94 93 97 113 127 169 217 227 221 220 219 219 219 219 220 221 221 221 221 221 222 222 222 222 222 223 223 223 223 223 224 224 223 223 224 225 220 230 234 200 129 143 133 117 124 123 121 125 128 124 121 119 124 127 111 112 120 133 135 132 131 139 143 148 144 137 131 120 120 130 112 113 122 121 127 125 126 126 126 123 122 118 111 101 93 92 83 79 89 96 118 104 103 106 111 112 63 135 133 119 120 123 140 141 138 153 112 80 95 88 87 102 95 94 108 93 88 101 110 103 108 110 97 91 73 54 59 77 86 79 96 96 101 117 119 133 135 133 109 103 95 98 103 101 98 64 37 33 29 27 28 26 22 40 60 94 64 62 72 93 95 97 95 104 107 105 104 111 116 124 138 132 136 140 140 143 147 139 134 131 123 98 87 98 95 116 145 149 156 161 147 130 79 115 120 119 117 125 88 63 49 40 61 61 49 54 66 50 64 86 115 208 249 249 249 250 246 248 248 249 250 250 248 250 250 248 247 249 250 248 248 249 249 249 249 248 248 247 246 249 251 248 244 237 236 237 241 240 237 233 229 227 226 226 226 226 226 226 226 226 226 225 225 224 224 224 223 223 222 222 222 222 221 222 223 220 220 220 220 220 220 220 220 220 220 220 218 218 217 218 219 217 217 217 217 217 216 216 216 216 216 215 213 213 213 213 213 213 213 213 213 213 214 
27 77 90 96 95 91 89 96 98 108 135 131 121 151 189 219 223 221 220 219 219 220 221 221 221 221 222 223 223 223 223 223 224 224 224 224 224 225 224 223 223 224 226 231 232 186 59 71 91 102 112 115 121 122 118 124 126 116 112 117 117 121 125 104 116 130 126 139 145 145 152 149 142 133 123 125 135 119 115 119 122 128 128 129 125 128 144 136 125 114 105 106 94 75 74 94 100 118 111 102 102 116 120 64 102 132 119 124 130 127 120 145 147 137 88 84 85 80 88 79 76 95 83 68 78 95 93 98 103 93 89 70 60 65 77 82 72 81 90 100 110 107 120 126 122 97 85 83 83 77 84 80 50 42 33 33 32 27 28 37 72 77 70 68 36 66 95 94 96 94 102 97 96 97 101 107 114 128 122 129 137 133 140 147 141 136 135 134 89 73 110 98 101 123 153 158 162 162 137 96 96 102 107 113 109 113 51 30 37 39 50 44 53 43 44 68 85 82 123 243 244 249 253 248 249 249 249 249 248 249 249 249 250 250 250 250 249 249 250 251 251 251 250 249 249 246 248 249 249 247 247 246 247 249 247 247 245 238 231 229 227 226 226 226 226 226 227 226 226 225 225 225 225 224 224 223 223 222 222 221 222 223 220 220 220 220 220 221 221 221 221 221 221 218 218 217 218 219 217 217 217 217 217 216 216 216 216 216 216 214 214 214 214 214 214 214 214 214 214 213 
27 67 87 85 93 104 98 93 93 101 128 132 128 136 142 159 211 222 221 220 220 219 222 222 220 222 221 223 223 222 223 223 223 224 225 223 224 226 224 223 223 224 225 230 229 81 41 49 70 71 105 120 117 115 119 130 127 120 120 123 124 125 129 121 113 126 124 143 145 139 144 142 133 120 116 122 130 125 119 113 124 120 116 123 131 135 138 134 117 114 115 116 111 84 75 90 88 110 123 110 99 113 130 107 84 139 118 129 139 138 150 139 136 146 95 70 77 77 76 62 57 78 77 55 57 82 87 93 90 86 88 68 66 78 72 74 72 81 87 94 99 97 114 125 115 86 76 68 71 84 78 82 64 45 33 32 28 30 33 46 75 84 50 42 29 88 126 109 106 108 99 95 95 100 99 102 110 121 114 123 131 124 132 145 138 132 132 125 93 75 113 112 108 128 136 154 142 140 106 105 100 95 100 106 108 106 48 35 36 29 52 44 49 43 30 75 75 72 76 187 255 243 249 248 248 248 248 248 249 248 248 248 249 251 249 248 248 248 249 250 250 250 249 248 248 250 250 249 248 248 249 248 249 250 248 249 250 244 240 238 236 228 226 225 226 226 227 227 225 225 225 225 225 224 224 223 223 222 222 221 222 223 220 220 220 220 220 221 221 221 221 221 221 218 218 217 218 219 217 217 217 217 217 216 216 216 216 216 216 216 216 216 216 216 214 214 214 214 214 214 
27 78 91 84 91 99 92 92 103 96 104 114 127 139 147 139 156 216 223 220 220 217 223 223 219 227 220 223 223 222 222 224 220 222 228 220 223 228 224 224 225 225 222 242 170 41 37 49 76 74 100 124 116 117 117 116 117 114 112 121 124 117 120 125 122 128 125 131 140 139 138 148 140 114 111 123 123 120 109 94 109 107 115 122 132 134 139 125 121 125 119 116 111 88 77 93 95 111 123 115 106 116 137 125 69 74 140 51 74 144 160 138 140 149 112 76 74 77 72 66 64 67 74 52 43 55 85 87 84 81 80 55 55 82 78 89 81 78 73 85 100 105 106 111 116 78 76 73 71 82 79 76 75 54 30 44 44 41 38 52 72 93 94 64 61 117 131 88 83 89 94 98 86 85 86 89 105 123 106 115 123 115 125 150 137 131 134 126 89 90 105 112 106 124 134 152 141 134 95 111 102 93 94 87 107 68 35 29 29 29 43 39 43 36 49 78 63 74 72 150 251 246 250 250 249 249 249 249 249 249 249 249 249 249 249 249 249 249 249 249 249 249 249 249 249 249 249 249 249 249 249 249 249 249 249 248 248 248 248 248 247 239 231 226 226 226 227 225 223 224 226 227 226 225 225 224 224 224 224 223 222 222 222 222 221 220 220 221 222 221 221 220 220 219 219 219 219 219 218 218 217 216 216 217 217 216 216 215 215 216 216 216 216 216 215 214 213 214 214 214 
26 73 86 82 88 87 93 96 102 98 106 117 131 138 138 123 134 193 228 220 217 223 220 221 222 228 221 219 219 224 221 221 224 223 226 222 223 225 225 226 228 225 226 235 110 28 38 49 83 92 91 113 117 105 107 110 110 108 107 113 116 111 108 107 117 125 124 128 130 142 145 153 149 124 116 123 120 114 114 117 123 111 112 120 133 139 135 131 126 129 130 112 104 92 73 81 88 100 122 123 108 92 118 137 128 57 124 60 41 106 120 141 133 155 145 87 58 65 68 75 63 64 71 53 41 53 74 65 70 69 63 49 50 60 74 88 72 72 69 78 98 105 110 115 107 76 80 83 86 84 81 81 84 75 55 42 46 56 43 54 63 88 93 84 91 119 91 62 65 114 133 107 68 53 80 89 100 109 98 107 117 107 127 141 132 131 126 123 90 98 114 110 103 112 117 141 152 138 108 90 102 98 100 107 89 50 30 30 28 31 36 47 49 42 67 82 58 72 73 123 240 255 247 249 249 249 249 249 249 249 249 249 249 249 249 249 249 249 249 249 249 249 249 249 249 249 249 249 249 249 249 249 249 249 249 248 248 248 248 248 249 247 242 237 231 224 225 225 225 225 225 226 226 225 225 224 224 224 224 223 222 222 222 222 222 221 221 221 222 221 221 220 220 219 219 219 219 219 218 218 218 217 217 217 217 217 216 216 215 216 216 216 216 216 215 214 213 214 214 214 
24 68 85 82 79 85 92 85 100 107 108 116 129 138 140 129 118 158 214 222 223 224 216 219 218 226 217 193 189 217 225 222 226 223 223 226 224 222 224 223 225 224 225 226 64 30 39 40 50 66 74 93 103 90 90 94 95 103 107 108 110 108 109 103 110 121 124 125 120 132 134 141 146 128 115 123 124 114 116 127 128 113 111 118 128 132 132 123 125 132 134 120 111 98 71 73 79 88 110 115 107 90 109 129 154 87 111 80 77 80 76 93 115 147 159 117 71 71 58 62 54 61 65 42 44 70 101 56 58 51 39 43 53 53 65 75 64 73 76 72 80 97 112 119 101 79 85 85 85 91 90 90 90 86 68 51 48 61 50 57 68 97 88 80 95 90 61 78 105 150 141 135 109 52 64 79 89 91 87 93 109 109 115 134 127 129 122 113 70 86 119 117 114 114 112 122 139 134 112 81 80 87 73 101 68 41 34 36 29 32 30 63 70 45 63 75 63 74 73 119 242 245 250 245 249 249 249 249 249 249 249 249 249 249 249 249 249 249 249 249 249 249 249 249 249 249 249 249 249 249 249 249 249 249 249 248 248 248 248 248 249 251 249 247 239 228 226 227 227 226 225 225 226 225 225 224 224 224 224 223 222 222 223 222 222 221 221 222 222 221 221 220 220 220 220 220 220 220 219 218 218 217 217 218 218 217 217 216 216 216 216 216 216 216 215 214 213 214 214 214 
21 63 84 84 72 76 90 82 86 101 118 117 122 130 141 140 117 128 175 202 209 193 196 203 204 223 203 154 152 204 224 225 228 225 221 228 221 206 208 208 219 228 234 228 53 35 37 40 35 44 75 89 91 85 83 81 81 90 103 112 109 104 105 102 108 118 119 114 101 114 121 127 136 132 118 121 128 116 109 119 115 107 114 121 125 125 133 112 123 136 124 122 119 101 80 78 78 90 102 104 109 108 106 110 149 126 105 118 94 86 89 77 113 129 138 148 128 124 101 97 89 86 82 62 50 43 153 86 41 37 33 40 48 55 64 76 72 73 74 65 72 96 108 112 94 81 90 87 84 91 92 91 85 81 67 67 55 57 55 71 80 76 85 104 112 78 113 149 153 148 146 134 143 93 42 62 79 96 87 79 114 122 105 134 129 127 113 99 67 79 116 110 106 113 118 126 132 136 117 92 83 74 67 90 62 39 30 30 28 27 25 63 77 33 62 75 67 67 79 90 229 246 249 246 249 249 249 249 249 249 249 249 249 249 249 249 249 249 249 249 249 249 249 249 249 249 249 249 249 249 249 249 249 249 249 248 248 248 248 248 248 248 249 249 245 237 228 227 227 226 225 225 226 225 225 224 224 224 224 223 222 222 223 223 222 222 221 222 222 221 221 220 220 220 220 220 220 220 219 219 218 218 217 218 218 217 217 216 216 216 216 216 216 216 215 214 213 214 214 214 
17 56 80 87 78 60 75 93 93 86 104 110 110 117 135 140 129 127 137 163 166 141 158 164 175 201 166 114 128 187 207 218 226 223 215 223 207 178 182 188 205 219 225 209 41 33 35 42 37 44 70 86 75 77 77 76 78 80 93 112 112 103 99 99 112 120 120 112 95 100 108 110 118 126 121 121 124 111 103 116 116 109 115 116 111 119 125 104 118 132 116 122 121 105 94 81 82 99 109 107 114 113 113 119 135 139 66 124 120 87 85 109 130 123 117 135 132 143 133 126 118 108 98 101 78 37 97 166 28 25 37 48 58 52 62 72 68 64 56 50 63 83 92 104 86 73 85 84 84 78 77 78 73 78 70 69 58 53 50 68 78 105 157 151 101 99 141 159 163 168 171 140 136 129 48 50 61 74 99 92 105 120 105 128 127 116 99 87 77 77 106 104 110 111 106 123 128 129 117 92 92 63 67 62 53 35 32 30 32 29 29 46 70 43 60 76 77 51 64 64 172 254 250 249 249 249 249 249 249 249 249 249 249 249 249 249 249 249 249 249 249 249 249 249 249 249 249 249 249 249 249 249 249 249 249 248 248 248 248 248 248 248 247 249 249 245 231 228 226 225 226 226 226 225 225 224 224 224 224 223 222 222 224 223 223 222 222 222 222 221 221 220 220 221 221 221 221 221 220 219 219 218 218 219 219 218 218 217 217 216 216 216 216 216 215 214 213 214 214 214 
17 52 71 86 83 77 68 71 90 87 94 97 96 101 122 137 130 132 115 123 119 105 125 123 142 167 123 89 115 165 180 198 208 203 191 196 173 142 149 154 171 180 187 164 30 33 35 38 40 45 54 78 68 65 71 75 83 82 87 105 112 106 102 102 103 112 113 109 96 96 107 105 110 122 121 116 113 101 97 113 110 104 113 118 113 123 123 113 120 130 122 129 124 106 98 73 71 87 106 108 102 101 143 95 134 160 85 67 145 113 97 121 131 126 119 118 104 121 104 85 75 73 85 78 91 54 72 202 53 26 34 44 61 60 64 65 63 67 54 44 58 72 90 108 81 64 68 71 74 57 59 66 68 75 72 62 55 49 39 61 114 168 163 101 97 132 139 152 173 191 177 170 133 140 76 35 45 61 78 65 75 117 106 117 130 110 89 82 77 68 96 99 103 95 82 110 126 115 107 81 79 50 62 54 49 29 31 31 31 26 30 24 53 75 49 63 84 41 40 75 109 241 252 248 248 248 250 250 249 249 248 248 249 249 249 250 250 248 249 249 249 249 249 250 249 249 249 248 249 248 249 249 249 249 249 248 248 248 248 248 249 250 248 248 250 249 236 229 226 224 226 226 226 226 225 224 223 224 224 224 223 222 224 224 223 222 222 222 222 221 221 220 221 221 221 221 221 221 220 220 219 218 218 219 219 218 218 217 217 216 216 216 216 216 215 215 214 215 214 215 
12 53 56 73 75 86 92 74 75 82 92 95 91 77 93 130 126 134 122 106 107 102 106 97 119 130 97 82 99 124 140 149 161 157 148 147 127 114 122 117 131 132 156 116 31 36 37 42 39 36 38 64 66 55 64 67 80 93 97 104 103 105 109 105 104 111 97 92 89 86 103 102 105 111 107 104 101 87 83 99 98 100 107 116 112 113 118 117 118 122 120 126 121 96 87 60 59 69 90 107 98 49 100 125 111 152 130 51 133 132 130 120 136 133 122 89 78 127 69 54 62 71 83 80 80 83 124 225 63 24 33 41 58 56 57 61 72 69 55 44 64 77 104 101 75 57 47 53 51 49 58 67 74 52 69 78 63 53 38 65 132 162 154 98 140 162 160 150 146 185 188 159 154 128 105 38 43 52 48 66 71 90 80 122 126 109 75 90 85 68 82 90 96 87 85 110 124 113 97 84 70 48 62 71 59 33 31 35 28 28 40 38 43 76 58 50 56 42 66 74 74 177 253 248 246 247 249 250 249 250 247 247 248 250 249 249 246 242 244 244 248 247 246 250 247 250 251 247 250 247 248 249 249 249 249 249 249 249 249 249 249 249 249 249 249 249 246 238 231 227 225 227 230 231 230 226 224 224 223 226 225 222 224 223 223 222 222 223 222 220 220 222 223 219 219 220 220 219 221 219 220 220 216 217 217 216 218 217 215 215 216 217 217 216 214 218 217 215 215 216 
13 57 58 70 75 80 86 75 72 67 73 86 91 79 87 122 130 138 125 105 101 94 97 96 104 101 85 83 87 100 105 107 106 108 108 109 105 110 107 101 110 109 129 92 25 37 40 42 36 36 35 54 56 45 55 64 77 93 102 115 110 115 130 110 106 111 93 78 70 65 88 95 96 99 105 110 99 84 83 97 98 102 104 112 113 115 111 109 119 117 109 112 115 103 94 74 79 93 88 90 102 71 53 103 103 129 150 92 126 125 116 130 137 129 147 110 120 114 71 72 91 88 79 62 63 93 181 222 52 19 28 43 52 47 50 56 62 55 51 49 67 71 106 89 53 41 46 45 45 62 60 58 67 51 65 83 71 57 37 72 112 145 125 93 133 152 179 166 134 160 191 152 154 119 151 73 37 41 38 61 59 79 67 119 111 102 97 95 74 74 75 81 98 101 85 102 118 104 92 77 66 58 74 69 54 36 28 26 29 40 51 56 47 74 70 55 62 54 80 68 60 102 233 250 249 248 251 249 245 249 249 251 250 248 249 242 238 240 243 243 247 248 245 249 247 247 251 251 252 249 249 249 249 249 249 249 249 249 249 249 249 249 249 249 249 249 249 247 237 230 229 235 239 240 239 236 233 230 225 224 225 224 222 221 221 222 223 223 223 221 221 222 223 222 222 221 221 220 223 220 219 219 218 218 218 216 217 216 215 217 217 216 215 213 216 216 214 213 216 216 
16 62 59 66 73 68 71 67 67 61 58 67 83 80 82 117 125 137 133 108 95 90 94 98 96 89 85 85 85 94 99 99 95 91 99 105 108 114 101 100 107 109 113 71 25 37 37 35 29 34 32 45 55 39 50 66 78 91 95 94 94 106 126 116 93 109 98 77 60 50 74 86 89 95 96 97 99 94 93 99 100 99 96 105 115 119 118 113 114 103 97 105 124 131 139 146 154 155 152 149 141 139 134 133 126 119 112 106 115 127 118 113 108 103 109 123 114 99 101 108 118 108 85 124 128 77 171 183 33 28 37 45 41 38 45 59 67 51 40 44 69 69 99 61 27 30 48 43 53 53 52 55 73 62 58 68 63 56 37 80 85 69 66 82 87 108 158 169 141 141 159 168 147 133 143 134 80 56 32 37 44 74 30 37 82 72 106 101 57 67 65 78 98 109 91 104 107 97 96 82 60 48 61 58 46 34 28 28 32 49 56 58 41 74 89 72 78 73 82 68 58 60 208 255 251 249 246 248 250 248 250 248 249 245 245 238 237 240 237 239 244 247 249 250 246 248 249 249 249 247 249 249 249 249 249 249 249 249 249 249 249 249 249 249 249 249 249 251 245 235 237 244 246 247 246 245 244 239 230 225 225 224 221 221 221 223 225 227 227 226 226 226 227 229 228 226 225 224 225 220 218 219 218 219 218 217 218 217 215 216 217 217 216 216 219 218 214 214 220 223 
11 59 56 59 61 62 68 64 64 61 57 58 77 77 75 107 125 123 119 107 101 97 97 95 88 83 80 78 82 92 101 100 102 90 97 109 108 111 99 103 107 104 92 57 27 37 38 35 31 33 32 42 51 39 41 53 71 90 96 81 83 95 110 123 94 96 84 68 58 50 62 71 73 79 84 89 88 85 84 86 98 90 84 97 111 107 117 120 119 115 126 137 141 126 125 135 134 133 131 138 140 131 127 116 104 109 104 117 112 117 108 94 84 77 93 97 105 121 134 119 101 101 99 104 109 81 113 90 19 35 45 43 35 34 46 63 69 49 40 42 54 61 79 42 27 34 46 38 51 65 69 64 73 54 46 47 49 53 45 63 51 37 60 79 43 78 114 137 135 123 138 151 140 141 126 133 112 108 87 47 27 47 35 35 66 83 78 86 69 66 61 74 78 92 88 108 94 92 91 73 52 47 50 55 46 32 30 38 44 43 48 54 57 66 73 59 78 88 86 73 54 58 183 255 251 252 250 248 245 254 240 216 237 248 241 239 239 222 208 222 240 245 249 251 247 250 248 248 247 249 249 249 249 249 249 249 249 249 249 249 249 249 249 249 249 249 247 250 248 243 246 249 249 249 248 248 248 247 239 232 228 224 222 223 224 228 230 233 234 234 233 231 232 235 234 232 232 231 229 224 222 222 221 219 218 218 220 221 218 217 220 222 223 223 225 223 220 220 225 232 
19 68 66 67 64 60 65 60 61 57 57 55 69 74 70 99 122 106 106 105 105 105 107 96 87 81 73 75 82 93 101 96 103 96 94 109 109 108 105 110 109 100 70 47 26 34 38 36 32 31 32 41 47 41 41 59 72 72 79 76 72 82 97 112 104 83 64 55 52 52 57 65 71 70 77 86 84 81 80 76 87 78 76 89 96 101 115 117 119 127 125 119 122 111 114 113 113 111 99 106 120 119 121 99 94 107 102 113 113 107 94 104 118 68 92 92 86 110 115 101 84 87 92 97 100 77 86 69 41 38 37 35 33 40 59 61 51 43 41 35 36 62 69 47 52 49 60 59 66 88 88 65 60 43 39 35 42 46 55 45 35 33 64 74 35 63 87 112 125 118 135 118 123 120 124 106 105 92 86 90 75 88 44 28 64 88 92 73 68 77 73 69 71 84 89 112 84 78 76 62 49 51 44 51 47 35 31 44 60 42 50 46 74 69 59 48 72 89 90 65 46 51 142 231 250 248 252 218 175 207 193 154 205 228 225 234 228 189 170 197 231 239 230 239 251 243 243 250 247 248 249 249 249 249 249 249 249 249 249 249 249 249 249 249 249 250 248 248 248 248 248 249 249 248 248 249 249 247 245 242 235 228 224 226 228 233 236 238 239 239 239 235 235 237 236 236 236 235 234 232 231 230 227 221 218 220 224 225 225 227 229 231 232 232 231 231 228 228 232 236 
17 63 65 67 59 51 56 54 55 51 51 50 62 70 73 99 106 91 100 101 80 88 113 106 97 92 71 68 79 90 98 92 100 101 94 106 110 103 105 111 110 97 64 46 27 31 36 34 27 27 33 44 52 50 42 46 66 76 74 72 66 77 101 104 104 76 58 52 47 45 46 58 68 72 70 72 82 87 85 75 77 72 75 84 85 107 104 94 100 105 115 120 114 110 107 91 92 87 86 93 97 101 96 98 95 103 108 110 122 110 89 97 122 88 71 101 97 110 109 109 105 91 90 80 89 86 86 93 86 59 44 36 42 61 86 79 46 48 37 24 32 78 69 53 57 56 75 84 83 76 73 48 43 37 39 35 40 39 55 36 32 36 79 80 28 66 92 116 125 114 132 125 111 107 126 107 80 64 57 69 46 92 45 31 50 61 97 98 65 51 74 80 73 85 85 104 69 62 65 59 53 47 36 41 40 37 34 34 47 46 62 47 83 72 59 59 72 77 90 64 59 56 116 175 229 247 203 135 105 130 134 112 166 184 185 206 199 153 142 172 202 209 186 198 234 216 236 248 240 234 248 249 249 251 248 251 248 249 249 249 250 251 249 248 247 247 250 249 245 249 248 248 249 248 248 248 248 245 247 248 243 236 229 230 233 237 241 240 240 241 241 238 236 237 237 237 238 238 240 239 238 236 232 223 218 221 227 229 232 237 238 239 237 237 235 236 233 234 235 234 
13 55 64 68 60 47 48 51 56 57 57 57 60 60 63 82 103 89 92 100 62 47 72 105 108 94 88 76 72 88 97 92 94 97 95 98 100 101 106 110 108 93 75 43 27 30 34 33 27 31 39 44 60 45 43 35 54 72 61 53 55 64 86 96 93 64 45 44 43 42 42 46 51 69 80 74 73 77 81 81 73 71 79 78 85 96 62 78 98 89 95 91 88 92 85 79 76 75 83 85 92 100 102 101 91 95 106 104 101 101 103 104 91 101 115 114 117 103 100 101 106 101 98 90 80 65 78 90 88 88 74 46 48 78 85 91 65 48 28 35 48 88 58 48 50 64 75 81 77 66 57 53 44 41 41 40 34 43 48 38 30 32 73 83 25 63 78 111 130 121 134 135 104 105 118 108 70 72 49 27 63 112 31 30 42 41 60 100 68 34 58 70 63 80 90 89 56 51 54 49 60 51 38 37 33 38 42 35 34 49 55 49 84 67 53 64 71 84 86 63 55 62 105 138 167 177 131 99 108 116 118 119 129 138 136 171 166 134 142 162 162 161 138 140 184 157 222 252 223 205 248 248 249 251 246 254 247 249 247 248 245 245 246 243 223 212 240 252 245 247 246 250 247 248 250 246 250 249 249 247 246 244 239 238 238 239 239 241 241 240 242 241 240 239 239 240 241 243 242 242 241 239 236 230 222 224 228 231 238 238 237 239 236 240 239 238 235 235 232 229 
13 52 61 63 56 45 43 45 51 54 62 72 56 60 51 69 86 82 91 103 59 55 47 62 105 111 94 87 84 93 97 91 93 98 98 100 95 101 106 106 107 96 69 33 25 27 30 32 28 27 33 40 52 37 50 48 46 60 60 48 45 53 76 85 69 49 39 40 36 37 39 42 44 54 69 70 66 69 74 74 63 67 79 85 85 66 29 73 80 58 75 73 71 71 68 68 64 57 65 72 79 90 89 97 102 104 104 86 89 103 87 82 87 89 104 97 82 75 93 116 118 119 118 114 111 80 67 74 85 98 90 68 46 72 85 74 74 55 31 61 77 85 53 53 60 68 55 69 62 66 55 45 39 40 39 40 39 46 47 35 32 36 72 81 26 43 66 102 121 116 127 135 100 102 113 103 77 69 27 33 104 90 31 32 34 53 64 99 88 31 51 74 57 83 100 70 39 34 51 48 43 37 31 30 28 36 46 38 32 37 44 52 79 57 36 45 52 71 78 62 51 64 96 127 118 108 100 98 112 119 122 118 117 114 114 138 137 123 131 144 138 134 126 121 135 121 188 242 199 182 214 234 249 245 253 243 245 254 247 250 236 215 241 237 189 173 220 247 250 249 246 251 245 246 252 250 249 249 249 248 247 245 244 241 238 238 239 241 240 239 241 241 239 238 238 239 240 242 245 244 243 240 237 234 233 228 226 229 234 239 235 237 241 241 242 238 242 227 223 215 
13 51 59 56 51 47 47 46 46 41 44 60 52 68 59 87 73 65 89 106 39 38 57 44 68 114 106 92 91 90 92 97 97 103 104 102 91 94 104 108 112 99 62 27 27 26 29 32 28 23 29 37 49 36 40 41 43 54 64 56 42 44 60 64 37 33 34 40 38 32 33 38 38 43 55 58 54 58 68 68 61 72 78 84 88 48 33 47 60 54 57 64 60 53 53 60 62 45 48 62 68 78 81 87 90 90 86 85 81 93 98 76 93 97 83 95 69 48 74 121 124 109 120 116 112 94 91 83 77 89 77 73 62 55 76 65 69 57 49 80 85 66 56 72 58 67 54 60 57 54 43 38 35 35 43 49 48 53 49 33 29 35 68 75 25 35 61 98 119 120 129 139 96 101 112 115 98 60 25 68 106 62 28 39 35 55 61 99 125 63 52 69 62 89 92 57 37 37 47 40 29 25 32 32 27 34 43 36 31 27 33 51 69 62 34 38 45 69 67 67 60 62 67 109 105 91 103 103 110 115 120 117 110 107 110 119 119 118 124 129 121 115 118 116 115 107 141 180 152 146 144 196 250 246 243 190 215 253 246 254 241 194 222 211 161 166 211 235 217 234 248 247 245 244 249 249 247 249 249 248 247 246 249 245 239 238 240 241 239 239 240 240 238 237 237 238 240 241 246 245 244 242 239 237 236 235 232 217 209 234 237 216 222 236 237 233 243 208 192 178 
14 49 56 50 47 43 45 48 49 42 35 46 60 73 70 97 68 54 87 103 40 24 37 62 50 72 129 117 93 88 94 96 95 99 103 104 94 85 99 110 117 97 53 25 25 22 26 27 30 26 29 37 55 50 35 37 58 73 77 60 40 37 41 42 27 28 33 38 37 31 29 35 37 39 49 53 52 56 63 61 61 72 64 71 80 37 37 37 45 42 36 44 46 47 57 64 61 51 49 53 47 59 74 76 72 76 77 80 82 86 93 84 77 98 94 97 88 52 50 88 107 91 97 112 124 107 94 87 78 88 68 70 75 69 58 64 84 43 30 54 61 51 61 77 59 63 66 58 59 40 31 33 32 29 33 40 39 46 45 33 30 34 68 78 28 36 54 87 114 124 128 142 110 113 101 115 92 37 30 103 104 60 32 35 37 55 60 84 120 85 50 68 78 94 74 58 50 43 39 37 31 34 42 39 30 31 36 30 32 27 36 56 69 74 48 39 47 65 43 52 63 62 61 92 107 96 101 97 105 116 120 116 108 109 118 120 115 116 118 118 113 102 101 107 108 112 121 133 130 123 111 165 245 251 227 131 169 247 251 249 231 170 184 168 127 136 173 186 151 203 252 248 248 247 248 250 247 248 249 249 249 248 250 246 241 238 239 241 237 237 239 238 237 235 235 236 238 240 245 246 245 243 242 242 239 241 222 176 162 212 211 163 183 231 224 218 229 181 148 131 
11 44 50 42 41 42 41 39 38 35 29 42 75 85 88 94 46 67 108 88 36 28 28 40 55 62 78 103 117 108 97 99 97 98 99 103 95 81 96 107 112 86 43 28 23 20 26 23 28 27 25 28 51 60 35 27 38 47 60 50 34 35 35 35 29 29 32 36 36 33 30 34 37 36 43 47 51 57 56 54 65 69 58 71 71 32 34 41 36 31 29 35 38 45 58 65 78 60 42 41 40 38 58 63 62 74 87 86 74 64 75 91 78 88 86 84 99 70 44 62 99 100 87 106 135 120 105 101 76 81 64 65 73 67 78 85 94 47 40 46 57 62 69 67 75 57 57 47 40 32 24 28 29 25 24 25 25 36 42 35 29 30 69 81 31 35 41 69 106 128 118 128 113 121 94 131 70 18 67 129 95 43 30 28 42 55 68 77 98 89 44 78 85 84 59 55 54 40 37 44 36 40 44 40 31 30 30 24 27 25 34 44 56 70 55 40 54 65 47 47 64 58 61 65 102 96 92 95 106 116 119 116 103 104 117 122 115 111 114 116 112 94 91 103 104 111 121 121 119 111 108 138 227 255 219 109 138 221 232 220 200 139 137 124 102 100 118 124 103 170 241 245 246 247 245 250 251 248 249 250 249 248 248 246 242 239 239 239 237 236 238 238 236 235 235 236 237 240 242 243 244 244 244 246 239 240 188 119 120 175 166 114 150 200 177 171 183 142 104 97 
9 40 46 36 36 40 38 35 37 39 39 52 78 82 86 72 42 81 104 60 37 28 27 25 42 65 68 67 86 101 106 108 108 105 100 101 90 79 90 103 104 78 47 35 25 23 28 25 29 31 25 26 51 61 44 35 32 39 62 53 36 35 27 24 26 28 30 34 37 34 30 32 33 33 34 38 47 52 50 48 62 59 60 73 60 27 34 30 27 29 25 29 35 44 59 69 82 72 52 41 30 40 56 53 51 64 69 82 74 58 66 66 80 94 87 85 79 68 45 54 92 99 92 90 101 103 104 102 74 68 65 68 73 72 82 68 77 70 84 77 81 77 71 54 67 43 40 39 31 31 24 26 27 24 24 26 20 33 42 34 25 25 68 87 37 32 34 57 100 130 132 135 109 119 91 133 67 49 109 116 95 24 32 33 38 37 38 61 104 153 68 77 81 65 45 47 49 51 55 60 48 44 42 36 31 31 30 27 27 27 30 29 39 64 60 42 69 80 74 48 56 83 146 101 88 95 90 94 99 109 118 115 100 100 114 121 115 112 116 115 107 90 88 102 103 108 121 117 104 102 107 115 195 241 177 95 118 168 186 180 165 124 109 100 101 100 107 107 97 137 195 219 235 241 236 249 251 248 250 250 250 250 247 245 243 239 237 237 236 236 238 238 235 235 234 236 236 236 240 243 243 244 245 244 235 227 160 91 99 131 127 93 120 140 120 121 130 106 83 83 
9 33 42 34 37 38 37 40 38 40 50 67 63 75 87 66 44 83 93 60 34 29 30 26 25 39 55 59 64 69 67 75 90 106 102 97 102 87 86 99 95 87 60 32 24 27 27 25 28 30 24 28 48 43 37 34 30 36 59 53 31 33 25 26 24 26 27 30 31 28 27 29 30 31 30 34 39 41 44 41 48 50 67 62 49 28 31 31 31 29 29 28 32 35 41 67 80 73 54 43 32 39 54 53 53 73 74 71 74 70 75 83 64 61 70 75 85 82 58 51 58 70 91 83 79 94 102 96 67 62 71 73 59 81 85 73 59 62 79 77 100 93 101 45 53 40 33 30 29 26 26 25 27 25 21 27 22 39 42 29 29 34 66 102 70 27 40 59 95 121 129 132 103 99 79 124 86 56 115 97 87 22 31 34 33 31 31 66 70 134 86 68 81 51 34 53 60 67 63 57 58 43 43 40 45 43 35 33 28 26 26 26 32 63 59 44 52 61 68 43 56 84 119 83 84 90 91 93 96 106 121 109 96 102 113 114 105 106 109 109 107 91 87 97 100 106 122 121 105 96 103 106 150 194 132 92 106 131 164 163 140 120 105 97 104 99 99 105 101 110 144 164 217 228 201 231 224 231 249 251 248 247 248 248 242 238 237 235 230 237 235 237 232 235 235 236 234 233 236 238 242 235 241 244 222 189 138 91 89 104 107 93 100 101 96 107 94 88 85 83 
7 21 28 28 34 36 35 38 37 40 53 65 59 79 95 70 64 81 93 62 36 30 36 40 38 43 45 47 65 76 75 67 68 65 93 108 96 87 97 90 91 94 53 33 28 32 33 26 29 28 26 29 39 49 48 42 34 41 63 64 29 25 23 30 25 26 27 29 30 27 26 27 28 30 26 22 27 39 46 38 45 54 68 54 49 27 29 29 29 27 26 27 31 33 35 53 67 73 58 40 29 31 47 51 49 55 58 65 68 62 63 76 77 49 41 53 75 80 55 50 48 66 88 89 80 92 115 97 74 83 81 84 72 73 69 61 56 53 48 46 69 64 139 57 42 25 28 34 27 26 24 22 24 24 24 26 19 38 39 28 30 40 69 98 73 25 39 64 94 112 126 126 101 92 88 132 89 50 94 87 63 27 34 26 27 27 37 79 82 50 58 90 78 47 45 59 79 72 56 51 63 53 53 59 71 66 44 34 35 27 26 26 28 55 60 79 61 61 66 49 95 109 96 83 85 93 95 95 97 106 117 109 97 99 112 113 101 96 99 105 105 92 87 93 97 105 119 118 103 94 100 107 126 144 111 95 103 120 142 139 121 109 95 96 104 94 94 103 99 98 108 119 199 208 153 177 164 168 198 224 244 233 242 249 234 233 237 227 217 234 238 237 237 234 235 233 235 238 229 212 222 205 227 250 199 145 106 79 83 94 95 84 92 90 93 92 78 80 84 84 
11 19 23 24 28 31 32 35 33 35 50 64 66 82 84 58 69 85 92 57 40 41 54 66 74 81 83 82 74 67 66 53 50 63 67 45 54 81 92 90 96 93 62 45 23 37 51 34 24 24 30 36 39 50 48 46 43 44 58 62 25 24 27 29 25 25 26 27 28 25 25 26 27 28 27 28 31 38 43 38 39 49 66 53 47 26 29 29 29 28 25 25 30 29 28 38 47 61 50 30 25 29 42 46 46 46 42 49 53 47 52 66 78 69 50 57 61 67 42 48 51 73 81 82 68 79 115 92 78 90 75 77 68 64 57 48 45 43 60 74 67 42 70 75 36 33 47 24 28 29 24 22 24 26 26 22 19 41 39 29 26 37 77 90 45 26 35 54 83 106 134 131 90 100 121 112 70 40 74 93 69 22 31 26 30 30 45 72 79 77 62 92 77 51 58 71 70 69 52 55 75 65 69 78 86 80 59 49 47 32 27 30 25 42 61 74 68 70 58 67 109 97 89 95 90 99 102 101 99 107 114 112 100 100 111 113 106 96 99 102 100 92 86 92 97 106 118 117 103 94 96 107 113 116 102 100 101 111 125 122 107 95 85 95 104 92 85 96 98 98 99 104 165 168 117 134 125 119 122 161 209 195 229 225 205 224 225 191 179 221 243 238 239 231 234 236 232 233 222 178 185 159 203 247 172 106 87 76 83 91 90 86 92 86 87 80 72 80 84 80 
10 18 26 27 28 30 31 33 31 33 49 62 70 71 58 38 56 86 87 55 58 57 63 67 72 77 78 73 62 54 55 51 54 47 34 23 58 99 89 91 94 93 73 39 23 55 74 41 25 27 32 37 37 41 36 39 43 41 45 41 23 26 28 23 25 25 25 25 25 23 24 25 27 27 28 35 39 40 45 42 37 43 57 55 43 25 30 30 30 30 25 24 27 27 27 34 49 58 47 26 28 29 35 40 51 55 47 51 54 45 50 67 72 64 62 48 71 69 39 46 46 54 73 89 77 84 115 94 73 80 63 62 54 57 54 46 41 41 53 60 55 113 74 105 72 45 100 62 28 32 27 25 27 28 26 21 24 42 35 32 30 41 62 60 34 30 33 52 74 91 124 102 77 94 111 85 50 37 59 101 98 22 33 43 45 43 67 88 81 58 80 92 84 53 49 74 57 62 60 70 86 73 77 87 89 86 84 78 66 41 29 32 28 41 58 69 57 59 90 100 100 91 101 97 95 99 103 101 98 106 115 115 101 105 107 106 105 96 97 100 98 91 86 93 99 106 115 115 106 96 94 105 110 109 91 92 96 104 116 112 98 86 78 91 99 89 82 91 93 96 103 107 121 121 102 115 118 111 112 122 143 142 181 164 158 199 199 153 144 200 240 241 227 189 193 212 204 205 194 154 170 138 175 223 149 92 83 72 78 89 89 88 91 84 76 72 73 79 78 73 
8 18 24 25 29 32 33 37 37 41 57 56 54 45 35 33 55 92 81 60 77 59 57 57 61 63 64 64 60 54 47 53 56 26 20 41 68 107 91 88 86 96 80 41 35 72 91 52 28 32 32 31 30 35 36 37 34 39 43 23 33 25 26 26 25 25 25 23 23 24 24 25 26 27 28 33 36 39 46 42 48 57 53 56 45 22 28 29 29 29 24 23 25 26 30 33 42 47 40 22 26 28 27 32 48 50 44 55 61 51 51 66 71 48 48 36 57 52 38 46 44 44 54 69 76 88 103 89 64 68 66 63 53 46 44 45 44 33 27 28 51 94 79 117 103 50 134 101 22 28 27 27 28 26 26 22 26 37 30 32 29 35 36 34 37 34 31 49 69 89 109 59 60 88 91 61 50 44 38 78 99 30 37 60 53 54 71 61 78 69 88 93 84 60 35 64 60 67 78 87 92 78 80 94 93 87 94 99 90 55 29 31 29 32 53 63 75 101 118 106 90 91 98 96 102 101 105 103 98 102 114 116 99 110 115 105 102 98 101 103 100 93 84 90 98 102 111 114 107 97 100 108 110 107 89 87 91 101 111 103 89 80 73 86 89 83 82 92 88 87 100 110 107 108 99 106 109 97 110 112 106 112 122 112 118 146 141 118 114 164 223 246 222 140 131 158 136 138 139 122 151 128 150 186 125 88 87 74 77 83 86 85 84 79 67 69 76 76 72 69 
11 18 20 18 24 28 35 43 44 49 61 53 36 25 29 38 57 86 64 51 70 54 52 52 53 52 58 60 59 59 55 62 44 26 25 43 56 86 86 82 85 95 84 60 53 76 94 71 32 29 29 27 30 28 33 37 43 61 59 26 62 43 24 31 26 28 24 23 22 24 25 25 25 28 31 31 29 36 41 37 52 61 49 51 43 22 25 26 28 29 24 23 23 26 33 34 29 32 32 22 26 32 30 33 43 40 36 56 63 51 48 56 75 60 43 43 33 35 46 50 43 46 40 49 83 98 102 89 48 54 66 60 47 43 45 51 47 30 20 36 106 92 76 87 88 84 114 56 27 29 26 26 28 27 37 54 76 78 36 28 30 30 36 36 38 36 30 38 65 106 79 49 58 57 74 55 51 47 29 60 104 38 38 57 49 51 63 76 62 82 80 71 72 65 36 52 65 78 94 97 92 82 85 100 96 83 86 104 108 68 30 29 29 40 55 36 87 124 113 101 93 92 95 103 100 99 98 96 92 98 114 115 98 111 119 104 96 95 100 106 106 96 82 86 94 100 109 112 107 98 99 106 105 101 90 86 87 100 109 101 86 77 72 80 81 79 83 93 87 83 101 111 112 111 95 92 97 98 102 113 104 100 104 105 109 110 98 89 87 118 184 237 221 134 103 119 90 93 96 92 121 109 130 150 102 81 85 77 79 77 85 85 81 77 66 68 77 76 72 70 
11 17 21 21 27 26 36 45 42 47 52 51 30 21 33 43 60 69 52 49 55 46 43 45 46 47 56 52 54 61 71 50 28 25 48 69 82 82 85 76 80 87 83 71 66 82 88 93 52 28 28 27 32 35 39 44 68 72 46 48 112 93 47 29 24 30 26 26 25 23 24 22 23 27 31 31 29 30 35 40 43 47 49 51 42 28 24 25 31 27 23 24 27 34 35 33 36 26 26 25 28 29 31 32 34 34 38 65 61 45 46 50 55 50 45 33 31 37 52 55 49 51 45 63 97 105 110 88 48 47 61 54 45 44 52 46 31 27 29 44 53 49 38 76 111 117 119 39 31 29 37 46 43 53 88 101 96 95 42 29 27 38 45 37 37 39 34 35 57 106 62 38 42 39 61 68 61 48 33 39 84 41 39 41 45 47 65 71 77 80 77 51 56 51 43 58 77 90 98 100 92 87 92 101 97 82 88 106 113 80 36 30 33 36 44 49 103 115 114 100 87 89 92 103 106 104 96 94 91 96 111 112 102 110 116 103 97 95 98 106 107 99 86 83 90 101 110 111 109 99 96 101 104 97 90 85 82 90 103 100 85 77 73 74 78 77 85 92 85 81 100 112 107 107 101 90 93 96 103 109 99 93 102 104 102 102 90 81 91 98 140 210 192 119 90 94 87 97 90 89 106 94 104 125 102 87 84 80 82 76 84 89 84 81 70 68 81 76 71 66 
8 16 21 24 30 35 39 45 40 42 54 48 24 19 30 40 60 59 52 50 38 32 36 41 42 41 45 50 48 55 67 27 23 29 74 87 73 93 100 87 86 87 84 78 73 82 88 98 74 39 28 27 27 30 40 46 69 64 40 77 114 100 96 69 27 22 32 29 29 26 26 25 25 24 26 27 26 27 31 34 33 41 42 45 43 35 24 28 28 23 24 24 32 43 42 40 42 27 27 28 29 29 30 31 33 34 29 46 42 32 36 47 47 38 45 34 25 34 39 47 50 45 44 57 73 96 110 75 50 43 53 51 48 48 43 31 25 29 41 48 44 31 32 73 108 114 130 56 28 29 49 82 79 93 105 97 89 91 49 34 34 45 74 50 35 36 29 38 65 96 55 28 25 38 59 81 60 50 37 30 40 35 33 41 49 47 70 61 74 78 63 44 49 55 66 87 97 93 95 99 97 92 90 98 94 81 89 105 115 95 55 35 30 35 38 57 108 118 118 103 86 89 94 108 108 100 96 99 94 91 105 109 103 112 114 106 101 97 100 105 105 100 90 87 90 100 108 111 105 90 88 95 99 92 86 85 80 81 94 92 77 73 69 70 74 75 85 88 86 85 93 106 106 104 97 90 94 99 104 107 97 91 98 101 97 92 84 77 91 100 119 163 144 93 84 89 89 97 92 85 90 85 87 99 89 84 80 75 82 82 82 88 85 82 73 75 87 80 73 65 
8 18 19 22 27 29 31 42 42 40 54 58 26 20 26 34 57 51 45 38 23 21 27 32 37 38 45 50 53 60 55 22 31 39 82 85 74 114 125 116 117 122 116 109 106 103 100 109 101 53 27 29 25 33 41 41 57 50 58 99 99 97 96 105 67 27 30 29 27 30 31 31 29 26 25 25 24 25 28 28 28 33 31 38 48 49 31 30 25 25 30 22 23 38 55 57 33 23 26 27 25 27 28 28 30 30 30 42 34 23 24 41 49 37 44 30 27 28 27 34 40 43 45 46 71 102 106 73 51 43 46 43 39 43 33 25 27 34 41 58 64 33 42 92 112 125 132 92 31 31 38 82 96 116 117 105 92 89 49 42 72 53 87 53 34 33 45 44 81 92 33 30 31 50 65 85 54 28 23 29 26 33 38 43 47 47 71 63 82 73 44 39 65 88 99 104 102 95 89 92 94 88 88 96 91 80 90 106 118 115 84 58 46 30 38 68 104 117 120 103 82 86 94 110 109 95 93 99 95 88 101 108 106 113 114 108 104 97 97 102 103 100 94 91 92 101 108 111 104 85 84 91 94 90 86 81 74 76 92 88 72 71 68 68 72 77 85 82 80 87 95 103 105 101 95 93 96 101 103 104 97 91 96 100 90 83 78 77 88 96 103 120 102 92 93 84 88 95 88 75 74 82 80 76 77 80 74 70 80 82 78 83 83 82 78 75 86 88 74 62 
11 21 18 19 19 22 22 29 43 56 60 54 25 19 23 35 55 52 43 25 24 23 22 26 32 38 44 41 47 52 32 26 41 64 92 92 92 136 145 140 144 149 146 144 145 142 139 143 135 77 30 30 24 31 41 48 53 47 70 98 93 94 90 102 107 47 24 32 31 31 31 32 29 26 25 24 23 24 27 27 29 28 24 34 46 54 45 44 33 23 26 22 24 37 52 50 24 24 30 29 25 24 25 25 27 27 27 37 31 28 29 43 49 37 34 22 29 29 28 32 33 47 58 41 61 81 72 60 41 38 41 40 35 33 28 27 33 38 43 50 66 52 59 89 102 123 120 118 44 24 33 57 67 118 127 119 105 95 57 43 94 60 85 56 30 38 57 44 90 86 24 31 27 53 81 91 55 23 26 35 30 27 40 43 44 53 64 62 78 67 61 75 99 115 107 102 103 98 88 87 91 88 90 96 90 78 91 109 115 110 89 80 83 59 74 94 104 103 116 102 79 83 91 108 109 93 87 93 93 90 98 106 107 113 114 107 105 98 93 97 99 98 95 93 93 102 108 111 106 86 80 86 88 84 81 74 69 79 95 90 75 71 69 68 73 80 86 77 75 87 99 104 105 99 94 96 98 99 102 100 99 94 97 96 85 80 76 78 82 89 94 97 81 95 97 82 85 95 89 72 72 86 79 69 75 81 73 71 80 82 80 83 82 86 84 72 80 90 77 58 
13 24 18 19 18 19 22 23 47 61 47 47 22 19 25 44 49 50 45 20 25 26 22 25 29 32 35 36 35 33 23 32 40 73 75 84 87 141 150 145 147 150 154 158 157 160 167 170 160 96 31 28 25 28 31 47 46 61 107 107 91 83 99 105 122 78 25 33 35 31 31 31 30 28 26 26 25 26 27 27 28 26 25 32 34 37 39 39 31 24 22 24 30 38 39 32 25 28 30 26 28 26 26 26 27 27 29 36 30 29 29 36 44 32 28 23 28 29 26 31 25 35 52 32 39 52 46 39 33 32 35 37 32 28 29 30 32 35 43 33 45 56 75 93 118 129 124 116 64 24 36 41 48 122 128 122 109 96 66 53 130 83 86 62 28 67 56 54 101 85 58 35 27 60 99 100 54 25 30 29 28 30 37 39 40 48 51 68 78 76 97 107 116 117 103 100 103 98 88 86 90 94 93 98 90 78 92 113 118 107 86 80 95 100 92 89 99 104 116 105 80 83 92 106 111 95 84 88 92 92 95 104 105 108 112 104 105 105 96 95 96 94 94 94 95 101 104 109 107 88 79 83 85 80 77 70 70 81 93 90 80 69 69 67 72 82 85 79 77 87 98 101 103 96 91 98 97 95 98 98 102 100 96 89 79 77 74 77 81 89 88 89 80 91 95 85 84 94 92 72 79 91 80 71 76 77 69 69 75 79 82 82 80 89 85 75 75 87 85 62 
14 25 18 20 19 16 21 30 48 45 28 50 25 21 27 46 41 43 38 20 20 23 23 26 28 23 30 40 28 26 34 35 35 64 54 75 101 143 147 146 146 148 152 153 145 145 156 162 157 94 26 25 27 32 31 42 41 95 144 114 103 96 104 111 124 104 31 31 32 31 32 34 35 28 28 27 29 26 29 25 25 27 28 31 25 20 23 17 21 27 29 24 26 32 31 27 27 31 31 21 26 28 29 27 28 30 27 29 26 30 30 31 37 30 28 30 26 26 25 30 28 31 37 37 65 65 48 36 35 32 32 30 30 28 31 28 28 32 42 31 39 44 62 87 101 113 132 113 89 31 33 34 58 127 124 122 114 100 85 66 160 116 82 71 39 122 71 69 107 69 80 34 33 73 95 102 59 28 31 25 32 35 38 35 35 40 43 74 87 97 108 109 114 112 108 100 90 85 81 78 88 106 105 95 85 72 85 104 107 107 90 80 91 96 87 82 97 98 114 108 83 87 92 105 110 98 83 85 93 92 91 100 103 104 109 102 105 111 103 96 95 92 92 92 94 98 99 104 108 94 83 84 84 81 78 73 72 80 87 87 82 67 67 66 70 81 84 81 82 87 95 99 101 94 88 95 96 93 96 99 103 101 96 86 74 76 72 72 80 85 78 79 79 89 97 89 84 92 89 70 82 93 85 74 71 69 62 63 66 71 78 79 78 85 86 80 76 81 88 69 
12 26 14 17 17 16 22 40 46 31 27 49 24 20 27 42 43 43 27 25 19 23 28 26 29 24 33 33 27 26 35 26 35 49 42 56 108 140 152 152 149 154 149 146 131 116 119 129 126 61 22 27 31 26 33 38 42 110 129 114 107 107 112 125 134 132 78 21 32 35 34 28 36 28 31 31 29 28 28 26 24 28 29 26 23 21 24 22 26 23 30 23 26 31 27 26 27 37 47 36 26 26 30 26 28 28 27 29 28 29 29 27 31 31 27 30 24 23 27 28 32 39 39 47 98 61 30 35 34 31 32 27 32 32 30 28 28 30 32 29 43 55 46 64 60 88 112 130 112 43 26 32 62 124 119 116 110 103 88 42 120 127 83 83 47 127 99 88 112 46 73 32 35 88 91 110 62 22 30 34 31 28 34 30 42 48 48 69 89 108 107 106 103 105 103 97 104 98 105 121 152 170 180 156 140 123 108 117 129 132 125 114 110 98 81 81 93 102 114 108 84 89 92 102 102 97 81 81 94 93 89 95 105 105 102 99 101 105 101 93 92 92 89 89 91 92 95 98 106 101 88 80 77 79 78 74 73 78 85 89 85 70 63 65 69 79 80 75 80 84 92 97 100 93 84 90 96 94 95 103 100 97 96 86 72 72 69 68 78 78 76 80 78 85 91 81 81 91 88 70 77 89 86 77 69 64 64 65 65 69 72 76 79 81 83 78 76 80 84 73 
11 29 16 16 21 20 42 61 51 28 20 41 22 20 33 52 44 43 28 20 22 22 26 22 21 24 35 32 54 56 24 29 28 39 50 57 89 124 160 149 145 145 145 137 121 101 102 119 90 27 26 27 28 27 36 32 65 103 106 97 100 107 112 120 134 143 141 58 26 61 37 34 32 30 33 31 30 48 27 27 25 26 26 25 23 23 22 22 24 32 26 24 28 32 27 27 34 34 46 68 50 27 29 28 29 27 25 26 27 28 29 28 28 31 28 29 28 28 31 30 32 41 53 49 60 26 30 32 31 27 24 34 32 33 27 35 31 29 31 31 32 39 35 48 58 68 73 111 104 70 27 36 51 121 116 123 111 123 73 40 131 132 77 89 47 82 106 89 83 41 73 26 36 90 89 104 63 57 23 42 67 32 27 26 45 45 50 65 98 98 114 108 104 113 130 153 179 190 194 190 192 185 184 190 198 204 193 177 177 178 167 160 159 136 92 76 92 100 112 110 81 85 96 102 105 97 82 81 92 94 92 96 102 102 101 98 98 101 97 92 93 93 88 85 86 88 95 97 99 93 87 79 72 73 75 77 77 79 86 92 89 72 64 65 69 80 80 74 76 79 87 93 96 89 82 90 97 96 94 101 97 92 91 84 69 66 71 68 70 72 78 83 78 78 82 74 80 93 90 72 76 85 81 78 70 64 68 69 67 71 72 74 79 83 79 72 71 78 85 79 
13 39 26 21 24 31 47 74 62 30 23 30 23 22 38 59 43 29 24 23 26 24 32 28 35 47 70 65 101 114 33 23 31 45 56 65 84 94 150 145 145 139 142 129 111 101 109 123 60 26 35 28 29 31 36 30 105 129 123 108 104 103 104 112 127 137 131 106 20 82 97 86 55 48 49 78 103 93 52 30 25 25 25 23 22 22 23 17 38 49 25 26 29 31 26 31 41 24 38 74 76 40 35 32 37 41 42 37 36 36 34 29 28 30 26 25 27 27 29 31 32 49 67 62 54 24 34 29 26 35 41 34 36 44 49 39 36 43 31 33 31 36 36 42 54 65 116 112 111 93 56 44 34 119 119 114 115 119 67 44 142 154 99 90 62 74 116 97 52 54 65 21 49 96 88 97 66 91 35 27 96 28 25 40 37 34 67 78 87 98 109 116 123 151 171 166 157 158 170 167 169 171 172 175 176 164 171 183 176 167 157 155 152 161 153 104 86 93 105 111 86 79 93 100 106 97 81 75 83 91 89 92 95 94 94 92 91 94 93 91 93 95 91 88 86 86 91 90 85 81 80 75 70 68 71 76 78 77 81 86 84 72 64 65 69 79 82 75 76 78 86 92 91 84 81 90 96 95 92 100 97 90 86 87 75 68 76 75 70 71 77 78 74 79 77 72 83 97 93 78 80 85 78 78 77 72 70 67 67 72 71 72 78 82 79 71 68 74 82 83 
13 42 32 24 23 36 46 84 79 33 21 26 25 23 42 67 54 23 25 26 26 21 28 28 55 75 100 119 138 141 88 32 32 49 48 53 67 81 139 144 144 137 137 118 97 97 110 116 41 35 33 28 31 36 34 41 132 150 150 144 141 133 119 115 113 132 121 96 78 72 148 127 97 132 139 147 167 103 34 29 27 26 24 23 21 21 24 15 74 58 26 26 28 29 27 34 35 24 41 66 82 86 83 76 83 95 96 85 81 68 54 45 36 30 29 27 30 29 31 34 35 62 79 61 36 28 34 39 27 52 75 40 45 60 76 40 38 48 41 40 33 34 27 24 37 97 126 106 110 103 73 76 35 99 122 105 123 116 72 54 114 147 152 94 75 59 104 114 38 55 56 24 68 108 89 104 64 70 42 30 82 40 27 67 53 33 66 95 100 145 137 156 153 141 125 114 120 139 151 155 160 159 160 147 157 151 145 168 173 167 178 190 173 159 165 160 110 91 105 110 100 88 101 101 101 99 89 84 88 97 96 96 95 92 95 94 93 95 97 98 101 104 100 93 90 86 83 81 76 77 78 75 69 66 67 70 70 71 77 82 81 69 64 66 67 75 77 72 74 76 83 90 90 81 79 89 94 91 87 96 96 87 84 89 81 76 81 76 68 72 78 78 80 85 79 74 86 97 91 78 82 83 73 73 82 82 71 64 67 70 69 70 75 79 80 73 69 74 81 82 
15 39 30 29 30 44 63 89 90 60 35 27 25 20 49 83 64 23 27 24 28 28 31 35 82 109 119 146 149 142 146 94 26 38 43 26 52 113 148 144 133 135 132 110 93 94 104 119 55 38 33 35 33 37 32 68 141 148 153 157 164 161 144 131 116 99 124 121 122 62 109 122 83 146 191 193 191 111 33 33 28 27 25 23 23 23 19 27 124 48 26 26 27 27 29 37 33 32 42 72 87 106 105 96 102 113 114 119 130 105 92 97 75 54 48 41 38 31 32 34 33 66 73 41 24 65 45 48 39 68 101 62 57 83 100 66 68 69 69 45 42 69 56 68 112 147 131 106 132 120 76 75 64 84 113 111 125 141 73 54 115 154 168 126 109 48 80 111 39 79 73 26 75 114 88 100 88 97 80 39 66 59 25 38 32 44 104 142 141 156 134 119 89 94 123 132 116 122 150 136 120 138 150 137 148 154 144 147 162 161 148 167 192 203 170 176 155 134 144 129 127 121 128 121 125 130 127 123 121 126 125 124 119 115 121 121 116 115 119 125 130 130 118 104 98 96 84 85 89 95 98 90 76 68 72 74 71 73 77 78 75 66 64 67 66 70 73 71 76 78 81 91 91 80 79 89 93 88 81 91 89 78 80 85 79 78 84 74 67 76 80 81 88 89 79 74 84 90 86 79 85 83 68 67 79 85 77 66 63 67 68 70 72 74 79 74 73 79 84 83 
18 39 29 33 42 58 79 87 87 89 65 34 22 21 59 96 51 26 27 24 29 29 28 33 95 118 127 147 148 137 147 135 57 37 50 54 114 141 138 134 122 135 128 102 91 93 100 122 68 30 44 61 59 47 31 100 148 141 153 146 149 150 149 145 136 117 126 133 93 72 137 114 65 107 155 188 187 112 58 30 31 27 23 23 24 23 17 39 130 37 25 25 25 26 31 38 39 39 35 79 97 111 103 100 101 114 103 112 142 124 127 136 130 84 59 48 40 32 30 32 29 66 58 30 50 117 64 45 48 81 115 76 58 107 127 107 123 126 113 81 126 168 150 138 170 136 157 133 174 150 96 44 86 110 120 144 168 186 100 55 106 168 212 163 156 52 69 113 44 70 90 31 75 128 113 90 127 119 139 62 43 86 60 40 71 120 141 136 131 130 134 141 136 131 136 133 134 131 145 143 147 154 156 142 140 135 139 149 169 164 146 145 151 181 200 180 172 195 195 149 154 155 157 145 151 162 158 149 150 155 157 153 147 147 145 139 129 124 126 131 137 138 133 124 120 108 90 92 106 119 120 106 88 74 83 85 78 76 75 72 67 63 63 67 67 69 73 74 79 80 82 92 91 80 79 87 91 84 78 84 80 72 79 79 73 76 85 76 71 80 79 79 88 88 77 72 79 82 82 80 89 87 70 65 74 84 82 70 62 65 67 69 72 73 76 74 74 80 87 87 
26 54 61 47 55 69 72 83 79 88 86 44 24 44 72 97 34 24 15 30 29 27 29 38 106 117 129 141 158 141 142 145 138 129 138 145 155 140 141 136 130 137 136 105 82 94 98 140 80 36 52 62 64 68 36 133 170 153 165 153 133 126 130 126 130 118 151 150 97 109 188 138 129 134 184 208 190 136 55 34 34 31 30 25 28 26 24 39 72 32 25 24 26 30 34 32 36 41 43 87 104 123 114 114 93 122 127 104 126 141 150 125 173 123 64 55 32 33 32 34 32 65 47 56 100 116 63 56 51 116 157 68 45 90 130 133 151 170 179 137 156 174 196 178 168 130 185 170 172 160 150 75 66 141 137 142 202 208 131 69 142 169 229 207 175 87 65 123 59 67 95 34 73 146 169 112 126 141 145 99 47 92 135 123 137 119 102 118 132 132 130 138 138 122 142 159 129 114 95 97 121 138 155 147 154 149 146 149 163 173 162 147 143 157 185 193 181 183 191 153 153 172 180 150 161 170 167 161 160 149 161 165 162 167 153 140 124 117 116 116 109 106 108 103 104 106 89 85 98 105 106 94 91 74 80 80 74 72 73 71 65 61 62 64 67 70 70 74 76 75 78 86 85 77 75 78 83 80 76 83 75 76 79 77 73 80 88 80 76 82 77 76 83 81 73 73 76 79 75 77 89 92 75 67 75 83 80 70 61 63 66 65 73 73 72 71 69 73 86 87 
31 78 102 68 70 63 60 68 74 80 86 62 21 40 72 84 33 24 53 46 23 23 28 59 110 121 135 143 158 152 136 144 149 158 151 150 146 146 143 127 131 129 136 127 102 87 100 152 103 37 38 35 45 67 35 142 174 177 164 162 130 120 113 99 103 118 143 177 131 130 181 178 171 191 213 220 204 169 86 41 31 24 33 31 20 25 25 56 68 31 27 27 27 30 31 28 29 38 63 102 113 146 134 151 162 156 163 148 157 167 176 149 190 183 136 125 39 32 32 32 43 62 52 112 163 97 37 83 78 149 191 121 102 76 139 182 159 159 216 194 142 177 193 219 209 186 213 195 184 177 176 189 113 135 172 154 172 217 136 94 208 206 218 226 195 125 107 148 67 126 136 75 129 184 204 143 175 170 197 113 91 119 143 117 89 120 131 131 111 99 105 115 130 119 125 158 112 116 126 106 112 98 124 174 162 160 149 148 157 175 168 156 154 152 164 181 192 181 181 167 139 170 173 138 151 159 164 156 150 126 143 161 167 161 158 149 139 131 131 121 102 97 105 100 91 88 79 74 74 72 78 76 81 72 67 64 67 71 74 70 65 66 65 64 64 64 66 71 72 70 75 83 82 74 70 73 78 79 80 87 79 75 79 75 72 82 85 84 82 79 77 77 80 73 67 69 75 76 73 76 88 94 84 76 76 76 73 66 60 60 64 65 72 75 70 66 63 68 81 86 
27 90 103 79 75 91 79 64 75 76 80 118 32 54 92 76 24 43 118 68 33 36 33 88 117 123 139 147 153 169 139 143 156 162 144 160 154 152 140 125 114 91 110 125 113 81 95 151 137 31 35 45 62 52 39 157 153 172 156 163 164 131 119 123 123 115 141 208 182 146 168 194 190 205 233 227 226 182 114 69 43 32 27 29 31 33 18 80 85 33 30 30 29 31 30 28 29 43 64 86 169 136 147 186 200 185 194 202 193 181 191 173 192 211 182 126 32 30 32 33 61 88 138 171 177 133 82 117 106 154 193 146 122 59 120 165 154 180 208 211 184 212 207 232 233 208 206 207 207 210 189 196 181 177 198 210 205 227 134 119 226 230 223 229 235 170 130 145 55 177 198 100 170 199 214 187 208 211 197 172 143 141 112 120 136 148 127 108 104 97 99 117 116 133 118 121 132 139 149 130 135 136 128 156 159 157 147 143 161 170 172 166 158 148 147 163 192 193 183 173 142 163 141 138 141 152 157 119 142 112 138 157 159 158 161 162 156 150 148 146 133 129 135 129 115 88 72 71 74 75 69 81 82 72 66 63 67 69 70 66 64 65 63 63 63 64 67 70 71 69 75 84 81 73 69 70 74 76 81 88 80 72 75 78 74 76 81 88 85 79 79 76 74 67 64 70 78 76 68 71 80 87 82 79 75 70 66 63 60 60 63 65 71 78 76 68 63 67 78 84 
30 89 125 104 80 145 128 68 69 74 70 115 39 75 88 72 23 42 91 53 60 47 37 110 124 130 137 148 148 180 154 144 142 164 145 165 183 158 161 137 116 102 108 108 87 91 113 164 160 41 36 45 92 51 46 180 173 168 146 158 138 133 135 148 207 162 174 200 217 198 197 192 228 223 233 227 223 222 167 119 33 28 40 26 31 33 27 102 118 38 33 33 33 33 30 28 35 49 52 53 191 198 182 187 210 196 199 209 195 191 180 194 182 207 172 73 29 34 33 41 73 116 183 144 113 141 142 151 137 173 198 143 116 117 121 161 149 172 195 204 207 201 208 226 221 200 195 207 216 205 178 164 188 192 202 193 213 221 113 158 209 202 215 206 227 218 121 128 75 163 229 109 173 214 223 211 183 184 148 159 144 133 132 124 118 122 112 120 118 110 117 126 116 117 135 144 137 134 128 129 115 116 134 132 159 161 162 143 149 159 170 165 153 154 150 160 179 191 187 172 157 162 126 129 170 149 157 129 148 110 151 161 153 170 154 153 147 135 130 143 148 146 149 144 134 105 83 82 79 73 70 92 83 68 70 71 70 68 64 62 62 62 61 63 65 67 65 67 67 66 73 80 77 69 65 67 71 73 80 86 81 71 71 82 75 68 78 87 82 79 79 74 70 65 62 72 80 75 68 71 77 81 77 76 71 63 62 61 59 61 63 66 70 79 82 74 68 70 76 81 
36 93 143 133 101 169 172 92 67 63 66 106 80 70 87 90 29 39 76 46 90 47 52 138 154 164 155 169 166 192 168 154 160 168 147 163 180 167 174 168 149 148 134 132 121 129 154 175 190 54 34 33 98 49 48 185 198 174 143 174 160 138 152 190 212 208 202 203 229 219 230 207 231 236 237 231 232 215 211 117 33 56 134 57 31 17 85 160 176 52 31 35 36 36 33 28 32 49 56 57 147 210 206 180 192 194 185 193 170 165 159 191 158 163 124 53 35 37 33 58 90 132 180 147 141 146 174 181 165 178 182 205 186 164 147 175 164 150 178 199 212 177 188 214 201 179 176 178 186 174 152 130 174 166 182 169 185 180 93 201 205 177 184 188 200 214 125 136 99 122 197 118 178 200 186 157 148 139 136 115 111 117 115 110 108 120 128 126 119 128 125 116 132 113 126 146 139 114 122 112 116 91 122 138 153 160 151 145 156 161 163 164 167 167 153 158 161 185 197 184 171 166 140 109 183 141 154 157 149 120 169 170 154 174 147 137 131 118 114 135 145 146 158 155 145 118 97 85 76 79 72 93 77 67 73 70 70 70 65 59 60 61 61 63 65 67 64 66 65 64 73 76 73 65 62 66 69 74 81 86 82 72 70 82 75 67 75 83 79 75 74 71 72 62 60 72 79 73 66 71 77 78 74 71 65 61 63 61 58 59 59 63 65 75 78 71 68 72 75 83 
47 120 138 163 152 155 200 122 100 66 68 105 141 90 106 88 38 30 93 96 148 75 76 164 172 200 188 211 198 207 162 146 174 168 180 202 192 186 174 188 173 173 164 155 161 171 171 206 234 85 55 42 97 47 41 175 195 174 170 167 155 152 182 190 195 208 214 196 217 220 226 222 226 237 231 231 224 219 212 124 42 133 210 52 31 48 169 187 203 71 30 39 40 36 34 34 33 38 47 88 155 167 195 190 185 195 189 197 158 163 189 186 170 169 134 66 40 39 33 78 110 148 191 184 197 181 191 192 186 170 187 204 176 140 119 108 110 103 107 130 168 149 151 153 125 113 123 126 151 162 120 117 133 155 158 150 172 148 95 212 210 189 171 194 210 216 155 155 129 96 161 147 165 152 138 126 128 127 118 119 115 113 107 115 119 124 132 127 133 132 125 120 125 117 124 122 122 116 123 126 130 105 97 117 124 157 161 147 123 143 148 149 157 159 149 173 168 174 193 187 174 152 155 105 179 144 140 160 145 136 183 186 157 169 142 131 123 114 112 128 135 133 158 165 141 128 107 92 79 119 77 91 77 78 74 72 69 69 65 67 68 61 62 63 63 65 66 68 67 66 70 79 70 67 65 66 74 78 81 85 81 72 72 76 72 69 73 78 74 69 67 69 73 61 60 71 76 68 63 68 75 76 72 66 62 59 61 61 57 57 57 59 61 72 71 65 69 73 73 83 
52 146 144 176 201 156 213 139 142 99 107 97 139 121 132 117 53 28 115 178 164 117 92 182 158 193 180 209 213 220 172 150 200 175 185 204 224 217 198 186 190 186 180 176 164 190 195 205 247 147 77 47 107 54 28 171 214 191 181 165 170 154 165 198 185 207 216 212 199 203 232 222 215 225 227 219 217 210 222 162 115 202 205 43 28 108 217 180 211 103 31 40 41 61 39 31 38 42 47 86 169 177 178 196 194 192 178 194 196 186 218 216 203 190 204 123 43 37 42 99 114 157 193 183 186 179 184 197 205 193 200 175 124 106 85 89 82 77 72 71 88 91 92 79 68 74 81 77 104 105 81 83 105 101 113 129 159 92 120 215 182 182 172 190 200 184 167 159 169 157 161 144 122 120 120 118 116 111 117 125 127 121 118 116 117 119 122 129 133 139 134 123 129 126 120 126 124 126 131 129 127 110 91 102 96 135 153 160 146 147 149 154 159 167 155 181 184 181 185 179 184 159 181 130 205 198 143 164 155 140 181 207 171 133 146 133 128 132 122 122 138 143 151 175 127 137 117 99 80 134 112 87 101 84 75 69 87 68 60 81 107 52 62 84 64 63 61 67 64 68 74 79 66 63 64 65 77 81 78 82 77 67 71 70 68 67 68 69 65 62 61 62 66 60 61 71 68 62 62 66 73 73 72 63 62 59 56 57 55 57 59 57 62 71 72 63 76 78 75 83 
40 149 154 159 200 185 206 172 144 130 147 125 138 121 108 145 84 75 136 197 158 144 87 192 166 181 175 200 232 206 199 169 203 197 176 194 216 234 211 193 212 190 208 182 171 204 195 220 247 157 81 52 110 56 25 139 230 204 177 168 189 177 158 208 199 205 213 208 199 186 222 215 207 218 230 194 206 206 207 213 189 224 173 33 28 149 213 184 202 140 38 34 47 123 64 41 80 70 42 88 177 188 171 195 206 199 196 210 210 187 218 220 209 194 192 182 143 34 53 107 111 158 193 184 176 184 179 179 186 167 164 141 124 113 95 74 72 76 81 84 64 81 70 85 78 87 79 66 108 104 60 69 92 112 110 164 189 77 137 216 179 162 159 161 157 153 140 138 142 128 128 120 116 116 115 113 115 120 125 132 137 133 129 125 122 121 126 132 131 131 133 133 138 138 127 123 127 133 136 140 131 118 107 124 119 130 142 150 148 155 159 172 173 162 164 164 166 175 169 170 167 190 201 172 201 219 165 179 174 154 183 201 210 137 153 146 127 147 157 129 139 161 144 178 139 136 122 106 97 110 151 95 134 96 92 75 102 57 64 75 132 53 73 124 62 64 69 64 64 60 76 71 73 59 61 69 74 77 76 82 79 66 68 69 67 65 62 61 60 62 58 57 63 60 59 66 63 58 59 63 67 70 71 64 62 58 56 57 54 57 62 63 65 72 77 68 81 87 78 79 
44 167 173 170 200 192 187 181 138 143 176 174 173 150 117 143 108 157 170 205 171 181 107 178 177 198 206 196 226 190 204 187 181 198 181 193 190 219 208 203 214 202 203 173 178 214 181 196 224 150 70 59 122 70 27 93 233 217 184 196 221 202 195 209 212 219 207 189 196 186 197 203 213 212 231 179 189 199 187 206 201 213 142 42 25 118 196 179 190 154 41 33 58 173 127 103 134 92 50 84 168 189 166 199 215 192 204 212 204 180 212 214 205 210 194 193 156 34 51 86 107 184 188 188 182 181 179 165 173 149 154 129 150 143 132 103 82 98 95 99 91 115 102 95 86 105 129 91 76 123 77 73 91 135 140 176 163 87 128 213 190 164 161 153 151 143 137 141 145 139 128 117 126 133 125 120 125 130 128 132 140 144 136 128 126 129 134 140 140 134 137 139 137 140 135 132 134 133 129 148 140 122 119 98 106 120 139 156 147 153 147 164 182 163 168 173 167 172 169 165 157 174 206 220 219 234 194 201 183 144 189 170 207 170 190 150 128 157 168 157 143 161 151 184 161 116 118 120 109 105 131 110 149 97 105 94 77 81 62 72 139 95 82 116 65 62 60 58 63 61 73 78 76 64 58 65 71 73 73 75 75 68 67 68 67 63 58 59 59 60 56 57 64 58 58 62 58 55 58 62 63 69 71 65 62 58 58 59 56 61 64 63 67 75 75 68 81 88 77 74 
53 176 186 190 190 189 185 174 142 163 206 189 182 165 174 190 145 186 208 206 177 198 155 178 191 210 219 193 212 193 184 172 164 165 181 175 185 198 190 199 214 205 176 176 165 188 168 176 197 142 54 67 132 78 26 59 202 224 196 181 219 208 195 198 212 209 194 194 197 197 185 194 214 197 209 182 188 183 165 186 176 194 110 42 49 101 174 158 175 142 45 37 69 183 173 157 172 86 65 92 140 186 178 204 213 185 190 198 207 199 213 211 203 216 199 198 184 69 48 75 116 200 195 195 177 176 179 144 170 162 173 134 146 145 152 143 116 139 110 105 118 148 154 124 110 109 116 131 114 141 146 119 138 141 155 178 155 94 142 175 163 162 167 160 164 159 149 146 141 141 136 117 115 125 133 140 142 141 133 132 141 148 138 129 131 140 141 143 146 136 135 137 129 131 137 138 139 142 130 146 136 114 114 108 123 138 134 127 148 157 147 143 169 168 162 179 171 171 166 145 153 151 153 145 148 165 161 173 168 153 218 194 215 182 211 205 129 165 186 156 161 161 160 176 144 128 122 121 102 137 136 133 148 126 128 119 83 104 109 67 151 126 75 76 89 72 68 115 63 70 66 73 72 64 57 65 74 71 76 74 71 68 65 66 65 62 59 59 56 55 55 55 61 56 56 59 54 53 59 65 63 68 70 63 60 57 60 61 58 60 59 58 63 75 73 68 80 89 78 71 
47 159 181 187 169 166 182 165 142 157 191 201 185 172 159 210 223 201 203 193 184 186 194 190 196 210 210 193 205 205 178 163 160 146 155 148 168 173 175 184 206 190 168 189 168 181 177 178 195 112 59 73 108 83 35 37 135 197 198 165 201 215 192 173 189 187 170 191 195 195 200 191 206 184 190 185 168 159 145 173 132 147 70 43 78 85 138 147 146 137 59 39 104 165 171 167 177 106 50 104 125 181 189 202 211 203 198 203 209 201 202 215 201 218 219 221 225 117 50 108 150 192 195 201 177 180 193 163 166 172 174 174 183 180 184 169 156 174 161 169 164 180 170 154 135 153 119 128 168 151 159 174 164 142 134 158 154 148 175 176 172 173 170 165 170 165 149 136 128 138 134 124 126 123 128 148 154 153 146 142 145 148 142 137 139 145 146 144 144 136 130 135 133 134 138 138 146 153 143 145 139 130 123 112 105 114 140 127 127 141 154 140 166 179 164 169 172 170 165 144 155 154 127 103 98 76 91 100 113 156 204 186 200 189 211 224 188 150 176 165 185 168 164 183 141 145 118 116 120 180 147 146 119 169 135 141 125 99 130 64 145 130 96 72 95 108 66 140 62 87 87 82 72 58 61 67 76 68 89 82 70 66 62 62 60 58 58 58 53 57 61 57 56 55 55 56 53 55 60 69 66 71 69 61 58 55 62 65 58 58 60 59 63 72 70 70 78 86 81 75 
48 164 190 187 165 150 172 161 171 146 178 209 202 195 164 185 232 219 201 199 191 175 208 196 182 189 185 189 196 197 183 179 152 145 127 139 144 141 161 165 186 172 166 154 158 161 150 139 162 116 54 90 120 89 39 36 94 174 185 165 201 195 173 150 166 183 149 170 187 165 206 187 188 178 173 156 122 124 126 147 113 101 53 56 74 71 124 142 110 121 79 33 105 175 165 148 157 127 56 102 127 174 196 188 196 203 194 186 196 193 189 209 207 202 195 207 231 130 42 135 155 186 186 186 185 185 201 196 182 202 197 210 205 201 207 200 192 184 186 206 200 217 209 224 203 192 173 159 199 186 175 208 192 158 134 120 99 133 138 166 172 163 148 151 162 154 138 127 118 125 134 135 133 122 124 142 149 151 150 145 140 152 147 144 145 145 149 146 143 132 130 139 137 142 140 138 149 159 152 142 136 138 127 119 130 126 132 133 127 136 150 138 148 160 165 172 178 149 161 149 136 131 110 89 93 81 74 67 91 148 198 175 174 177 211 223 225 179 185 171 201 179 169 198 168 134 111 128 137 191 159 160 130 169 153 151 151 149 94 81 137 129 126 114 95 123 74 140 74 80 92 105 81 58 65 65 68 68 91 92 71 62 60 56 55 57 58 61 52 61 77 63 54 54 56 56 54 55 64 69 70 70 69 60 57 55 62 69 60 59 64 67 69 71 65 65 74 84 80 76 
64 193 199 198 172 148 173 167 215 184 184 209 202 205 193 200 214 214 200 208 196 173 207 198 180 183 165 165 177 177 172 182 137 116 115 109 125 119 124 129 166 157 154 137 156 149 132 108 129 109 55 106 145 113 30 58 77 118 165 150 178 169 160 142 158 178 146 166 169 147 181 201 179 156 163 147 126 124 131 121 101 56 59 86 76 69 120 123 105 98 86 40 100 173 147 147 130 123 87 132 126 155 181 178 159 180 173 152 151 162 178 164 168 176 171 181 210 132 42 129 128 204 204 192 199 208 219 203 200 206 197 201 199 203 200 201 195 183 192 188 182 195 212 208 213 208 206 186 187 197 203 205 221 172 84 71 79 100 135 150 152 156 144 142 148 137 138 139 128 125 134 135 133 132 130 133 147 148 150 151 145 155 149 144 147 142 146 150 145 125 123 137 129 139 136 138 150 154 147 144 141 140 135 129 125 129 124 117 107 134 139 143 144 159 164 178 178 148 158 138 124 112 96 78 81 71 58 64 75 109 189 183 167 176 207 239 228 223 206 171 185 200 179 203 199 143 142 157 139 193 156 159 147 184 181 187 178 142 141 121 153 128 112 154 128 124 92 134 84 75 82 96 116 76 61 65 69 66 90 89 84 72 60 61 60 57 55 58 55 56 83 72 49 55 58 55 53 55 63 64 68 64 65 59 56 57 65 69 61 57 62 68 72 71 62 59 72 86 79 71 
84 195 178 195 180 175 197 198 216 210 195 204 206 210 199 209 203 216 202 178 193 180 204 181 163 168 148 132 146 152 132 145 124 93 125 87 102 113 100 116 127 137 122 117 145 130 122 91 111 122 81 109 148 149 54 70 58 72 132 110 150 155 146 148 139 170 158 157 146 143 145 209 176 146 132 133 127 97 110 104 113 77 74 81 71 74 118 106 125 95 76 44 99 161 138 154 158 122 99 114 113 141 162 180 144 143 146 151 154 168 163 149 149 158 154 160 189 130 63 117 99 192 191 192 181 186 204 190 190 201 192 202 193 181 183 179 186 179 184 182 167 188 184 195 205 194 196 194 192 186 202 194 202 89 33 41 59 95 119 127 143 153 149 144 137 132 142 145 131 131 140 137 135 139 135 134 145 146 148 151 146 148 145 145 145 135 136 147 148 128 125 139 135 138 130 138 162 154 150 145 141 142 136 134 119 124 135 134 112 123 129 132 141 142 163 191 162 146 160 145 127 99 84 69 68 59 52 69 82 86 155 186 162 199 199 213 217 227 206 178 175 208 185 201 210 161 146 161 167 208 156 157 148 211 215 207 169 157 138 135 175 155 123 159 171 147 120 131 79 92 100 80 128 108 70 79 58 63 104 90 88 83 55 78 70 53 56 53 62 54 71 73 51 65 62 54 51 50 56 73 61 60 61 54 57 51 67 66 65 55 55 60 69 76 65 60 71 84 78 69 
110 200 176 192 202 215 202 205 231 205 196 191 205 213 189 181 173 185 198 166 188 160 169 156 151 174 157 113 131 137 114 134 115 89 119 111 88 94 102 128 88 125 130 113 134 116 105 97 88 122 98 122 134 170 120 82 56 54 109 90 114 146 131 155 123 161 153 137 155 118 110 186 174 152 123 126 146 102 118 89 113 125 84 84 75 99 163 119 116 125 74 54 125 181 152 155 155 137 99 106 95 139 163 164 180 179 165 163 165 166 164 154 156 145 147 157 168 109 92 134 74 168 175 170 184 174 181 180 168 186 186 205 199 187 196 183 192 195 177 186 174 191 177 182 175 194 193 193 200 191 217 207 151 49 38 39 57 100 131 133 133 145 148 145 135 131 135 138 130 128 138 135 133 140 137 131 139 150 155 150 138 143 141 144 144 129 128 145 151 131 127 143 139 133 133 138 157 149 148 142 136 141 129 137 125 126 128 136 125 122 132 129 127 135 153 175 154 150 156 146 121 78 67 60 53 47 52 72 84 95 136 173 167 205 201 170 218 213 199 206 198 199 184 188 196 186 136 159 166 196 181 188 153 218 217 215 202 193 156 122 184 165 174 150 176 173 131 152 83 76 123 158 135 129 63 81 66 62 90 101 73 70 56 74 62 51 61 56 55 54 61 60 54 78 68 51 72 59 60 65 56 60 63 54 79 50 60 67 61 56 57 59 66 75 73 66 73 83 76 69 
103 187 177 178 202 215 213 207 225 200 198 185 197 197 172 158 147 161 167 176 182 142 144 139 130 143 143 105 120 128 115 130 115 103 96 130 73 76 86 103 87 125 125 101 129 129 91 95 97 121 112 131 85 132 165 114 48 58 137 110 117 155 142 164 129 141 139 141 171 140 112 165 191 137 123 100 147 133 127 102 104 128 93 121 93 106 170 161 114 157 95 60 132 186 167 160 131 172 167 127 91 114 133 178 162 171 148 147 141 137 148 141 156 137 148 165 164 101 96 162 105 151 177 155 185 184 173 173 181 175 167 181 194 188 194 186 194 204 193 205 182 187 185 176 176 185 183 170 199 188 181 185 82 34 44 36 44 76 118 137 133 138 139 141 136 135 128 132 132 127 134 130 127 134 134 132 140 148 151 150 140 141 137 138 141 123 122 137 142 123 120 142 142 127 139 139 142 138 142 138 132 141 135 139 127 124 121 128 122 120 133 137 126 133 152 172 167 148 148 143 120 78 70 60 47 38 46 59 62 82 143 167 179 209 186 179 236 198 206 206 213 204 193 204 217 220 179 167 175 194 212 200 180 221 211 229 225 159 177 153 172 168 202 188 179 170 167 139 137 89 141 184 166 130 101 85 79 61 76 89 93 96 70 75 53 52 55 53 68 65 52 68 46 74 65 49 93 81 55 83 85 57 74 67 84 55 61 77 60 56 60 60 64 70 79 70 73 81 74 67 
80 176 179 176 186 206 208 218 208 197 187 186 195 165 133 128 129 154 136 134 147 116 110 128 122 116 123 85 85 102 97 81 81 85 69 109 85 81 107 84 76 108 111 86 127 124 90 125 112 113 83 82 96 82 174 188 108 74 142 127 142 158 151 165 155 148 135 136 156 164 151 165 189 135 116 117 143 124 138 154 140 142 116 118 102 115 131 151 140 164 103 50 98 180 172 148 119 161 194 147 134 155 138 174 145 164 146 120 123 124 113 119 146 151 150 151 156 98 84 173 128 124 161 152 170 167 174 160 172 179 188 178 190 189 176 179 193 195 206 195 170 173 178 172 195 181 185 177 163 171 163 183 58 44 35 37 40 50 95 136 141 140 133 133 132 129 128 134 133 130 132 127 121 125 130 134 139 143 143 137 127 138 129 129 133 119 114 122 128 118 122 142 140 122 139 135 134 140 147 140 131 142 144 140 134 131 119 122 120 115 111 129 124 117 141 174 175 150 134 126 114 74 58 43 35 35 40 56 65 79 110 110 162 200 189 200 231 199 192 192 211 217 203 209 220 207 199 185 189 194 216 193 196 222 217 226 220 176 178 194 186 187 205 230 211 178 194 146 171 118 128 155 158 105 136 125 103 86 70 88 102 108 69 81 59 68 62 52 74 88 56 91 54 58 57 47 80 92 48 106 134 95 81 107 82 56 61 96 84 51 58 56 61 71 78 68 70 79 74 72 
77 176 180 184 171 195 172 201 200 190 177 169 180 145 111 114 117 114 121 103 113 114 95 122 115 89 115 78 75 90 97 66 61 74 93 88 111 101 152 119 84 98 131 118 127 129 127 151 100 135 118 82 116 113 151 171 165 124 153 171 155 156 160 179 164 174 139 120 131 152 147 174 151 122 106 141 145 112 153 149 167 151 148 125 128 138 126 122 125 129 96 47 86 175 164 145 126 144 164 153 134 152 131 123 126 136 121 103 97 98 83 67 102 131 120 116 124 97 77 155 132 108 142 150 160 142 165 152 168 179 198 183 189 197 172 178 185 191 209 187 171 177 178 182 203 200 175 189 185 192 193 178 48 44 30 41 42 33 61 115 147 142 128 129 121 117 124 131 127 128 132 128 121 120 128 133 133 141 142 128 105 131 128 123 125 115 115 122 123 113 118 138 138 123 137 133 133 138 144 138 126 133 144 138 136 138 121 119 120 112 96 111 121 117 128 169 175 146 134 128 109 81 53 30 35 36 38 54 72 79 52 54 155 194 216 206 211 214 189 187 199 207 204 204 205 193 199 203 186 181 205 206 200 225 223 206 208 186 185 191 202 197 189 203 219 211 212 214 184 134 125 133 133 144 143 131 105 126 65 112 90 94 64 87 79 91 83 52 61 84 65 100 78 64 58 56 58 90 55 74 122 149 69 132 118 64 58 106 102 49 52 62 59 76 83 59 63 76 76 71 
89 174 167 176 156 185 167 182 196 178 162 159 145 143 104 103 89 98 101 91 88 113 83 88 133 85 128 102 104 98 90 82 69 82 134 121 144 134 166 168 153 150 150 159 156 177 166 173 141 163 136 140 151 169 167 181 182 145 153 192 154 167 153 144 133 141 122 96 114 107 120 143 101 104 97 117 132 98 117 106 120 120 112 104 113 129 104 95 113 110 98 55 68 159 170 103 107 100 101 119 108 126 118 80 66 106 98 80 82 99 83 69 85 97 109 109 102 89 89 129 157 149 139 141 153 152 156 148 155 156 165 165 172 184 171 179 169 175 205 184 179 184 178 193 198 205 211 210 207 199 212 176 52 35 36 42 43 38 41 82 132 144 119 133 121 108 112 118 114 118 129 127 123 120 124 131 131 140 143 132 103 113 123 114 113 107 105 117 117 104 108 126 122 122 136 139 134 117 124 132 126 128 142 132 124 127 117 112 110 107 106 108 117 111 110 149 174 137 129 132 103 91 61 30 29 28 37 45 71 70 54 121 176 187 206 212 197 208 208 198 200 194 197 214 215 197 208 201 185 184 201 211 190 209 212 215 206 200 201 214 207 203 210 214 215 213 203 213 190 144 165 140 130 139 147 137 125 153 73 108 117 105 78 117 81 88 112 54 58 57 69 117 111 78 57 89 81 87 65 89 96 119 83 87 139 77 61 105 120 70 66 91 62 86 110 83 81 72 68 66 
68 154 148 163 141 172 153 165 168 145 114 144 126 142 100 96 84 124 107 100 100 113 118 110 157 135 145 134 163 150 129 152 166 152 137 167 166 155 159 174 166 163 154 166 147 160 154 179 167 185 182 184 174 160 138 127 128 115 100 163 146 101 89 98 88 71 84 76 117 80 81 105 64 86 100 119 115 106 124 92 79 66 90 107 101 126 118 61 78 122 112 94 75 127 194 108 100 107 106 98 120 120 121 69 68 110 116 92 102 123 94 99 87 95 137 116 120 108 103 145 148 149 147 170 160 165 161 166 155 147 149 165 175 163 170 155 140 153 197 173 189 181 166 177 188 180 201 179 205 195 216 172 37 33 40 44 46 43 35 51 92 136 121 117 127 114 115 115 104 104 118 119 122 127 128 132 136 139 139 128 100 99 105 110 107 105 103 113 112 91 90 110 111 113 129 134 131 108 111 124 120 116 131 134 131 130 122 112 100 96 102 98 97 115 111 130 159 125 117 131 111 96 67 40 29 30 36 29 61 62 81 180 177 167 189 198 182 196 182 191 203 195 183 205 210 185 171 181 192 173 198 207 166 175 203 215 221 234 224 214 206 188 206 214 207 221 201 203 198 136 172 151 151 132 183 172 161 142 140 120 140 118 123 125 90 86 137 82 93 63 67 108 116 103 78 93 139 104 74 93 122 102 155 93 156 99 79 84 122 118 92 98 67 100 130 149 146 71 65 68 
67 137 123 158 142 164 151 132 115 107 85 101 111 122 119 121 111 141 145 121 146 137 140 152 137 163 161 148 170 179 181 165 155 160 152 163 169 153 138 168 166 145 137 149 162 149 148 164 155 170 155 177 144 122 82 92 84 103 97 133 165 71 47 75 131 104 80 73 87 69 96 116 62 87 118 134 123 117 129 100 72 59 93 134 123 141 153 88 58 134 144 120 103 120 165 163 140 161 139 115 138 163 159 119 111 118 136 129 121 157 122 113 91 117 137 121 141 147 94 111 128 145 138 150 140 140 161 156 164 170 171 191 168 147 175 156 155 162 181 188 210 178 162 170 196 175 174 160 180 195 214 137 35 39 33 41 46 44 37 54 63 102 124 94 114 119 121 121 104 94 109 111 115 125 127 125 123 131 135 126 98 84 92 112 106 105 106 116 114 89 86 107 115 114 115 118 129 119 113 120 116 110 121 128 126 124 122 114 106 103 109 102 99 107 115 127 159 122 112 120 101 91 60 32 31 31 36 38 58 56 93 156 195 188 177 175 180 186 175 178 205 204 184 192 184 170 167 165 175 167 169 178 153 170 205 211 215 204 192 199 191 176 198 216 204 215 203 191 211 166 181 184 187 175 210 187 173 129 154 136 128 118 136 127 140 107 140 96 96 91 83 142 124 128 114 116 139 118 133 99 140 93 131 142 171 108 103 103 101 116 89 100 76 90 111 133 177 88 67 72 
87 148 128 156 135 142 145 105 88 106 107 118 131 127 134 147 158 161 177 157 166 173 161 163 169 158 173 169 155 179 175 161 145 147 170 153 161 145 129 147 150 134 141 158 139 158 157 160 156 154 135 135 148 159 122 122 109 118 125 126 191 121 92 111 141 128 125 114 120 90 128 156 112 136 163 123 135 160 134 115 87 65 78 146 138 163 179 144 106 157 179 161 151 157 147 173 168 184 174 179 172 176 195 196 172 165 154 148 128 173 167 151 159 148 128 136 138 140 128 109 145 174 147 144 155 147 171 136 159 186 176 182 163 154 167 136 144 184 195 181 212 204 174 185 205 192 176 192 194 206 191 76 31 44 34 44 44 39 38 56 56 73 106 101 97 108 114 123 113 100 113 115 117 122 123 118 110 122 130 125 97 70 81 103 101 101 107 116 114 94 91 107 117 118 109 109 128 129 118 121 117 118 115 117 114 115 119 108 104 101 106 97 96 98 116 132 163 123 110 108 88 84 50 22 32 30 31 44 62 58 81 160 205 207 182 159 176 177 188 179 186 183 175 179 169 170 178 168 178 176 179 175 156 161 177 190 192 149 144 171 162 151 172 200 201 206 211 186 208 187 163 186 188 188 195 182 171 176 159 165 155 142 119 146 165 140 139 125 108 94 140 155 147 138 120 147 126 123 136 123 102 113 110 143 166 130 102 135 125 101 93 115 109 92 82 114 197 121 62 77 
79 176 154 151 139 137 167 130 132 145 151 167 186 157 152 165 176 174 171 167 141 176 180 162 175 142 151 174 152 168 159 165 151 138 159 153 165 158 151 149 150 151 145 149 144 181 165 138 151 169 152 174 193 179 179 159 174 185 157 156 187 172 149 176 153 141 175 164 164 160 164 178 177 177 171 137 158 173 182 151 130 102 112 155 140 184 213 169 160 173 210 195 183 187 162 174 180 197 188 197 179 179 194 188 184 185 179 174 161 167 159 167 170 144 147 168 163 155 163 167 171 160 148 139 154 173 168 148 156 172 189 180 171 149 174 164 147 181 190 178 202 204 180 185 191 211 188 195 214 203 157 41 33 34 37 45 39 39 35 46 59 74 94 104 100 103 102 117 118 105 110 117 127 130 129 125 114 120 125 123 99 71 78 91 97 105 110 112 110 101 101 113 119 127 120 101 99 123 117 121 116 120 112 111 110 113 112 103 110 105 116 102 90 96 109 125 153 121 103 105 92 88 52 30 36 31 28 31 65 70 52 125 169 156 188 169 170 189 167 182 189 175 186 184 172 176 178 168 193 192 184 173 177 161 157 146 133 117 109 124 140 138 145 162 169 171 174 177 195 184 192 199 194 187 208 206 180 183 177 184 166 162 138 143 170 179 156 142 128 76 160 124 146 135 100 114 115 123 105 149 90 127 124 127 161 154 110 133 151 122 100 99 123 101 77 134 209 167 70 120 
90 206 160 157 186 172 193 168 174 176 165 169 196 163 155 157 150 168 173 174 144 172 169 164 165 155 139 157 136 153 167 146 149 151 152 145 138 148 141 145 145 156 162 140 149 167 170 149 155 151 155 160 167 187 173 169 173 165 160 157 148 194 169 166 163 162 180 181 177 183 194 184 183 173 167 164 171 154 176 169 170 168 160 192 174 175 219 189 177 176 209 198 197 195 164 175 186 205 198 186 193 192 181 166 172 190 187 196 159 155 170 184 185 155 167 183 189 161 167 166 164 161 176 169 150 175 155 159 147 155 190 179 169 155 161 162 167 172 172 204 209 195 184 189 187 202 197 198 211 160 123 38 41 29 40 43 36 38 34 35 44 65 83 82 86 91 92 100 109 101 93 102 120 126 133 133 124 118 121 122 104 72 73 82 95 102 104 111 109 103 109 113 111 128 129 105 89 118 111 120 105 113 113 112 103 102 89 83 100 96 111 105 80 90 102 116 138 114 100 102 102 95 68 38 29 29 34 41 81 82 42 69 148 135 151 160 162 172 141 178 173 160 177 170 162 168 185 169 160 179 197 185 184 151 123 127 126 135 150 150 158 161 154 150 144 135 134 142 154 157 173 167 180 164 201 201 192 172 151 170 162 177 154 161 162 187 180 172 154 144 142 143 147 152 128 146 130 146 120 149 115 143 161 153 161 158 136 137 156 153 137 123 153 124 93 121 167 198 79 126 
81 208 155 160 173 161 192 163 159 151 148 156 179 174 159 150 140 152 191 174 145 150 151 162 152 151 145 145 142 132 146 143 144 134 129 141 136 139 130 143 136 142 178 158 133 146 161 157 138 149 150 139 167 181 179 172 155 153 176 161 140 182 158 156 162 174 160 162 170 169 177 176 177 167 171 179 172 164 173 182 177 179 175 183 192 188 196 193 174 184 189 187 182 178 151 185 181 183 200 173 207 190 196 199 159 165 179 177 127 165 172 190 174 153 154 167 171 153 169 171 154 165 181 199 184 160 140 161 156 176 160 146 148 139 161 150 153 184 173 190 198 193 195 221 213 196 208 196 162 143 122 36 33 34 38 42 36 34 36 35 38 53 73 76 65 77 93 98 103 95 80 85 104 114 130 132 126 115 118 120 111 71 64 76 86 91 89 104 104 97 104 108 106 119 118 108 107 123 107 115 97 114 113 114 107 119 105 89 98 97 96 108 83 74 95 117 132 101 106 99 106 99 82 39 30 35 56 82 83 93 50 53 145 184 140 170 183 168 152 182 169 155 167 135 144 166 157 185 175 175 185 173 138 119 125 134 132 143 144 148 152 151 146 139 131 121 129 138 140 140 149 153 154 141 157 169 205 178 147 172 162 179 162 173 164 181 187 175 170 181 149 171 166 174 145 159 149 153 170 193 151 151 187 193 170 163 129 125 149 152 144 121 146 151 127 133 144 189 104 137 
61 194 171 175 167 149 172 168 177 154 134 136 142 152 155 161 161 139 165 180 139 138 159 169 163 175 164 162 161 146 152 154 150 139 147 167 165 146 161 170 163 165 186 190 156 139 156 172 148 160 162 147 176 161 166 165 164 154 172 188 173 189 170 171 166 167 151 155 168 171 154 171 171 171 186 185 179 178 179 189 189 188 178 169 179 197 179 170 169 161 161 181 178 160 135 189 189 195 177 165 192 186 182 178 182 185 186 184 176 183 169 180 170 192 199 195 189 162 169 182 153 184 188 177 177 165 153 174 179 164 148 167 147 165 190 166 149 164 166 185 197 184 211 236 205 190 216 196 159 149 79 37 35 30 37 38 36 36 40 39 42 48 65 69 56 69 85 104 92 81 64 63 83 102 117 120 122 113 111 113 112 80 62 63 65 86 87 98 107 102 101 104 107 116 113 110 125 120 117 119 111 120 104 100 97 114 96 80 102 106 94 103 98 78 79 102 129 95 109 105 106 97 79 36 40 45 71 101 78 71 36 93 157 166 160 189 180 183 178 161 162 166 172 123 143 176 150 173 182 174 160 148 107 101 127 135 134 140 127 125 136 148 147 134 119 112 119 122 137 140 147 150 148 156 156 155 180 167 165 162 139 160 167 168 154 159 175 185 165 162 175 164 158 185 150 149 156 166 165 184 168 151 162 193 182 193 172 136 148 168 164 127 126 157 148 138 126 168 155 152 
72 188 188 180 174 165 154 194 185 167 140 150 147 167 161 144 155 149 153 176 149 157 158 161 155 162 160 164 173 173 185 181 164 168 166 168 181 166 169 170 168 165 172 187 176 153 146 148 145 161 169 158 166 167 166 162 166 148 159 173 168 175 168 161 177 179 163 161 164 171 161 168 163 174 171 180 176 171 178 182 171 177 176 166 184 196 171 168 174 176 167 174 167 150 150 187 171 176 169 159 176 191 183 170 186 193 181 193 203 177 167 175 173 177 157 171 169 149 168 171 155 168 171 164 172 179 181 168 170 171 163 183 187 182 194 194 194 172 158 177 196 177 190 197 211 218 195 188 210 138 74 34 37 30 32 37 36 36 38 39 44 46 62 71 60 53 61 87 75 80 61 47 65 89 106 111 115 109 103 104 111 94 72 51 56 72 81 95 102 100 97 99 110 113 99 94 109 94 116 122 122 121 102 94 80 89 83 69 79 83 87 102 101 80 64 82 119 105 114 102 94 87 73 36 52 57 58 91 104 43 62 180 160 140 181 161 162 182 198 176 151 176 194 97 112 175 165 162 165 169 144 107 88 105 116 119 124 133 126 121 120 135 147 150 132 110 96 97 122 127 131 137 142 150 154 161 145 136 135 132 131 146 170 152 147 156 174 170 165 151 168 148 139 175 156 149 152 175 151 139 153 172 135 161 167 168 199 176 150 168 175 152 138 134 154 132 131 159 174 135 
90 179 181 159 157 163 165 168 167 144 145 153 142 160 173 162 149 149 157 177 159 166 143 149 156 159 167 174 178 181 189 178 168 163 161 170 169 173 165 168 167 146 152 175 166 148 142 137 143 166 154 145 160 179 178 173 173 165 167 160 156 159 165 139 167 178 167 161 154 172 157 172 161 152 154 179 174 168 175 175 160 166 166 156 164 182 175 182 176 172 166 172 170 160 169 178 186 167 181 172 193 186 192 193 199 205 185 186 191 189 198 188 191 181 154 165 149 141 173 181 197 196 204 189 160 176 198 180 175 175 190 201 195 197 195 185 188 173 151 170 199 195 198 201 235 216 191 198 185 145 101 29 33 35 30 37 34 34 34 32 38 41 53 70 64 45 44 62 58 76 66 44 55 75 95 103 107 104 96 98 107 103 87 51 63 64 74 85 88 90 90 94 110 96 69 74 89 66 96 95 103 115 106 96 69 71 80 84 86 69 77 99 102 76 63 81 113 105 110 98 87 84 72 45 57 61 68 85 114 66 78 185 180 168 207 173 194 169 181 196 171 179 195 116 103 176 168 148 154 153 107 79 87 95 99 117 114 110 114 119 113 119 129 140 136 119 125 111 107 106 129 143 137 140 143 149 160 146 121 115 123 112 126 153 163 141 169 182 198 170 160 144 138 169 171 172 144 157 145 155 164 165 134 142 165 147 179 178 156 184 188 168 171 169 166 137 149 161 180 124 
81 170 176 171 171 158 164 146 171 147 145 162 164 159 172 172 158 147 160 188 166 157 144 153 165 163 157 160 157 150 154 153 172 154 155 176 156 152 146 149 153 136 139 164 158 149 160 163 157 169 143 149 147 169 182 172 181 185 162 147 144 144 172 134 142 158 155 157 157 165 149 172 182 151 141 164 162 171 160 167 166 169 169 170 161 169 159 175 178 173 161 169 172 170 182 182 195 176 164 186 192 184 181 176 188 199 189 170 175 191 189 186 191 188 194 187 175 176 190 206 191 203 205 222 221 206 178 168 154 175 188 196 190 204 200 183 190 185 166 187 198 197 203 219 233 202 194 214 207 159 59 34 39 30 29 34 33 32 32 28 34 37 41 58 58 44 45 51 53 69 69 42 45 56 78 90 88 87 82 82 90 95 88 59 64 68 68 68 73 81 84 85 107 89 62 86 94 56 88 78 81 105 103 87 56 58 62 72 96 79 74 87 103 85 66 79 106 93 98 92 86 88 72 53 71 70 89 89 87 80 93 135 114 136 202 165 202 181 199 189 193 187 169 180 157 141 162 146 149 118 72 85 106 98 90 106 104 97 103 120 111 108 115 123 128 126 126 123 108 96 115 120 119 123 140 131 143 149 140 110 88 85 92 123 149 144 168 200 171 154 169 147 160 171 161 183 147 156 149 157 172 164 159 133 167 170 188 171 155 165 155 153 157 166 167 155 154 159 194 158 
66 161 177 175 174 169 186 187 177 160 159 168 169 152 148 163 159 163 177 174 173 162 152 160 159 160 148 156 150 137 144 156 156 145 142 148 142 147 143 145 152 159 148 158 170 160 167 156 137 152 151 176 161 160 186 170 162 164 163 162 149 144 167 150 157 154 158 164 169 162 154 155 179 157 130 142 138 160 149 168 166 169 181 184 173 194 168 175 169 165 146 153 151 154 148 180 191 170 165 158 162 172 172 170 161 157 152 159 176 181 169 178 172 169 190 184 198 177 154 185 175 196 174 182 189 195 176 169 162 157 180 195 188 176 169 185 202 180 172 187 178 172 187 197 196 199 184 201 223 142 58 31 35 29 27 30 32 32 30 28 33 37 39 53 54 43 46 50 55 69 68 42 39 47 64 74 71 72 71 72 78 83 73 54 49 56 60 56 59 68 73 74 95 87 72 96 98 73 96 88 84 100 97 74 54 50 51 51 69 72 71 70 94 91 62 71 100 83 86 85 85 82 68 46 71 79 102 99 90 93 85 144 112 97 106 109 157 171 203 203 188 202 180 184 172 120 159 159 132 91 87 93 92 98 99 90 89 85 107 112 107 106 109 122 120 118 113 122 128 118 116 106 112 106 125 131 129 136 131 118 103 100 98 90 111 140 157 178 163 143 137 134 161 158 133 159 144 160 168 154 165 141 138 129 165 163 177 150 173 160 145 134 134 122 143 175 170 168 187 178 
65 154 175 176 157 176 186 177 166 151 165 162 166 163 143 147 156 175 164 176 165 138 149 158 148 149 135 166 165 138 141 145 150 154 150 144 157 160 146 153 158 158 138 148 164 165 171 158 157 160 143 174 171 164 175 158 149 149 164 165 167 162 156 162 156 144 158 158 154 160 173 139 143 150 148 158 133 147 151 172 168 158 173 191 171 176 176 194 161 147 130 154 145 167 159 166 192 173 171 191 185 168 166 170 153 143 150 181 179 178 185 182 179 179 183 173 184 190 183 196 186 207 198 205 190 169 170 160 168 160 166 161 169 162 164 175 179 171 179 174 170 185 203 195 174 206 210 204 193 150 81 29 29 29 29 27 33 33 27 26 27 34 41 47 42 49 46 50 58 68 62 41 35 45 50 55 61 60 65 71 75 78 61 44 42 46 58 60 59 58 66 75 87 82 75 91 95 95 99 95 91 106 86 53 48 45 67 74 64 58 63 59 86 84 64 80 98 71 77 75 72 61 58 37 51 76 103 94 85 85 82 174 196 120 103 115 121 151 203 219 189 201 186 181 157 168 162 152 93 88 92 97 86 87 100 96 100 84 102 92 108 114 108 120 117 116 113 110 122 124 124 109 112 113 109 124 134 130 115 107 104 105 94 91 91 97 104 112 120 127 122 127 150 147 138 149 151 149 160 144 162 139 130 131 183 178 164 164 178 154 152 123 124 148 155 151 145 160 187 189 
61 138 156 178 143 142 142 139 142 148 162 154 143 138 148 149 154 166 161 158 148 145 161 152 151 156 143 160 178 147 150 139 154 166 152 139 136 148 139 143 154 142 139 147 145 174 163 144 166 162 136 156 164 161 184 170 146 137 149 149 166 185 172 152 154 166 167 154 140 150 156 139 134 144 155 152 130 143 149 152 162 137 147 178 161 158 157 168 167 160 117 132 152 162 166 163 183 173 168 180 185 155 161 165 178 178 187 198 203 198 200 178 170 183 191 178 183 194 197 199 186 207 198 192 196 176 167 176 216 196 184 213 198 193 178 171 180 179 168 157 165 180 186 205 213 215 207 215 236 153 47 33 33 29 30 28 33 33 29 28 29 33 37 41 33 51 49 49 67 72 70 47 34 47 45 41 42 39 48 58 61 66 54 33 37 44 49 57 58 53 60 67 77 77 73 85 89 90 101 102 90 107 71 36 32 35 61 69 70 70 69 62 76 82 75 104 88 62 65 64 60 52 56 37 42 71 101 84 74 76 98 182 221 196 187 147 178 144 170 220 226 215 183 150 108 157 185 104 82 87 109 118 103 99 103 102 93 79 94 106 113 110 115 111 114 122 114 120 117 113 118 106 110 119 120 122 120 118 106 105 102 96 97 99 102 100 96 93 97 97 95 103 109 124 136 147 164 146 135 129 151 153 180 159 150 173 151 197 154 121 127 149 132 122 150 135 148 146 189 197 
57 128 136 149 141 137 137 139 140 138 145 141 129 136 147 152 150 155 158 152 149 153 153 145 149 158 178 160 179 160 154 146 169 179 163 152 147 146 140 148 162 152 183 167 146 168 173 146 151 132 135 134 134 156 179 171 166 155 145 133 150 171 168 157 152 165 158 152 151 157 151 149 160 164 158 165 156 154 162 153 153 141 149 148 157 154 149 147 163 176 162 171 161 153 180 168 169 162 166 168 176 190 192 158 162 169 181 182 188 169 172 165 175 186 186 170 168 181 173 169 171 183 182 193 196 179 178 177 162 179 176 218 192 187 159 180 192 188 176 173 183 176 177 197 205 202 178 201 216 145 62 32 36 32 28 29 33 33 29 30 30 29 36 42 36 50 55 43 57 71 85 56 34 44 41 32 33 33 37 47 58 68 55 29 31 33 33 40 44 49 56 57 64 71 72 79 83 78 90 94 85 101 57 33 36 34 45 48 61 68 71 73 84 70 84 115 71 59 56 56 53 50 51 40 37 65 104 80 62 70 105 170 189 186 137 86 188 168 165 169 180 138 101 82 64 78 186 89 81 85 81 105 108 101 96 99 98 98 97 111 120 108 115 107 115 116 114 126 120 111 123 114 112 116 116 109 103 107 103 104 98 86 92 91 91 95 101 100 106 97 86 92 89 94 106 118 142 134 128 132 142 142 181 171 112 144 115 138 144 125 152 146 148 144 136 133 147 132 169 185 
58 138 123 134 131 152 153 165 161 147 133 125 128 143 145 155 162 158 161 158 159 163 180 169 166 173 177 149 164 169 159 167 163 166 163 164 166 156 155 168 168 149 180 170 170 154 173 160 161 145 146 154 136 148 179 172 163 161 144 118 139 150 157 161 175 170 155 151 160 148 162 158 176 176 171 164 150 137 166 170 158 161 154 159 160 150 154 143 153 161 150 173 173 145 166 166 170 162 175 174 175 178 186 158 157 175 175 156 165 177 182 162 168 187 194 180 168 172 158 167 190 202 198 214 195 181 179 188 191 204 186 186 162 180 163 175 184 165 138 132 146 166 182 199 213 190 166 173 205 199 83 29 32 30 28 28 31 31 27 29 30 36 47 49 33 50 66 51 54 81 98 61 30 34 34 29 34 39 36 42 58 62 50 31 30 30 26 29 33 48 55 52 58 66 68 73 76 63 61 64 78 106 51 31 38 41 53 54 56 58 59 65 83 68 91 106 56 61 61 61 54 52 43 36 32 60 104 77 67 78 95 173 199 177 74 57 186 159 142 105 90 61 66 69 55 28 125 166 77 89 76 102 124 113 101 94 88 95 85 104 132 119 120 115 119 108 110 121 120 108 119 118 114 121 126 110 95 95 86 82 81 82 85 86 88 92 97 93 106 117 113 106 100 100 90 89 97 98 87 99 118 128 166 166 108 121 122 110 126 137 149 138 116 141 147 146 138 130 164 176 
65 140 139 147 133 142 132 154 158 148 123 127 138 138 134 139 160 147 145 154 156 168 177 169 159 166 157 156 166 164 144 158 167 158 166 168 167 156 145 159 159 147 154 159 170 145 162 145 149 162 150 140 137 136 158 167 156 141 150 140 138 152 169 145 160 153 155 154 163 163 177 161 148 150 153 147 148 143 158 156 143 155 148 151 153 169 144 124 158 154 141 133 154 189 166 151 168 168 175 148 153 155 159 164 166 161 156 149 147 184 197 185 166 170 172 167 155 157 157 177 188 199 196 201 164 173 171 182 201 168 169 157 162 169 141 171 199 174 180 154 120 138 174 193 193 196 192 182 200 188 47 35 33 28 29 26 28 28 26 31 36 39 51 59 48 49 70 66 59 89 105 70 40 33 32 31 32 34 32 35 46 47 35 34 30 31 28 29 29 36 43 44 51 56 55 53 57 49 45 49 84 100 40 28 33 37 52 55 52 59 60 54 80 89 98 90 52 62 68 70 54 58 45 36 32 64 93 62 69 64 80 183 197 191 138 58 185 164 83 64 63 65 56 66 79 54 63 187 106 87 98 87 112 115 91 92 89 81 89 93 109 108 105 107 110 106 111 112 115 92 95 104 103 117 130 110 87 88 86 81 81 88 87 90 95 99 102 102 101 116 132 125 119 124 112 104 105 101 93 83 90 106 122 147 127 120 155 141 138 152 91 109 120 107 128 141 123 108 132 154 
61 132 147 159 142 137 119 127 121 122 126 137 145 131 137 127 146 143 141 147 150 149 155 174 162 147 133 136 150 164 147 156 150 145 162 167 173 160 139 149 155 154 161 168 153 148 168 154 160 141 124 122 120 127 133 139 148 146 157 158 150 148 154 155 166 149 167 165 160 167 177 156 147 166 153 160 178 185 168 161 151 153 155 146 143 152 143 138 159 146 151 159 151 173 156 167 164 165 169 181 166 152 164 160 156 161 144 144 144 172 167 159 176 177 175 171 163 166 179 191 173 177 190 187 174 203 190 171 186 187 169 151 160 166 167 172 159 160 158 155 178 179 166 167 177 189 189 199 209 119 42 33 28 34 27 25 27 27 27 31 31 30 52 68 58 53 69 66 60 69 94 75 39 32 33 30 33 33 36 40 42 36 30 33 28 28 27 29 28 28 33 35 39 46 47 43 37 41 44 49 85 73 27 27 41 40 45 57 55 53 59 56 85 93 102 86 66 58 68 63 44 50 45 36 35 63 81 44 64 77 96 137 215 193 146 93 119 89 51 61 57 65 46 53 81 65 41 110 120 112 91 68 107 107 99 97 90 87 98 92 90 89 94 97 107 108 109 106 117 103 96 111 113 107 109 104 90 75 81 88 79 85 103 96 87 88 95 102 88 87 115 112 101 117 118 117 122 121 112 88 91 100 105 117 132 141 151 149 138 127 92 88 117 81 86 89 89 89 131 147 
50 119 139 150 135 128 124 137 125 116 137 136 146 135 148 154 149 162 157 142 147 140 153 169 152 139 148 138 137 159 140 147 137 146 169 163 176 165 158 164 155 145 151 160 161 146 144 144 136 121 107 130 139 151 154 147 144 144 128 118 136 155 159 169 162 153 156 160 153 165 155 170 172 163 150 154 171 184 171 162 157 161 160 147 126 145 151 153 149 139 146 152 118 129 116 159 164 161 163 164 165 162 177 161 163 153 152 147 138 183 190 187 189 201 204 185 182 176 175 185 168 169 165 152 180 219 212 167 142 157 150 171 197 171 181 163 143 158 150 161 168 160 164 159 160 179 190 190 193 112 46 36 31 32 27 26 26 27 29 30 31 29 51 56 42 50 67 64 62 60 84 89 49 26 36 33 32 32 36 41 39 34 33 32 29 28 27 26 27 29 30 31 32 34 38 42 38 35 37 40 68 46 25 33 48 38 38 53 55 56 73 68 80 81 108 82 86 55 58 52 38 40 40 34 35 51 71 39 63 79 81 86 149 185 187 116 64 52 43 44 48 57 42 32 50 40 41 81 72 71 59 38 91 92 92 102 113 98 101 97 88 90 94 79 95 107 109 99 99 91 90 94 106 118 110 103 106 87 76 77 82 72 80 84 85 84 83 91 100 83 80 88 99 101 104 108 100 101 128 113 101 100 116 115 114 134 152 153 149 162 125 126 143 106 109 100 125 100 136 137 
57 126 124 137 127 116 137 143 144 120 131 137 152 151 145 165 127 148 143 133 148 156 140 153 123 117 142 130 134 139 126 141 173 147 154 162 160 143 160 176 165 158 164 158 152 148 151 159 120 121 116 108 109 132 137 140 137 133 135 138 126 128 152 162 165 173 151 162 153 170 171 168 145 140 137 154 157 149 166 156 145 153 164 150 137 163 160 174 147 149 149 149 126 153 155 156 155 155 174 164 151 156 167 152 150 154 155 138 153 200 188 198 178 185 176 158 203 183 170 192 184 156 142 149 155 167 189 186 182 161 186 187 191 165 151 165 150 133 150 154 141 181 199 174 162 171 186 212 238 145 63 37 32 31 26 27 25 25 25 26 32 29 35 43 46 42 58 64 64 65 82 104 72 32 34 34 30 29 32 34 33 35 33 32 30 29 28 27 26 26 28 30 31 36 38 32 43 33 36 47 55 36 24 35 37 33 40 52 63 63 77 80 88 88 100 73 80 54 40 39 36 39 38 34 34 45 64 35 62 88 74 99 152 175 201 79 38 34 35 37 34 37 32 25 36 46 57 81 45 32 31 40 82 63 65 76 91 76 93 98 92 100 98 72 77 107 111 97 85 73 84 97 95 111 107 89 98 93 97 78 82 74 72 80 82 80 87 86 95 87 76 71 79 83 87 95 89 81 96 123 136 123 108 136 132 107 125 146 139 142 137 146 136 111 85 89 151 150 151 134 
67 130 120 134 143 137 153 131 146 128 128 133 147 148 129 124 118 141 119 126 133 116 92 138 137 140 137 130 145 141 123 122 165 160 134 154 161 145 150 175 173 159 170 159 147 144 142 156 150 140 125 129 126 141 153 155 144 131 135 149 152 150 140 136 153 164 141 129 146 157 157 158 144 145 131 158 155 145 158 166 165 156 158 153 158 161 166 185 163 153 160 166 167 178 186 177 172 171 168 141 151 170 172 152 148 167 166 158 152 153 154 170 167 172 164 148 163 168 172 176 182 161 127 137 166 172 176 179 174 166 177 168 200 169 139 137 140 141 132 143 168 177 170 184 181 171 174 191 216 162 61 35 47 43 26 26 25 25 26 27 31 28 34 43 51 48 65 61 75 74 86 102 71 31 29 33 31 30 32 31 28 33 33 32 30 30 28 27 26 28 31 35 35 54 67 42 40 44 38 47 41 30 28 31 29 40 49 50 69 66 63 77 91 92 80 76 72 52 45 42 36 34 35 34 34 43 63 32 45 78 93 114 186 173 169 47 40 36 32 33 32 40 42 30 29 38 45 47 34 24 32 58 87 54 41 46 74 74 98 95 84 79 97 85 83 100 98 92 90 85 85 96 91 97 109 97 86 70 78 81 84 77 77 80 75 68 75 82 86 79 84 80 77 78 76 86 90 87 84 98 129 127 122 127 156 130 104 134 140 126 140 147 146 139 118 119 133 138 139 113 
71 128 122 134 161 138 138 119 141 140 121 121 145 127 113 118 127 137 111 126 122 85 68 118 137 133 122 154 155 147 130 123 161 167 144 138 166 162 143 162 159 143 159 160 164 166 157 160 155 151 140 155 137 137 159 155 154 167 163 154 154 149 141 152 148 137 144 131 147 143 142 151 153 152 141 162 143 149 132 137 165 158 148 143 147 139 176 165 170 150 157 175 171 154 158 163 153 151 124 98 137 149 148 133 139 166 169 183 184 179 175 132 137 152 154 160 171 156 175 166 176 175 164 145 155 180 189 188 185 168 137 151 174 186 150 123 152 167 160 160 160 169 180 178 185 177 181 172 168 130 64 45 90 76 27 26 26 26 29 29 32 27 35 40 39 48 82 56 58 76 110 82 36 29 34 33 33 34 35 32 28 30 31 30 29 28 27 27 27 30 36 45 43 47 64 57 64 67 45 42 27 23 30 27 29 50 54 45 69 65 54 81 95 91 80 77 85 60 63 55 36 30 32 32 34 46 69 35 39 60 86 142 159 149 137 41 44 35 29 35 36 41 38 22 22 28 30 25 34 25 26 56 89 63 46 41 66 83 95 98 81 54 77 71 78 86 92 86 84 84 81 83 96 107 106 102 99 88 77 71 97 82 70 81 85 79 77 76 89 85 80 82 89 77 76 86 87 86 86 80 100 132 133 130 147 165 130 100 118 135 131 146 170 159 151 115 131 135 127 117 
65 136 110 125 150 120 121 109 117 139 124 114 146 129 120 139 140 130 124 120 110 114 122 130 149 150 142 143 137 142 131 121 141 166 175 147 119 121 136 137 121 127 147 152 153 162 164 160 154 147 134 144 159 130 153 137 130 147 132 138 140 130 139 154 143 128 144 157 135 143 162 162 142 148 147 159 144 148 130 147 131 136 134 142 138 126 150 148 154 139 163 188 174 166 147 145 153 143 142 144 157 146 146 127 125 135 155 170 178 180 178 144 162 160 163 161 173 141 171 182 173 159 166 165 166 167 177 171 167 152 158 178 154 163 152 151 189 194 171 167 183 164 177 165 169 158 178 183 186 127 93 93 115 102 42 28 28 28 28 27 30 28 34 38 41 41 64 58 64 102 133 93 39 29 35 33 35 35 36 34 28 28 28 28 27 27 28 27 26 29 34 44 45 40 50 61 81 80 49 38 24 22 25 23 34 47 43 40 64 61 55 94 91 85 76 88 99 66 75 60 35 31 32 28 33 46 74 44 40 38 100 192 208 189 101 27 34 33 35 39 32 32 25 28 53 36 21 19 26 34 33 53 86 61 50 49 40 51 59 92 74 55 69 44 59 67 82 80 72 68 71 75 88 114 107 85 90 84 79 56 64 62 76 77 76 77 81 78 79 73 78 79 81 74 73 78 83 91 79 86 106 131 126 128 110 124 151 124 102 125 127 140 155 162 163 128 159 147 116 110 
66 126 112 115 147 118 120 115 111 132 124 110 128 131 121 133 101 92 122 128 141 148 137 132 128 138 125 110 122 136 134 115 121 141 142 137 127 112 140 144 123 136 149 158 156 143 128 140 140 147 141 133 152 132 146 138 140 131 123 131 142 126 140 152 137 143 121 128 130 137 159 169 156 164 140 150 157 140 125 140 124 145 137 144 151 151 136 152 148 158 173 171 168 168 163 156 163 162 145 149 169 162 174 159 161 157 157 165 185 181 167 168 162 147 158 157 155 137 165 175 158 139 157 189 175 153 198 200 146 147 184 157 154 169 163 159 143 153 160 154 198 204 199 194 191 167 179 197 201 145 118 157 130 107 64 27 30 26 28 27 30 31 30 30 37 52 53 68 82 109 114 149 122 58 32 34 35 33 37 26 33 28 26 30 29 28 26 25 26 28 31 38 44 49 57 56 67 72 45 28 23 22 27 36 35 41 37 37 58 60 62 95 87 79 70 92 93 71 79 63 40 34 28 33 34 44 66 42 45 97 163 206 198 182 71 27 32 36 36 35 27 30 47 77 95 47 24 25 31 65 55 61 86 55 41 44 43 51 42 69 67 55 69 49 46 56 72 85 71 67 71 76 79 106 120 97 88 80 69 67 58 53 65 75 70 70 74 68 76 76 70 68 79 76 70 64 70 87 89 96 111 123 132 129 132 120 118 130 117 110 129 142 152 182 169 148 154 149 135 132 
77 126 97 99 152 114 92 76 88 111 117 102 110 136 138 129 125 119 116 125 130 136 122 106 99 107 119 118 110 114 136 128 130 99 108 133 123 120 139 161 146 137 136 133 139 157 142 131 119 128 131 129 138 124 137 138 157 155 160 150 175 168 164 166 136 136 123 143 161 152 158 151 136 149 135 138 149 171 180 169 160 152 146 154 146 155 141 157 153 175 175 161 172 152 160 159 155 158 149 148 128 141 184 166 155 169 167 156 161 171 158 159 138 159 150 152 151 133 151 166 185 181 176 198 175 149 174 171 150 130 142 152 185 173 169 130 141 142 148 159 197 191 192 215 186 191 189 194 193 174 145 203 156 108 81 27 33 24 28 25 27 30 31 32 34 67 64 69 81 95 136 211 221 168 85 36 29 30 40 39 28 29 26 26 24 25 26 25 24 26 28 33 40 46 58 55 71 68 42 22 24 24 29 41 32 42 37 42 56 48 63 94 84 73 75 84 81 85 73 70 48 33 28 35 31 43 59 98 131 152 155 184 213 162 36 34 38 34 31 30 29 35 64 101 94 40 26 24 34 80 62 61 84 62 46 45 53 67 74 67 52 41 53 59 45 55 59 79 74 81 79 74 84 98 109 108 90 85 73 66 58 58 53 71 67 66 77 70 69 77 79 64 59 72 75 68 70 85 97 99 108 135 130 129 132 143 128 121 137 116 103 120 151 173 139 125 139 146 137 152 
64 102 80 83 150 140 111 112 137 108 114 108 101 123 137 139 134 121 101 107 121 120 118 102 105 125 125 98 117 132 141 122 127 129 127 126 134 138 125 128 120 116 121 113 120 128 146 138 132 129 138 134 131 126 141 154 165 169 164 148 153 155 153 151 130 132 140 164 164 152 147 143 151 151 149 137 131 170 168 155 160 139 137 139 142 133 136 170 163 149 143 137 153 153 160 169 172 172 164 163 145 138 161 148 145 153 157 151 155 166 155 152 132 161 131 129 137 173 177 170 167 174 174 184 182 172 167 157 140 142 147 141 188 177 172 146 172 143 151 128 130 138 136 169 161 169 192 196 171 178 175 227 190 118 81 36 33 27 27 25 27 25 30 33 30 49 55 64 82 90 158 226 225 170 149 137 83 48 25 26 34 35 37 33 31 33 33 28 23 24 28 29 35 37 42 55 89 64 32 24 24 25 25 30 42 54 43 54 68 42 56 89 83 81 93 89 71 86 57 73 59 32 33 31 36 42 66 160 202 162 139 203 192 149 39 44 47 32 27 30 33 29 39 79 79 41 27 21 29 69 59 62 78 69 59 47 44 65 84 72 43 30 33 45 46 52 49 60 70 81 85 71 87 95 98 108 104 90 83 73 58 54 53 64 68 58 67 72 64 62 76 71 60 72 75 75 75 87 101 101 108 142 134 125 118 143 146 118 134 135 108 98 110 142 135 118 137 140 152 163 
64 94 85 85 130 125 86 89 125 81 97 80 72 120 126 126 121 118 143 134 155 137 101 102 96 142 123 98 116 123 138 139 140 153 154 142 136 133 139 152 136 126 125 123 153 126 131 134 164 135 128 123 140 144 127 164 175 157 150 146 149 153 155 151 130 135 137 149 153 146 146 147 146 144 149 137 141 157 144 142 138 133 146 141 148 156 150 143 155 157 160 163 165 161 143 137 153 152 139 147 148 146 159 169 179 171 159 163 163 149 147 170 156 168 155 147 157 172 178 185 176 187 186 180 182 175 148 139 137 139 152 160 165 169 170 149 162 162 167 160 155 135 127 143 187 165 186 216 211 194 193 216 214 178 93 33 31 30 27 25 28 31 30 32 38 52 58 58 80 99 185 233 223 215 187 150 165 127 100 89 47 37 38 34 31 29 28 27 26 28 30 31 34 32 33 41 66 55 24 25 24 26 27 27 47 56 47 54 76 62 64 86 87 103 119 98 83 78 59 75 78 43 37 31 40 40 113 189 188 175 153 188 184 78 45 51 41 27 25 31 31 25 49 92 81 49 25 18 30 51 54 61 68 72 67 58 45 52 69 55 24 26 26 32 37 44 57 58 60 67 83 75 93 97 101 114 106 91 89 81 64 57 52 58 72 53 51 60 67 69 62 60 62 76 74 76 77 88 105 107 105 132 134 117 123 142 139 115 123 134 135 118 88 150 180 169 161 140 127 130 
88 126 130 122 129 134 116 112 131 93 100 79 89 139 99 72 125 131 136 124 133 134 121 104 122 152 147 121 133 125 133 143 133 137 132 142 158 138 151 156 132 139 140 136 159 135 136 137 146 144 154 136 145 141 131 147 150 149 142 147 161 154 145 125 125 145 147 148 153 143 143 153 129 134 161 154 147 149 153 151 141 133 161 165 154 145 160 160 183 172 154 159 153 157 152 153 167 143 136 156 149 155 166 167 154 146 159 158 141 130 140 166 155 176 196 170 157 180 182 185 171 178 187 195 206 190 140 115 145 163 152 165 188 187 168 161 162 188 181 165 152 167 206 192 189 196 210 209 203 199 180 216 235 231 99 27 30 30 26 26 29 38 32 34 46 47 61 61 79 111 185 246 246 229 196 154 185 159 171 189 131 87 55 41 35 32 33 39 39 30 27 30 34 31 35 35 39 42 22 23 24 27 31 32 51 52 48 50 71 68 81 97 91 133 145 120 100 71 74 67 73 51 39 37 39 44 168 233 223 214 184 191 155 50 54 46 31 27 27 28 28 42 83 108 82 62 29 26 46 49 48 57 60 71 73 74 55 49 58 47 25 30 33 31 32 42 53 57 61 66 76 72 87 91 102 112 92 75 77 78 67 59 50 52 71 53 42 46 58 65 65 68 69 73 66 71 77 83 111 117 110 119 130 112 120 124 137 131 116 124 125 127 83 144 190 180 157 144 129 126 
86 144 155 143 132 163 174 148 138 131 135 128 139 145 125 139 155 154 134 136 138 158 163 148 141 144 144 136 129 120 125 130 128 120 112 129 119 121 158 160 143 137 127 143 140 135 135 154 146 137 153 141 164 148 128 132 133 135 136 133 139 130 146 122 128 135 138 145 143 143 128 148 120 138 169 163 140 132 165 151 145 133 139 147 151 147 156 156 168 167 159 167 162 157 164 166 163 156 140 152 159 153 138 146 148 142 152 142 114 114 132 161 158 194 183 158 166 189 196 184 163 167 183 191 191 174 153 134 156 180 162 156 193 200 211 161 142 147 129 148 152 142 164 173 183 196 212 201 189 195 172 190 237 226 72 29 33 31 25 29 28 36 35 40 51 44 67 69 80 135 137 191 213 248 239 194 200 181 203 185 153 131 70 65 61 49 67 80 66 38 27 30 32 28 33 31 31 30 24 21 24 28 29 42 60 50 52 42 64 76 85 102 112 150 154 152 104 87 111 76 49 53 44 45 38 86 185 242 228 227 228 200 116 43 43 37 31 32 29 29 31 55 82 89 77 66 38 36 66 68 56 60 58 67 70 81 62 54 55 44 29 28 31 30 36 44 49 51 58 77 70 64 81 91 102 112 91 76 73 79 69 55 48 46 61 56 46 41 52 52 53 69 77 67 62 74 85 80 99 108 116 118 131 105 116 120 134 138 120 122 123 132 93 130 195 162 133 124 113 107 
66 120 137 131 118 141 168 146 148 153 143 141 135 133 141 136 138 148 140 140 138 147 157 142 132 146 140 135 130 117 104 103 111 143 128 102 111 135 149 141 127 141 114 124 140 124 113 133 129 137 160 141 140 148 112 136 141 124 126 131 140 141 149 123 137 122 131 144 132 150 121 131 107 129 149 138 137 132 146 133 135 127 127 126 134 144 157 162 158 153 166 181 175 159 160 157 143 146 147 158 152 137 123 157 156 135 132 132 124 112 124 152 143 168 159 150 155 152 140 138 141 140 146 153 156 158 174 184 183 171 163 159 153 145 168 170 144 179 179 159 178 184 179 174 187 186 185 155 158 158 181 184 225 155 42 38 33 31 26 26 29 31 31 45 48 40 58 65 103 218 152 157 160 210 239 212 203 198 198 217 201 132 95 124 103 79 107 100 92 41 30 32 29 29 28 26 26 24 25 22 25 27 28 44 53 49 52 37 60 89 87 115 135 130 145 163 118 112 144 119 59 61 64 48 36 123 205 224 222 236 234 243 152 30 36 37 37 31 28 31 36 53 65 68 68 61 38 45 67 74 63 66 60 66 68 74 65 58 57 47 30 22 26 32 40 42 47 47 58 70 68 68 85 91 106 122 103 82 73 74 64 55 47 46 54 53 51 44 53 55 45 49 58 63 66 75 90 85 85 94 116 120 128 99 113 123 124 133 133 131 136 130 98 122 149 120 110 109 97 90 
77 130 149 150 140 146 173 156 168 148 121 127 132 137 137 121 130 131 119 127 145 136 161 138 129 122 139 151 148 131 110 121 121 109 111 115 141 145 142 130 125 146 149 157 138 108 113 131 125 136 144 156 153 144 116 144 144 122 128 145 147 144 145 128 122 128 139 122 133 150 112 122 110 120 154 145 141 138 129 134 131 142 152 137 133 131 150 165 163 172 178 178 163 161 167 161 150 151 160 167 151 137 146 169 169 157 138 124 117 110 119 118 111 126 130 124 128 127 118 115 107 120 124 117 130 130 132 140 150 164 154 147 141 155 159 174 182 196 183 179 181 196 189 186 171 168 184 154 172 153 170 195 187 83 45 40 34 33 30 23 31 37 33 40 41 37 53 64 137 236 209 171 169 186 235 218 214 236 218 179 198 130 117 157 125 105 116 131 108 56 47 34 33 33 29 25 22 24 25 25 26 26 27 34 44 45 48 55 64 91 105 136 156 131 145 172 159 101 127 155 89 69 86 80 97 132 197 224 225 205 205 247 217 41 34 39 32 29 35 31 31 45 62 64 58 61 43 60 61 71 58 59 54 67 79 71 62 57 59 47 27 22 26 35 40 37 37 41 59 56 64 72 87 87 105 121 103 78 67 60 51 48 49 51 48 44 44 47 45 43 45 44 46 58 65 64 81 94 90 100 113 109 117 106 109 113 119 137 143 139 134 114 93 109 146 149 146 94 85 115 
94 165 174 168 158 146 158 139 133 137 143 125 135 138 124 136 133 134 139 145 138 146 153 151 130 123 149 165 157 149 144 159 164 134 146 162 144 134 141 125 145 159 164 167 140 131 144 157 152 137 104 140 126 106 109 128 134 116 128 149 138 116 136 137 122 133 117 115 114 130 119 125 134 131 139 137 143 144 136 135 139 128 143 149 154 144 143 153 141 154 134 142 150 146 143 155 166 151 141 147 147 162 162 138 128 113 93 91 88 86 89 87 82 97 103 101 107 111 121 118 98 108 122 95 100 113 127 126 105 98 125 150 151 161 147 159 194 173 181 184 166 193 201 176 176 163 154 134 178 183 181 200 156 56 51 40 33 30 26 36 50 35 33 31 37 41 57 66 191 232 236 182 178 150 118 194 214 240 170 122 133 92 127 164 174 78 97 143 120 133 69 31 32 28 26 27 28 25 25 26 26 27 31 34 48 37 37 62 79 117 159 148 154 172 177 190 181 153 146 135 118 114 105 134 178 180 182 178 177 156 154 229 181 33 41 40 28 32 41 34 31 46 67 70 61 58 50 67 53 67 65 54 44 56 72 72 60 60 59 36 22 23 24 28 33 34 34 36 48 48 59 76 94 97 103 108 94 82 72 53 46 40 47 47 42 38 40 45 44 47 54 49 41 55 61 63 66 95 97 112 110 98 110 116 106 99 109 126 131 137 135 118 102 93 133 144 191 166 100 101 
93 145 165 168 165 132 132 121 113 122 155 148 138 143 143 142 137 137 141 143 122 146 137 145 140 134 146 152 142 143 151 164 159 153 150 144 147 147 141 137 141 153 127 127 132 134 143 139 148 148 123 151 129 126 143 141 138 136 127 153 148 123 145 142 115 130 146 151 151 137 138 134 152 160 147 124 128 155 158 141 126 129 161 139 134 147 155 151 151 154 138 136 154 172 158 155 163 153 137 130 126 116 87 95 105 90 83 77 68 67 71 77 88 99 100 90 87 93 101 110 101 96 121 118 120 106 125 147 142 116 110 135 133 137 117 133 170 146 143 151 160 182 169 151 163 126 137 138 149 188 168 165 169 87 44 36 33 35 31 57 88 45 28 39 44 51 55 102 200 220 183 211 202 155 126 131 138 191 151 112 86 59 94 159 135 44 78 156 158 142 73 35 34 31 28 27 27 27 27 27 27 27 29 36 42 37 39 56 98 142 195 184 165 151 162 166 153 178 173 144 130 155 161 172 191 167 173 173 154 186 143 195 103 28 72 55 52 43 33 32 32 47 70 75 68 62 50 66 46 61 60 46 38 49 60 67 58 52 49 26 22 24 23 24 27 31 33 41 46 42 54 73 89 99 102 99 87 84 73 47 46 39 43 42 38 39 46 48 43 46 60 59 45 51 59 72 61 79 87 105 105 92 89 102 100 96 102 116 122 129 127 122 115 80 155 186 151 191 136 106 
92 114 130 144 166 137 135 151 157 111 104 136 125 132 153 137 136 142 137 135 123 132 133 139 133 137 151 149 146 149 145 135 128 134 128 118 137 138 119 128 134 167 143 133 115 125 152 141 148 154 142 152 150 168 185 163 148 156 131 149 156 142 154 146 129 144 160 136 139 148 137 150 153 164 180 143 127 157 172 157 144 143 171 138 144 153 167 161 165 156 169 152 143 166 151 136 142 135 122 117 115 114 103 97 106 113 102 84 75 73 77 84 85 94 92 78 72 76 73 92 104 95 110 113 117 106 105 110 142 134 102 115 106 117 111 105 128 142 129 135 147 160 155 165 175 132 141 154 149 152 139 146 159 96 35 37 40 36 27 47 89 70 29 36 48 40 46 150 172 175 152 162 205 181 166 155 120 146 102 111 82 58 63 104 71 41 57 185 211 169 161 73 29 32 30 27 26 29 29 28 28 27 26 36 35 40 51 69 131 157 186 202 189 148 136 169 128 156 182 155 119 147 163 127 152 166 150 174 182 201 189 182 52 58 94 74 81 62 35 37 38 51 67 71 70 60 43 52 37 53 47 37 34 47 46 55 54 41 35 24 24 23 23 22 24 28 30 42 48 45 48 60 69 93 105 100 90 84 64 38 36 31 41 40 37 37 43 46 38 39 52 53 45 51 51 64 62 78 84 97 105 94 77 73 79 90 104 119 126 124 113 110 116 85 153 199 152 176 138 101 
82 120 112 115 150 142 146 145 145 110 88 116 139 126 133 133 137 165 151 140 133 130 146 131 136 143 151 149 149 154 145 127 135 131 141 144 157 143 129 126 146 165 146 152 131 134 149 143 146 142 130 149 193 158 170 152 145 149 144 145 156 143 155 155 144 149 157 173 155 152 148 157 158 169 173 152 141 153 162 153 152 149 179 174 164 157 170 185 172 181 180 154 134 133 125 115 121 124 123 119 108 97 103 84 94 102 79 79 92 87 78 83 77 81 79 71 70 82 74 83 95 103 104 90 95 117 117 94 118 121 111 127 120 84 86 116 85 132 145 139 125 143 157 161 191 170 153 161 156 130 146 151 140 84 44 45 45 27 39 62 55 62 39 34 46 39 126 179 180 135 110 139 138 97 141 223 160 155 138 70 78 62 59 139 76 41 61 173 223 199 200 82 31 35 31 30 30 30 29 30 28 28 30 33 36 38 61 101 168 196 194 204 195 188 187 146 161 161 184 180 172 175 165 142 170 195 172 182 159 172 203 123 36 61 86 84 82 68 44 42 52 57 61 63 61 40 37 36 24 46 38 29 29 45 36 40 48 32 26 26 23 20 24 23 24 28 31 38 54 68 53 49 52 83 102 93 84 79 49 30 28 27 36 36 32 30 34 40 38 41 52 52 48 51 50 50 57 77 84 90 104 97 91 67 64 80 103 115 115 117 115 103 103 93 134 194 162 142 185 116 
79 156 141 133 131 126 136 148 138 116 117 126 162 149 140 147 142 141 128 127 137 149 160 136 150 149 154 155 149 158 154 141 135 144 153 146 136 139 152 150 163 163 133 140 148 138 136 134 143 136 127 148 163 155 162 156 153 151 163 139 157 151 153 167 148 145 148 171 166 166 166 160 159 177 158 160 162 154 161 159 159 158 175 159 170 168 165 175 144 145 147 133 120 123 121 106 112 101 94 91 98 96 94 96 103 92 82 79 82 85 80 78 73 77 77 73 73 89 80 81 79 85 94 99 100 112 121 115 120 125 120 117 135 89 41 117 104 113 115 151 141 134 144 162 188 159 161 172 145 150 141 159 175 106 42 51 47 25 87 127 44 47 52 61 61 81 214 188 199 144 98 132 126 64 164 227 166 111 152 59 52 59 57 128 72 46 87 214 242 199 175 118 103 48 31 31 28 30 32 22 30 30 29 34 35 40 70 132 184 211 202 218 225 219 204 169 188 200 182 191 191 185 195 170 208 212 168 194 186 199 170 53 37 46 70 86 73 67 45 35 48 53 48 48 51 42 35 27 28 39 24 21 33 34 37 34 38 28 24 25 22 19 23 24 25 27 29 33 44 64 56 46 47 71 91 76 68 69 39 27 29 29 30 27 27 30 32 33 37 46 58 56 56 50 50 45 46 63 79 83 98 97 103 88 62 79 108 116 107 108 120 105 98 88 140 194 167 162 172 182 
107 171 161 165 136 130 126 145 142 121 121 117 151 149 135 129 137 134 141 150 146 141 146 140 145 139 153 152 144 156 158 148 147 159 149 135 137 148 154 155 158 170 145 141 140 137 156 125 141 139 130 137 129 144 157 156 158 144 148 147 162 160 162 169 158 156 136 143 143 154 159 158 144 163 155 157 148 134 152 154 158 142 155 133 134 142 134 138 124 119 127 123 111 106 112 104 92 89 92 88 94 93 89 96 94 87 85 80 82 87 86 86 85 91 95 92 88 92 83 83 71 62 75 84 78 94 105 108 109 103 104 115 116 96 46 78 95 126 112 119 150 167 133 148 155 138 158 176 157 169 162 152 182 128 35 54 43 23 140 160 48 52 63 79 102 124 178 151 186 154 99 109 101 54 130 189 126 58 104 63 45 51 44 96 61 48 100 220 226 219 233 227 203 71 37 32 34 34 28 34 37 24 49 66 30 36 85 162 183 190 204 202 200 201 196 194 205 221 226 214 199 199 166 139 197 177 130 162 192 215 141 39 54 67 53 76 79 72 36 26 40 45 39 40 45 45 29 23 25 29 22 31 51 23 31 29 28 25 23 21 20 19 21 24 24 24 25 31 26 36 43 44 64 79 89 73 61 52 30 23 27 26 28 22 23 28 27 26 32 37 46 44 52 54 45 42 50 56 71 101 104 94 112 91 52 76 109 117 102 101 104 93 90 96 151 194 186 172 157 158 
117 157 145 157 161 143 134 138 132 117 97 110 138 135 126 121 119 127 127 136 136 123 123 133 133 145 151 148 146 126 134 167 155 136 141 135 126 153 152 135 137 159 139 144 139 140 148 129 142 137 132 119 113 135 148 128 142 139 143 153 150 140 152 147 163 155 143 141 157 155 137 144 144 146 135 139 127 126 142 136 125 112 108 119 126 124 122 122 116 117 121 118 100 91 98 95 95 90 86 93 87 78 76 76 73 74 84 77 75 88 87 81 81 81 87 89 84 84 84 80 76 70 71 76 68 81 90 104 110 118 105 101 104 120 115 97 56 103 122 104 120 149 136 155 148 138 154 170 153 176 155 132 160 116 49 55 43 63 205 158 50 54 50 67 97 109 138 125 137 139 108 95 96 111 133 153 121 70 75 56 53 53 51 62 55 54 100 176 188 195 231 230 221 157 87 56 31 39 32 49 36 22 73 81 24 37 105 176 208 202 191 200 195 218 203 222 213 218 209 206 213 222 211 200 175 185 155 111 137 196 144 36 44 39 32 62 88 70 28 26 33 28 27 33 36 32 31 30 21 29 23 44 63 24 26 26 24 22 21 20 20 18 20 22 23 22 25 31 23 25 36 37 63 81 79 63 57 35 21 21 20 24 24 21 23 28 28 28 31 29 37 38 47 52 47 42 58 53 62 102 100 68 103 78 45 67 97 105 83 84 95 98 72 101 158 176 188 179 165 133 
123 160 138 129 144 131 132 132 125 126 116 125 125 121 129 129 112 118 117 116 125 146 139 144 130 146 141 141 146 135 123 140 112 108 129 119 123 153 162 150 143 160 142 134 121 140 141 145 153 130 141 134 131 133 134 124 124 108 131 149 148 148 153 147 155 156 167 152 137 142 134 148 146 162 142 114 104 117 125 110 110 106 113 126 128 125 123 109 106 111 114 116 104 93 95 91 104 102 88 93 84 82 81 78 69 68 78 78 83 92 87 82 83 78 85 89 85 80 85 81 77 72 70 77 74 82 88 104 108 108 121 101 109 113 122 127 74 91 141 145 138 110 100 153 156 135 130 140 125 139 121 130 161 85 45 53 38 104 199 136 49 41 44 99 112 136 81 62 90 128 130 137 108 114 103 145 141 76 68 46 74 57 44 49 55 57 61 102 133 196 210 216 224 224 175 137 40 57 56 55 32 29 68 63 34 46 111 190 188 195 213 208 210 213 209 232 227 222 221 179 181 193 229 229 199 199 184 189 193 184 173 40 43 38 34 51 76 51 25 31 30 25 29 41 43 39 40 41 39 32 22 54 58 22 27 26 22 21 20 21 21 18 20 21 20 20 23 31 25 25 42 50 55 67 69 51 60 27 17 20 17 23 21 21 26 31 34 31 33 34 42 44 51 54 59 57 56 54 57 86 103 75 84 64 45 70 97 91 85 81 89 99 66 117 157 131 165 184 199 202 
99 138 135 141 145 115 113 120 110 116 127 126 115 115 127 126 118 118 117 119 128 145 137 150 133 133 125 139 132 141 127 129 121 124 130 102 122 142 156 148 139 153 141 149 127 124 131 132 151 150 161 139 149 128 132 127 133 142 139 127 136 144 134 137 139 129 131 142 145 125 117 138 122 144 148 128 115 131 133 125 118 108 118 120 121 122 122 108 102 109 115 117 104 93 100 98 101 108 95 97 95 87 86 87 80 77 79 84 95 95 88 87 83 79 83 86 83 79 83 79 71 68 70 77 78 82 82 97 114 101 104 114 118 126 116 129 74 39 83 128 161 140 125 155 165 137 118 126 116 119 85 80 115 102 44 47 36 114 157 141 76 42 54 109 131 94 56 56 51 74 71 98 79 84 99 118 78 88 66 41 78 63 52 43 55 50 60 88 130 233 220 220 222 214 227 177 84 61 47 60 31 26 47 41 40 42 131 216 210 202 187 198 220 219 200 224 211 221 229 173 168 213 230 195 222 215 185 200 191 196 203 73 38 40 38 45 70 41 24 29 29 31 38 50 50 48 45 42 42 39 34 69 48 22 25 26 24 22 22 23 22 19 20 21 20 19 23 28 26 25 39 66 65 61 61 38 50 34 19 19 18 22 22 23 26 27 27 27 31 35 42 37 48 61 70 68 52 60 73 88 85 102 101 39 28 66 90 60 69 76 84 96 77 132 193 173 169 154 157 196 
102 152 146 148 143 139 137 147 128 113 134 121 112 107 122 133 126 121 105 130 110 114 119 138 137 132 124 132 120 114 120 129 112 117 136 116 136 145 145 121 125 155 141 145 151 121 115 131 136 148 157 141 165 135 130 153 159 156 138 125 135 137 125 130 137 153 119 126 136 145 131 157 135 125 114 114 124 130 118 118 106 103 116 125 120 112 119 115 98 96 105 109 106 99 104 100 95 100 101 105 100 86 80 84 84 81 80 80 87 87 83 90 96 96 97 94 92 86 83 84 70 69 71 73 72 72 73 95 116 123 105 108 103 118 119 135 97 44 43 84 135 128 101 94 150 127 101 98 82 79 67 65 65 76 50 41 51 85 105 103 63 46 42 91 141 69 38 53 45 48 41 68 72 78 108 113 77 83 60 42 59 59 50 61 55 64 77 50 113 218 225 222 230 233 237 205 141 91 81 53 31 40 57 34 32 74 188 221 178 177 219 212 213 192 190 202 203 217 184 148 173 236 186 198 212 199 219 196 190 180 204 165 50 38 39 43 64 38 29 27 33 42 48 55 51 42 45 44 33 80 50 71 37 26 21 24 24 22 22 21 22 20 21 21 21 20 23 24 24 25 35 55 69 59 54 37 36 46 22 16 19 19 19 22 23 22 23 23 29 32 40 35 48 68 65 57 58 67 82 71 60 80 90 32 29 55 74 49 61 66 83 94 87 121 162 195 187 192 155 168 
117 147 153 147 141 134 124 142 135 108 114 106 106 97 112 130 133 131 117 138 108 118 122 123 126 130 121 120 103 114 120 115 114 121 120 106 113 133 123 94 111 156 133 135 155 138 123 133 126 135 134 138 171 172 145 148 137 124 122 132 132 130 142 156 143 140 108 130 145 146 145 151 106 94 88 96 130 132 102 105 98 98 113 124 116 104 105 104 88 89 97 102 109 102 95 88 80 89 99 104 107 96 83 86 85 80 77 75 82 84 78 78 85 89 86 91 91 96 93 87 65 59 70 74 71 67 69 94 107 119 114 111 102 119 128 132 117 94 78 89 136 133 76 109 158 126 94 86 66 60 62 44 45 54 60 58 54 53 61 72 78 67 42 80 134 70 43 53 54 52 51 73 64 49 97 107 59 77 56 40 55 55 43 93 65 98 84 35 62 155 232 214 210 232 228 237 176 173 161 61 35 68 85 46 30 102 220 207 194 160 185 191 203 193 192 168 178 191 159 123 195 240 153 203 186 176 205 203 204 199 193 210 121 43 27 29 45 32 35 30 40 58 64 56 48 42 52 82 34 111 49 57 34 30 24 22 27 22 20 25 21 20 24 23 23 22 19 24 22 28 40 50 54 63 48 47 32 55 35 12 21 19 18 20 22 23 23 25 30 33 37 42 55 64 54 46 68 71 62 45 47 47 45 26 29 38 47 42 55 66 76 77 95 114 163 200 164 182 179 170 
112 114 128 124 115 111 107 119 140 122 105 113 128 122 123 130 148 154 116 128 137 130 126 124 126 134 118 115 99 108 108 117 133 108 113 139 125 129 128 103 115 155 124 134 133 132 148 137 142 145 117 147 155 163 154 153 157 130 102 120 134 148 166 150 126 110 105 128 121 120 154 87 55 72 74 83 117 122 93 102 97 91 105 111 111 109 98 94 85 84 91 99 109 102 87 80 81 89 92 96 99 97 85 88 82 74 74 74 80 81 77 74 79 81 81 91 94 90 91 87 72 68 74 76 76 68 68 88 104 114 106 110 107 117 119 137 140 133 111 119 127 119 103 167 171 121 73 61 55 55 53 43 49 51 73 91 55 53 53 91 90 85 98 79 130 74 46 59 67 53 58 72 63 47 81 102 52 76 56 46 41 55 56 88 44 87 67 72 65 83 131 167 217 222 217 195 190 223 190 112 56 101 71 64 44 99 203 200 204 174 186 170 194 208 204 181 150 158 115 103 176 164 155 197 168 183 206 184 198 202 205 213 210 153 102 96 108 39 22 32 51 60 79 65 47 47 64 108 51 109 38 48 38 30 32 29 31 23 26 21 22 22 23 22 23 18 21 18 25 19 43 65 42 61 47 51 30 49 36 14 18 19 20 20 21 22 23 23 30 31 31 42 55 62 50 47 55 64 44 32 25 28 27 27 34 42 37 40 54 68 73 71 121 144 149 169 196 179 144 149 
98 114 102 109 102 115 127 128 134 126 133 123 109 112 121 127 141 147 109 122 136 137 140 140 141 141 128 125 126 122 121 130 142 124 121 122 123 128 132 115 125 155 129 141 137 126 161 172 158 152 128 145 131 126 160 164 152 157 153 147 141 134 149 128 135 128 148 124 120 132 140 35 34 61 61 63 92 104 92 102 95 94 100 104 108 110 98 97 88 78 80 92 107 107 91 81 84 86 86 95 87 84 81 84 76 70 73 75 78 78 73 71 75 76 83 84 88 87 84 84 76 66 66 73 76 65 63 82 98 107 103 111 94 124 123 137 134 134 115 123 131 123 142 178 181 139 81 57 54 46 53 47 57 53 98 124 62 52 38 83 74 78 133 87 136 86 47 65 73 48 54 63 70 52 63 87 58 86 63 44 43 74 77 89 56 82 58 103 56 47 50 64 98 142 216 200 176 208 228 138 62 120 68 68 81 125 206 188 221 204 198 179 203 209 185 168 107 133 132 113 140 120 128 137 166 188 169 186 196 207 207 204 206 219 220 226 230 117 56 32 68 76 70 47 41 44 57 111 80 85 31 52 34 26 36 35 28 26 30 16 31 18 23 22 23 21 25 21 31 26 41 58 42 57 46 48 46 34 20 22 14 19 22 20 22 24 24 24 29 34 33 40 50 57 43 51 52 47 32 31 30 28 29 25 32 39 30 34 52 71 84 74 120 138 160 164 162 178 157 155 
114 136 104 129 103 124 135 122 134 131 144 147 121 122 122 125 143 147 132 122 131 130 121 115 135 147 141 139 137 127 125 129 129 107 113 124 127 136 127 134 144 155 134 131 146 134 145 168 141 149 157 127 117 137 147 136 148 155 129 137 153 151 153 140 154 143 176 135 139 148 73 25 41 50 59 71 85 93 82 84 86 94 99 101 105 106 98 94 81 74 75 78 91 94 83 71 73 81 78 86 84 73 75 77 70 66 67 70 76 79 76 74 72 77 88 81 82 82 78 81 78 65 67 73 73 61 63 79 92 102 92 102 93 110 119 122 126 135 135 133 138 137 147 165 184 155 100 63 51 41 49 56 50 57 121 153 65 51 47 61 62 69 129 104 135 100 46 59 64 44 52 67 78 77 83 103 86 77 55 46 49 67 83 90 52 90 71 99 51 49 54 53 46 60 98 143 128 175 220 135 81 125 89 59 106 124 198 171 207 196 205 200 213 202 166 151 96 122 105 107 126 104 105 135 152 184 136 191 181 194 190 189 180 192 198 215 207 191 197 156 97 63 48 67 89 50 61 132 106 58 41 55 25 38 49 32 32 33 24 38 39 24 24 20 21 25 15 26 23 35 35 65 53 60 48 48 65 42 24 20 17 19 21 22 24 25 27 28 33 36 35 38 38 38 37 63 72 48 32 28 28 30 31 27 27 31 29 33 42 60 81 79 142 157 158 191 150 159 163 151 
127 153 125 146 112 116 134 111 126 145 111 117 131 121 117 140 143 139 137 157 139 116 108 90 126 146 147 152 135 118 106 103 119 124 123 123 138 145 121 155 163 154 146 131 148 148 122 129 150 159 161 128 98 107 153 151 130 128 128 138 133 136 139 131 148 155 168 166 161 103 25 29 35 42 53 73 75 81 76 70 72 84 89 94 96 98 96 93 77 76 81 76 78 80 67 54 62 71 70 70 75 64 63 66 67 65 69 70 65 66 72 75 73 78 86 81 80 76 73 81 82 75 73 69 63 56 60 75 90 101 89 92 102 105 106 117 140 127 123 140 150 147 139 164 181 159 107 65 55 51 53 63 41 59 128 167 84 56 81 62 63 57 114 100 135 118 44 57 55 49 44 72 72 80 84 96 91 67 62 59 55 58 66 69 38 92 83 73 62 50 48 54 60 79 60 90 106 181 227 142 120 138 96 63 99 138 174 180 197 186 203 202 202 193 140 127 101 108 96 88 98 103 81 115 157 124 91 152 196 203 190 189 220 203 201 203 150 157 189 183 88 78 85 84 76 47 72 96 96 35 49 56 29 65 71 31 33 36 29 52 36 68 27 25 21 27 34 18 26 25 60 110 53 50 57 51 58 57 36 17 22 21 21 23 25 28 29 30 32 33 31 32 37 38 47 63 45 33 32 27 25 30 29 29 25 25 30 35 47 71 74 75 153 175 148 157 146 149 135 125 
99 132 136 114 102 118 132 142 129 136 106 108 135 130 124 132 142 135 142 173 162 122 132 107 145 163 152 149 138 121 106 107 122 123 132 149 129 125 108 136 147 168 158 136 163 148 122 131 130 144 147 142 131 118 150 154 148 155 158 164 171 150 143 134 136 154 162 157 112 49 24 35 34 32 47 56 52 64 73 68 68 71 73 83 85 84 83 86 79 73 81 81 80 81 67 52 52 55 66 60 65 57 54 57 66 66 67 69 68 67 66 68 77 76 73 81 82 76 74 78 75 71 74 67 61 59 59 68 82 95 89 84 104 100 95 123 146 158 129 128 134 154 147 166 184 182 127 72 64 56 60 63 51 72 131 172 118 56 99 69 68 47 88 98 138 145 53 73 50 50 45 99 86 86 82 94 97 77 83 70 56 66 62 61 56 74 87 90 52 49 47 51 66 121 87 76 123 198 219 105 111 147 91 80 105 132 148 164 199 196 203 192 187 162 95 96 103 110 73 82 95 86 82 115 136 92 81 143 216 212 163 168 198 152 177 198 135 148 171 159 95 84 108 87 84 102 85 79 115 67 60 49 44 78 71 30 32 36 78 59 52 97 26 27 21 42 93 13 29 22 96 105 33 44 54 44 52 57 42 25 23 23 22 24 26 29 30 30 29 30 30 34 40 49 51 42 72 52 24 32 32 32 32 29 25 27 28 36 52 71 76 94 179 196 149 139 131 133 144 141 
104 125 127 125 116 128 109 135 143 145 132 117 152 154 156 142 138 146 153 137 154 147 125 132 152 175 156 134 128 132 105 115 132 142 151 149 112 118 120 125 141 179 155 123 151 156 147 134 130 150 145 140 145 146 145 144 148 159 168 151 152 139 141 150 163 162 165 121 69 29 46 44 38 24 47 59 41 45 60 63 71 67 61 72 84 75 71 84 78 67 77 82 79 78 68 50 48 47 62 66 63 53 48 54 64 62 58 67 71 79 82 82 89 85 72 75 87 75 73 76 72 67 69 71 75 69 71 68 77 81 84 91 99 114 108 117 139 157 132 131 106 134 149 159 172 183 139 79 56 62 66 68 53 79 113 169 141 52 97 83 77 68 83 92 127 161 62 75 43 46 38 111 114 104 86 99 107 77 86 79 62 64 76 83 67 63 99 123 49 49 29 62 85 160 106 101 169 194 189 123 90 117 89 87 134 118 147 179 163 175 190 191 167 142 74 94 112 90 61 92 88 77 103 116 81 117 102 143 162 205 135 166 147 112 138 159 110 163 201 201 106 78 137 138 120 95 62 73 111 49 66 61 51 76 57 43 41 39 106 60 100 85 32 19 37 45 111 20 30 26 97 61 37 42 46 32 49 52 37 25 21 21 21 27 25 30 32 26 32 33 34 35 41 47 42 68 156 128 43 24 36 26 30 31 30 21 30 32 50 64 63 85 150 181 152 160 143 121 150 167 
105 132 105 113 136 147 132 119 151 153 143 135 148 136 135 150 135 140 135 142 130 154 132 155 148 157 142 139 131 140 112 108 121 145 169 165 115 115 169 166 135 174 155 121 136 149 129 124 136 150 156 137 148 150 145 150 141 133 169 143 130 140 152 155 152 159 153 95 53 26 94 60 32 30 46 59 39 37 49 56 69 70 56 61 81 75 56 73 79 62 61 68 75 75 62 42 41 43 51 64 58 52 48 52 59 53 52 63 57 69 76 78 85 86 76 68 77 75 76 79 77 74 73 74 79 76 79 65 73 77 80 97 96 97 111 117 135 155 122 127 114 122 143 170 163 177 140 100 61 70 73 106 94 94 96 160 182 58 79 108 74 67 70 79 117 176 94 52 50 49 37 109 143 114 89 110 113 76 90 83 74 84 75 115 65 53 105 120 64 67 63 92 92 160 126 132 140 153 161 128 106 104 92 87 137 111 123 205 161 136 161 196 175 143 66 102 95 62 84 102 98 82 126 99 45 109 89 116 147 180 103 159 122 96 88 90 85 149 176 182 87 78 163 155 109 96 62 95 106 30 91 54 87 101 58 81 57 38 99 73 132 52 74 24 62 27 97 41 51 47 71 51 48 34 51 53 51 48 39 28 26 24 24 17 27 22 23 28 35 25 32 38 33 33 79 165 199 187 144 26 32 33 28 40 50 21 31 28 42 60 59 90 149 156 152 155 142 128 162 157 
91 128 133 141 157 172 125 128 128 147 118 130 129 139 118 148 140 144 137 148 138 154 135 134 160 166 132 108 99 118 121 132 127 159 169 159 126 100 167 175 114 169 140 132 142 142 141 136 138 151 161 132 153 154 151 151 141 135 155 127 155 144 132 140 139 164 156 95 41 32 110 49 28 34 33 42 36 33 40 47 58 67 57 57 73 79 56 62 73 60 54 52 59 61 47 36 34 38 42 51 52 48 44 46 54 53 51 55 50 62 65 61 59 66 73 73 65 73 81 83 81 80 87 80 76 83 88 67 66 77 77 91 93 95 87 108 141 161 133 134 121 129 141 148 153 171 133 108 63 55 63 104 65 86 119 163 206 95 89 108 73 91 91 81 140 210 147 57 70 91 57 102 168 124 86 108 123 101 116 80 74 121 82 131 99 66 114 132 95 85 102 107 118 150 140 144 134 124 141 93 119 128 111 95 161 111 138 177 125 104 129 166 149 131 79 87 81 81 88 72 69 73 102 87 93 98 90 148 167 145 92 93 60 64 80 68 125 136 173 193 81 80 148 69 66 101 59 79 79 45 96 45 140 116 67 98 66 55 95 103 108 48 85 42 49 13 121 62 66 69 54 60 42 28 42 70 64 36 33 21 23 26 25 34 29 30 31 31 30 35 32 29 73 121 201 211 194 200 214 102 23 27 34 43 63 33 26 27 38 63 58 89 172 127 144 145 149 147 153 148 
83 120 135 148 127 141 114 138 126 139 122 113 117 150 130 136 150 136 139 122 132 147 126 120 136 158 162 126 121 145 130 144 145 156 159 142 159 91 122 147 96 163 141 123 154 164 143 143 128 154 159 138 157 158 144 142 141 146 170 143 139 161 150 153 158 171 162 101 31 38 83 28 40 36 24 31 29 29 35 45 48 56 61 65 72 72 71 70 61 51 58 52 47 44 35 36 36 40 38 43 47 43 39 43 52 55 51 47 45 58 58 54 48 49 63 78 69 72 85 85 79 72 74 71 73 77 79 67 69 71 72 87 88 95 91 98 136 160 124 140 126 119 141 140 149 162 137 109 68 58 58 98 61 95 125 183 194 123 105 115 95 108 135 68 112 201 179 75 83 94 89 92 168 147 109 105 124 96 100 81 97 98 94 112 117 111 115 122 116 104 105 93 121 116 105 111 138 133 138 99 133 143 127 99 95 112 161 156 144 99 104 146 129 101 86 89 62 79 66 59 55 74 67 69 85 65 81 103 123 87 93 92 101 122 127 87 137 126 112 134 78 112 107 31 60 79 70 90 102 77 96 60 127 78 108 90 54 91 86 108 82 91 43 88 54 40 130 51 93 85 40 59 45 23 44 60 88 87 63 40 38 29 22 29 27 26 28 28 38 51 80 107 137 179 220 215 208 210 223 211 57 32 28 34 53 37 24 29 38 71 71 78 161 123 153 154 145 148 130 146 
110 122 107 116 123 135 154 189 152 146 124 121 126 146 139 123 157 126 114 132 120 153 144 152 130 125 139 129 134 155 160 152 141 142 159 139 179 129 121 145 128 183 173 131 156 166 122 139 140 152 173 144 152 153 125 140 132 131 160 167 136 171 164 155 155 164 166 102 27 44 67 26 38 32 31 32 26 26 28 39 42 48 65 72 69 61 68 79 78 49 43 54 53 49 36 32 35 38 36 39 41 42 41 43 48 48 46 45 45 56 52 57 60 52 56 75 70 64 82 83 77 69 68 74 78 70 66 65 74 68 73 85 88 88 118 119 142 170 144 137 136 125 144 162 148 152 144 115 82 64 64 81 93 102 63 105 137 134 113 141 150 120 147 70 108 164 196 117 105 89 127 114 152 151 130 110 128 108 101 97 130 100 116 115 120 136 120 133 132 114 111 113 131 140 141 152 141 118 111 99 116 131 127 144 93 98 142 134 184 105 104 151 140 105 103 95 70 79 67 59 74 58 54 56 93 69 76 83 79 62 101 132 109 111 116 140 121 126 132 130 91 163 83 31 53 79 95 99 99 123 132 100 154 105 145 70 55 119 84 110 97 70 16 109 75 60 146 59 94 65 34 67 48 28 79 77 105 123 107 100 106 88 44 42 37 37 52 67 108 132 163 168 141 151 163 174 203 205 207 232 155 25 32 27 44 43 28 29 33 62 75 59 131 124 127 140 160 148 135 178 
121 117 119 115 133 132 145 210 159 156 130 141 160 142 130 124 152 128 116 129 126 155 145 159 150 144 122 93 104 130 147 141 142 141 164 152 182 175 159 163 174 199 200 158 171 176 124 143 162 153 171 159 144 161 131 161 131 130 135 150 170 156 148 138 151 155 146 70 28 48 66 27 33 33 31 30 25 29 25 31 37 44 57 55 52 53 57 66 81 65 51 65 73 66 52 33 30 35 38 44 41 37 40 42 44 43 42 47 49 52 45 54 60 57 52 63 59 63 82 78 74 73 73 79 82 68 68 64 61 67 73 74 87 86 94 111 142 163 147 135 145 135 135 147 157 146 138 120 82 84 87 92 98 87 72 78 123 124 129 115 132 144 152 97 111 138 167 174 125 139 148 140 153 151 142 134 145 161 143 110 120 114 129 121 137 137 140 159 134 127 111 138 128 161 162 161 148 141 119 116 109 118 115 139 138 107 120 180 203 144 106 126 140 102 78 45 64 61 62 52 62 49 53 91 83 91 91 73 66 62 127 135 81 117 139 121 109 134 161 147 98 167 68 34 59 104 109 79 99 138 120 96 126 112 157 97 76 96 125 107 99 35 44 67 62 78 108 99 103 60 32 57 41 49 91 93 108 110 103 97 120 120 100 127 125 144 158 160 171 162 161 155 162 178 181 158 171 191 183 190 233 85 24 29 38 46 31 31 32 51 73 48 117 87 54 92 112 109 141 178 
90 116 138 112 118 139 128 187 172 147 162 151 181 157 144 138 160 146 149 133 140 137 141 151 130 151 147 84 91 135 144 140 155 158 171 165 193 181 181 179 175 189 206 163 162 172 122 161 160 153 162 153 153 147 136 145 122 124 139 141 152 147 161 138 152 148 111 47 27 54 99 31 38 33 28 26 24 27 26 27 29 35 42 42 43 43 44 49 69 74 65 77 82 67 53 39 31 35 36 41 44 35 36 42 42 39 39 45 48 47 46 55 54 52 49 58 51 69 82 75 70 73 72 72 75 59 64 61 55 58 66 69 76 88 92 107 143 173 133 115 140 130 124 136 156 144 134 123 87 109 103 123 103 97 85 91 124 103 124 131 138 124 123 116 104 116 128 179 178 166 156 142 164 155 137 154 153 166 148 104 111 106 129 114 137 139 153 152 116 126 115 137 119 153 156 147 153 135 116 122 102 103 118 110 116 135 108 166 137 161 134 107 132 111 58 69 79 40 67 69 51 50 61 84 58 84 74 60 61 83 132 132 95 129 113 82 115 136 145 142 128 152 54 38 68 123 105 70 138 135 114 105 120 102 131 109 90 78 172 105 90 51 84 43 56 98 92 92 73 62 50 64 47 72 86 101 113 108 85 82 99 87 91 118 167 162 170 164 179 174 163 186 180 184 174 175 147 147 182 187 220 189 40 27 40 54 34 27 38 57 76 47 115 113 97 91 59 111 161 165 
89 146 151 128 153 158 149 184 181 132 163 155 156 138 138 150 161 134 166 142 147 147 144 165 142 140 165 132 114 132 138 141 154 166 165 152 189 173 172 186 168 169 186 172 152 162 144 156 171 163 165 138 150 138 154 141 115 127 153 141 132 133 140 128 136 129 110 65 30 47 115 33 38 30 28 25 24 24 25 26 25 27 33 42 48 45 45 55 75 83 70 66 77 68 46 40 32 32 30 33 40 38 36 41 39 35 41 43 44 48 55 60 56 50 50 63 51 63 74 72 67 67 70 68 71 58 63 65 58 53 59 68 70 79 89 102 137 159 144 109 130 140 143 165 169 160 131 125 123 152 121 125 119 126 103 108 127 125 137 144 125 114 113 116 100 110 120 151 206 169 141 146 165 159 131 131 152 163 144 131 144 122 134 131 148 133 146 153 130 124 121 132 139 157 140 149 140 110 108 101 82 110 143 158 139 132 113 145 111 111 136 114 138 122 72 89 99 42 75 57 49 53 61 60 66 75 55 57 107 118 112 139 149 139 125 82 111 180 164 143 143 122 45 53 102 127 84 53 114 138 134 143 135 103 140 132 110 115 145 108 111 100 100 42 76 89 108 124 64 97 65 62 44 67 81 100 120 121 86 100 112 79 75 88 131 141 168 165 147 176 148 160 187 188 165 161 166 123 130 164 178 201 110 25 38 59 41 29 45 63 76 42 87 190 192 135 98 141 167 161 
99 123 138 133 128 128 157 174 193 137 159 185 166 142 129 151 166 148 161 146 154 149 130 157 156 127 153 142 117 133 146 149 153 173 163 140 180 185 145 169 195 185 180 187 166 182 161 147 175 164 162 139 138 157 152 158 162 150 142 149 150 136 132 138 135 143 133 62 29 30 89 33 38 33 27 25 23 23 24 24 26 23 26 32 40 39 40 44 58 71 74 60 60 61 43 38 31 28 30 34 35 39 36 38 35 34 42 41 39 47 54 57 55 48 52 65 48 57 68 71 63 59 69 67 67 59 60 66 60 60 58 61 69 74 79 101 127 136 153 119 121 126 141 159 159 150 125 131 131 133 131 136 135 127 109 105 114 112 123 126 116 121 124 138 138 123 146 142 192 204 155 175 156 163 147 134 154 149 150 137 140 133 126 123 139 137 144 156 145 122 136 135 129 147 128 142 142 115 90 73 96 111 125 153 130 111 106 120 118 101 140 103 116 75 68 48 45 45 71 71 56 61 112 48 54 83 40 88 134 122 114 132 159 144 150 114 107 149 178 183 142 133 49 112 78 136 106 61 118 161 132 159 145 162 144 125 124 158 113 139 116 120 98 57 89 54 101 152 67 126 69 56 37 59 85 93 133 143 97 122 119 87 104 90 95 139 168 174 165 191 163 178 173 164 167 182 193 192 147 164 181 188 171 46 23 51 43 30 43 62 81 44 56 185 161 107 143 175 209 202 
139 121 106 111 122 146 174 192 185 158 163 171 180 165 146 150 161 155 149 144 155 154 142 153 158 131 146 136 106 138 157 142 151 172 171 152 175 189 146 155 183 187 166 188 187 171 160 151 181 167 162 139 123 161 135 134 159 151 129 151 161 147 153 157 150 148 130 70 32 22 70 37 38 34 25 24 22 22 22 22 23 22 22 23 25 29 29 29 34 45 61 68 56 48 48 40 30 26 31 36 36 38 35 35 32 33 39 39 39 43 50 56 50 45 53 67 47 59 70 75 65 59 72 66 63 59 56 61 61 66 60 57 67 66 69 99 121 125 137 121 112 113 140 137 142 162 130 126 141 141 143 131 137 125 128 131 128 107 112 127 116 117 128 146 151 157 171 161 173 208 186 207 144 161 163 147 143 161 146 157 150 146 141 140 152 165 176 159 129 103 130 134 130 143 142 135 131 118 114 86 98 109 125 149 157 104 86 119 95 78 128 97 105 61 71 59 54 63 68 118 45 110 118 30 89 85 48 117 131 118 107 124 159 147 150 154 130 124 156 181 145 126 85 118 77 127 65 78 136 135 111 141 112 165 154 142 124 155 119 130 134 128 84 70 100 65 96 137 94 148 91 70 51 58 94 100 136 120 78 125 103 86 116 106 86 113 158 172 154 154 156 214 195 168 162 170 177 184 191 177 164 176 185 112 33 35 46 33 36 56 79 47 46 153 185 154 184 174 189 183 
115 164 111 118 150 173 170 177 194 184 168 176 187 163 153 150 157 153 132 154 173 155 165 168 166 151 149 152 138 150 155 146 153 171 179 165 170 189 182 191 178 190 164 147 185 184 136 154 167 164 157 147 136 163 149 134 141 139 141 166 169 144 151 153 145 138 116 70 30 23 59 41 34 35 24 24 22 21 21 21 19 22 24 24 25 28 26 26 25 30 38 62 61 50 59 42 28 25 26 32 35 35 32 33 32 33 34 36 40 39 45 52 44 47 59 75 57 62 68 76 67 67 72 59 63 63 61 58 58 68 62 58 65 59 63 89 113 116 101 104 85 92 132 140 157 164 120 112 144 159 161 125 133 135 139 158 161 125 130 149 129 117 135 140 135 170 151 166 167 175 160 174 117 146 156 158 150 178 151 176 160 143 144 140 153 179 188 161 136 116 125 130 148 138 139 149 132 116 121 108 99 116 121 119 153 104 83 139 95 81 129 108 113 78 75 60 64 54 61 97 55 130 55 34 98 99 74 102 134 126 95 125 155 134 142 166 163 145 154 145 153 153 113 113 97 142 63 106 148 119 136 156 121 143 181 164 153 154 130 123 129 129 104 103 84 65 110 149 130 161 123 82 79 60 94 118 134 105 65 120 95 82 87 108 76 68 136 179 142 136 154 186 175 183 172 167 163 168 159 175 144 174 166 174 79 22 39 39 28 42 87 87 35 129 235 223 226 200 195 184 
109 170 121 134 191 179 165 152 213 197 162 161 182 172 175 177 171 165 146 182 168 149 162 170 158 163 159 156 155 149 146 147 148 169 170 152 153 181 167 195 184 183 167 139 165 209 147 154 170 181 147 141 141 157 158 144 150 128 135 163 181 155 135 143 133 137 131 68 26 27 49 42 29 38 25 23 21 20 20 20 22 21 20 22 26 26 22 27 26 23 27 43 44 40 50 44 36 31 24 26 34 32 29 33 33 34 33 32 37 42 45 46 45 53 63 75 59 68 67 70 59 61 66 52 60 60 59 45 50 64 63 58 61 54 60 81 113 122 89 102 83 92 110 145 166 160 138 131 139 146 168 135 136 134 123 166 187 156 166 159 126 117 143 133 114 152 158 164 177 168 163 179 126 145 147 156 158 160 156 178 169 155 150 140 160 184 166 162 168 144 128 143 166 141 145 143 137 115 101 135 118 113 116 118 133 110 76 114 106 78 136 126 124 94 79 38 79 74 53 67 96 131 61 47 59 120 113 104 140 144 125 144 126 128 134 149 154 134 154 136 136 185 129 120 102 115 100 116 120 124 150 143 145 155 154 153 142 137 145 142 122 150 100 115 92 87 133 160 151 149 121 80 106 92 118 152 127 124 69 110 101 71 77 94 84 85 91 177 188 178 188 175 146 178 186 164 153 154 134 177 172 169 157 184 156 72 28 39 30 31 83 141 68 140 232 229 229 224 229 193 
91 161 156 134 182 163 185 178 209 193 179 158 198 184 183 183 185 160 177 195 149 147 152 168 157 167 167 157 151 157 149 137 150 158 146 132 147 174 155 193 183 190 172 157 158 204 185 162 164 181 157 144 142 157 164 150 132 128 144 150 178 154 134 138 119 133 154 86 23 25 46 33 27 31 26 21 22 21 19 18 22 19 18 20 22 25 24 26 26 24 29 34 31 30 34 36 38 33 26 25 30 30 29 32 34 36 35 35 35 41 45 42 49 52 56 63 53 64 70 60 50 54 55 54 54 54 54 33 42 59 63 57 56 57 62 74 113 125 80 88 74 87 94 121 144 164 156 123 140 155 167 143 163 122 118 178 181 155 146 145 129 125 170 148 144 148 163 186 177 168 157 150 131 135 161 166 169 167 141 168 156 146 157 155 159 170 157 157 176 169 130 143 148 140 158 151 159 128 137 161 125 146 116 117 147 120 81 135 152 98 123 138 129 112 76 34 88 89 73 85 125 159 65 36 53 109 128 131 129 152 109 127 120 136 142 149 145 132 146 125 121 162 138 132 131 90 92 156 122 141 145 127 137 151 140 178 149 123 111 95 109 138 78 113 120 96 138 176 166 149 120 70 110 108 120 162 134 137 66 90 94 47 64 81 90 110 79 169 189 181 203 189 170 202 200 168 185 162 165 173 170 152 149 167 152 104 30 36 34 35 61 132 129 163 196 210 212 216 228 234 
94 148 181 157 182 160 194 188 206 197 207 173 214 187 186 186 179 170 181 188 153 153 155 160 159 173 156 158 144 145 143 131 154 156 156 152 165 177 162 178 176 181 178 173 164 185 207 190 172 188 193 157 148 140 142 148 123 126 142 146 154 151 144 154 135 146 156 84 21 24 42 44 25 28 25 22 22 21 19 18 19 19 20 21 21 23 23 23 24 24 26 28 30 30 31 32 34 28 23 23 26 29 30 31 34 37 36 39 39 40 43 44 50 45 51 60 52 63 76 59 48 50 47 56 49 50 53 29 35 52 59 57 56 56 61 71 109 118 78 77 61 76 86 101 116 146 148 113 147 157 161 151 174 137 156 190 169 133 135 141 138 156 184 144 160 165 178 200 169 164 171 171 139 131 164 149 143 156 146 158 148 135 148 164 155 174 169 149 166 180 153 156 146 133 154 170 173 135 141 158 131 157 139 112 139 157 114 129 179 139 117 136 122 137 117 74 85 54 82 90 157 72 36 39 69 95 111 107 108 145 88 85 146 130 115 138 153 150 162 123 136 170 140 162 145 97 99 151 130 143 129 151 141 148 139 130 143 124 95 104 137 144 93 119 133 94 136 181 167 140 105 66 111 86 90 157 127 118 60 73 43 44 58 65 87 104 78 134 181 159 141 181 193 187 172 183 186 190 191 176 186 176 147 145 144 131 49 25 37 37 44 92 145 166 167 175 171 171 169 185 
106 141 193 164 175 181 202 183 206 197 207 178 210 188 192 189 171 170 183 152 138 172 162 157 162 176 149 160 150 135 143 143 145 144 149 164 161 170 172 162 174 162 188 176 179 163 209 199 175 172 169 131 152 150 136 134 110 123 137 145 140 154 145 164 168 160 157 82 25 29 32 60 22 29 28 27 24 21 19 20 19 20 20 20 21 19 20 22 23 24 23 22 23 27 33 36 33 27 22 25 30 28 27 30 34 38 34 38 42 41 44 47 46 40 51 62 54 61 72 58 45 42 42 51 45 47 51 29 31 45 53 56 59 46 57 71 106 111 80 65 56 70 74 90 97 125 133 100 129 189 171 142 149 163 173 178 179 142 155 136 124 158 172 151 164 173 190 183 169 165 145 173 153 145 159 162 158 166 164 147 130 133 157 157 159 187 188 162 172 176 172 170 127 129 172 161 160 129 105 149 156 148 154 130 139 166 147 138 179 157 150 154 124 142 128 77 108 95 106 122 154 85 45 37 94 138 133 81 99 133 90 113 120 131 118 136 157 155 170 145 137 143 147 190 169 136 142 128 116 138 138 153 131 134 133 112 111 93 117 123 134 136 95 136 145 110 142 184 177 142 110 97 121 93 96 143 104 96 82 76 83 87 40 69 104 99 101 94 168 194 162 177 185 212 185 192 182 160 156 173 189 176 178 158 172 179 116 30 40 44 48 94 145 180 180 164 159 172 159 163 
115 140 182 151 161 182 171 182 204 217 202 185 205 188 189 180 186 167 184 143 132 156 141 154 162 176 158 178 164 145 145 151 162 156 136 171 163 169 175 171 172 160 175 155 174 160 190 196 172 180 165 130 139 157 144 125 104 129 126 117 137 143 155 159 161 168 162 78 26 26 29 52 39 22 31 29 26 22 21 21 20 20 20 20 20 18 18 20 22 23 22 20 20 24 29 33 30 28 26 27 30 26 25 28 32 35 32 36 43 41 42 45 39 41 47 54 58 51 57 49 39 36 38 48 44 47 50 34 32 41 48 51 54 43 59 73 102 104 83 63 63 74 72 84 84 107 133 105 102 179 189 162 147 159 167 168 164 157 164 166 176 176 187 180 165 178 184 182 184 175 148 146 156 168 144 165 175 167 176 166 135 154 165 141 168 184 176 160 178 172 169 170 142 148 154 173 153 132 125 150 160 161 182 149 159 175 166 160 164 145 161 156 128 149 124 59 91 106 121 154 132 107 84 53 86 139 132 109 148 121 110 107 106 129 127 129 140 133 160 159 132 126 140 184 198 176 187 182 142 137 149 161 148 108 122 121 129 135 132 108 152 149 93 145 155 117 151 178 176 152 134 104 122 131 128 140 133 102 117 142 166 121 46 38 107 96 86 65 119 188 194 189 182 190 170 180 173 168 155 185 179 174 166 143 172 188 150 34 36 47 61 105 145 165 195 179 158 181 158 165 
138 144 171 178 180 188 169 194 184 208 194 191 201 194 189 178 200 174 168 168 154 136 147 151 150 178 156 176 155 138 139 154 160 159 135 168 154 160 170 174 161 168 154 152 144 151 193 203 163 195 172 156 127 144 151 147 138 133 123 118 154 128 148 135 142 163 158 68 25 29 39 54 80 26 23 29 26 23 22 22 21 20 20 20 19 19 20 21 22 22 23 22 21 22 25 26 24 24 25 24 23 23 23 25 28 30 30 32 40 40 38 39 33 41 43 45 59 53 51 41 30 29 34 43 44 48 54 42 37 41 44 46 46 48 65 71 94 96 82 62 65 69 70 79 73 92 127 114 80 115 151 163 152 145 162 167 154 161 175 179 175 182 192 179 159 186 201 199 181 173 181 165 156 166 150 168 183 169 189 192 169 186 149 149 187 179 145 128 156 154 161 161 145 161 140 175 164 167 157 154 179 161 170 150 155 183 176 165 169 142 155 145 131 145 138 100 121 132 149 170 148 87 130 88 66 114 118 121 143 138 148 94 97 128 127 129 147 136 146 153 144 144 155 159 180 194 177 207 179 150 165 151 146 133 136 124 139 132 150 125 112 126 137 138 149 125 173 187 184 145 152 95 128 140 126 134 165 160 127 146 173 185 121 90 104 113 70 72 108 169 199 198 135 113 141 161 173 184 179 179 151 162 173 163 174 176 162 54 34 69 88 103 166 166 181 179 164 186 170 151 
117 131 141 177 178 183 166 173 180 202 203 188 192 199 186 187 200 157 159 166 162 144 153 152 139 165 152 153 154 141 146 157 162 155 147 157 153 139 172 182 167 168 158 159 141 142 185 201 174 193 154 171 125 149 155 151 166 134 127 122 155 120 140 133 156 160 149 65 31 61 58 65 110 53 19 27 26 24 22 21 21 21 20 19 19 21 22 22 22 22 22 22 22 23 24 24 25 22 20 20 21 22 22 23 24 25 29 29 35 39 34 35 31 34 40 42 55 57 47 33 23 25 30 38 42 48 56 47 38 41 44 45 42 55 69 67 84 88 80 61 61 57 70 81 80 85 109 115 76 75 94 156 166 151 160 157 176 166 197 186 173 185 196 169 153 186 207 201 186 164 180 166 154 146 155 188 189 178 197 173 172 165 143 138 158 153 166 148 151 144 167 160 144 163 150 142 164 177 169 150 201 160 166 139 143 172 175 166 171 182 167 151 134 152 149 133 148 141 169 171 152 129 159 138 91 117 139 130 120 111 140 138 114 149 121 104 130 140 156 138 154 160 179 154 131 164 157 160 158 152 130 125 125 93 124 147 148 130 150 136 118 135 186 134 139 143 181 150 167 152 153 88 140 143 155 135 167 176 176 183 181 194 152 164 113 105 83 75 117 137 149 185 164 173 194 180 169 169 180 171 196 192 179 158 171 175 175 72 23 70 100 112 169 186 160 162 180 178 177 163 
122 146 124 170 184 194 173 160 180 190 196 186 190 188 179 184 202 159 168 148 156 142 130 151 138 152 152 149 163 148 139 164 163 152 168 143 150 142 178 192 166 167 157 159 156 145 162 181 171 185 144 152 108 145 152 142 175 138 139 131 150 111 136 126 161 165 143 59 44 74 51 70 105 102 19 23 29 25 22 21 22 21 20 20 20 21 22 23 23 23 21 21 23 24 25 25 25 24 21 22 25 24 23 22 22 23 25 26 32 32 26 29 28 31 37 41 48 53 42 28 25 33 35 39 40 52 49 49 39 41 45 44 44 58 71 70 74 86 76 66 56 57 71 77 70 74 95 106 77 61 69 139 175 157 152 152 168 163 201 184 159 174 195 176 157 189 201 198 195 173 189 184 175 171 177 174 189 185 192 165 167 167 178 150 146 136 169 178 153 144 168 155 163 165 158 159 183 167 181 165 203 180 192 154 138 172 184 166 167 191 182 156 137 145 153 160 143 136 158 166 152 146 165 147 139 140 160 134 125 107 121 111 137 136 138 138 147 125 154 130 154 154 147 141 132 139 160 158 159 145 133 112 135 105 118 138 137 129 152 143 129 136 157 127 128 147 170 175 179 143 160 151 152 159 195 159 182 184 191 197 189 198 178 189 130 93 105 98 144 144 127 141 151 146 148 160 142 158 153 136 180 193 178 180 181 188 186 90 32 72 123 143 186 210 170 166 193 212 206 189 
143 173 139 176 187 185 172 165 179 186 192 175 187 182 186 184 185 165 159 136 141 133 121 141 146 155 144 147 167 135 126 153 165 130 149 149 161 159 174 177 158 179 174 140 141 174 156 149 153 168 143 140 120 151 171 150 189 159 148 155 156 128 139 138 135 149 135 70 52 76 31 61 97 139 38 17 28 24 23 23 22 21 20 20 21 20 21 23 23 23 22 22 22 23 23 23 23 24 22 22 26 23 22 21 21 22 23 24 30 27 21 26 26 30 33 37 43 48 35 23 27 38 36 43 45 53 43 47 41 47 50 46 50 60 75 76 72 84 71 68 53 62 68 69 64 68 88 95 72 63 66 85 108 131 146 151 164 155 162 159 167 173 199 180 160 189 191 196 202 175 174 185 159 161 188 164 185 202 179 178 166 197 174 164 158 131 146 173 157 148 180 158 152 177 175 190 181 182 184 184 201 183 189 178 147 165 187 192 160 172 170 160 141 158 168 158 139 144 163 180 191 166 169 159 181 151 131 122 151 144 125 97 123 169 164 150 149 104 118 149 157 127 146 142 164 140 136 129 152 143 150 129 114 85 127 116 124 132 164 168 169 156 156 141 121 159 148 175 176 149 159 180 165 160 174 157 185 188 192 188 183 195 191 195 168 113 115 129 162 158 143 134 133 124 131 111 117 132 154 164 169 170 175 174 192 167 184 87 33 83 148 156 178 172 165 175 177 185 186 179 
163 186 157 171 185 180 175 173 179 182 195 186 190 194 190 183 167 157 147 134 122 124 133 143 150 166 154 131 164 119 152 164 166 157 140 159 146 154 166 160 153 165 190 170 141 171 164 150 161 155 146 155 160 165 174 150 182 165 137 162 165 162 116 133 139 140 130 103 55 108 49 46 84 137 67 17 25 25 25 25 22 21 20 20 21 20 21 23 23 23 22 22 22 21 20 20 22 23 21 21 23 22 20 20 21 21 23 23 26 26 22 25 26 26 27 34 43 48 31 23 31 39 32 39 43 47 46 48 46 47 46 45 55 63 81 79 77 83 64 60 49 66 70 67 69 68 81 87 67 56 52 46 54 90 146 171 166 145 178 153 168 162 169 201 170 186 196 191 195 173 158 185 159 153 184 165 174 194 186 190 170 196 176 182 157 144 164 172 169 142 168 162 158 157 160 159 158 189 181 191 185 182 169 177 179 175 165 192 144 163 160 164 130 132 158 146 153 140 169 163 201 177 174 171 147 115 131 130 156 152 142 146 146 135 122 128 133 124 121 166 158 88 127 146 175 158 132 102 130 156 172 143 92 87 132 99 132 130 150 152 176 178 166 167 145 176 137 169 171 143 132 157 168 163 151 150 185 184 183 175 164 196 209 207 194 177 165 156 163 160 175 181 159 162 170 143 138 119 125 150 132 141 194 177 185 185 190 86 42 99 139 159 189 169 178 180 186 193 188 185 
181 184 159 168 197 179 163 165 177 187 185 185 174 199 190 186 160 145 151 150 130 142 157 161 150 152 168 142 170 122 179 187 168 168 121 166 141 141 163 164 162 158 169 176 135 156 173 143 179 149 147 172 175 179 169 169 174 156 146 177 166 169 123 149 159 152 133 129 52 139 111 54 63 118 80 26 25 27 26 25 22 21 20 20 21 20 21 23 23 23 23 23 21 20 18 19 22 22 20 19 21 22 22 21 22 23 23 23 24 24 25 24 24 24 25 35 48 48 29 26 37 42 44 41 37 44 53 51 49 42 42 44 51 67 83 80 76 83 60 55 51 70 72 68 70 67 74 76 58 43 33 42 55 57 111 169 163 164 228 181 159 148 159 187 174 168 196 182 182 181 163 198 177 158 191 170 171 172 201 186 171 194 187 192 158 137 166 169 179 166 181 156 141 147 176 133 157 185 179 190 177 195 177 168 183 185 145 160 142 159 170 174 151 145 150 147 155 131 182 163 187 173 178 136 146 148 104 127 178 151 141 183 141 131 141 169 164 147 132 140 141 107 94 114 143 156 96 99 123 131 119 121 89 105 142 110 127 111 113 140 185 187 175 179 170 170 134 154 172 147 127 156 164 166 141 138 172 186 167 190 187 180 184 211 217 205 208 193 178 177 174 174 174 176 188 180 168 157 141 139 100 98 191 211 182 213 212 92 47 118 134 174 217 191 161 166 193 198 169 177 
168 177 171 174 198 185 165 163 173 184 172 185 168 195 187 182 167 153 161 160 137 153 156 155 160 150 167 153 166 131 161 166 168 155 101 145 163 141 148 157 160 172 159 152 132 157 154 145 181 167 160 188 181 176 165 184 171 150 150 170 169 164 130 136 158 168 150 159 79 134 159 66 51 91 81 38 25 27 25 24 22 21 20 20 21 20 21 23 23 23 23 24 22 21 19 19 22 22 20 19 21 22 22 22 24 25 24 24 22 25 28 25 23 22 24 34 48 39 23 27 33 35 51 39 34 41 46 39 45 48 55 51 49 70 80 77 67 73 59 62 59 64 63 62 66 68 69 63 44 33 34 45 48 43 77 135 183 208 221 179 169 164 161 180 173 172 196 186 194 180 167 201 193 171 193 172 196 203 210 198 180 182 192 185 154 154 175 178 189 194 201 167 160 192 189 147 158 188 191 192 179 204 188 173 189 200 149 135 151 150 161 166 167 162 148 168 171 159 167 164 161 142 171 118 112 132 111 134 172 150 136 193 171 152 166 166 145 117 115 139 100 98 128 125 128 115 67 78 88 97 84 106 77 103 147 164 125 59 85 129 157 173 170 177 198 176 151 151 165 142 145 176 171 166 154 167 192 189 165 179 193 212 216 221 210 206 197 180 172 193 189 182 189 174 182 173 163 180 175 190 191 136 177 168 173 173 216 92 56 120 132 178 219 223 185 164 170 179 175 182 
136 170 180 169 189 188 173 172 172 182 172 184 178 183 188 172 168 179 169 164 142 140 160 152 167 168 169 153 150 145 153 169 183 167 150 136 176 149 130 140 138 167 162 150 130 162 154 172 170 183 146 165 181 155 175 182 180 166 161 162 159 140 134 143 168 179 152 178 134 129 184 87 63 74 73 41 22 27 25 23 22 21 20 20 21 20 21 23 23 23 23 24 23 22 21 22 24 23 21 19 22 20 20 21 23 23 24 25 22 26 31 25 24 22 22 30 42 30 20 28 27 28 43 28 46 50 38 30 41 53 53 50 64 71 77 78 56 53 50 69 64 56 53 59 62 69 67 55 31 27 33 43 44 44 86 132 161 189 178 146 178 192 162 195 168 187 202 177 194 186 180 187 189 182 194 192 192 200 180 204 182 172 193 192 156 178 165 177 184 192 207 185 188 208 190 168 180 190 203 195 183 205 180 193 207 204 172 146 168 162 154 158 151 156 144 168 172 184 159 165 147 137 159 132 138 165 142 112 156 141 185 177 162 134 137 138 105 113 123 153 122 98 150 135 123 107 89 63 81 122 104 119 97 98 141 164 129 105 126 131 170 170 177 183 189 139 125 159 182 152 161 166 163 148 158 184 200 191 201 194 184 199 195 183 173 191 191 194 177 193 197 187 182 159 178 183 189 147 158 190 185 164 178 150 159 146 176 67 79 144 134 191 210 202 218 202 166 151 183 170 
128 169 163 179 188 183 167 170 170 189 174 182 183 177 184 168 163 186 168 172 160 144 175 168 160 170 178 169 147 157 152 184 197 167 173 168 171 159 140 158 157 154 166 152 133 170 176 168 165 189 149 154 188 163 200 190 194 180 168 165 185 162 156 154 167 182 157 182 163 140 198 122 98 81 77 55 26 27 26 25 24 22 21 21 23 23 23 22 24 24 29 21 24 23 23 19 20 23 23 21 21 24 23 21 23 27 26 26 26 28 27 27 24 25 20 31 34 28 19 29 27 27 41 32 67 56 34 29 38 55 51 46 72 72 65 75 52 36 45 63 58 44 47 60 63 73 73 44 25 28 31 36 45 50 68 90 90 151 163 152 161 196 183 164 156 184 196 164 184 188 182 190 181 183 204 214 189 198 176 184 196 200 197 196 175 176 170 175 177 182 188 182 212 212 196 185 186 200 204 208 191 191 182 199 191 196 184 161 162 190 165 158 131 157 159 159 157 181 146 161 134 136 125 111 138 173 138 111 158 129 144 163 154 149 129 121 120 128 145 118 162 149 164 150 152 110 74 83 83 149 110 142 125 115 153 117 111 149 146 128 196 142 152 193 190 159 171 183 150 126 157 140 161 156 168 185 201 190 202 195 193 194 174 181 196 190 188 214 197 210 192 196 199 156 185 161 183 144 166 204 202 190 154 147 172 163 164 70 80 144 135 195 211 202 207 199 196 145 167 166 
130 181 150 168 177 166 164 165 166 182 180 183 191 176 177 177 160 186 161 169 176 148 169 177 177 178 174 162 150 174 138 174 193 177 173 170 162 177 166 173 177 162 182 192 164 163 163 153 161 186 173 167 179 170 191 172 181 174 174 171 183 164 162 148 160 169 165 172 172 158 195 144 136 115 94 73 36 30 27 23 24 22 22 22 24 25 23 22 24 25 21 23 24 18 30 20 21 22 25 25 24 23 24 23 21 28 24 22 27 28 25 32 23 29 30 26 24 20 25 27 22 24 34 42 73 48 40 26 38 59 60 51 67 70 54 62 47 33 38 50 49 40 45 53 64 75 68 34 25 29 32 36 48 54 35 40 136 191 180 154 135 176 173 179 171 161 195 181 197 206 182 187 181 182 195 209 209 186 179 181 189 206 202 188 172 165 174 168 183 188 178 190 217 204 209 208 200 206 200 213 202 193 188 194 180 201 185 163 144 177 164 157 129 146 149 149 148 174 153 151 153 135 103 108 105 143 105 108 151 145 135 162 153 157 150 136 135 147 192 137 172 162 171 160 163 116 89 107 98 162 124 126 126 139 177 110 122 150 139 161 179 147 162 157 169 174 161 161 137 135 159 137 159 154 175 191 181 161 194 182 179 201 172 206 189 188 198 197 186 195 178 194 184 189 209 184 179 182 188 175 172 184 171 175 174 186 169 105 102 167 154 184 199 189 191 206 218 189 178 201 
156 192 167 146 166 167 164 153 172 174 180 173 172 169 178 180 177 181 150 173 163 144 169 171 184 188 172 175 162 180 158 171 187 179 171 159 157 179 174 172 179 167 183 174 177 145 149 157 158 168 181 176 165 152 172 161 155 170 170 155 166 161 159 140 161 157 162 155 166 169 188 151 143 152 121 81 38 26 30 23 23 23 22 23 24 25 22 23 26 23 33 56 33 17 22 28 26 22 23 24 22 23 23 29 20 26 25 24 27 27 28 33 36 36 28 26 26 21 27 24 33 31 23 43 59 66 35 32 37 56 59 53 57 67 56 52 47 42 39 43 36 36 47 48 60 70 49 27 25 23 26 35 48 44 48 138 186 167 159 170 154 174 136 175 196 170 186 163 172 201 184 171 182 187 195 205 211 189 189 190 175 191 201 189 181 180 193 185 190 186 180 200 210 213 214 188 205 214 204 208 211 202 196 196 183 197 185 169 150 178 153 144 154 162 151 163 165 150 146 173 169 145 122 114 118 134 101 139 155 146 136 152 159 180 137 154 130 164 202 158 179 167 172 164 161 106 107 110 131 163 119 123 173 172 157 127 149 168 149 179 147 125 169 135 145 163 143 151 159 161 166 170 162 147 167 188 199 171 186 164 145 184 161 177 164 172 190 175 187 207 188 203 186 183 188 204 194 171 197 207 147 181 181 192 195 214 153 107 101 166 155 173 174 188 191 176 207 213 197 188 
164 179 172 148 147 172 166 139 175 179 179 171 144 159 179 166 177 198 162 171 167 156 178 168 172 191 199 186 157 188 167 188 201 181 174 162 152 162 157 168 184 165 178 178 171 165 148 175 160 150 177 177 166 147 172 169 143 167 173 158 157 146 159 163 145 156 164 172 167 190 199 178 164 184 161 116 48 24 28 23 23 23 23 23 23 25 22 25 26 23 57 99 87 72 36 21 26 29 27 25 26 26 26 32 21 25 29 29 27 29 31 28 49 32 28 22 25 24 31 24 30 26 26 48 57 79 40 28 43 61 54 48 55 54 54 52 47 41 48 49 39 40 48 46 55 64 36 23 24 25 28 35 44 35 71 188 155 189 154 175 157 138 145 170 207 186 178 165 175 183 181 171 183 183 185 197 191 193 174 179 191 192 201 186 179 178 192 196 182 184 207 211 197 202 208 198 204 208 196 193 200 192 186 191 183 188 196 195 168 182 162 153 167 181 157 170 198 158 159 177 170 151 145 142 146 138 122 157 169 141 153 159 165 199 137 135 156 173 175 181 154 144 184 188 163 112 120 137 159 165 136 171 213 171 145 155 147 171 174 157 154 129 155 159 162 167 149 171 172 165 156 171 155 159 172 178 207 192 196 195 152 155 146 126 140 147 152 165 182 207 187 190 190 198 200 199 198 178 200 178 99 120 185 193 197 188 140 117 105 143 148 179 160 158 180 188 173 187 176 170 
145 166 154 167 135 156 178 146 152 166 171 170 147 155 171 162 160 184 162 161 158 155 180 181 181 198 196 164 146 174 178 182 194 172 180 181 175 172 156 161 182 175 173 179 171 146 147 156 143 137 167 163 155 153 159 144 136 152 159 160 165 152 152 162 143 155 168 188 165 197 198 199 191 193 179 138 48 24 25 23 22 23 24 23 22 23 23 28 26 27 69 126 121 112 95 39 22 27 27 26 30 27 26 26 25 29 26 30 27 30 29 30 64 33 68 28 26 24 23 19 56 35 25 42 63 64 97 41 48 63 45 40 48 47 58 61 50 47 60 58 63 62 43 41 53 57 39 29 26 27 30 31 34 28 61 201 175 172 168 170 154 138 162 133 166 162 158 160 181 177 165 170 172 184 185 200 180 195 183 196 203 174 182 182 178 180 184 205 188 185 204 205 208 198 184 198 197 190 187 187 192 190 185 194 188 175 196 203 193 200 181 185 191 177 152 163 196 153 164 168 185 165 152 164 170 152 144 150 170 152 171 164 162 182 172 175 150 166 188 191 148 161 188 189 175 123 126 168 177 176 159 195 192 123 131 149 144 161 161 120 145 167 140 139 169 161 160 193 185 175 167 173 161 153 159 178 188 208 197 207 180 165 169 165 158 152 149 166 138 145 141 145 146 178 158 164 190 195 199 195 186 181 193 208 214 175 131 131 133 134 122 184 205 159 155 176 155 175 165 182 
155 155 143 172 153 150 176 154 146 158 171 157 150 167 170 160 170 177 172 168 158 154 166 179 191 192 159 139 141 138 195 173 177 169 174 173 189 184 169 154 168 175 157 162 203 130 154 162 137 139 156 146 152 151 162 148 155 161 152 133 149 156 152 150 140 125 165 179 165 181 190 192 168 186 191 132 39 26 24 25 22 24 24 24 22 22 25 31 23 32 85 132 127 119 135 89 42 29 26 29 25 26 29 24 35 42 27 39 40 28 24 29 67 28 72 48 29 36 83 49 86 56 43 38 51 56 94 85 57 66 49 46 45 54 65 67 49 62 77 61 79 75 36 43 55 55 53 41 30 31 37 32 33 37 53 169 171 172 196 175 161 144 172 162 148 156 169 149 168 197 153 169 150 186 186 187 185 198 200 214 197 179 182 194 181 170 180 207 205 198 207 206 209 203 173 185 179 177 184 190 190 192 184 194 195 174 195 191 202 204 179 199 205 182 165 175 178 165 165 181 191 174 181 166 151 154 151 157 180 162 160 154 169 163 194 175 174 177 177 189 140 173 180 169 175 156 151 190 181 185 162 184 175 147 142 142 138 165 146 122 137 151 131 132 173 174 169 181 182 174 167 173 168 155 139 166 189 200 192 173 165 162 149 157 152 159 147 171 153 160 144 151 144 144 138 147 161 170 166 167 169 191 193 189 157 154 158 171 159 146 101 185 213 190 178 171 152 188 167 176 
147 155 142 164 156 170 148 163 148 167 178 167 142 161 178 162 169 171 171 177 159 179 156 167 171 185 133 118 136 147 197 176 174 180 182 168 174 171 167 158 169 164 152 146 173 151 150 162 135 119 142 146 152 137 150 150 142 137 161 141 125 147 151 154 131 121 153 157 168 169 186 195 156 185 198 130 32 30 23 25 22 27 26 22 21 21 25 29 28 28 99 128 125 135 149 134 92 53 51 66 44 31 37 22 57 90 51 54 81 42 40 25 105 50 78 81 83 108 148 99 103 109 53 36 56 61 56 105 67 79 78 51 51 52 66 64 66 61 73 63 87 81 43 60 57 63 52 52 42 44 46 50 51 55 54 148 189 192 187 173 155 146 162 170 149 149 183 155 171 206 149 155 152 177 174 173 195 182 181 202 200 176 184 207 204 191 176 191 192 185 188 205 189 194 175 188 182 173 184 195 181 197 191 191 191 172 186 171 186 183 169 198 185 175 166 192 184 191 188 177 180 172 185 188 176 171 169 162 171 157 155 163 175 172 183 196 187 165 156 157 129 143 164 160 148 123 153 205 178 205 192 183 193 193 158 165 152 177 127 115 136 170 163 169 175 164 188 200 167 156 168 170 157 164 145 158 180 183 195 163 146 127 128 118 135 161 148 170 164 161 158 152 157 154 157 162 178 178 170 162 163 182 167 152 142 157 142 156 163 152 140 180 161 167 160 146 175 162 156 180 
115 191 147 161 147 183 154 177 140 153 170 165 128 150 158 153 150 160 138 168 174 176 159 180 162 178 144 130 157 181 200 181 174 193 199 180 168 161 155 157 171 165 168 138 170 156 164 149 134 122 133 136 147 138 146 133 128 138 159 143 132 152 141 147 131 129 149 157 169 165 182 200 178 177 179 107 26 30 27 31 25 25 21 20 27 24 26 26 27 30 111 144 146 142 153 165 128 115 124 127 80 64 49 55 85 120 93 58 133 102 97 74 144 75 71 72 72 172 162 102 106 120 62 47 78 70 47 109 90 77 80 64 61 46 52 58 113 81 74 50 81 90 64 79 60 72 64 59 55 47 53 68 67 53 66 155 198 186 184 186 181 158 163 199 164 155 193 186 164 183 128 129 147 148 192 208 213 182 198 190 206 187 189 194 191 189 180 179 178 200 197 201 190 173 179 182 181 181 178 191 180 193 189 190 187 171 177 145 159 191 167 174 174 145 157 188 180 186 182 178 188 170 157 164 185 164 154 176 184 152 157 172 168 171 180 208 173 121 132 162 127 150 155 145 146 133 154 204 178 202 197 181 204 190 154 170 167 168 146 139 151 164 156 165 177 175 180 190 156 142 154 161 159 164 142 147 173 174 175 168 167 133 125 116 139 141 144 171 137 136 142 146 130 139 149 163 189 184 173 168 171 178 170 182 184 163 174 167 172 173 184 175 160 159 160 148 185 159 160 182 
116 181 163 170 147 159 143 173 141 134 159 158 123 147 146 161 164 174 135 139 161 154 167 171 161 174 151 134 143 169 179 196 176 185 188 174 166 147 136 135 151 158 173 167 178 178 172 150 141 135 123 135 147 142 138 113 138 154 139 123 127 147 140 158 132 124 151 163 161 167 181 199 195 165 168 74 28 28 29 28 23 30 26 22 27 29 32 30 27 51 128 153 178 177 180 192 165 163 162 155 113 85 69 71 107 130 126 101 156 149 158 140 169 134 101 78 82 178 158 113 127 122 92 90 58 69 60 117 116 83 58 55 53 40 53 57 133 131 100 48 78 77 62 70 62 66 53 58 51 42 53 67 73 47 63 163 187 167 191 189 170 144 180 195 148 181 203 191 150 155 138 113 130 161 212 175 171 189 199 197 208 194 183 164 159 172 188 186 173 199 202 190 188 160 183 168 174 171 196 201 183 197 187 185 192 186 196 185 173 176 175 186 188 155 140 155 169 172 167 181 197 171 153 148 171 171 161 182 196 164 166 180 167 164 183 187 181 146 121 161 172 160 153 145 132 128 155 186 161 177 173 166 190 165 153 152 159 161 155 142 162 156 140 141 158 167 165 173 163 153 153 157 159 163 162 146 155 158 150 151 164 154 132 121 130 127 141 152 120 136 129 143 109 134 154 158 158 157 165 184 175 159 154 188 179 178 188 207 188 180 196 198 190 179 184 177 170 181 189 189 
123 156 141 161 163 154 138 164 156 126 144 143 136 142 160 172 166 161 173 153 159 167 188 163 159 178 155 149 146 167 164 192 185 177 181 182 183 153 149 135 144 154 167 163 153 159 178 131 132 138 126 145 137 149 140 123 148 153 136 126 141 156 128 138 143 143 162 172 157 165 168 189 190 167 165 49 32 27 26 21 30 53 37 22 22 27 28 28 23 57 134 142 177 198 201 203 182 178 174 166 118 103 73 84 123 136 149 151 178 199 176 167 170 164 149 130 117 173 154 116 139 143 105 119 46 71 67 97 132 72 63 67 51 41 48 63 143 170 99 72 98 61 59 65 61 66 44 61 51 45 51 67 78 51 73 184 184 145 183 184 199 154 145 159 172 183 179 183 161 124 117 153 158 145 158 164 163 172 187 198 199 190 173 152 157 168 179 190 181 190 199 195 187 185 184 158 170 151 181 194 189 193 186 185 185 184 195 207 194 182 181 172 178 182 166 147 157 185 173 171 188 182 171 163 172 175 170 180 189 158 155 169 155 153 153 165 194 176 132 162 199 174 185 170 167 140 142 163 161 169 164 164 178 151 155 156 150 161 163 160 152 145 138 136 146 153 165 173 151 147 146 146 145 151 187 170 155 163 151 136 144 155 142 123 128 133 138 124 134 151 141 138 122 136 147 159 144 154 161 182 170 142 145 185 180 167 186 197 180 156 172 182 179 183 195 174 161 182 187 195 
124 164 153 125 169 184 156 150 167 135 142 125 151 147 173 160 164 145 189 174 170 150 166 166 145 167 179 163 153 164 155 178 178 170 180 188 185 159 161 143 137 140 149 174 134 139 196 129 123 147 118 117 117 141 144 128 117 127 150 145 165 180 151 154 137 155 154 164 152 175 168 184 195 193 141 30 33 31 28 23 52 89 40 18 27 29 25 33 30 59 145 159 182 180 185 206 196 189 187 189 147 95 68 99 140 161 155 182 176 200 198 177 174 194 173 161 138 158 164 127 145 153 141 145 74 76 76 80 145 78 75 72 84 47 53 92 144 182 100 96 107 42 49 49 58 58 56 60 53 43 59 84 83 63 138 176 170 182 184 165 188 171 156 139 168 170 128 175 178 121 151 185 110 103 147 170 167 185 189 200 180 178 167 155 172 170 182 185 184 198 187 180 175 188 190 181 179 163 183 184 176 185 192 192 178 173 175 182 178 183 179 160 176 200 203 184 187 212 195 174 182 189 159 158 185 177 172 188 164 144 134 142 145 146 149 169 168 186 179 180 187 189 169 168 155 157 147 153 154 165 162 161 164 154 157 158 152 160 154 161 137 122 135 142 151 160 165 168 139 144 152 145 140 141 154 153 155 164 145 142 158 146 133 130 150 135 128 115 146 151 140 125 136 130 140 149 134 151 147 148 170 148 157 200 182 164 174 177 168 180 166 157 173 167 165 159 150 165 159 164 
121 161 177 125 130 187 191 156 183 150 155 125 143 141 162 155 172 144 164 177 153 138 154 173 150 165 180 176 165 166 150 160 171 167 175 184 176 157 152 152 142 141 150 161 124 136 169 145 156 140 81 86 122 131 132 117 99 104 134 139 152 153 135 148 141 171 140 156 151 185 167 165 189 183 75 30 33 34 31 22 63 124 49 21 29 29 25 49 58 81 160 165 185 167 166 191 204 188 177 195 176 106 92 145 160 185 184 173 177 179 178 184 174 201 194 148 165 152 167 142 162 180 166 153 89 83 105 74 127 93 92 77 136 84 71 118 147 182 145 129 117 54 58 42 103 64 52 79 65 38 73 106 92 111 185 167 168 193 188 180 165 151 158 150 160 147 109 162 196 149 138 143 127 121 139 160 166 193 183 198 194 163 160 152 170 161 186 171 165 196 191 174 159 172 183 187 190 186 204 194 169 167 185 199 183 185 184 179 166 162 163 148 158 187 193 183 178 182 185 164 173 203 184 185 179 170 174 178 166 162 138 131 148 151 164 166 152 162 162 182 180 194 173 152 141 159 153 150 139 164 172 162 153 153 130 135 159 138 136 138 132 120 134 137 138 151 169 165 145 139 141 146 146 156 144 149 154 160 137 138 176 156 142 159 142 146 148 133 147 137 124 123 137 125 154 136 126 132 138 148 163 172 171 195 168 158 173 184 155 181 203 173 150 168 143 153 137 142 149 166 
139 170 175 156 122 159 168 160 191 140 143 137 133 140 137 157 153 143 134 159 152 136 164 152 154 161 152 170 175 184 156 150 178 175 171 171 181 145 141 129 133 138 158 159 115 131 166 152 137 137 98 112 115 128 130 98 129 120 124 117 131 167 133 141 148 173 144 161 177 196 177 162 192 184 62 31 35 32 28 23 51 130 67 18 30 28 23 49 68 97 162 166 175 183 150 165 182 177 185 186 179 156 112 192 187 176 198 150 149 141 126 170 171 166 192 147 190 178 164 161 170 184 169 138 111 127 136 94 114 98 126 121 160 135 88 127 149 174 159 145 115 60 98 83 138 86 76 123 78 56 89 110 104 154 185 170 175 177 181 188 189 186 152 166 163 123 129 168 192 151 152 154 145 135 154 167 166 184 206 200 176 155 146 150 166 146 194 176 161 188 196 178 158 168 173 180 187 185 187 207 177 160 172 190 187 189 193 191 176 180 188 164 171 179 178 182 169 186 207 210 177 189 165 175 173 160 173 170 172 166 157 150 156 154 177 170 163 134 166 187 162 170 169 146 159 163 139 134 142 171 163 154 134 136 135 143 162 138 138 116 119 128 148 127 124 136 125 121 139 143 133 147 131 141 143 149 150 148 130 138 166 171 145 166 138 152 160 136 144 126 111 136 150 140 161 140 109 141 135 149 150 165 172 180 170 154 183 180 163 171 201 188 163 155 153 157 143 136 164 140 
113 160 150 141 130 153 155 161 189 148 149 150 136 147 139 147 152 160 130 142 140 127 167 155 158 160 148 135 147 169 154 143 162 169 156 160 178 144 142 118 133 129 147 164 127 139 173 140 101 121 110 99 87 116 145 103 125 134 160 137 144 160 133 126 146 156 146 157 157 195 169 169 183 181 93 21 32 34 34 24 39 134 97 47 24 30 31 67 99 114 155 169 177 166 170 169 168 169 177 184 170 168 141 169 192 168 185 154 122 126 121 139 165 155 170 147 188 189 173 166 164 163 159 117 129 129 163 146 127 130 151 152 154 157 85 127 129 147 135 138 84 71 101 75 91 64 111 170 74 72 105 116 102 157 181 173 171 179 180 176 195 200 149 158 171 137 143 167 148 161 201 190 141 127 159 172 179 168 187 193 140 143 124 147 172 146 181 163 167 176 189 205 159 150 166 186 189 185 178 216 187 170 181 189 193 178 175 183 167 174 193 180 186 174 164 189 187 181 211 230 194 185 150 173 177 156 169 175 169 152 150 148 152 146 192 165 150 130 149 165 166 167 179 162 148 137 153 132 158 174 146 140 129 130 124 129 138 134 140 111 116 137 152 137 135 132 120 131 123 137 141 146 138 142 143 149 149 136 126 133 131 153 133 149 144 145 136 133 114 110 115 129 154 164 152 140 123 145 141 147 137 146 163 170 157 176 198 155 152 166 200 192 171 142 143 140 139 154 174 143 
95 177 160 146 127 151 164 159 181 162 166 144 135 145 155 138 149 147 158 141 142 139 148 151 145 138 157 155 148 163 172 174 160 170 152 162 180 155 144 116 127 132 156 168 131 147 199 132 124 120 84 103 107 113 125 88 124 135 144 144 159 133 138 142 149 156 135 139 161 203 159 167 157 156 137 38 30 35 44 29 23 123 101 85 27 34 25 67 109 126 153 167 187 165 150 161 165 189 184 169 143 154 149 151 173 143 152 145 127 129 129 129 168 167 144 134 175 166 147 171 158 156 157 155 156 131 156 181 125 129 145 165 159 175 90 122 129 154 131 151 69 61 71 65 70 53 101 177 107 73 121 110 105 153 163 177 175 180 179 166 193 210 164 155 169 166 140 174 140 162 208 189 139 136 160 161 162 167 168 178 138 142 116 136 178 164 163 164 163 159 170 194 163 156 178 193 191 190 166 195 187 169 200 190 193 194 184 180 175 175 183 177 183 187 196 198 192 186 202 209 206 201 186 208 180 162 160 167 153 153 154 158 159 125 165 155 149 143 133 147 155 155 171 163 151 129 168 129 141 160 144 130 133 135 132 138 132 130 146 123 117 128 119 113 119 108 126 134 137 153 130 112 136 156 150 154 147 143 138 131 114 134 130 143 139 129 111 131 114 124 130 129 146 135 132 114 131 130 140 153 142 156 165 180 168 162 180 151 160 159 189 170 154 126 145 144 147 149 142 126 
101 169 153 154 129 160 160 154 179 158 179 154 150 147 153 129 136 143 141 136 138 147 137 134 140 141 143 148 155 166 173 180 172 171 156 158 183 175 152 130 140 124 140 160 105 157 179 126 121 124 85 81 113 117 146 111 109 127 132 140 163 165 150 135 150 153 122 127 194 197 158 157 151 165 165 46 30 45 44 30 43 139 115 109 37 29 38 112 138 133 158 161 156 166 164 148 157 172 182 151 162 148 165 153 168 165 133 147 147 126 129 129 166 190 140 136 179 147 151 170 155 154 114 145 153 146 141 173 121 124 160 155 130 174 131 136 140 156 117 138 88 91 72 55 81 70 99 163 132 77 123 105 121 146 165 182 158 155 176 171 192 202 164 141 136 165 163 200 164 163 177 163 136 140 153 156 144 152 164 159 119 134 130 120 164 162 167 182 142 164 196 160 138 177 189 195 199 197 170 177 193 167 186 200 185 165 174 180 190 184 177 167 179 185 188 187 192 181 189 199 203 196 202 213 185 183 169 167 152 173 158 155 167 134 148 154 157 162 160 169 166 156 130 141 153 130 164 121 123 165 129 123 142 120 130 131 129 122 136 131 131 137 126 109 119 112 113 118 142 139 135 131 140 142 126 140 139 138 134 120 117 113 128 144 124 114 118 129 128 138 124 125 138 140 149 115 139 135 125 139 143 157 162 174 169 150 168 161 166 162 170 127 136 125 155 165 165 161 128 122 
110 155 150 158 130 159 150 144 174 145 166 165 147 141 144 126 144 152 133 132 147 146 132 129 142 156 149 159 161 165 160 169 177 170 155 155 183 179 165 136 119 115 128 175 134 166 169 129 159 144 88 75 100 132 152 117 116 109 104 138 170 153 127 148 145 134 129 138 180 176 162 158 152 170 181 82 27 35 35 24 56 170 166 150 70 27 63 155 184 146 150 138 174 160 162 142 121 141 190 164 160 140 156 161 149 189 150 147 153 124 128 115 130 187 143 142 182 144 160 174 168 165 142 144 176 157 154 140 137 137 190 171 157 188 167 152 146 174 134 122 121 138 103 70 80 93 108 134 146 94 112 119 124 131 176 188 167 165 172 162 187 189 173 165 158 164 179 196 191 168 164 153 139 140 145 159 151 156 161 130 102 122 154 130 147 147 151 155 138 181 198 145 139 191 172 195 199 192 192 196 204 174 179 197 170 150 168 172 187 178 175 162 174 171 196 204 199 185 191 201 210 189 197 204 196 196 177 164 147 165 145 143 173 148 173 161 156 173 170 175 172 152 107 104 124 136 171 125 139 182 136 147 134 102 130 135 128 115 118 127 127 118 136 129 122 115 132 125 122 129 125 129 145 148 132 128 119 130 132 114 120 104 112 111 101 99 135 139 130 136 128 135 134 147 137 117 150 143 146 140 150 151 164 164 145 161 172 151 159 159 136 114 143 129 143 143 150 168 131 148 
116 154 149 146 130 147 154 148 187 168 162 182 129 133 146 127 147 158 136 133 174 143 135 146 138 152 163 166 145 153 147 157 171 172 141 145 164 190 175 119 111 127 135 170 154 167 166 128 123 130 105 99 88 108 142 110 103 87 122 121 148 141 151 151 135 137 151 142 157 157 152 174 147 156 174 112 41 40 42 23 88 183 179 150 79 23 68 140 208 157 130 153 187 167 118 119 105 147 176 166 147 136 150 176 127 171 159 162 164 114 109 111 140 183 145 148 192 163 171 176 190 181 168 181 188 157 174 159 145 146 173 153 156 183 158 180 156 188 161 86 90 133 120 109 98 112 128 118 132 114 136 139 135 155 171 161 161 185 181 147 159 179 182 177 171 161 184 167 173 151 154 143 145 150 145 153 155 158 152 129 115 128 167 146 137 150 156 155 154 175 187 158 159 189 162 214 194 172 192 202 184 185 203 189 170 165 163 162 177 161 181 167 172 175 215 222 195 184 204 197 210 182 206 198 172 192 200 181 150 167 147 142 177 151 174 169 178 195 178 184 169 143 153 140 157 153 168 139 135 177 157 185 115 111 142 167 143 124 119 120 105 92 117 145 121 123 153 118 113 153 119 114 120 115 122 149 146 112 133 108 93 94 110 76 101 100 143 144 140 142 145 158 142 132 126 125 152 140 158 140 169 153 169 167 151 165 161 151 139 138 123 133 130 122 137 132 129 135 141 145 
112 138 143 123 135 142 140 138 176 171 153 170 137 131 131 119 142 156 143 129 130 117 146 159 143 138 152 150 146 152 150 149 162 164 131 142 148 189 161 121 135 167 133 155 138 171 161 125 95 127 111 109 99 102 126 108 103 106 110 122 156 140 150 150 121 134 152 148 153 151 146 164 156 146 159 113 48 86 88 26 116 175 183 161 104 29 58 112 192 155 131 180 155 175 141 133 97 151 162 161 148 148 182 165 138 168 156 177 167 116 98 114 143 159 137 157 181 134 157 151 178 180 151 200 184 147 163 169 155 168 185 138 144 174 148 184 161 170 131 70 91 144 124 111 131 114 131 113 102 111 126 126 139 146 148 149 158 184 188 160 156 187 205 170 172 167 187 154 148 159 155 136 136 142 146 155 161 150 154 118 101 130 152 153 141 139 139 146 148 160 187 159 176 189 168 211 177 148 182 192 170 191 202 194 180 156 157 160 184 175 172 154 164 161 176 209 190 160 200 193 207 179 209 196 164 188 214 199 180 193 172 155 169 166 179 179 204 210 218 191 169 172 191 190 190 150 147 150 118 155 162 177 127 147 146 170 143 118 119 121 109 83 116 149 130 137 157 129 135 129 105 119 129 114 124 125 139 112 117 117 108 104 114 65 116 120 140 133 125 135 128 154 148 138 136 136 134 144 134 135 160 147 157 152 150 158 151 146 130 145 145 131 129 123 128 130 117 131 141 118 
119 147 125 93 127 136 158 130 158 173 135 140 166 141 170 153 145 144 137 135 128 147 139 141 154 151 152 147 150 140 148 138 144 148 116 132 136 173 165 120 115 161 126 152 141 169 167 142 94 123 115 129 108 95 97 76 92 118 98 126 134 139 137 147 118 133 152 156 162 154 157 162 175 160 159 116 64 113 108 47 146 170 189 182 100 26 70 109 146 160 164 198 180 159 125 180 139 128 146 165 166 162 176 148 156 179 150 168 169 122 103 125 123 139 137 171 186 141 158 160 163 169 157 182 176 131 169 199 150 150 201 146 165 186 149 155 151 191 150 67 97 138 102 76 163 150 134 108 160 177 104 116 136 157 158 153 174 173 162 189 174 168 176 163 182 189 153 144 137 160 163 137 133 138 152 150 144 155 169 135 105 114 130 141 139 135 134 134 151 168 172 146 174 178 175 197 172 160 183 180 163 188 190 193 177 154 180 178 180 181 181 161 174 164 145 185 207 172 193 192 214 181 205 212 191 197 195 200 205 192 180 175 177 166 203 184 203 209 209 189 194 187 169 181 190 182 141 162 145 138 139 159 162 156 148 171 150 114 95 120 114 83 113 131 149 148 148 156 133 98 110 122 116 106 119 109 129 110 109 129 113 91 105 110 114 130 130 119 125 148 134 134 122 137 148 147 158 131 136 155 140 137 147 141 125 134 147 141 142 166 158 141 139 125 111 97 116 161 149 132 
120 134 111 86 115 144 177 108 124 150 133 142 146 147 175 141 132 150 139 117 156 172 136 122 133 152 158 147 153 129 128 137 118 126 155 139 156 157 183 154 106 122 132 152 142 160 162 150 90 113 121 115 107 99 121 99 102 114 112 136 124 147 135 142 126 132 145 151 157 161 165 168 179 155 158 130 85 98 99 79 146 162 171 177 152 36 83 169 146 155 160 193 179 163 133 179 140 114 138 168 181 148 151 152 180 178 166 156 171 139 83 130 136 152 148 160 175 162 162 155 144 152 175 185 178 139 172 205 163 138 176 181 179 185 165 150 134 195 178 91 75 119 96 57 155 135 133 156 176 150 103 117 107 131 160 170 166 142 142 177 170 165 160 157 153 144 133 138 143 136 137 127 132 129 141 150 134 145 161 137 111 106 127 143 138 122 141 144 145 158 162 154 174 174 185 199 183 169 184 183 167 185 182 191 175 154 177 176 195 200 188 168 159 151 167 181 207 190 188 175 211 196 189 209 195 193 189 207 208 195 190 198 203 180 189 174 197 184 179 207 201 173 183 200 180 192 170 188 176 159 128 164 142 121 138 150 131 103 94 117 112 102 130 133 169 155 167 155 130 119 107 108 101 103 106 107 114 116 109 117 96 80 118 130 96 123 127 128 136 143 129 125 131 146 151 143 157 136 169 180 147 148 152 164 143 125 131 117 138 168 142 159 160 133 113 87 114 140 131 131 
123 106 129 105 111 143 161 110 123 127 125 146 162 141 148 132 132 143 162 123 116 136 146 127 115 144 144 128 124 108 124 122 107 113 134 134 188 160 177 175 118 116 160 164 152 152 153 148 91 101 123 86 74 95 121 103 119 120 122 125 119 141 135 125 120 139 134 133 163 171 158 170 177 148 142 102 94 119 127 91 141 151 151 139 167 89 63 163 132 157 140 178 183 175 164 166 157 125 147 186 165 153 150 148 173 171 178 167 160 130 81 99 140 165 166 156 172 171 169 150 147 144 141 172 165 152 161 193 184 138 161 192 184 181 194 182 148 186 174 98 79 150 96 92 167 184 135 162 165 125 124 124 128 144 162 168 168 151 142 171 156 144 172 173 142 113 118 124 119 127 131 129 141 126 133 152 145 159 163 140 109 132 135 149 153 150 121 137 130 130 154 154 179 181 182 200 191 169 180 189 174 181 178 185 177 166 170 161 192 201 189 181 173 173 187 185 222 206 194 170 202 210 187 206 189 192 202 203 193 196 195 197 206 197 186 165 193 175 162 204 198 185 205 195 172 179 160 177 183 175 162 148 133 118 150 170 142 120 119 112 99 93 130 133 154 153 146 132 135 128 103 104 108 104 75 84 85 126 116 110 126 129 119 99 100 107 115 124 136 140 126 129 138 126 136 150 148 156 158 150 149 155 146 156 154 128 124 110 134 139 133 160 156 141 157 141 128 120 131 139 
140 124 147 116 121 134 127 109 123 133 124 168 180 145 146 137 131 145 164 141 68 120 142 136 138 147 110 128 140 101 145 131 113 109 109 117 170 169 156 177 157 117 145 173 176 151 144 153 120 99 120 103 74 85 119 111 126 121 125 100 104 125 134 123 140 137 139 150 154 167 157 166 162 145 125 100 116 117 105 76 137 133 173 168 157 129 72 151 111 153 100 153 189 169 178 163 186 154 153 182 153 152 155 154 155 153 161 157 152 127 94 103 128 154 176 158 177 162 164 157 167 144 128 177 157 141 145 187 183 141 142 182 170 170 192 193 174 184 176 123 73 124 86 116 162 194 162 171 184 128 134 127 121 163 149 173 170 164 168 164 145 144 153 138 126 118 119 101 102 126 138 133 143 129 136 146 149 163 147 165 137 145 142 157 158 164 127 153 133 125 173 169 177 191 174 193 195 153 154 170 176 192 195 186 185 197 203 198 191 183 194 181 188 189 192 191 222 196 185 172 167 175 179 192 187 195 185 174 183 190 189 183 194 205 183 167 196 168 157 198 194 180 206 177 161 177 165 181 169 148 148 119 118 143 171 167 174 148 125 115 105 107 132 134 128 146 139 144 131 119 112 110 117 113 75 88 93 125 125 103 123 123 100 95 91 83 112 126 141 149 138 145 144 136 138 168 173 164 145 130 157 173 157 155 164 152 143 133 136 114 151 155 134 143 162 150 118 120 145 142 
118 128 124 121 115 147 123 144 137 140 147 160 157 144 148 171 133 145 149 160 110 136 119 133 150 124 98 132 150 130 151 118 107 107 107 133 156 174 146 158 168 151 158 168 171 159 147 135 146 121 104 123 107 102 123 110 107 99 119 101 91 120 133 131 142 138 150 164 148 148 164 157 141 153 119 99 102 120 123 99 127 131 167 183 173 148 93 96 116 140 103 155 206 165 178 175 173 144 148 164 146 128 142 164 166 174 164 137 155 166 142 154 147 146 183 162 174 179 166 169 180 157 167 163 136 137 155 186 165 141 147 168 161 172 170 176 187 172 125 136 125 114 116 116 106 156 151 157 178 143 157 155 111 158 168 186 176 155 173 169 148 149 146 139 131 105 97 109 127 121 137 123 121 126 138 143 136 146 137 149 153 129 139 159 148 167 140 162 160 153 171 161 170 187 162 163 176 141 134 155 169 188 207 189 190 205 205 190 188 196 185 180 182 185 194 177 183 183 183 174 144 163 179 154 168 185 172 179 188 190 190 184 199 210 186 174 202 175 165 182 196 179 207 184 160 210 169 157 141 159 164 105 162 195 204 181 159 152 141 113 110 120 135 139 116 124 136 126 122 109 103 107 93 94 73 77 103 117 126 107 111 113 96 104 88 106 123 120 113 131 138 152 143 143 140 166 158 149 148 138 138 165 143 163 166 154 153 168 160 132 144 151 169 170 169 151 131 129 149 146 
94 117 113 120 106 130 119 130 150 132 136 156 146 147 98 179 143 128 148 155 156 140 110 132 151 145 131 142 123 128 160 127 128 101 88 128 148 167 179 165 177 145 144 180 161 159 157 139 139 142 100 114 121 134 129 105 120 122 111 110 97 122 142 95 92 134 138 147 159 143 163 162 140 167 128 113 86 172 138 124 141 160 151 155 184 149 129 126 166 151 166 188 189 159 164 172 169 146 156 170 141 117 146 164 160 176 173 162 134 199 185 175 163 168 166 157 166 202 178 167 167 164 180 167 138 145 149 186 181 154 171 157 162 177 178 181 207 186 142 115 158 148 135 148 124 142 157 180 159 156 164 173 127 158 174 169 172 156 138 173 183 138 125 159 127 103 74 129 136 113 129 110 115 113 127 127 138 131 126 135 150 130 127 149 151 174 166 176 179 170 165 171 194 194 164 168 154 125 140 154 173 186 189 186 197 184 185 171 171 198 195 191 180 170 182 175 164 179 199 180 159 159 178 142 161 163 153 172 192 199 191 191 193 200 207 182 199 191 155 164 197 199 197 175 159 200 160 144 164 162 168 115 195 177 185 169 138 139 146 108 99 146 136 127 120 104 104 113 125 102 107 104 87 86 73 63 101 116 115 96 83 91 101 110 105 135 114 95 110 122 140 141 121 144 171 179 140 142 161 142 138 153 154 176 161 143 157 203 204 183 154 169 192 190 192 194 203 165 154 169 
89 111 116 136 116 114 127 113 133 125 119 145 138 142 129 153 159 147 133 125 158 159 140 154 162 162 143 124 105 102 164 151 138 93 76 97 140 169 166 160 199 151 131 165 160 149 150 154 126 157 110 115 131 120 133 107 130 142 100 123 146 120 134 114 108 98 101 154 132 121 154 170 149 170 114 111 109 179 181 152 148 157 158 155 182 177 146 151 182 170 181 176 143 154 169 157 167 139 133 142 128 135 156 165 157 178 188 166 134 179 187 174 183 180 160 163 163 199 184 170 171 176 143 161 142 146 154 172 181 162 148 147 156 157 193 180 181 189 166 115 149 181 137 167 144 139 152 196 166 158 171 171 162 154 159 162 168 172 147 167 183 173 129 146 151 128 102 139 157 109 88 95 135 118 119 123 126 154 137 140 135 132 139 153 125 150 186 188 191 179 164 188 209 179 145 168 178 136 131 152 166 179 186 192 187 172 181 157 164 190 193 186 157 148 168 180 163 172 186 175 152 128 147 124 148 157 147 141 194 213 199 182 193 193 214 193 195 176 158 174 177 190 188 163 144 191 167 157 193 170 172 144 200 184 185 173 146 118 131 108 114 144 142 112 113 92 78 96 112 97 91 91 78 71 60 58 96 97 94 84 77 85 97 103 113 107 99 144 140 123 140 136 114 155 186 162 143 145 160 148 146 159 167 180 169 145 139 168 172 181 164 151 158 166 167 189 215 207 168 145 
84 112 104 122 120 119 142 130 125 109 124 140 153 158 164 137 165 146 97 127 147 158 140 139 163 148 131 116 107 106 153 139 159 91 89 123 131 150 143 156 190 157 146 140 164 158 146 140 115 167 155 130 133 109 147 120 132 153 116 118 143 129 146 134 131 107 108 130 142 145 161 180 156 165 151 136 134 143 152 159 138 146 172 168 179 171 153 176 191 191 171 162 143 149 179 168 182 152 120 119 121 140 157 172 176 180 190 145 153 192 197 159 175 157 156 174 170 186 173 168 171 185 146 160 164 175 158 169 161 173 155 126 154 148 173 168 184 171 147 146 145 202 178 180 164 160 146 179 169 154 162 164 183 135 153 150 149 169 155 162 162 186 151 153 195 143 115 129 158 120 105 99 110 112 126 144 136 178 150 138 120 116 138 157 118 148 176 180 197 198 177 191 205 173 155 163 171 150 128 136 152 146 174 193 178 174 184 145 166 191 163 168 169 146 161 188 174 177 175 185 183 160 154 132 150 157 167 162 190 196 196 198 185 202 215 192 186 175 168 177 178 180 179 152 129 178 174 170 192 157 174 170 167 169 160 170 158 112 136 120 117 137 153 121 112 95 77 76 80 83 73 83 70 66 50 56 92 86 78 76 82 86 103 111 98 75 103 155 117 108 144 112 121 166 169 153 146 138 160 156 144 161 164 157 154 150 142 140 137 138 131 155 143 161 182 186 200 214 194 170 
78 113 108 115 137 125 128 145 152 118 120 129 157 150 165 140 158 157 96 125 134 128 138 130 139 133 134 119 103 133 150 125 164 126 114 127 113 116 135 151 152 145 165 150 148 140 146 139 126 154 157 131 132 105 146 133 127 157 124 103 145 128 133 124 80 98 110 133 138 125 132 170 155 149 144 149 148 140 150 166 159 171 175 161 169 150 154 173 168 198 177 172 167 140 172 161 172 176 128 132 143 121 138 159 190 180 182 175 164 175 170 149 177 157 159 175 170 175 164 170 160 170 140 145 142 163 156 152 166 184 165 161 151 131 156 160 181 165 155 168 149 183 194 167 172 161 135 154 164 156 160 158 173 126 166 149 140 161 151 163 171 185 174 170 195 146 124 138 147 153 147 114 79 112 145 145 144 149 136 128 111 103 139 150 129 150 166 159 198 203 178 201 220 191 160 147 142 146 137 141 167 161 159 173 177 173 171 156 160 163 153 175 194 151 158 185 176 177 179 165 170 158 144 156 158 150 173 179 171 197 202 192 183 194 182 177 166 175 169 168 181 160 167 168 164 173 183 175 178 154 171 167 154 154 166 162 134 119 135 137 116 138 142 125 110 96 96 76 62 78 76 72 65 80 60 52 83 84 64 63 77 79 101 99 69 86 140 138 130 101 145 112 144 157 158 163 159 152 151 155 163 171 152 133 129 141 158 144 136 151 122 144 138 112 166 188 175 155 169 203 
87 111 116 135 122 129 133 158 172 122 125 134 146 138 134 135 146 141 114 136 136 120 142 132 135 130 133 131 103 154 157 128 137 141 124 123 118 115 138 153 156 148 150 156 143 127 149 141 141 161 159 166 137 126 172 159 129 144 133 116 138 149 134 113 90 70 83 130 146 129 117 143 137 146 146 159 156 143 148 143 153 168 166 165 187 165 168 182 176 188 172 163 160 159 183 156 159 173 123 126 136 136 132 131 168 174 162 194 151 168 177 134 155 151 162 172 164 174 178 186 175 158 155 143 130 139 140 149 147 141 158 182 152 161 177 161 162 168 174 146 151 172 177 166 165 136 127 154 163 145 165 143 153 128 163 145 141 153 144 149 163 190 187 173 180 138 127 151 133 144 133 100 65 100 153 131 106 105 129 133 105 97 163 157 140 164 188 141 187 186 150 184 205 218 167 142 150 152 131 153 165 174 160 160 178 168 161 161 148 151 147 163 186 171 166 172 169 176 175 140 157 163 143 175 144 159 180 182 190 181 154 169 189 198 157 167 146 154 164 162 167 164 179 171 162 169 184 179 170 169 172 168 159 153 177 158 131 139 116 124 120 118 112 106 93 91 88 64 53 73 73 57 70 96 81 64 83 92 73 70 83 85 94 77 80 105 136 120 150 93 116 108 123 152 178 157 158 155 160 153 155 169 166 155 146 139 158 148 137 151 135 152 160 142 201 190 149 164 161 160 
94 117 101 137 102 115 134 147 165 135 170 146 144 136 131 131 126 147 138 116 160 131 125 131 150 140 124 123 111 158 161 130 113 128 140 154 141 123 131 142 164 163 151 162 145 150 172 138 133 153 179 187 129 139 196 171 138 132 124 157 156 141 127 160 132 79 76 136 163 155 153 158 134 139 152 141 148 137 141 130 127 144 177 167 176 183 174 170 164 181 177 143 134 169 170 146 158 151 127 135 157 154 134 135 148 155 144 182 162 164 176 167 167 144 146 158 156 159 170 158 183 159 164 149 140 124 141 166 142 149 160 154 150 169 172 155 148 162 170 130 141 177 154 156 160 156 138 151 149 124 142 149 151 139 156 134 151 157 146 143 158 181 172 159 167 160 149 160 151 128 123 87 77 97 136 138 130 111 122 135 100 99 167 164 150 164 197 153 162 170 152 167 180 222 190 154 155 153 132 151 165 156 157 160 165 162 171 158 134 146 133 152 170 195 179 162 165 179 162 134 150 165 143 177 138 167 172 187 183 172 148 174 187 197 174 163 142 149 145 158 142 154 175 176 164 165 174 180 165 175 156 173 150 155 164 154 142 132 110 95 99 85 92 78 79 90 87 62 57 80 92 61 67 80 86 77 80 76 69 72 81 81 56 70 113 124 120 140 125 90 109 123 148 157 177 164 148 137 170 162 136 163 169 161 175 160 162 147 142 150 139 137 154 142 174 160 144 170 156 131 
93 117 99 128 104 116 122 145 150 133 163 168 150 136 139 131 124 137 148 131 150 130 126 131 142 140 136 118 137 166 156 117 130 123 149 143 113 122 120 151 163 158 152 161 140 153 184 145 114 131 132 173 153 153 190 181 147 137 139 139 144 149 118 167 138 135 67 93 152 147 150 161 164 153 149 150 142 132 149 135 137 150 165 185 156 142 180 161 174 177 188 175 161 172 164 147 171 157 151 140 166 154 127 132 140 168 161 137 141 168 178 170 166 167 169 159 145 138 135 146 161 154 132 169 149 133 183 170 115 138 135 151 146 161 161 138 146 155 158 140 126 172 165 148 158 154 142 131 142 132 130 145 146 133 148 145 150 154 147 155 167 177 162 156 181 179 149 152 165 142 150 124 108 135 117 124 158 130 115 144 112 117 159 148 180 160 188 152 145 151 152 169 185 209 189 159 149 158 137 151 168 150 145 136 161 176 179 160 154 138 138 157 155 198 192 165 154 167 160 139 148 161 130 181 166 163 158 184 179 182 177 162 172 161 177 155 149 148 136 140 141 141 170 156 165 174 168 177 167 163 149 158 161 157 153 154 124 112 106 85 93 85 92 77 70 93 99 65 55 95 128 78 70 93 85 74 80 85 77 71 87 64 57 103 130 132 117 125 93 84 96 135 154 168 164 161 144 126 161 158 143 167 179 153 150 137 154 148 144 159 143 135 156 147 124 127 123 141 172 139 
102 146 89 108 113 116 126 139 139 156 161 167 179 169 122 135 147 120 133 139 146 116 137 134 143 148 142 117 122 167 146 106 155 108 125 123 110 109 128 161 149 161 153 162 125 135 195 157 126 126 140 163 188 175 160 189 131 108 112 138 141 163 146 141 123 107 97 94 139 136 138 138 144 144 147 165 155 121 140 144 150 162 165 182 162 147 194 184 182 178 205 182 155 156 163 178 180 176 191 164 150 146 131 142 151 162 189 135 139 154 165 172 160 152 159 152 144 140 149 164 158 160 135 165 150 141 169 169 137 105 117 144 149 173 155 127 146 149 148 157 147 158 162 147 159 140 150 117 143 161 166 136 143 138 136 150 138 135 146 148 162 175 162 148 169 163 146 153 171 164 158 154 123 142 135 136 160 143 120 126 101 142 176 149 185 169 173 166 152 171 171 170 178 209 194 156 145 169 167 145 157 157 151 150 169 173 171 150 155 139 153 168 149 170 188 169 165 152 162 147 138 155 139 187 170 171 149 163 189 186 160 152 163 150 144 156 165 145 137 139 116 153 183 151 132 174 170 167 186 170 137 154 160 147 134 130 121 110 88 74 93 110 92 69 69 121 111 83 68 99 132 132 108 119 93 75 80 96 111 65 66 64 68 115 119 139 133 104 122 80 91 145 142 159 149 153 149 133 142 129 150 163 165 146 129 129 147 153 145 163 154 151 154 159 120 117 119 143 162 124 
129 172 129 131 115 127 127 145 148 150 161 152 174 182 131 139 145 146 158 132 133 114 141 152 145 115 115 121 138 183 139 99 146 133 129 114 107 114 130 168 137 152 162 151 114 133 175 146 133 143 169 166 171 156 135 162 157 134 120 139 158 138 111 143 120 80 84 113 151 143 139 125 148 155 154 157 160 128 129 151 171 154 153 162 171 154 168 187 182 173 192 172 162 140 125 178 177 149 169 166 145 135 163 149 159 148 176 136 154 159 171 180 150 156 162 145 152 163 160 150 156 140 126 150 162 153 158 191 132 112 138 147 134 147 140 138 156 160 142 161 174 152 158 159 165 143 152 171 165 162 172 145 145 145 137 135 155 156 155 154 160 164 156 146 163 150 149 143 155 168 140 141 140 145 141 155 148 142 131 128 123 125 160 138 166 179 161 178 157 169 175 152 145 195 201 158 144 145 144 146 151 155 160 144 150 174 162 135 154 149 169 176 144 155 194 169 167 152 165 173 152 171 177 194 168 189 157 162 191 184 130 116 135 146 129 169 167 130 140 152 113 158 174 154 126 173 169 178 172 143 134 151 153 129 120 107 124 128 98 83 84 103 96 80 81 137 141 122 93 125 137 164 112 107 88 74 87 98 112 76 74 85 97 116 94 130 127 113 146 91 134 166 156 137 138 161 163 145 145 142 137 163 167 151 137 147 140 153 137 145 140 149 161 152 137 141 150 159 131 116 
122 137 142 154 130 180 139 146 158 139 168 152 151 159 163 151 137 142 166 149 142 140 134 133 139 129 137 134 157 172 154 121 134 144 111 112 117 133 140 149 142 159 145 141 135 151 154 135 158 175 172 187 165 140 140 141 179 164 135 116 126 103 70 147 140 74 82 136 150 163 137 115 155 156 143 151 158 136 138 145 151 159 155 163 177 162 157 178 190 182 190 175 165 163 119 139 186 156 170 176 161 140 159 153 130 117 155 145 149 140 165 171 145 163 166 139 156 164 153 143 173 137 132 151 167 166 157 196 162 130 142 149 136 142 151 157 157 152 136 152 172 153 157 155 153 149 157 207 165 154 155 154 152 150 158 129 143 145 141 158 164 156 152 158 174 160 168 151 152 169 139 131 152 152 131 154 148 141 143 147 150 133 152 137 158 182 149 159 171 153 171 157 147 172 185 152 140 131 118 163 152 135 147 130 144 174 157 141 157 163 172 172 143 151 185 167 151 147 140 174 158 168 176 178 178 178 158 170 178 175 125 82 102 136 134 153 143 118 152 128 130 167 182 161 159 184 152 163 140 140 129 135 151 126 139 132 140 132 108 106 91 97 88 82 91 151 159 153 109 146 143 160 102 97 84 75 103 121 99 86 87 124 127 110 98 130 117 90 121 148 167 141 156 141 136 159 159 141 144 152 157 170 163 156 136 144 129 154 131 126 126 129 158 134 121 136 148 150 119 111 
107 148 144 163 156 160 121 133 162 156 168 155 157 130 164 155 130 129 160 173 177 154 138 122 126 142 134 126 151 160 182 136 119 143 139 157 132 128 125 138 163 164 140 141 152 144 157 144 152 171 171 169 140 119 125 148 159 168 109 118 140 140 110 126 147 102 95 162 143 174 166 141 143 150 126 149 157 124 142 138 167 162 156 176 167 144 150 169 191 200 187 180 164 172 156 147 168 156 161 168 166 168 187 176 146 151 166 176 165 146 149 151 151 145 156 150 158 148 169 166 182 147 141 142 148 173 158 159 131 140 156 157 139 137 155 150 137 131 139 150 160 162 159 156 162 145 150 160 173 161 157 142 147 156 151 144 143 139 138 149 153 146 144 147 146 155 176 167 164 168 154 143 140 140 131 135 141 141 147 166 160 147 150 139 146 168 149 151 192 157 169 167 167 146 155 153 152 125 133 155 154 131 151 144 157 185 160 148 159 169 163 152 134 152 166 173 156 140 132 164 149 154 162 167 198 170 156 170 171 164 130 76 78 104 122 114 125 138 152 115 158 162 177 174 190 174 157 138 135 135 128 147 161 150 165 139 126 92 83 108 102 87 77 83 89 133 144 161 123 135 138 157 118 97 81 67 94 102 80 119 114 120 94 88 116 139 120 102 126 158 161 129 144 149 130 141 152 147 126 153 143 159 156 160 144 146 134 157 135 135 142 122 141 128 123 137 144 142 133 128 
119 165 135 154 166 142 123 143 138 125 152 158 165 124 152 162 127 133 140 147 178 136 123 151 136 155 151 135 164 166 175 149 120 138 134 135 136 100 120 151 180 166 157 133 152 139 151 152 131 158 165 146 138 141 138 154 157 181 159 160 160 166 139 130 136 141 111 120 144 157 176 164 136 155 140 143 151 147 146 141 177 178 152 147 159 146 132 159 194 191 156 179 165 156 157 145 171 166 165 168 170 152 174 159 155 168 175 180 168 163 148 156 152 147 152 147 150 152 175 163 169 150 137 160 167 186 168 176 164 159 163 142 134 125 154 158 152 139 146 150 151 160 147 153 154 168 170 158 167 157 155 154 142 156 151 161 174 158 135 160 155 143 138 137 126 150 164 158 165 169 170 140 144 144 136 144 149 143 129 165 156 157 157 150 147 172 165 159 175 162 178 161 152 130 138 151 157 130 129 129 153 137 153 173 173 182 158 145 152 168 162 149 131 145 163 155 132 133 131 137 133 149 153 147 184 182 164 150 165 156 112 79 80 104 138 113 131 158 120 131 178 158 166 177 174 140 156 123 128 116 137 135 163 164 168 141 132 113 109 113 103 115 109 127 115 127 152 154 142 136 129 157 145 106 97 85 104 89 80 121 116 122 95 116 140 146 139 138 149 139 157 126 143 171 148 143 142 134 123 163 141 155 155 153 141 150 145 157 140 132 126 128 139 129 138 138 136 127 132 125 
141 166 149 161 166 129 132 154 136 119 158 175 156 134 153 172 144 158 140 140 180 151 125 161 135 148 149 165 166 147 163 161 110 111 126 119 156 125 131 168 183 193 176 152 150 146 153 148 154 168 158 121 132 169 161 168 164 188 170 175 153 162 158 115 124 127 117 130 153 137 161 156 139 145 159 158 157 153 164 166 169 183 150 136 169 151 136 141 187 187 153 155 160 160 159 155 189 174 167 157 143 149 154 156 154 159 156 160 163 147 154 161 158 149 162 144 147 149 168 162 166 173 132 172 181 170 155 177 170 161 165 142 121 121 148 151 169 158 136 139 147 158 151 136 149 157 138 157 159 156 158 160 136 166 171 159 167 143 128 152 157 146 148 160 139 158 151 156 156 161 166 137 147 136 145 144 142 147 128 140 156 151 153 163 143 170 158 152 161 171 179 154 140 135 143 172 150 145 129 110 148 142 139 186 159 164 149 148 153 170 163 141 141 163 170 148 136 133 133 141 136 156 146 134 178 178 166 138 141 131 90 107 125 155 153 134 139 135 99 124 172 176 170 152 149 157 161 123 124 137 124 134 179 179 177 157 141 138 135 128 103 128 123 123 122 125 142 140 152 135 132 155 170 142 137 125 118 102 118 133 109 103 91 125 141 148 152 142 140 127 153 117 143 158 158 145 136 117 108 150 163 156 151 144 127 136 145 166 143 124 119 125 140 129 139 150 138 141 143 146 
141 155 164 172 171 127 146 163 163 137 166 146 135 121 166 177 152 149 147 176 168 190 141 158 141 145 158 156 158 140 150 171 145 104 119 149 150 137 138 174 190 194 173 167 175 158 151 149 159 165 175 158 167 161 156 179 182 182 144 153 156 155 166 123 132 135 120 137 146 130 140 132 142 147 153 154 154 141 153 145 148 145 142 149 144 131 143 161 195 182 162 151 158 163 156 152 179 169 158 160 160 163 130 158 154 158 164 145 172 135 157 157 151 150 146 122 140 129 127 170 163 181 151 160 173 180 167 165 168 151 129 139 140 139 128 135 161 165 146 136 127 139 156 133 148 164 137 143 135 134 151 143 131 146 175 176 166 137 126 142 163 137 159 182 150 137 118 152 160 158 137 121 149 148 161 132 129 156 133 138 147 142 149 172 172 178 151 138 157 167 171 137 126 129 137 170 155 126 126 112 123 146 138 169 145 154 142 157 158 157 150 132 125 140 154 142 152 123 116 153 142 133 130 147 169 155 122 122 144 131 78 124 176 129 118 125 151 119 119 118 154 175 174 145 136 160 160 115 108 132 152 159 171 171 166 157 143 158 146 130 133 138 115 117 127 116 123 124 128 130 118 149 175 166 145 140 133 135 158 132 107 108 119 132 157 147 131 128 125 99 136 148 145 149 156 150 150 132 115 144 159 131 134 148 123 128 119 151 125 119 126 130 150 140 145 151 140 136 141 133 
147 174 162 152 170 127 150 157 161 155 164 166 136 152 146 180 171 169 136 155 145 184 157 162 149 153 164 166 172 140 156 158 124 135 122 131 130 130 136 174 182 189 172 157 169 163 156 157 155 155 190 199 194 163 163 170 188 178 160 158 181 155 178 169 138 137 132 146 157 138 139 130 139 141 135 140 148 144 157 148 148 133 133 144 154 129 129 151 177 175 159 149 156 140 148 161 186 182 147 157 153 170 136 144 133 149 160 157 172 132 148 142 153 155 118 121 139 147 126 161 158 169 166 161 158 178 169 152 181 142 138 137 147 139 137 152 142 154 132 115 122 143 161 132 142 146 117 126 126 126 150 137 141 139 132 149 156 147 138 136 151 120 142 152 155 138 110 154 160 157 144 115 125 141 180 173 147 136 133 145 156 156 157 163 181 154 165 164 159 168 180 152 119 128 130 161 181 135 132 127 116 136 137 163 142 141 128 138 139 146 147 145 124 112 135 141 148 106 115 131 119 126 132 138 132 146 117 110 117 107 109 139 176 152 163 141 124 102 135 121 147 171 178 154 137 154 154 111 99 114 145 160 160 160 156 176 154 161 161 136 142 145 125 118 111 116 120 126 126 145 125 145 150 146 114 127 137 151 166 136 129 119 113 133 146 147 134 120 133 122 127 150 145 148 150 154 157 134 137 147 144 141 144 145 128 125 108 130 118 134 136 131 149 147 143 156 145 125 148 141 
155 177 163 137 177 150 154 175 149 159 149 160 162 182 153 172 163 146 133 130 142 145 161 169 144 162 180 172 180 166 140 149 134 138 110 121 148 141 144 181 148 173 179 175 156 159 162 162 151 142 172 190 178 165 170 143 159 166 182 172 191 145 169 185 139 132 134 149 159 131 132 138 127 122 139 151 146 142 167 168 131 131 147 141 158 126 119 152 181 185 163 159 165 126 135 156 175 172 162 147 142 166 164 144 133 175 144 159 145 123 150 148 154 145 133 151 144 157 131 144 167 166 171 179 152 154 164 141 181 159 149 170 146 131 131 145 149 166 138 119 122 133 146 124 130 123 111 118 118 137 149 132 141 145 108 135 150 150 141 129 138 113 163 147 139 137 122 157 149 177 155 124 140 146 150 150 180 166 133 144 151 169 166 148 167 141 168 187 143 152 159 152 102 134 127 139 157 137 130 121 127 129 135 168 129 124 127 123 133 150 137 138 130 114 125 149 130 103 134 121 115 128 124 118 111 120 137 110 100 121 123 131 125 161 188 170 96 112 135 120 135 159 171 161 157 149 133 103 110 119 128 151 158 163 150 155 148 167 164 140 128 137 122 133 125 136 106 122 142 147 143 147 151 170 151 146 135 143 135 134 147 133 117 124 140 128 128 128 148 154 124 133 137 135 140 151 151 126 146 142 132 154 156 144 148 126 129 138 146 154 157 139 148 152 135 151 143 137 155 145 
167 148 172 147 180 153 134 179 146 143 156 176 161 151 189 186 151 123 163 136 145 144 159 174 140 157 192 172 187 171 149 157 163 122 91 131 164 135 144 174 138 168 164 182 160 157 158 177 164 146 156 170 153 162 183 146 148 161 185 180 182 144 158 171 149 135 136 156 145 133 129 137 109 111 130 143 147 150 134 117 153 137 157 161 149 135 128 153 171 172 169 160 171 176 164 144 148 171 159 166 152 146 148 140 133 167 152 155 117 103 150 160 138 129 168 161 147 166 131 141 172 160 159 171 152 133 153 146 169 175 143 153 144 138 142 147 150 160 140 119 120 114 117 115 116 102 115 123 138 155 149 132 143 140 130 157 147 142 148 133 126 103 141 134 134 134 132 146 137 179 154 127 148 150 142 144 149 154 146 146 158 164 160 136 139 137 152 186 139 146 142 145 110 135 122 163 177 132 138 104 121 121 127 149 111 111 141 133 131 144 118 115 126 121 117 139 128 116 132 106 124 142 124 105 112 104 149 110 92 122 98 117 120 177 177 181 95 115 139 136 134 140 150 136 143 137 102 90 131 149 144 141 147 168 156 149 151 138 136 133 106 127 122 137 120 144 98 115 144 129 143 149 155 165 159 150 141 140 130 123 136 147 130 140 131 122 135 134 155 147 130 146 131 125 138 150 150 132 151 147 143 138 144 141 141 117 132 144 158 131 143 135 137 137 148 141 146 163 158 144 
148 138 153 147 171 155 161 157 145 133 158 186 153 135 168 184 163 149 162 156 146 133 147 171 152 140 161 167 190 152 157 165 166 154 115 140 156 126 150 167 173 179 148 186 173 171 149 157 183 158 159 173 147 160 186 159 154 163 168 169 161 150 156 160 149 151 150 169 152 124 114 115 109 139 146 148 146 170 139 105 151 144 130 164 162 127 133 145 154 170 189 147 160 206 166 149 141 174 172 163 160 158 149 143 148 151 166 162 126 104 150 151 146 143 158 165 173 179 143 113 150 158 143 143 156 123 124 137 156 169 135 142 144 167 149 147 140 147 136 119 133 126 130 136 110 104 127 113 134 165 158 142 158 131 141 155 132 126 145 127 116 105 122 144 129 124 126 139 154 179 150 134 152 144 124 131 134 135 130 149 145 163 165 155 143 158 146 166 141 143 154 140 125 132 99 158 160 135 132 93 117 106 112 122 120 112 135 128 115 135 123 110 111 114 109 108 136 115 114 117 134 134 138 132 127 118 137 108 98 119 115 125 144 183 184 172 114 114 147 140 140 132 146 117 115 115 90 95 145 155 147 144 146 152 166 155 154 132 131 139 114 126 115 137 122 150 114 123 133 120 135 156 164 151 139 145 162 144 155 134 136 139 126 141 122 127 143 124 131 137 140 144 146 133 145 149 147 144 148 150 138 137 140 118 110 128 125 136 150 152 140 143 151 145 146 137 155 154 157 163 
112 134 140 143 159 171 178 149 150 125 149 164 163 149 158 160 167 165 153 143 140 148 145 159 143 152 146 163 181 161 143 160 167 158 152 148 150 145 159 161 179 180 147 140 151 184 166 158 189 167 159 176 139 142 185 164 152 157 164 154 144 155 147 145 143 165 181 185 171 140 118 128 117 118 141 156 133 154 158 142 136 148 145 144 144 108 116 149 169 140 167 161 164 163 140 144 140 161 174 164 170 166 161 144 150 163 160 165 135 115 155 144 167 167 134 176 175 179 149 114 132 133 132 135 131 122 121 132 153 164 146 166 154 167 154 136 137 140 136 131 121 134 138 132 111 115 139 119 138 149 150 155 152 135 115 138 119 119 133 141 115 115 123 135 129 135 127 135 160 172 144 150 141 134 122 139 138 156 157 138 147 154 155 147 160 178 168 170 151 128 163 160 129 109 111 143 152 135 117 79 122 89 105 115 105 112 109 123 118 127 123 115 106 110 110 104 128 106 112 115 148 129 122 140 113 104 120 99 94 106 118 137 151 186 189 137 109 128 130 140 141 124 137 115 102 90 89 109 136 148 141 153 155 138 143 147 137 150 147 128 106 120 103 130 133 148 109 117 135 122 116 147 160 141 132 145 159 139 155 134 150 139 128 134 124 126 139 117 120 148 126 107 125 133 148 147 150 126 135 157 132 139 138 120 117 131 133 121 134 187 151 153 151 150 135 133 145 135 141 146 
111 160 140 147 156 170 171 168 170 157 155 146 147 149 155 150 148 163 162 154 134 152 152 143 151 158 162 175 172 145 148 151 152 161 159 153 142 148 166 160 162 177 168 142 134 181 165 149 166 161 143 156 152 151 185 164 151 165 164 148 164 167 148 154 132 146 169 170 145 129 133 140 131 129 139 135 140 164 143 157 134 121 140 132 129 132 117 141 172 149 162 159 163 154 140 158 131 155 181 181 172 154 159 151 141 158 141 146 139 115 140 144 148 165 141 145 156 162 139 131 131 113 104 113 115 121 126 139 132 146 155 158 142 126 158 131 139 125 115 127 109 111 111 102 105 121 131 131 163 146 151 152 139 119 116 119 129 135 137 141 105 110 130 128 112 112 135 159 167 156 150 147 127 142 150 153 162 163 147 131 122 131 170 166 166 153 159 151 145 110 141 165 145 109 131 154 162 157 110 98 121 89 115 124 76 97 89 131 138 131 126 116 93 111 114 97 98 106 116 106 123 146 115 169 125 85 94 107 84 96 125 157 147 160 122 114 139 163 136 134 132 113 117 109 75 80 110 116 124 131 144 144 162 148 133 147 145 142 148 108 77 87 110 119 121 140 131 114 123 113 105 131 141 134 112 124 159 139 148 141 148 155 150 140 122 116 139 127 116 143 136 118 112 122 148 148 168 142 133 152 144 134 127 122 136 131 116 119 139 176 154 160 153 146 123 131 134 126 115 125 
94 164 142 148 143 170 164 168 146 142 125 133 130 129 142 137 145 129 137 141 130 136 141 140 153 172 168 174 171 145 140 140 146 164 158 154 154 142 152 155 158 159 158 162 149 178 163 163 164 149 134 159 167 176 191 156 149 158 154 138 143 155 137 145 133 118 146 167 139 111 132 126 127 138 137 134 151 169 138 144 139 125 113 130 129 133 125 138 147 157 160 148 152 150 133 168 157 159 180 185 189 144 144 153 144 165 150 127 122 119 131 131 141 150 156 159 151 148 127 124 136 138 119 120 119 112 120 147 137 145 162 147 129 133 137 120 133 135 110 107 111 94 88 93 118 128 138 150 168 141 158 156 135 118 142 102 131 146 153 134 112 131 145 126 121 117 129 144 156 163 161 133 138 164 163 143 151 165 148 154 128 128 163 162 168 127 133 148 158 93 117 160 149 126 142 166 152 153 119 109 123 103 131 132 80 88 69 111 116 115 110 109 89 99 100 90 88 90 95 102 81 112 106 159 133 95 94 106 77 120 143 160 152 107 127 163 183 168 135 125 138 132 105 115 104 106 105 105 127 125 136 160 156 130 141 155 153 136 140 112 96 97 126 128 123 121 126 122 137 108 95 129 126 127 119 128 143 135 146 144 145 142 129 126 123 117 123 124 125 149 145 130 116 120 143 143 164 157 132 134 136 126 125 143 147 129 115 122 126 160 158 152 177 131 106 126 144 139 129 132 
51 112 142 143 120 167 156 156 124 128 120 142 147 119 150 130 146 122 139 130 147 139 135 138 148 170 149 153 172 154 138 151 162 161 168 138 145 160 163 153 150 142 155 151 135 182 186 165 173 143 130 170 163 172 191 139 131 158 163 149 135 135 118 143 130 104 117 144 157 127 133 113 119 129 143 149 151 165 156 147 156 171 112 103 118 127 135 143 135 155 155 161 155 152 135 156 177 160 155 156 177 163 156 160 142 146 145 120 100 130 163 134 132 135 146 158 148 140 133 122 142 145 120 124 116 106 117 151 175 165 162 151 145 144 136 136 109 127 107 87 107 96 107 119 130 155 151 139 164 131 133 157 145 127 159 124 139 156 170 135 141 155 168 130 109 122 115 130 142 140 167 143 155 159 141 148 148 166 145 148 120 117 155 144 150 140 139 151 154 107 112 132 135 132 134 160 135 162 168 126 118 96 121 107 107 91 58 89 105 131 110 102 88 85 116 102 84 95 80 107 77 105 123 127 108 119 102 90 69 160 141 166 114 75 164 180 176 151 150 150 167 183 136 133 151 144 96 112 138 123 148 173 150 131 145 146 138 137 120 120 113 90 104 119 112 105 121 129 149 120 108 131 111 118 137 149 124 129 134 141 143 123 118 129 131 147 138 119 129 154 150 143 129 129 132 135 136 149 135 142 134 135 140 132 139 165 156 135 134 133 133 154 158 108 108 125 156 134 135 140 
32 66 125 136 122 155 154 147 124 134 140 130 149 118 145 118 147 135 123 111 144 145 141 119 143 126 133 152 167 138 135 149 153 145 170 141 133 132 153 160 150 141 161 144 133 178 193 165 171 162 144 168 167 167 183 126 105 141 161 134 108 119 109 126 136 125 117 125 167 134 125 108 129 143 169 146 138 157 135 146 159 190 155 107 137 143 131 130 143 160 141 147 149 165 161 151 161 167 156 158 179 160 153 153 137 145 147 126 102 129 170 144 149 133 145 157 156 153 149 136 153 181 138 122 127 130 130 133 151 168 155 147 128 157 140 133 119 113 119 112 102 93 113 142 140 156 164 154 161 162 135 160 160 122 143 148 145 163 168 132 153 154 143 112 130 112 105 137 140 134 134 130 158 164 137 152 142 150 143 146 137 115 146 153 159 166 133 146 137 113 117 130 130 131 136 159 140 155 163 131 93 74 107 96 117 103 74 89 103 144 140 112 92 101 115 114 96 109 79 103 80 119 111 124 123 124 84 121 108 166 150 153 128 134 158 146 162 149 162 161 168 165 136 146 172 160 135 152 148 126 150 160 168 138 127 134 121 129 100 100 92 82 103 108 96 109 122 115 143 140 107 117 117 137 136 146 139 122 113 143 136 137 138 134 124 155 153 130 127 138 151 156 129 129 117 129 121 140 132 155 147 149 136 130 133 154 167 150 138 122 114 138 147 96 112 128 153 115 130 142 
30 45 74 111 129 132 156 139 118 121 150 124 147 144 132 117 141 127 115 126 137 151 154 146 147 140 148 138 154 138 119 139 142 137 149 160 136 130 139 142 151 147 164 154 129 167 176 157 174 180 163 170 167 178 164 133 135 117 133 124 91 103 107 123 141 124 135 144 148 130 137 118 141 155 178 150 150 171 149 158 151 167 167 134 138 155 136 123 134 145 141 138 141 169 161 145 163 157 130 144 170 150 136 116 110 158 164 117 107 145 179 138 148 144 120 149 162 147 144 136 119 156 136 115 130 152 147 135 126 148 129 146 147 145 140 138 119 113 128 124 99 101 118 149 141 139 156 173 152 139 136 146 143 127 142 152 136 160 160 144 145 156 132 96 140 106 106 133 117 136 119 130 141 165 141 130 136 133 143 135 132 134 143 144 143 175 143 150 134 134 150 169 146 125 148 160 146 134 122 116 97 86 108 113 80 85 59 87 99 106 141 108 83 124 112 133 105 116 85 86 74 103 113 92 105 131 118 153 128 168 143 120 160 151 142 133 165 154 163 144 162 154 120 131 152 154 148 151 148 135 126 119 142 138 120 128 129 106 98 92 94 93 116 105 97 99 120 110 125 136 112 138 136 154 126 121 143 109 110 135 135 142 128 125 130 148 135 135 143 135 133 146 126 135 122 139 140 149 132 153 155 153 134 139 151 144 155 154 126 119 105 118 148 101 113 139 145 101 125 133 
23 36 50 64 89 124 153 138 133 111 135 133 128 144 127 136 137 118 111 135 148 137 154 142 148 152 144 135 137 140 117 154 146 136 137 156 155 134 147 144 178 155 151 152 137 172 170 159 163 170 169 168 163 172 161 139 122 107 101 99 77 84 95 137 149 128 144 154 146 155 138 119 140 156 170 145 153 164 142 148 157 164 156 164 134 135 132 124 136 155 157 140 161 165 159 135 172 162 130 134 155 151 136 124 128 162 155 147 143 149 158 129 120 156 126 151 170 142 141 145 117 117 119 130 114 136 168 159 126 127 102 126 138 137 132 127 116 110 128 119 99 86 110 133 139 155 153 171 156 123 125 139 123 137 140 128 114 163 172 160 143 152 149 117 132 113 111 144 107 136 138 148 145 157 137 139 129 133 148 135 125 159 171 144 126 181 153 146 126 144 171 174 142 102 141 141 135 138 119 97 101 97 126 133 74 78 71 101 102 81 130 155 107 134 127 132 106 116 95 75 84 96 114 78 87 104 119 153 143 177 145 128 151 147 152 144 165 167 176 135 154 183 142 132 140 143 151 131 143 146 129 122 104 135 117 108 141 118 92 88 91 96 123 106 114 97 133 118 118 119 114 151 139 142 111 97 128 109 116 120 129 121 130 125 136 139 128 132 144 140 110 134 124 116 107 113 129 125 128 143 144 156 139 124 126 150 152 145 143 117 96 110 109 100 119 143 129 103 116 105 
