P2
320 240
255
161 154 148 145 141 138 138 136 134 132 130 123 122 121 120 120 118 118 121 117 112 112 107 105 104 102 100 97 93 92 89 87 86 84 82 79 76 73 72 73 71 68 65 63 60 62 64 60 56 59 64 72 81 85 84 83 81 79 77 74 71 70 68 66 65 66 66 65 62 61 61 62 66 67 64 65 66 67 69 76 81 82 86 87 86 91 95 101 104 111 113 115 118 121 124 129 133 134 139 148 148 151 153 155 160 166 168 170 176 181 184 185 187 189 192 196 197 197 200 204 206 206 204 202 202 202 204 206 207 207 206 202 199 197 189 179 171 165 157 152 140 112 82 74 76 68 59 43 38 37 69 130 160 118 88 100 106 65 58 65 58 49 41 37 36 39 44 46 40 38 44 42 39 37 33 27 33 27 36 125 174 165 169 174 170 168 167 168 171 168 168 167 165 162 159 159 160 161 160 160 158 158 158 158 158 158 157 156 155 155 155 157 157 155 153 154 155 156 155 154 153 153 152 151 148 146 145 146 144 143 144 145 147 145 141 144 145 144 142 141 144 148 149 144 142 144 142 141 142 143 144 143 138 137 139 142 144 146 148 148 146 147 148 146 145 145 146 145 145 147 151 157 156 147 144 143 144 148 150 150 152 154 153 152 156 154 152 152 153 153 157 162 162 165 169 166 167 168 168 166 165 163 163 164 166 167 166 165 163 164 188 255 255 255 255 255 255 255 255 255 
155 149 145 143 139 137 137 135 133 131 129 126 125 124 124 123 121 119 121 118 113 113 109 106 104 102 102 102 96 95 93 90 89 87 86 83 80 77 75 70 70 71 71 71 68 67 70 66 60 57 58 60 65 69 71 70 63 59 55 53 53 52 49 46 43 42 43 46 43 42 42 43 45 51 57 59 63 68 66 77 86 91 95 102 108 113 119 125 129 139 142 145 148 150 152 157 160 162 165 171 173 175 175 173 176 181 183 184 186 190 191 190 189 191 194 196 196 197 200 202 202 202 198 196 199 200 197 196 201 202 203 202 201 195 187 179 168 157 153 151 143 116 81 66 66 62 54 37 27 22 41 108 128 82 56 85 77 58 56 59 57 52 45 38 34 35 38 37 44 37 25 30 31 28 27 24 25 22 13 40 144 167 163 158 165 163 162 163 164 162 161 160 158 154 154 159 159 159 156 153 151 150 150 150 150 151 155 154 153 151 149 148 147 145 143 144 145 145 145 145 145 145 145 143 141 140 141 142 139 138 139 140 140 139 137 138 139 138 137 136 136 137 137 136 135 134 132 132 134 137 139 138 134 133 134 137 138 140 142 143 142 142 143 141 140 140 141 141 141 141 144 147 146 141 140 139 140 141 143 139 138 143 148 148 149 146 146 146 147 150 152 154 158 160 161 159 160 161 161 159 161 161 158 158 161 165 162 160 159 159 181 253 255 255 255 255 255 255 255 255 
152 147 144 145 143 140 140 138 136 134 132 130 130 129 129 128 127 126 129 125 120 119 117 113 109 108 111 112 107 106 104 101 100 98 96 94 90 87 86 88 92 96 99 101 102 102 101 93 80 70 63 57 53 55 57 56 51 46 44 45 49 45 41 39 37 37 38 39 37 35 35 36 36 48 62 67 75 84 86 98 109 115 120 125 130 136 143 150 154 159 162 165 169 170 169 169 170 172 173 175 175 176 175 172 174 179 181 183 186 189 190 192 192 193 194 195 197 201 202 202 201 200 197 196 196 194 193 191 197 198 198 196 194 191 186 180 167 156 155 156 154 131 94 70 60 56 57 44 29 23 33 78 86 77 54 67 61 55 61 61 45 38 39 39 37 34 31 30 47 52 37 31 29 30 25 23 25 28 33 17 87 159 158 161 161 161 161 161 161 163 163 162 160 157 155 154 154 154 152 150 152 153 153 153 153 153 154 154 152 149 146 146 146 144 143 143 144 143 144 145 147 148 145 139 138 137 138 141 138 137 137 137 137 136 135 136 136 136 135 137 137 135 135 137 137 134 133 134 136 140 139 135 133 132 133 134 136 137 138 140 141 142 142 141 139 139 141 141 141 140 140 140 140 141 141 142 141 141 142 140 139 144 145 142 144 145 147 150 152 154 152 152 158 161 159 161 163 164 163 162 161 158 152 151 155 160 159 158 157 157 175 253 255 255 255 255 255 255 255 255 
154 149 146 146 144 142 142 141 139 136 135 132 131 130 130 129 130 132 135 131 126 126 123 119 117 116 119 120 118 117 114 112 111 109 107 104 101 98 97 99 104 109 113 113 112 109 107 104 94 85 76 64 55 55 54 49 44 42 41 44 48 39 34 33 33 35 36 39 36 33 35 35 34 44 58 67 76 87 92 101 110 116 122 127 131 136 142 149 153 155 159 164 166 166 166 167 168 172 174 172 170 172 173 171 174 178 177 180 184 188 190 191 191 192 194 196 197 201 202 203 201 200 201 199 194 190 191 191 193 193 192 188 185 184 185 178 168 160 159 154 152 139 109 78 59 59 59 48 32 31 57 72 66 75 59 55 56 44 51 63 48 30 31 39 41 36 30 31 35 42 42 39 39 39 28 27 31 41 39 32 60 137 163 163 161 162 163 162 161 160 159 158 156 153 150 148 150 151 151 150 149 149 149 149 149 149 150 152 152 148 144 143 143 140 139 139 141 140 141 141 142 143 142 139 138 137 138 140 139 139 138 137 137 136 137 136 135 136 137 135 133 130 130 132 135 133 132 132 134 136 138 137 135 135 135 134 136 136 137 140 143 144 141 140 138 138 140 142 143 142 142 140 138 136 136 137 136 136 134 136 140 144 143 142 146 147 147 146 144 147 147 148 152 154 153 158 160 162 160 159 158 155 150 148 151 154 156 157 155 156 170 254 255 255 255 255 255 255 255 255 
153 147 143 143 140 139 139 138 136 133 132 130 130 129 129 128 129 133 135 131 126 126 121 118 119 119 120 120 121 119 117 114 113 111 110 107 104 101 100 106 110 115 117 115 112 107 104 105 102 96 82 68 60 62 60 54 49 50 47 46 46 42 39 37 34 34 35 39 36 34 35 35 35 38 46 58 70 78 86 93 100 108 120 127 130 133 138 144 147 152 156 162 164 163 164 165 167 173 176 172 169 171 171 169 171 176 177 178 179 182 182 186 188 190 193 196 197 195 197 198 197 197 197 196 194 190 186 184 184 185 185 184 181 180 177 170 165 162 158 153 151 147 128 93 65 62 57 48 46 69 71 46 27 34 48 55 58 50 47 51 40 29 31 33 35 34 31 30 33 36 39 39 43 35 28 29 31 41 43 42 58 117 151 154 159 161 162 161 158 155 155 154 152 149 147 151 151 151 149 147 145 144 144 144 144 144 140 143 145 143 139 140 140 139 137 138 139 139 139 139 138 137 138 139 135 134 133 134 136 137 136 135 133 134 136 133 132 133 136 131 128 128 129 129 130 133 131 130 131 132 134 135 134 134 133 132 134 133 134 137 141 144 143 141 140 140 142 141 141 143 142 140 138 138 135 134 135 138 139 142 141 131 129 134 138 141 144 144 142 145 149 150 150 150 153 155 157 157 157 156 155 153 152 149 149 150 150 152 151 152 162 254 255 255 255 255 255 255 255 255 
154 148 144 143 140 137 135 136 134 130 128 126 127 128 128 127 127 129 133 131 126 128 125 123 122 120 118 118 120 120 118 116 114 110 108 108 105 100 98 101 105 109 110 106 105 106 101 97 97 90 80 65 60 61 57 55 53 53 53 51 45 42 39 35 33 35 39 42 36 32 34 37 43 41 42 53 64 70 79 81 87 97 107 114 119 123 127 135 142 149 156 163 164 165 164 164 169 173 175 172 171 170 170 171 173 176 174 174 177 181 181 184 185 188 194 197 195 195 194 193 193 194 195 195 195 191 186 182 184 181 179 178 174 172 168 164 165 162 157 153 148 145 140 109 72 58 52 48 80 86 49 35 30 21 70 118 103 96 42 33 35 31 30 33 35 33 36 48 47 42 43 41 40 31 34 34 29 39 37 39 69 117 142 155 154 156 157 156 152 155 156 154 152 148 146 149 150 150 147 145 146 146 144 143 142 141 139 140 140 138 136 140 143 140 138 138 139 139 139 139 138 138 138 137 135 133 132 131 134 133 132 134 133 131 131 131 131 131 133 128 131 133 128 127 130 131 131 131 131 132 132 131 133 133 131 129 131 131 132 135 139 139 136 135 134 133 133 134 137 140 138 135 136 141 136 136 143 146 137 126 117 115 114 108 101 108 113 120 125 135 153 157 151 151 157 157 157 157 155 152 150 148 148 150 152 150 146 150 146 148 155 248 254 254 254 255 255 255 255 255 
155 149 145 144 141 137 135 136 134 130 127 125 126 128 128 126 126 128 131 130 127 129 127 125 123 120 117 116 118 120 120 119 115 111 110 111 107 101 97 96 97 100 102 103 105 107 101 96 95 86 77 61 57 56 52 52 51 50 51 50 42 40 38 36 36 38 40 39 35 31 32 34 41 43 43 48 55 62 72 76 80 86 92 100 108 115 120 128 136 143 151 158 159 162 163 163 169 171 172 170 169 168 168 169 171 173 171 171 177 182 182 181 180 183 190 192 190 195 192 192 192 193 195 195 194 191 187 184 186 180 175 173 167 163 161 160 162 160 155 156 150 143 144 123 84 60 55 57 89 79 45 54 52 48 97 122 101 91 65 33 29 40 31 34 50 62 74 102 116 95 59 36 36 35 41 35 25 37 40 36 63 120 145 153 153 154 155 153 151 150 151 151 151 150 148 147 149 149 147 145 145 145 144 142 140 139 141 140 139 137 136 137 137 136 138 139 142 138 138 138 138 138 137 135 135 133 131 130 133 131 131 134 134 131 131 131 131 131 131 128 133 136 129 127 130 127 127 128 129 129 128 129 131 131 130 128 130 130 131 134 137 137 135 134 133 132 132 138 142 142 137 134 135 138 137 139 144 134 117 112 114 118 107 90 78 87 98 114 124 109 111 130 148 155 153 154 154 153 151 148 147 146 145 149 153 151 145 147 145 148 150 238 254 253 254 255 255 255 255 255 
154 148 144 143 140 136 136 135 133 130 128 126 127 128 128 125 124 126 129 129 127 127 124 122 120 119 116 115 115 118 121 120 115 113 113 113 109 103 98 94 89 87 91 100 104 105 102 97 97 87 77 61 57 56 52 51 49 48 49 47 39 36 36 37 38 38 36 33 33 33 32 32 36 41 44 44 46 51 60 71 75 73 77 86 97 108 115 122 127 135 143 150 151 156 159 160 164 167 168 166 169 170 169 168 169 169 169 169 173 177 178 176 177 181 184 186 186 192 190 190 190 192 193 193 192 189 185 184 184 178 174 170 163 157 154 154 157 156 152 155 151 147 148 134 103 71 51 71 85 59 38 58 90 89 86 97 86 53 42 35 31 42 45 68 108 137 148 163 170 165 142 93 62 48 42 38 35 42 45 37 48 117 149 155 154 154 153 151 150 145 146 149 150 150 148 146 148 148 146 145 144 143 142 141 140 140 141 140 139 137 136 134 132 133 136 139 142 137 137 137 137 137 136 134 133 131 130 128 132 132 132 133 133 132 132 132 131 130 130 128 132 134 129 127 129 124 125 125 126 127 126 127 127 129 129 128 130 130 130 132 135 136 134 134 133 133 133 136 140 144 149 153 152 149 144 127 114 108 110 113 116 117 111 103 87 85 91 121 147 122 98 94 113 141 155 154 156 155 151 148 148 145 144 148 151 149 148 147 146 150 147 227 255 253 254 255 255 255 255 255 
153 147 143 143 139 137 136 134 132 130 129 127 128 128 127 124 124 125 125 127 127 125 122 121 120 119 118 116 115 118 120 119 116 115 115 114 109 103 98 94 84 77 82 96 104 107 106 105 106 95 80 63 59 59 55 53 50 48 48 45 37 34 35 36 37 38 36 30 32 33 33 32 32 37 41 39 39 42 51 64 70 68 71 79 89 102 110 118 124 129 135 142 145 151 156 158 160 162 164 165 167 168 169 168 167 167 168 169 170 171 174 176 180 183 184 184 185 187 186 186 188 191 192 190 188 186 185 184 183 179 176 171 163 155 151 150 153 153 148 146 149 149 150 137 111 75 58 80 77 53 46 103 111 79 62 39 41 44 35 45 48 48 77 136 185 208 210 217 204 202 210 188 150 108 82 80 84 73 67 69 74 121 149 159 155 153 151 149 149 148 148 149 148 146 144 146 147 147 145 144 142 142 141 141 141 140 141 140 139 137 136 136 135 134 134 136 138 137 137 137 137 137 136 134 133 131 130 128 131 133 133 132 132 133 133 132 131 130 129 127 128 130 127 125 126 124 125 125 126 127 128 128 128 129 131 132 134 133 133 134 137 137 136 136 137 137 137 138 139 151 166 170 168 158 128 111 106 105 114 116 111 106 103 105 107 92 86 116 136 113 100 88 81 97 121 147 156 158 152 148 147 142 142 144 146 144 147 148 147 148 143 219 255 253 254 255 255 255 255 255 
152 146 142 142 138 137 137 133 131 129 130 128 129 128 126 123 123 124 122 126 127 123 122 122 121 121 120 120 120 118 117 116 117 116 115 113 108 101 96 90 80 73 82 100 112 119 118 115 113 101 80 63 59 59 55 54 52 50 49 45 37 34 34 33 35 38 39 31 32 32 34 34 34 34 34 37 39 39 43 52 62 68 72 76 83 94 102 113 122 127 133 139 143 150 156 157 158 160 162 164 164 166 169 169 168 167 167 171 170 169 173 175 181 184 182 181 185 184 184 184 186 189 190 188 186 184 184 185 183 180 179 175 167 158 152 151 153 151 146 145 150 147 147 140 123 91 80 95 83 65 73 111 108 75 47 40 28 46 45 57 84 121 171 221 234 231 226 230 232 224 220 218 206 177 161 166 176 166 140 136 140 155 155 158 156 152 149 147 148 150 150 150 149 146 144 145 146 146 145 143 141 140 140 140 141 141 141 140 139 137 136 137 137 136 134 136 138 136 136 136 136 136 136 135 135 133 131 130 131 134 134 131 131 134 134 132 131 129 128 128 129 130 130 128 126 127 127 128 129 129 131 131 131 132 136 138 139 138 138 138 140 141 140 141 142 142 143 144 138 152 182 187 169 139 120 124 128 123 113 112 117 121 123 122 114 99 94 123 132 93 93 106 96 85 87 115 136 150 146 143 143 140 138 142 143 139 140 143 141 137 138 213 255 253 254 255 255 255 255 255 
152 146 143 141 137 137 137 133 130 129 131 129 129 129 127 125 125 124 123 127 128 124 122 123 122 121 120 120 121 116 115 115 115 114 114 113 108 99 93 83 77 74 86 106 121 128 125 119 113 100 78 61 56 56 52 52 51 49 48 44 37 34 32 31 33 37 39 35 34 33 35 37 38 33 31 35 38 38 39 43 53 64 72 76 78 84 92 105 118 126 131 137 142 148 153 155 156 159 162 164 163 164 167 168 168 167 167 171 169 168 171 172 177 180 179 179 182 184 183 184 186 189 190 188 185 183 184 186 184 182 180 176 169 162 155 153 154 151 146 148 149 145 144 142 133 113 125 98 55 71 97 128 97 63 51 29 32 35 47 88 122 163 221 250 239 234 232 227 229 225 226 223 212 199 199 204 209 202 199 191 196 193 167 154 156 153 150 148 147 148 148 149 149 148 147 144 147 146 144 143 142 141 141 140 140 140 143 141 140 138 138 137 135 136 137 138 139 136 137 137 137 136 136 135 134 132 132 132 132 134 134 132 131 134 136 135 133 130 129 133 134 135 135 134 130 130 132 133 134 134 136 135 136 139 142 143 143 143 141 143 147 145 148 147 148 150 154 155 152 173 185 159 120 91 105 103 97 113 122 107 101 102 103 106 120 106 85 103 100 97 117 124 116 106 96 90 114 131 133 134 135 135 132 133 133 131 129 132 129 123 124 209 255 254 254 255 254 255 255 255 
152 146 146 140 137 139 136 132 130 130 131 130 130 130 130 130 130 128 128 130 129 124 122 122 121 120 119 119 117 113 113 115 113 111 112 112 106 97 88 79 78 79 88 108 119 124 122 113 105 95 79 62 56 55 52 50 48 47 43 40 39 34 31 31 33 34 36 40 38 37 38 39 41 37 33 34 36 38 41 40 43 54 68 75 77 79 83 96 109 119 124 131 138 140 145 151 153 157 160 163 162 161 162 162 163 163 165 168 166 165 168 171 174 177 180 180 180 184 183 184 186 190 191 188 186 185 185 187 186 183 178 172 169 164 157 154 153 151 147 146 143 142 144 142 137 123 136 89 58 60 106 136 114 67 53 54 36 30 61 116 156 173 218 242 235 237 226 226 230 228 229 221 210 200 200 210 207 203 206 206 212 210 183 157 154 155 153 150 147 148 148 149 149 150 148 142 147 146 142 142 144 143 143 142 139 138 141 140 140 138 137 136 137 141 143 143 141 137 139 139 137 135 136 139 137 135 137 139 137 136 137 137 137 137 138 141 139 136 138 139 136 137 142 141 137 139 141 143 143 141 142 141 143 148 148 146 145 148 144 147 152 148 154 144 158 169 177 175 156 148 147 128 105 80 74 77 84 95 98 81 68 56 71 86 107 133 111 88 80 95 118 114 103 112 110 93 90 113 122 114 111 111 111 111 111 111 110 107 109 106 99 200 255 254 255 255 253 255 255 255 
154 147 147 142 139 140 135 133 131 130 131 130 130 130 130 130 131 132 128 127 126 120 119 119 120 121 122 122 118 112 110 113 115 113 112 110 103 93 84 79 83 88 93 102 111 117 115 107 103 93 80 63 57 56 52 51 51 52 45 40 42 37 34 33 34 36 38 40 38 38 38 39 41 42 39 35 36 40 39 37 39 45 55 63 71 78 83 90 97 106 113 122 132 136 141 147 150 154 158 161 159 158 159 160 161 161 164 166 166 165 167 171 174 177 180 180 180 180 180 182 185 190 190 188 186 185 185 186 185 183 179 174 171 167 160 156 155 153 148 144 141 141 143 143 139 139 136 103 68 46 98 133 120 82 62 57 36 38 79 106 152 179 209 233 237 239 227 223 224 223 227 221 207 197 198 206 204 202 208 215 217 222 202 166 157 158 156 153 150 148 148 149 150 151 151 152 154 152 149 149 143 141 144 144 141 140 145 147 148 145 140 141 145 146 149 150 152 151 152 152 151 149 148 148 146 144 144 145 144 145 146 146 148 148 147 150 148 145 148 144 142 143 146 146 144 146 146 144 142 140 141 140 139 140 139 134 135 130 132 128 127 132 127 133 189 190 160 149 142 132 138 159 152 119 81 91 75 57 55 56 57 67 108 125 109 125 146 83 76 77 84 83 85 106 118 114 88 95 121 113 94 91 94 98 100 101 98 100 102 101 92 189 255 254 255 255 255 255 255 255 
153 144 142 137 136 139 135 134 132 131 129 129 129 129 129 129 130 128 124 125 125 122 122 122 121 120 119 119 115 112 112 114 112 110 108 104 96 87 81 78 87 94 97 101 105 111 110 104 102 95 85 67 62 60 57 56 56 56 50 46 47 43 40 38 37 38 39 40 40 40 40 40 41 44 43 38 37 42 42 39 38 42 48 53 62 73 80 82 85 93 99 109 121 128 134 140 144 148 153 156 157 158 159 160 161 161 162 162 164 165 165 169 173 175 178 179 178 178 178 180 183 187 186 186 185 184 184 183 183 181 178 175 173 169 162 158 156 154 149 142 139 140 144 142 141 148 108 127 77 32 93 121 98 84 89 65 48 75 103 120 174 200 212 225 231 239 229 221 220 218 223 217 202 193 193 198 195 195 201 213 217 228 220 181 160 162 160 157 154 154 155 156 156 157 158 159 158 156 154 154 150 150 152 153 152 150 152 155 155 152 145 146 150 154 159 162 164 159 158 159 158 156 154 153 151 149 146 144 145 145 143 142 141 141 144 143 138 134 137 134 133 133 131 127 125 123 120 117 115 112 111 109 106 106 103 97 93 86 90 87 86 100 126 201 235 198 185 146 130 132 130 131 131 169 123 106 69 45 56 51 67 79 116 152 120 94 136 102 69 67 66 68 74 94 106 117 111 90 113 137 117 102 100 103 105 103 104 109 110 112 101 191 255 253 255 255 255 255 255 255 
152 142 139 135 135 137 134 135 133 131 129 126 126 126 126 126 126 123 120 122 126 125 124 124 122 120 118 117 114 111 113 114 110 107 102 93 84 81 81 81 88 94 98 103 107 111 109 105 107 102 92 75 69 67 64 65 63 59 57 56 52 52 50 45 41 39 39 39 41 41 41 40 40 41 42 42 42 43 42 40 38 39 43 44 52 67 74 75 77 85 88 95 107 120 127 133 136 142 146 150 154 156 156 157 158 159 162 160 162 165 163 165 169 171 174 175 175 179 178 178 179 181 181 181 182 182 180 178 178 176 176 174 173 170 163 158 156 153 148 143 140 140 142 140 138 145 73 117 135 64 62 100 103 75 70 73 62 88 114 145 184 203 215 220 224 232 228 216 210 207 212 204 190 184 184 187 185 189 192 203 210 218 219 193 164 166 164 161 158 162 165 165 166 167 168 168 163 162 162 160 156 154 152 152 152 153 154 155 153 149 146 140 141 147 151 150 147 139 138 139 138 135 133 131 131 127 123 119 113 111 108 105 103 102 102 101 94 92 96 95 95 94 87 82 81 79 76 74 73 73 73 69 68 69 67 61 63 59 62 70 82 85 119 224 241 179 166 131 116 111 106 120 95 132 158 175 161 83 65 49 70 76 70 82 111 113 132 136 73 69 68 61 66 86 100 94 98 109 111 132 143 123 112 110 112 109 111 116 115 119 110 195 255 254 255 255 254 255 255 255 
154 144 141 137 138 139 133 135 134 131 128 124 124 124 124 124 124 122 119 120 124 124 121 121 120 121 120 120 116 110 109 112 112 107 97 84 76 78 82 83 87 91 97 106 112 113 112 108 111 108 98 80 75 74 70 72 67 60 62 62 55 58 57 51 45 41 39 39 42 43 42 40 38 37 39 44 45 43 39 37 36 36 38 39 46 61 69 73 75 83 82 85 97 113 123 127 131 137 141 145 149 149 150 151 151 155 161 158 161 165 162 163 166 169 172 172 173 181 178 177 177 178 178 179 180 180 178 176 175 174 174 173 172 170 163 157 155 151 146 144 141 140 141 138 136 132 70 84 130 104 35 72 99 91 83 75 79 100 121 135 165 192 208 216 220 226 223 209 201 195 200 191 178 172 174 180 182 190 188 196 204 203 208 196 166 168 166 163 160 157 157 158 158 158 159 157 150 148 149 146 139 132 128 125 127 130 129 126 123 120 118 111 110 116 116 109 101 88 87 88 88 85 85 87 86 82 76 71 68 67 66 65 64 65 67 66 63 65 71 69 69 69 62 58 60 64 62 62 64 67 68 66 66 70 69 65 68 71 69 88 111 122 154 190 200 151 137 120 84 90 92 107 94 123 160 145 169 128 79 50 55 60 59 46 61 124 168 152 77 66 65 68 77 90 99 104 97 103 112 119 137 142 121 117 121 120 119 123 118 125 117 199 255 255 255 254 252 254 255 255 
150 142 136 137 139 137 132 132 131 130 130 127 126 124 123 121 121 120 119 119 121 124 123 120 118 120 118 116 115 111 111 111 107 104 93 79 77 81 85 85 80 79 89 106 115 114 111 109 112 115 103 90 82 82 77 69 68 69 65 59 58 60 61 62 59 54 47 38 40 41 41 40 38 36 38 39 42 42 41 40 37 35 33 35 41 49 55 65 74 77 80 85 91 101 111 119 124 128 132 138 141 147 151 151 152 155 153 157 161 165 165 165 166 169 170 173 174 176 173 176 180 178 176 177 179 179 178 176 175 174 172 170 169 167 162 159 158 154 148 142 136 134 138 139 139 146 113 67 113 88 54 86 105 87 70 69 69 95 129 138 166 182 197 206 211 222 223 210 196 188 178 169 170 159 162 167 175 181 188 188 196 192 204 173 137 139 133 133 127 122 122 122 120 116 113 116 119 114 105 100 96 88 83 84 84 81 72 71 70 70 71 69 66 68 72 72 66 57 56 56 57 59 59 62 64 60 56 57 56 58 61 62 62 64 69 67 68 71 74 74 71 70 70 72 75 78 76 75 76 78 79 79 80 86 87 84 84 86 89 122 133 146 150 162 167 132 130 90 72 63 68 78 73 119 157 131 133 120 95 64 47 48 51 50 50 75 173 154 77 67 65 68 76 86 93 96 90 94 105 123 138 149 145 130 124 127 129 130 125 131 122 201 255 255 255 255 255 255 255 255 
146 138 132 134 135 134 134 133 132 132 131 128 128 126 125 123 122 120 119 120 123 126 123 119 119 121 120 117 115 113 113 110 101 95 86 77 78 83 86 83 76 76 88 106 118 121 116 112 112 115 111 99 88 84 78 71 73 76 72 68 67 65 62 61 62 57 48 40 37 35 39 48 44 38 36 34 35 35 35 32 34 37 35 31 32 38 43 55 66 73 79 85 89 94 102 110 117 121 127 134 137 143 148 149 150 153 153 156 159 160 160 161 162 164 166 169 170 174 171 174 176 176 171 171 173 175 174 174 175 174 173 171 170 169 165 161 158 153 146 140 134 132 136 137 136 153 128 31 90 80 94 118 96 71 60 65 79 118 135 143 153 167 189 204 210 217 219 206 186 175 164 157 161 156 161 164 163 168 177 176 185 183 200 130 92 95 87 87 81 76 76 75 73 70 68 73 80 80 71 64 61 58 57 59 58 55 54 55 56 57 58 58 59 61 68 71 69 64 64 65 68 69 69 67 68 70 70 68 70 72 76 78 79 81 83 83 83 86 89 86 84 83 84 86 89 92 93 93 93 92 91 90 91 96 96 94 97 80 119 159 137 154 160 165 138 125 110 81 69 54 53 59 53 87 133 137 127 110 100 79 77 80 42 44 57 44 93 144 101 76 73 74 80 79 72 79 77 78 88 127 146 146 167 144 129 136 135 136 133 138 130 202 255 255 255 255 255 255 255 255 
145 137 134 135 134 134 135 134 133 133 132 131 130 128 127 125 124 121 121 121 125 128 124 119 119 121 121 118 113 113 112 106 94 86 80 76 80 85 86 81 74 74 87 107 122 124 121 119 120 121 122 111 97 86 78 73 73 75 77 77 76 71 62 61 63 58 48 45 39 35 38 44 44 39 34 30 28 29 30 24 31 39 38 32 32 34 35 43 53 64 72 81 84 85 90 98 106 111 119 127 132 139 145 147 150 153 152 154 155 155 153 155 157 159 161 163 165 171 170 171 171 171 168 168 171 173 174 173 174 174 173 172 172 171 169 162 159 152 144 139 133 130 132 134 128 149 139 105 184 197 181 147 144 132 105 115 145 149 147 169 165 180 202 217 216 212 213 198 174 164 164 167 169 163 165 163 158 164 183 180 186 188 193 87 69 69 61 62 58 56 56 54 53 51 52 58 62 64 62 58 60 64 66 68 67 66 63 65 68 70 70 70 71 73 77 80 81 78 79 82 84 85 84 82 81 84 85 80 80 84 87 90 92 92 93 94 95 97 98 99 98 97 95 94 94 92 95 96 95 93 94 96 98 100 100 98 90 81 160 185 172 216 228 170 117 109 98 88 73 58 53 53 53 69 93 115 121 111 92 102 141 178 97 45 52 53 58 84 103 75 71 74 75 82 88 85 87 95 100 115 143 154 158 168 168 161 165 168 166 169 163 216 255 254 254 254 254 255 255 255 
146 140 138 139 137 136 137 136 135 135 134 133 132 130 129 127 127 124 123 123 125 127 126 122 121 122 120 116 111 108 105 99 87 83 81 81 86 87 84 79 73 72 88 111 124 126 126 127 127 128 128 117 102 87 77 72 70 71 76 79 78 71 64 59 61 56 48 46 42 38 36 35 40 40 37 34 30 29 30 27 31 39 38 36 38 38 36 37 42 50 60 71 76 80 84 89 97 104 111 119 126 133 139 144 149 152 150 152 154 153 151 153 155 157 159 161 163 170 171 169 167 167 169 170 173 175 175 174 172 172 172 171 171 172 170 164 160 153 145 139 132 129 130 131 130 140 148 210 214 243 224 160 192 196 154 152 142 136 142 166 188 217 222 227 222 212 209 192 174 175 183 188 187 182 179 180 175 182 192 188 188 194 172 56 67 65 59 61 60 60 60 58 57 57 59 62 60 63 65 67 68 71 73 73 73 74 74 77 80 81 79 79 82 81 80 81 83 86 89 92 92 90 91 92 90 90 88 84 84 86 88 90 90 90 90 92 94 95 95 96 97 95 92 88 86 86 88 89 88 87 85 86 89 87 87 87 87 89 183 230 228 211 195 187 136 86 76 79 66 58 58 61 69 73 71 82 105 113 87 105 131 164 122 74 59 69 78 64 73 91 104 112 110 118 132 141 138 145 138 117 125 149 147 166 185 190 193 194 192 192 186 225 255 253 253 253 253 255 255 255 
145 140 138 139 137 136 139 138 137 136 135 134 135 133 132 129 129 128 126 124 124 124 128 125 122 122 119 113 108 102 97 93 82 84 87 88 91 87 82 80 73 73 89 114 129 132 132 131 130 129 128 119 102 85 75 75 78 75 77 78 73 68 64 60 55 52 49 44 40 36 34 33 36 39 41 41 36 33 36 36 36 38 38 36 38 41 38 35 36 36 48 60 69 78 82 86 94 99 105 113 115 122 130 135 141 146 150 152 154 154 152 154 156 158 160 161 163 170 173 170 166 167 170 171 172 173 172 170 169 169 170 170 170 171 169 163 161 155 146 140 133 129 130 131 130 125 163 222 222 238 217 205 216 213 169 151 154 152 163 193 217 233 223 220 220 212 211 192 186 197 197 177 165 165 168 183 184 187 181 182 187 213 169 52 66 64 60 66 67 63 61 60 59 60 64 69 68 73 77 73 75 80 80 76 77 82 84 87 89 88 85 83 85 84 81 81 86 85 88 90 88 84 82 84 87 85 82 82 84 85 87 86 84 83 82 86 89 89 87 88 89 90 90 87 86 86 84 84 84 86 86 89 92 89 86 88 89 99 161 241 213 143 113 136 165 148 109 85 69 63 62 63 70 70 80 71 77 99 104 106 112 128 110 79 73 72 77 80 92 103 114 132 148 149 140 122 116 118 118 125 127 146 163 160 180 185 174 175 172 168 160 203 255 253 253 253 253 255 255 255 
139 134 131 132 130 129 130 132 133 134 134 134 131 128 129 129 127 127 129 128 127 131 132 125 122 122 117 108 101 97 90 87 84 89 92 91 90 87 84 79 74 75 91 118 135 137 132 131 129 126 128 120 105 88 76 75 85 84 80 74 70 68 68 66 59 51 44 36 34 32 34 37 39 42 44 43 42 42 40 39 37 38 40 38 37 39 38 35 34 37 39 47 62 74 80 82 90 97 103 105 109 114 120 129 136 143 150 153 153 152 155 156 157 159 161 163 164 165 166 166 165 166 167 169 170 170 169 167 166 167 170 171 171 169 164 161 158 152 148 141 137 132 130 129 128 129 190 206 226 230 196 210 222 229 185 142 145 150 172 203 222 225 219 217 218 214 209 198 180 150 112 80 59 66 78 109 133 165 180 176 179 188 137 54 58 59 60 66 70 69 62 59 63 63 59 62 65 70 72 70 72 76 75 71 73 78 78 79 81 81 80 80 82 81 78 79 87 87 88 89 88 84 83 84 86 86 85 86 87 88 90 92 93 92 89 92 95 98 98 103 106 107 107 105 104 103 103 103 104 105 107 107 107 105 103 103 109 112 127 224 204 139 77 59 81 124 169 135 92 67 64 65 61 57 66 63 64 77 94 99 119 122 102 60 65 71 62 105 102 98 105 118 137 138 133 107 91 76 79 91 100 113 148 156 176 178 127 124 120 116 102 166 251 254 252 254 253 254 255 255 
130 124 119 120 119 117 117 118 120 120 121 123 120 120 123 123 120 120 123 123 123 127 130 122 118 119 112 102 98 92 86 84 87 92 96 96 94 88 84 78 75 76 93 120 140 141 136 136 134 130 125 119 107 94 84 82 92 93 86 77 74 73 72 68 61 54 47 36 33 31 34 39 45 49 50 46 46 48 42 41 40 39 38 39 39 37 35 36 36 37 35 39 53 68 76 81 89 97 102 103 107 110 115 123 130 138 148 150 152 154 155 157 157 159 160 163 162 162 162 163 164 165 166 167 169 169 168 166 165 167 170 171 171 168 163 161 156 150 146 143 140 137 134 133 132 129 186 215 227 213 192 182 218 225 205 155 132 146 168 200 217 216 214 211 210 205 197 150 104 78 64 50 33 31 14 17 58 139 163 140 101 58 90 67 46 49 53 57 61 63 58 57 61 62 60 61 65 69 71 72 70 71 72 72 76 81 78 79 82 85 88 91 93 91 92 96 101 103 105 108 108 105 103 102 102 104 106 106 110 112 115 118 120 119 113 114 115 117 118 120 119 118 118 119 119 119 118 116 115 114 113 112 111 109 108 107 110 109 115 207 210 139 95 107 74 58 118 179 158 109 65 57 63 60 61 65 69 68 74 90 109 120 111 62 56 51 158 156 105 97 116 147 158 132 137 136 99 92 81 80 81 104 130 126 162 203 120 90 89 93 83 149 246 255 253 255 254 254 255 255 
141 132 126 125 125 122 118 118 118 117 117 112 110 112 114 111 107 111 113 113 113 115 118 115 111 109 103 95 92 86 84 88 94 97 98 97 94 88 83 78 76 79 95 122 142 145 142 141 137 134 125 120 110 99 90 90 97 97 92 83 77 76 74 68 61 56 50 42 37 34 38 44 47 49 48 43 41 43 43 44 43 39 34 37 39 36 35 37 39 35 34 35 42 58 72 81 88 96 101 102 104 107 110 114 120 128 138 142 151 156 153 155 156 157 158 159 159 161 162 163 164 164 164 165 167 167 166 164 163 165 168 169 168 166 163 160 155 148 142 140 138 136 135 135 139 137 170 220 206 174 162 133 207 231 224 176 163 170 193 218 221 213 206 197 182 160 143 124 101 94 73 58 53 66 60 41 61 143 149 61 40 82 108 36 40 40 44 48 51 54 57 59 59 64 68 69 72 75 78 80 78 80 85 88 93 99 96 98 102 105 108 114 116 113 119 124 124 122 126 129 128 122 120 120 121 123 124 124 120 118 118 119 119 119 115 115 113 112 111 108 105 103 103 107 109 97 95 93 91 89 87 85 84 82 81 80 75 75 78 157 220 159 141 164 101 60 54 78 122 146 119 84 66 59 60 63 68 69 71 76 83 117 120 76 55 97 236 135 108 155 175 160 111 84 145 147 87 92 92 104 103 112 110 84 122 210 189 126 114 117 107 155 242 255 255 255 254 254 255 255 
176 168 162 159 158 151 145 143 141 138 137 131 127 124 121 114 108 109 107 107 107 105 105 104 101 99 94 89 87 82 88 99 105 103 98 92 87 86 86 82 81 85 100 125 141 144 144 141 136 133 132 125 114 101 92 90 94 94 93 85 75 72 72 72 64 54 47 45 42 42 46 52 54 55 52 45 41 42 43 43 41 37 31 33 37 40 41 39 37 34 34 32 36 48 62 72 81 89 96 98 100 105 108 106 112 121 129 134 144 150 149 151 153 154 156 158 158 161 161 162 163 163 162 162 164 164 163 161 162 164 165 165 164 164 161 158 153 146 141 136 134 133 133 134 136 125 144 218 188 178 191 165 218 232 229 231 220 212 219 225 219 211 196 172 151 133 126 137 125 125 55 27 66 101 133 125 119 161 140 66 22 50 63 27 36 35 37 41 44 48 54 56 55 61 68 71 72 73 75 77 79 85 91 95 100 105 107 107 108 109 109 115 118 115 118 120 118 119 120 118 113 107 104 103 103 101 100 99 96 94 92 89 88 84 78 77 74 71 70 67 64 61 62 66 67 57 58 58 59 59 56 53 52 50 49 48 48 50 37 77 181 204 180 151 102 86 86 84 89 105 124 134 123 86 64 60 71 76 81 83 89 104 89 80 86 117 123 64 117 165 140 97 60 61 107 93 84 101 117 134 125 113 94 65 99 205 243 171 137 141 134 173 243 253 255 255 254 254 255 255 
200 195 191 186 179 172 169 166 161 157 154 154 147 139 132 125 119 115 110 108 106 101 100 100 100 99 95 93 90 88 96 107 108 103 97 91 89 88 89 89 89 91 104 126 140 144 147 142 136 134 133 127 115 103 93 89 89 90 93 88 77 70 70 67 60 50 44 46 48 52 56 61 63 63 59 50 45 45 41 39 35 32 31 33 37 39 41 40 40 37 35 34 39 45 51 59 69 81 89 92 97 105 107 105 110 119 123 129 135 140 144 147 148 152 155 158 160 160 161 161 162 162 161 160 162 162 161 159 161 163 163 163 162 160 158 156 152 146 142 137 136 133 133 134 135 130 136 205 190 188 188 156 197 232 226 230 234 223 223 217 209 205 188 168 166 182 197 199 174 159 117 106 145 148 152 143 142 170 184 170 116 27 25 33 29 29 31 34 37 37 38 39 39 42 47 50 47 45 46 47 48 54 59 62 64 67 66 67 69 70 71 75 80 82 81 82 83 86 83 78 73 70 67 63 62 60 59 58 52 52 51 51 51 50 49 49 49 49 48 48 46 45 45 45 46 42 44 45 48 48 50 52 51 49 48 47 46 50 44 49 123 226 245 189 129 147 162 168 185 185 162 143 150 159 116 77 63 68 68 83 95 91 73 74 87 97 67 62 65 64 56 56 56 68 74 66 112 195 172 145 123 140 116 58 117 212 255 203 142 145 140 189 249 250 254 255 253 254 255 255 
203 196 192 186 176 174 174 169 163 158 156 151 143 136 130 125 120 119 113 110 105 99 100 102 103 103 101 101 98 99 106 110 106 99 97 96 94 93 94 95 94 96 109 129 143 149 150 145 138 134 131 125 115 104 95 91 89 91 95 90 78 69 66 62 55 48 43 47 56 61 65 66 64 62 59 50 43 41 39 38 36 34 34 36 37 37 38 41 43 39 36 37 42 43 43 49 58 70 82 88 99 105 107 107 112 118 120 126 128 132 140 144 146 149 152 156 160 160 160 161 162 163 161 159 161 161 161 160 161 162 162 161 159 158 158 157 152 147 144 140 138 135 134 136 134 133 127 182 191 187 193 162 192 230 230 230 229 225 226 220 214 208 192 178 176 184 191 176 160 124 114 110 139 159 144 143 154 174 142 149 115 13 21 23 22 22 22 24 26 22 21 20 21 22 23 25 23 20 18 19 17 19 23 24 24 24 22 24 27 30 33 37 41 46 47 50 54 58 56 50 49 49 46 45 46 46 47 50 46 45 48 49 51 54 54 56 55 55 56 57 58 58 59 56 55 64 66 66 65 67 66 63 60 60 59 56 62 71 72 62 85 180 244 252 230 228 236 251 252 254 245 219 194 184 173 147 109 91 84 82 76 71 67 63 78 82 65 54 50 57 56 53 55 71 53 58 142 217 199 145 73 160 129 57 144 221 248 211 151 160 165 209 250 249 252 255 254 254 255 255 
187 175 170 164 158 159 155 150 144 140 139 133 128 125 124 121 115 114 114 111 110 109 109 110 109 109 111 110 108 114 117 113 107 98 96 97 94 97 103 104 100 102 116 134 147 153 151 147 138 131 131 127 117 106 96 92 93 94 95 87 74 67 65 61 55 48 47 61 75 79 81 79 72 70 64 57 48 43 42 45 46 45 43 40 38 37 38 38 38 38 40 41 40 39 41 44 51 57 70 86 99 101 103 108 112 115 117 122 124 128 135 141 145 147 147 151 157 158 159 160 162 163 161 161 161 162 162 162 161 162 162 160 159 158 159 159 157 153 150 144 141 136 136 138 140 140 125 166 199 203 215 188 199 230 230 229 228 226 224 222 221 216 203 194 183 174 177 159 145 138 123 129 150 152 142 163 185 180 163 188 87 5 24 18 18 16 14 14 16 14 14 14 14 14 14 17 20 17 12 15 15 16 18 18 18 16 17 21 23 24 27 31 34 39 43 49 52 58 66 59 58 55 50 54 56 56 58 64 67 64 66 64 65 76 80 81 76 72 75 76 74 76 79 76 71 75 79 78 76 78 77 72 69 72 73 68 66 74 74 82 89 105 178 255 255 255 253 254 255 255 254 251 246 212 171 164 150 133 130 106 90 71 66 66 73 70 59 52 58 64 56 65 80 66 53 79 106 138 135 97 48 124 123 69 117 163 191 225 200 186 181 198 247 251 252 255 255 255 255 255 
158 147 146 142 137 139 136 132 130 128 128 125 119 117 120 122 121 121 121 123 124 124 128 126 124 123 126 128 127 127 123 114 107 98 97 101 101 105 110 112 108 109 118 135 149 155 153 149 142 137 135 129 117 105 96 93 95 97 97 88 75 67 65 58 49 54 65 81 95 99 101 99 91 85 75 65 56 52 47 47 48 49 48 44 42 39 36 34 32 38 45 45 37 35 39 46 50 51 61 81 92 95 101 107 111 113 115 119 120 122 129 136 143 148 150 153 156 156 157 158 160 161 163 162 162 162 162 162 162 163 163 161 160 159 161 161 161 159 157 154 150 145 141 141 146 145 129 144 208 214 220 214 217 226 228 229 228 224 219 219 221 217 209 205 189 171 169 154 138 137 140 152 169 155 185 219 216 177 166 204 83 5 24 17 17 15 13 14 15 14 14 14 14 14 14 17 17 16 14 15 16 17 19 20 20 19 19 24 26 27 30 33 41 50 54 57 62 73 82 79 70 64 62 67 66 64 65 69 73 69 71 69 73 86 90 90 86 84 85 84 80 79 81 79 75 76 77 83 87 85 78 72 73 78 77 78 74 68 70 86 76 71 110 249 252 254 254 254 255 255 255 253 250 241 232 230 216 212 208 194 173 135 107 76 69 65 62 63 66 64 67 101 118 95 87 66 61 76 99 86 55 59 92 93 128 148 156 202 216 203 200 195 245 252 253 255 255 255 255 255 
146 137 137 135 133 137 136 134 133 133 134 133 126 123 127 130 131 134 134 135 136 136 142 141 138 136 137 139 141 135 125 114 105 99 102 107 109 112 117 116 114 111 117 133 151 158 155 151 146 143 139 131 118 106 98 94 96 99 99 88 74 61 59 53 48 62 79 93 105 108 111 110 103 95 83 70 61 57 50 47 48 50 48 44 41 40 38 37 36 39 46 45 35 33 37 44 48 44 52 73 91 98 106 112 113 113 116 119 119 121 126 133 142 149 151 155 158 159 160 161 163 164 164 164 163 162 161 161 161 162 162 161 159 160 163 163 161 159 156 155 151 145 140 140 140 138 132 124 192 211 220 217 215 227 230 222 226 220 215 215 218 211 204 203 185 161 154 147 139 145 154 162 154 144 213 229 207 174 168 184 59 12 22 17 16 14 13 13 14 14 14 14 14 14 14 16 15 16 16 16 16 17 20 22 22 21 21 26 28 29 32 37 47 60 66 69 71 78 83 83 76 74 74 70 68 68 69 71 74 68 67 66 71 83 82 87 91 92 90 83 77 74 75 76 74 71 72 83 93 88 75 66 69 72 67 71 74 70 68 73 59 58 75 236 253 252 247 251 254 255 254 253 247 239 240 246 239 231 220 209 191 154 127 88 67 66 72 77 74 74 83 90 107 111 78 51 47 106 123 106 70 58 62 115 157 157 136 158 194 187 193 202 241 251 254 255 254 255 255 255 
156 147 149 148 147 149 146 145 144 144 146 143 139 137 140 141 142 147 149 151 154 156 156 155 152 147 143 141 140 133 121 111 105 103 109 114 116 118 121 119 118 114 118 135 154 162 158 154 150 148 143 133 118 106 98 95 96 99 99 88 71 55 53 53 60 77 93 102 110 110 115 119 115 108 98 85 74 68 58 50 48 51 47 42 40 41 41 41 41 40 42 38 32 32 35 38 42 41 49 65 82 92 104 112 113 113 117 119 117 118 122 127 134 141 144 150 156 158 159 160 162 163 163 163 162 160 158 157 156 157 157 156 154 156 158 159 157 154 152 150 146 139 136 136 136 137 136 142 194 217 218 201 199 219 228 221 219 215 212 210 212 207 196 189 175 150 138 131 135 147 155 156 145 170 228 228 209 175 188 131 18 20 14 23 17 15 13 14 14 16 16 16 16 16 17 17 15 17 20 19 16 18 21 24 25 25 24 28 30 31 34 41 51 64 77 81 78 76 73 78 79 78 75 67 66 70 74 76 72 63 58 55 62 77 81 85 94 99 97 87 78 74 77 82 81 73 75 86 90 81 70 61 65 67 59 68 77 78 68 61 53 64 69 203 255 252 248 247 248 250 248 244 241 238 236 239 235 222 215 207 197 167 137 104 82 71 67 73 80 83 79 74 79 82 68 53 107 147 104 97 80 74 88 107 114 113 123 143 131 139 174 199 239 247 251 255 254 255 255 255 
169 161 162 162 161 164 163 161 159 159 160 157 155 157 160 159 160 168 167 166 164 163 165 166 165 158 148 140 133 126 115 108 104 107 113 119 120 121 123 123 123 119 122 141 158 164 160 156 153 152 144 134 119 106 99 95 94 97 98 86 68 53 52 60 76 92 104 111 117 114 121 128 127 123 116 104 91 82 67 56 52 54 49 44 44 44 43 43 42 41 36 31 30 33 33 33 36 40 49 59 65 76 92 105 109 109 113 114 113 112 116 119 123 129 134 142 151 154 154 156 158 158 161 161 160 158 156 155 152 154 154 151 150 149 150 152 154 153 152 149 143 138 135 136 136 134 126 167 208 223 213 203 214 226 220 214 213 212 211 209 206 198 181 174 171 156 146 144 149 153 154 151 137 193 237 221 207 179 181 64 11 26 28 19 19 17 15 15 16 18 18 18 18 18 19 18 16 19 23 22 18 18 22 25 26 26 25 30 32 32 35 44 52 65 83 88 79 75 68 79 84 76 70 65 66 73 81 83 75 62 53 49 56 75 83 79 83 92 96 85 75 72 76 83 86 83 88 91 86 74 66 61 68 72 64 77 87 81 68 64 60 73 81 172 255 252 247 243 244 245 242 237 233 234 235 231 226 223 220 211 216 195 165 140 119 104 84 73 69 77 87 82 70 67 60 80 168 100 78 71 69 63 65 79 83 99 117 126 128 157 169 201 239 243 246 254 254 255 255 255 
185 180 178 180 180 180 179 178 176 176 177 177 177 177 175 173 174 179 177 174 173 172 175 174 173 167 152 140 129 118 112 114 116 119 121 123 124 125 126 125 125 121 123 141 156 159 160 159 152 146 138 134 123 108 101 98 96 99 101 88 63 53 62 79 97 109 113 113 122 126 128 132 134 134 131 122 112 104 89 74 60 55 51 45 42 46 48 47 45 47 44 35 30 34 38 35 35 37 42 46 50 59 73 88 96 101 104 105 108 112 115 114 114 118 126 134 142 148 151 153 155 154 157 159 159 158 155 153 150 151 151 147 143 144 146 149 151 152 151 153 143 144 131 134 130 126 137 194 215 225 219 222 226 213 218 213 211 210 212 209 201 192 177 175 176 171 174 168 159 154 147 127 148 226 230 225 201 177 182 77 16 23 26 23 20 17 14 13 13 14 16 19 20 21 21 19 18 18 21 23 21 20 21 24 25 24 24 34 37 35 43 52 56 69 89 92 78 72 68 81 89 78 69 65 65 70 80 82 81 70 56 51 60 82 90 89 82 92 107 92 81 87 90 98 94 88 99 96 80 75 69 66 69 71 69 78 94 83 67 66 62 77 89 123 243 251 243 238 237 236 239 235 228 230 229 230 227 220 214 210 207 196 184 174 168 161 143 115 89 78 81 70 75 73 50 125 200 116 83 79 65 58 69 80 82 106 122 121 134 165 193 218 245 241 248 255 255 255 255 255 
202 197 195 198 197 196 196 194 193 193 194 191 190 190 188 186 184 184 183 181 180 179 180 177 171 165 152 140 125 117 114 123 131 131 129 129 129 129 128 124 123 120 124 142 157 161 162 159 150 144 138 135 124 110 102 99 100 103 102 88 71 70 82 98 113 122 124 126 131 132 132 137 136 135 135 133 128 123 109 95 79 68 56 46 44 46 47 46 45 46 46 40 35 36 38 34 33 33 37 42 46 50 60 73 85 94 100 104 109 111 112 110 110 113 120 128 135 141 144 148 150 151 153 156 156 155 152 149 146 146 145 142 139 139 142 146 149 150 150 149 148 138 131 129 125 141 197 207 217 221 216 217 224 212 210 210 212 209 207 203 194 190 177 176 191 192 185 169 156 146 142 114 152 234 214 206 206 174 187 95 21 24 23 27 20 18 15 13 13 14 16 19 20 19 19 18 18 18 21 23 23 22 21 23 27 27 28 37 43 45 51 59 64 76 94 94 80 68 71 95 105 88 71 74 75 76 91 98 89 66 68 74 80 95 98 103 98 110 135 120 105 109 110 116 111 91 98 93 76 71 67 67 70 73 74 86 98 90 69 63 64 90 97 107 236 252 248 247 237 236 236 236 238 234 236 235 234 230 224 210 190 176 174 174 165 172 175 160 134 109 90 80 88 75 64 181 210 126 106 82 76 73 85 90 89 104 122 119 121 131 138 171 244 243 239 251 255 255 255 255 
219 215 213 214 212 209 208 206 205 205 206 204 203 203 201 199 195 191 192 191 188 187 184 180 172 160 144 129 121 115 117 128 138 137 134 133 131 129 128 122 122 119 123 141 158 164 163 159 150 143 139 136 125 111 103 100 102 106 101 91 86 92 104 117 128 132 134 138 138 134 134 139 138 137 139 139 138 137 128 118 104 88 68 55 51 50 50 50 51 45 47 45 39 38 38 38 36 35 38 46 46 44 44 54 68 79 87 94 101 103 103 104 104 106 112 119 125 133 136 142 147 149 152 154 154 153 150 148 144 143 141 139 136 135 136 140 144 146 147 144 147 137 129 129 119 205 207 182 208 221 215 206 217 208 200 201 202 202 204 199 188 185 183 185 194 191 181 161 140 141 151 147 123 116 96 101 175 144 128 36 25 26 29 23 21 18 15 14 14 14 16 18 19 18 17 17 17 18 21 25 23 21 17 22 33 31 34 41 49 54 55 62 72 82 93 86 69 62 76 129 156 127 86 92 95 96 122 136 114 78 94 109 111 114 110 130 135 152 180 159 140 150 151 153 144 101 98 93 75 71 70 70 70 73 73 86 105 100 75 62 67 92 96 116 236 253 243 241 242 244 243 244 248 247 240 229 217 210 188 179 173 169 166 166 163 160 164 166 156 135 120 116 109 70 155 230 151 94 98 73 70 78 79 76 78 88 102 97 101 108 115 147 227 242 235 250 255 254 254 254 
226 224 222 222 217 213 211 210 208 208 210 209 210 210 208 206 202 199 199 197 192 187 184 177 166 151 130 117 121 117 122 130 135 135 133 131 130 128 127 123 123 119 121 139 157 164 164 160 152 145 141 138 127 113 105 102 103 106 102 99 102 111 118 126 133 136 137 140 140 136 133 135 139 141 140 140 139 138 137 132 124 110 93 72 57 52 47 46 47 44 46 45 40 39 40 43 42 39 43 54 56 48 40 41 53 63 70 78 87 92 94 98 99 100 104 110 116 124 129 137 144 147 151 152 152 151 148 146 143 142 139 136 135 133 131 136 139 141 141 140 140 140 133 129 116 233 212 161 206 203 207 199 205 196 192 190 188 193 200 198 187 175 180 188 186 178 167 145 134 148 151 148 137 146 152 110 142 159 56 20 29 28 29 24 22 19 16 15 15 15 16 17 18 16 15 16 16 19 22 26 24 20 18 43 70 64 46 52 67 79 80 79 84 93 97 84 64 60 98 173 205 172 108 100 100 102 132 142 119 88 106 118 125 125 128 155 165 180 200 178 157 169 169 163 154 107 98 93 75 72 73 72 75 76 73 83 109 105 80 66 68 93 97 98 181 235 244 235 236 238 246 245 224 184 152 135 133 128 121 127 134 146 158 166 165 162 167 172 169 161 136 119 120 69 184 185 103 87 67 68 67 64 58 62 81 87 88 91 106 105 96 121 213 240 240 250 254 254 253 253 
231 229 227 226 219 216 216 215 213 213 215 215 216 216 214 212 208 204 204 199 192 184 180 168 151 135 122 115 122 123 130 137 138 135 134 133 133 131 131 126 124 118 119 135 153 162 164 161 154 147 142 139 128 114 106 103 102 102 102 108 115 125 128 130 134 138 139 140 144 140 135 135 141 143 142 142 143 143 140 139 139 135 123 100 79 65 50 44 42 43 44 42 38 39 40 40 42 39 44 59 67 57 43 39 43 51 61 67 77 86 94 98 97 97 100 106 110 112 119 129 136 141 144 145 146 144 142 140 139 136 133 130 131 131 131 134 136 137 135 138 139 137 152 123 113 239 237 166 189 201 199 196 192 184 189 182 186 186 189 191 186 180 182 184 181 168 140 127 133 148 144 150 156 170 144 104 160 153 24 34 32 31 23 28 22 20 17 15 15 15 16 17 17 15 14 15 16 18 22 26 29 24 22 63 103 90 65 68 82 94 92 82 83 94 98 83 64 61 101 177 206 177 104 89 90 99 137 142 96 74 90 96 114 114 114 139 155 176 195 164 138 150 153 154 154 105 92 88 70 69 73 75 83 85 82 89 112 106 83 70 68 87 100 85 92 171 199 226 233 235 210 142 81 62 103 136 150 150 131 128 130 143 164 180 179 173 170 173 177 174 157 138 113 73 133 130 87 85 82 79 74 71 63 76 104 98 72 79 103 97 74 106 213 236 243 245 251 254 253 253 
233 231 231 228 226 222 220 220 219 219 219 219 218 215 213 211 209 207 203 199 194 186 177 160 139 122 118 119 123 129 137 141 140 138 136 135 135 134 135 130 126 119 123 137 157 167 166 165 159 150 144 139 129 117 111 107 102 103 111 120 125 131 133 135 138 140 142 144 144 141 139 139 144 147 149 148 146 145 144 144 143 140 137 124 107 89 69 54 48 49 48 48 47 44 42 43 45 40 50 70 85 73 50 35 35 43 52 61 72 79 87 91 93 95 96 100 105 104 112 120 126 133 137 138 139 138 137 135 136 130 127 127 126 123 126 133 132 130 134 129 145 139 130 109 104 232 251 208 190 202 193 191 186 176 177 183 184 183 180 183 182 182 182 184 180 153 120 125 147 153 154 160 156 154 137 116 178 114 23 32 35 32 28 28 21 19 16 15 15 14 15 16 17 16 15 14 16 21 27 28 28 25 21 52 92 85 72 74 86 95 86 75 83 93 94 76 60 58 99 167 195 163 101 79 86 110 147 144 89 66 80 88 117 117 113 128 151 178 196 177 140 138 150 164 164 115 87 89 68 70 78 72 79 94 86 84 109 108 86 72 66 85 101 80 64 123 200 188 233 230 140 85 69 133 205 205 177 149 134 123 128 167 205 202 192 185 171 165 169 170 173 170 156 107 113 104 89 83 75 74 94 91 71 82 92 76 68 86 92 80 69 94 210 246 245 249 252 255 254 254 
233 232 231 228 228 225 222 222 221 220 220 220 219 215 212 210 209 207 202 198 191 182 167 148 128 118 121 123 123 130 140 144 145 143 140 138 136 135 134 130 128 125 132 147 161 165 164 166 163 157 152 144 131 118 109 106 106 104 111 123 132 137 138 139 140 140 142 146 143 142 143 144 147 151 153 152 149 146 145 144 143 142 142 139 131 120 103 78 59 55 56 59 59 50 44 48 51 48 61 84 103 95 72 47 36 37 45 56 65 71 76 82 88 91 92 95 100 102 107 111 115 122 127 130 134 135 134 132 132 126 124 125 122 122 122 119 121 125 127 136 129 106 86 90 77 205 241 234 192 193 198 189 181 179 179 178 178 179 174 177 178 179 180 184 178 142 116 126 119 143 155 145 131 125 152 160 179 62 25 38 37 33 32 29 21 19 16 15 15 13 15 17 17 16 17 19 17 21 26 29 26 27 25 34 62 76 83 84 90 96 94 91 101 100 90 72 64 65 104 163 189 163 104 66 70 94 128 121 76 68 78 81 115 124 117 130 151 170 182 155 116 116 133 154 155 103 69 68 56 70 78 71 82 98 88 79 100 107 93 77 72 90 104 94 76 81 146 111 137 236 218 155 159 177 181 219 173 126 98 81 169 236 242 225 215 199 174 161 161 163 169 167 177 135 100 83 72 75 71 67 83 94 77 63 60 56 68 86 81 69 65 82 206 252 246 253 254 255 255 255 
234 232 231 229 229 227 225 225 223 222 222 222 221 218 215 212 211 207 203 196 185 171 153 133 119 120 127 129 134 138 143 144 144 144 144 143 139 136 134 133 130 129 139 161 172 168 163 164 164 162 151 143 131 120 113 109 106 103 110 125 135 134 134 136 138 140 143 145 145 144 147 149 151 153 155 154 151 149 147 147 147 147 147 149 149 146 136 110 81 61 58 58 55 47 45 50 46 42 57 84 105 105 95 73 52 40 40 44 49 57 66 77 85 89 91 94 98 100 101 100 102 110 116 121 129 133 132 130 129 125 122 119 118 116 118 119 115 124 136 118 89 74 73 92 70 127 246 233 220 188 198 194 182 180 179 172 177 176 171 175 179 177 179 183 169 132 108 90 76 89 91 82 66 45 108 172 144 42 35 40 37 32 30 28 23 20 17 15 14 14 15 17 18 17 17 18 16 20 25 26 28 22 24 37 48 62 81 84 82 79 84 88 99 97 81 60 57 54 81 123 146 132 86 62 61 78 100 93 78 86 92 82 96 97 92 101 116 130 141 113 75 69 79 108 129 118 111 119 128 144 125 86 82 97 91 80 95 104 99 85 88 108 110 94 90 65 70 195 190 239 236 195 219 187 132 140 87 74 60 128 237 252 243 236 215 193 166 153 154 156 161 158 172 160 115 87 72 65 67 59 62 81 71 53 59 64 75 80 74 69 66 82 207 253 247 252 253 255 255 255 
236 234 233 231 231 231 230 229 227 225 224 223 224 223 219 214 212 211 203 193 177 160 144 129 121 127 133 134 144 145 146 146 147 143 143 146 145 143 141 138 131 127 141 169 185 179 169 164 162 158 153 146 133 122 114 107 102 106 116 125 129 119 120 126 135 142 145 145 145 146 149 152 153 154 157 156 153 151 153 152 151 149 148 150 152 150 149 134 113 88 71 57 51 49 49 46 38 38 60 90 107 110 107 92 68 50 42 34 33 43 55 68 79 87 90 94 97 98 98 95 94 101 108 115 124 131 130 129 127 125 120 115 114 113 115 120 129 125 93 55 54 73 81 93 89 46 193 247 238 213 193 190 185 175 174 180 178 179 173 177 178 173 175 177 154 118 105 127 131 116 128 129 93 110 151 158 85 23 37 39 37 30 27 27 25 21 17 15 14 15 16 18 19 18 18 18 20 26 31 29 30 30 34 34 37 64 106 111 100 82 76 78 98 112 109 90 85 97 111 127 144 142 105 82 70 80 97 130 187 203 199 181 158 123 116 132 152 173 190 196 176 166 162 179 199 218 228 236 247 254 220 123 80 93 94 86 85 85 85 75 87 114 121 92 79 70 118 246 248 245 225 214 219 214 216 201 154 144 156 227 252 245 241 228 206 182 157 149 151 153 154 153 159 168 138 87 107 92 69 55 52 64 75 81 82 71 73 73 66 68 67 82 210 255 248 249 249 254 255 255 
239 238 237 235 234 234 234 231 229 227 226 223 226 226 222 216 213 210 197 182 164 147 135 131 133 139 143 144 148 148 148 150 152 147 146 149 148 145 142 137 131 127 139 164 176 171 165 163 161 158 158 151 136 121 111 107 109 112 118 118 112 107 112 122 135 144 150 146 146 146 149 151 153 154 157 156 153 151 153 152 152 151 151 152 152 152 152 147 141 119 93 66 54 53 53 49 47 51 71 96 112 113 111 102 85 70 59 43 35 39 44 54 67 78 85 89 94 97 98 96 95 98 104 109 115 121 124 123 119 120 119 116 120 127 131 113 86 71 49 37 49 73 89 94 100 45 79 234 233 234 207 185 181 170 164 177 177 180 175 176 172 166 170 168 139 106 103 117 117 118 164 163 115 151 195 144 31 30 38 42 43 36 31 28 27 23 18 15 14 15 17 19 20 19 18 21 17 20 25 25 26 41 44 37 74 146 189 193 182 162 152 154 173 188 193 183 178 196 207 209 215 215 153 89 72 77 89 176 235 247 248 244 224 193 202 226 243 246 244 249 241 243 237 238 241 249 251 248 252 254 252 166 99 94 95 92 68 68 87 94 118 141 137 104 99 91 126 244 254 245 219 208 215 229 244 253 246 245 249 255 248 242 234 221 199 175 153 146 147 150 146 151 151 162 127 72 128 111 73 57 69 122 144 102 68 66 65 66 61 65 66 79 207 255 249 250 251 255 255 255 
241 240 238 237 236 236 235 234 232 229 227 226 227 227 224 219 214 206 186 170 151 137 130 134 142 149 153 156 157 154 151 148 147 148 149 149 150 144 137 136 133 130 143 162 168 158 154 160 163 160 155 148 137 126 116 113 117 114 114 112 105 111 119 129 140 148 149 146 146 146 149 151 152 154 154 154 151 149 148 149 151 153 154 156 157 158 157 157 157 156 133 104 88 86 87 89 91 96 104 111 113 112 112 111 103 93 80 64 48 39 34 43 54 65 78 84 87 94 99 100 97 97 101 104 106 112 117 118 110 114 123 127 119 103 74 30 10 37 49 37 37 49 70 81 86 74 24 140 245 235 233 201 174 173 146 159 169 177 173 170 162 163 168 166 136 107 103 102 91 95 116 95 93 158 181 77 16 37 40 47 49 42 34 30 27 24 18 14 14 15 17 18 20 14 40 71 55 35 34 44 60 71 60 57 134 212 228 232 230 222 221 225 232 234 236 231 228 228 237 238 236 233 163 78 70 69 69 168 234 245 244 243 237 224 233 243 247 245 245 248 242 245 244 245 245 243 245 249 253 255 255 188 110 94 94 94 62 62 91 99 117 139 140 107 96 90 117 244 254 237 217 211 219 220 243 252 253 254 253 253 243 232 226 200 178 159 145 143 143 144 143 149 151 153 106 62 117 136 112 105 120 137 109 67 66 75 69 66 66 72 72 80 200 255 251 250 254 255 255 255 
242 240 238 236 237 237 236 236 234 232 231 232 229 226 224 219 214 199 172 158 143 135 137 141 147 153 157 157 155 154 152 150 149 149 146 145 149 144 135 138 138 130 159 185 189 170 155 164 167 162 157 150 140 132 121 115 115 110 109 114 121 131 139 145 149 148 146 145 147 150 153 155 155 154 151 150 149 149 147 149 151 153 155 158 158 158 159 161 163 163 152 131 114 113 117 116 121 129 132 128 122 118 116 115 109 103 97 85 67 49 37 40 42 50 64 73 81 86 89 91 91 93 91 95 102 102 105 113 118 119 115 94 58 32 24 23 15 30 46 33 36 47 54 63 73 67 40 35 205 243 228 238 194 155 137 137 159 165 168 161 144 143 161 167 142 121 100 108 104 101 95 97 143 169 124 32 33 36 46 58 78 91 70 37 26 25 18 14 14 16 18 15 22 14 84 129 112 62 50 71 98 106 90 66 160 230 233 236 236 234 235 236 235 236 236 237 236 236 236 240 238 237 178 78 69 64 72 165 237 243 242 241 237 230 236 243 246 243 243 245 246 244 243 242 242 241 241 246 253 254 254 196 98 92 93 89 59 62 96 101 113 132 134 106 94 96 102 227 250 225 208 199 203 210 237 246 253 252 248 247 236 223 208 187 163 147 140 142 141 139 143 142 147 144 111 63 81 134 119 94 98 90 67 67 81 90 75 69 70 68 87 113 216 255 252 251 254 254 255 255 
243 241 239 237 238 238 237 237 235 233 232 233 232 229 226 217 206 187 161 149 140 136 145 150 154 156 154 151 152 152 152 152 152 150 147 145 143 141 140 140 137 133 175 215 221 200 180 179 174 167 163 152 139 130 123 118 113 106 107 122 138 150 153 152 150 147 145 148 152 155 156 154 154 155 153 152 150 149 148 150 152 154 156 157 157 157 159 162 165 167 158 141 127 124 128 131 133 138 141 138 129 122 117 116 114 110 106 103 97 78 51 40 39 44 51 63 75 76 78 84 90 94 91 87 91 106 116 116 98 69 44 36 30 24 19 15 11 24 44 29 28 40 45 50 57 55 51 10 97 241 230 231 242 181 124 108 133 154 155 160 141 126 153 161 144 126 114 117 114 140 144 164 189 163 59 31 48 46 48 94 155 189 153 79 31 26 19 16 15 15 16 15 22 17 80 129 114 64 50 67 100 109 87 56 142 226 234 237 236 234 238 239 238 238 237 236 238 240 238 238 237 238 191 93 69 67 67 157 234 242 242 240 236 228 234 243 246 244 243 243 242 241 240 240 239 238 239 245 252 254 255 208 110 99 98 90 66 70 106 111 124 141 145 120 105 104 103 206 249 223 201 182 171 192 225 246 244 246 244 241 226 209 191 168 149 137 133 137 140 136 137 135 136 139 122 67 51 70 95 91 90 84 73 74 81 83 85 88 77 71 111 138 210 253 253 255 254 254 255 255 
244 242 240 238 239 239 238 237 235 234 233 233 233 233 230 219 204 180 156 147 142 141 150 154 158 159 155 153 155 154 152 150 149 148 149 147 140 141 146 146 139 128 177 224 234 218 199 196 185 178 168 154 139 130 124 117 107 106 112 128 144 153 154 153 152 149 148 149 153 155 154 150 150 152 153 151 148 146 149 151 152 155 157 156 156 156 159 163 166 170 165 152 136 130 132 133 132 136 137 133 130 123 117 117 118 116 112 108 106 93 68 47 38 34 44 57 58 68 73 82 88 90 94 105 116 109 76 44 28 23 29 39 34 22 16 13 12 21 45 33 26 33 42 51 63 61 60 34 17 165 234 231 232 241 178 86 81 118 118 125 133 131 138 143 149 140 137 130 138 149 140 144 153 150 90 86 63 45 55 141 206 226 201 128 49 30 19 16 19 16 18 19 20 9 60 120 104 51 37 60 97 110 92 59 128 215 230 232 232 233 238 240 239 238 235 234 238 242 239 239 239 240 198 101 75 74 62 141 226 240 241 240 236 226 230 241 245 243 242 241 240 239 238 238 237 236 237 244 251 253 255 220 112 94 97 92 64 70 106 111 121 138 138 114 103 97 97 211 248 219 194 172 173 163 178 234 241 241 234 232 218 199 180 157 139 131 126 128 131 132 135 132 132 138 131 76 55 48 63 92 82 71 70 71 71 68 89 85 75 81 113 116 190 252 250 249 253 254 255 255 
243 241 239 237 238 238 237 237 235 233 232 230 231 232 226 211 194 171 153 150 149 151 155 156 157 157 157 156 157 155 152 149 147 148 150 149 144 145 149 147 136 120 173 220 231 222 210 206 193 184 169 155 139 130 123 114 104 108 115 127 139 146 151 155 156 156 155 154 156 156 154 152 151 152 154 153 150 146 148 150 152 154 156 157 157 157 159 162 164 167 167 160 148 140 140 140 137 137 138 134 129 121 116 117 118 117 115 110 106 99 89 65 40 30 31 37 43 51 77 99 104 104 95 69 38 17 13 16 23 25 26 24 23 20 16 12 12 17 44 36 24 28 38 50 59 59 57 37 8 53 212 233 225 236 248 189 84 61 87 76 56 79 115 134 152 166 154 133 132 128 101 85 122 180 199 196 122 59 65 158 215 232 213 141 57 28 20 16 17 21 20 19 20 17 62 113 103 56 46 74 107 117 102 67 111 191 222 223 223 226 234 237 237 236 229 228 235 240 237 235 232 229 182 93 76 74 66 139 222 237 240 240 235 223 225 237 243 241 239 240 240 239 238 238 237 233 234 242 251 253 254 227 114 92 99 94 64 69 105 109 116 132 133 116 112 107 110 237 247 192 164 148 160 143 109 192 245 235 226 223 208 189 170 146 131 126 120 121 122 126 127 127 132 135 131 94 69 56 58 72 56 57 59 63 63 63 67 76 74 80 114 118 192 247 245 249 255 255 255 255 
242 240 237 236 236 236 236 235 233 232 231 228 228 226 215 195 177 158 147 151 155 158 162 160 156 154 155 155 153 153 152 151 151 151 151 150 150 150 149 142 132 117 173 223 229 221 213 210 193 182 167 154 139 129 121 113 107 106 110 122 133 145 152 159 163 162 161 163 161 159 158 158 156 157 160 158 154 149 147 148 151 153 154 158 159 158 158 160 163 164 168 167 158 153 150 144 139 139 138 134 126 119 116 117 116 116 119 116 112 108 107 87 57 45 24 28 75 112 115 95 56 28 13 10 13 12 12 15 15 16 22 26 20 14 16 10 10 12 40 32 20 23 34 38 47 49 48 26 28 9 106 227 224 227 232 245 213 106 63 81 78 34 24 50 61 96 128 76 63 76 45 68 171 222 220 223 163 63 55 162 221 231 211 135 47 23 22 16 13 14 17 21 20 15 51 104 102 57 40 61 100 112 98 68 104 180 215 216 216 219 229 233 235 232 224 223 231 237 233 229 219 209 165 92 75 66 63 135 220 235 240 240 235 222 220 234 241 239 236 239 240 239 239 238 237 232 233 241 250 253 251 230 121 97 103 96 70 75 110 112 117 129 133 120 113 107 100 204 211 124 103 98 102 104 119 215 237 232 222 217 202 181 160 136 125 121 118 119 122 121 118 122 130 128 119 103 91 80 71 58 50 53 55 58 61 64 76 98 107 108 116 104 185 245 249 253 251 254 255 255 
244 242 240 238 239 238 235 235 234 234 235 229 228 219 198 174 158 153 154 152 154 160 165 164 159 156 155 155 153 151 151 151 152 152 151 151 154 153 148 142 131 117 171 220 227 222 212 207 195 180 168 154 141 125 125 119 112 107 111 126 140 152 161 167 169 171 173 171 172 171 168 165 170 174 174 169 160 152 148 149 153 149 152 160 159 156 156 161 166 167 171 171 165 164 162 154 146 141 137 132 124 115 115 114 115 122 119 121 115 115 111 100 85 63 73 138 139 100 54 31 17 12 11 13 13 12 11 13 9 11 12 15 16 16 15 15 10 11 35 40 23 19 36 41 34 43 52 39 35 19 10 167 231 221 228 230 246 232 117 83 94 102 78 25 5 134 119 3 63 174 200 212 226 220 224 228 169 67 56 164 218 228 219 144 43 25 22 17 16 15 15 19 15 16 40 88 87 52 33 61 107 125 106 73 123 191 216 216 216 218 227 233 234 232 227 225 230 234 231 228 222 217 175 93 70 65 62 129 217 239 238 237 237 225 225 235 242 240 236 239 240 239 239 237 237 233 230 237 249 252 251 220 115 89 101 93 70 71 104 110 105 119 124 113 103 104 94 170 244 213 222 182 120 156 221 237 227 228 222 210 198 181 162 144 127 120 117 119 119 119 124 128 125 117 112 119 110 93 66 54 53 57 61 59 64 65 75 96 103 120 101 92 187 245 246 251 253 255 255 255 
244 242 240 238 239 238 237 236 236 235 234 231 228 214 186 162 151 153 159 160 159 162 164 162 158 155 153 153 151 149 149 149 151 150 147 146 147 143 138 130 128 113 163 220 232 224 214 209 198 184 175 162 149 131 127 121 117 111 114 132 152 167 174 178 177 175 176 174 179 183 181 179 180 181 180 174 165 158 155 150 150 147 154 162 161 162 162 161 160 166 169 174 177 175 171 160 147 139 135 131 119 108 108 110 113 123 126 129 120 111 107 100 104 129 151 130 99 79 48 22 8 15 13 12 14 15 13 11 13 13 14 14 14 13 11 15 15 13 23 30 20 17 29 35 31 33 37 32 33 24 2 68 217 223 222 224 227 240 232 135 68 73 82 31 127 246 85 0 18 118 223 236 217 216 218 219 166 72 60 164 218 229 220 150 50 24 19 14 15 15 15 18 15 15 37 77 72 50 45 67 109 134 122 78 130 209 226 228 228 228 232 235 236 235 232 232 235 238 235 233 231 229 196 107 70 75 63 123 208 236 238 233 233 224 225 232 239 239 236 232 231 229 228 226 225 220 214 220 236 246 246 204 118 97 103 91 74 80 114 120 112 120 125 117 108 109 105 139 217 244 255 249 242 235 230 219 208 210 211 211 196 183 166 145 138 131 122 121 125 126 129 129 120 116 122 127 111 87 58 55 60 57 62 69 74 77 74 75 77 121 170 210 239 239 242 253 254 254 255 255 
244 242 240 238 239 239 238 238 237 235 233 225 216 193 168 158 156 155 160 161 162 165 165 161 157 154 153 152 150 149 148 149 150 150 148 143 141 135 128 120 115 104 163 222 232 226 216 211 201 188 182 169 154 133 125 116 115 110 114 137 165 183 185 184 183 183 182 179 178 178 178 178 181 182 181 176 167 162 157 150 151 150 155 161 161 163 162 161 159 166 169 176 183 182 175 163 146 134 132 131 120 107 106 110 115 123 123 124 125 115 104 107 154 149 113 106 107 94 87 72 23 8 12 13 18 19 15 12 17 16 16 14 14 14 14 15 15 15 12 19 19 19 23 29 31 28 26 24 30 26 15 8 140 233 217 221 230 225 238 226 112 75 117 181 252 222 39 8 23 9 56 149 214 227 223 213 159 67 57 160 217 229 225 160 56 24 19 12 14 16 14 18 16 15 31 61 56 38 40 70 119 139 125 85 141 223 227 230 232 229 229 232 233 232 229 227 227 226 226 228 225 220 190 110 67 72 67 106 176 215 226 218 212 197 190 201 212 214 206 201 200 198 197 195 193 184 176 185 207 225 218 161 102 99 108 100 74 83 117 123 112 115 120 116 103 103 103 113 196 244 238 236 235 184 159 162 144 128 144 193 206 196 177 158 153 143 128 120 126 127 125 119 110 111 122 119 89 73 67 58 62 62 54 61 73 82 89 99 99 120 180 251 255 244 252 255 253 254 255 255 
244 242 240 238 239 238 237 238 236 233 230 221 201 171 154 154 157 160 175 180 173 166 164 162 158 155 153 153 151 149 149 149 151 152 148 142 139 132 124 116 101 96 168 224 231 227 215 211 203 192 184 170 153 130 122 112 110 109 114 139 171 186 186 185 185 183 179 178 174 171 172 174 177 177 176 172 167 163 157 150 152 151 152 158 159 159 158 156 155 159 160 164 169 169 166 159 142 133 131 132 128 112 108 112 115 123 126 120 125 112 107 133 146 111 105 107 111 87 59 74 49 22 17 18 21 21 19 17 19 18 17 16 15 18 22 18 14 15 10 14 19 21 21 23 27 25 22 22 25 23 21 8 47 217 222 223 227 230 231 245 125 70 147 205 249 152 5 22 39 36 19 15 56 124 196 225 170 62 54 154 214 229 227 168 57 23 22 12 12 15 13 17 17 14 23 45 47 34 42 85 133 150 134 96 126 194 222 226 227 224 223 227 228 226 226 223 219 216 218 222 219 212 169 89 64 66 64 80 149 193 208 204 195 173 158 175 196 204 197 195 196 195 194 194 194 191 185 195 216 232 228 173 105 101 106 97 71 83 113 120 109 109 116 109 97 96 93 139 228 251 247 248 224 161 146 152 137 144 175 229 235 207 171 159 154 144 129 121 123 133 124 105 101 113 119 90 77 72 65 59 56 62 90 120 148 154 162 159 133 115 132 200 251 254 254 250 251 254 255 255 
244 242 240 238 239 237 235 237 236 231 227 209 183 159 153 156 158 165 174 175 169 164 165 163 159 156 154 155 153 150 150 150 153 150 144 138 135 127 119 111 100 93 163 223 234 226 214 210 203 193 189 172 154 130 125 116 116 117 119 138 169 180 183 189 188 173 157 151 159 166 170 172 173 174 174 171 170 167 160 147 147 148 151 157 160 161 157 147 140 137 140 141 143 149 155 150 138 132 132 133 135 116 108 110 110 115 122 122 118 103 139 141 109 107 108 114 112 89 51 51 59 48 27 22 23 23 23 23 18 18 18 17 17 20 29 27 17 16 10 11 15 17 16 15 15 14 17 18 17 20 20 17 4 113 237 220 222 228 248 162 25 37 19 74 245 134 3 19 46 39 31 27 9 8 20 87 132 73 60 154 212 225 223 167 57 22 26 13 12 16 13 17 18 14 19 34 34 30 45 73 111 141 128 92 114 196 223 225 226 224 227 228 227 228 233 233 229 230 228 229 230 230 190 102 68 64 60 97 178 213 223 225 222 204 193 201 217 227 222 222 223 224 225 226 227 226 222 228 241 245 249 208 113 102 105 94 77 90 115 123 114 113 115 108 101 105 98 151 244 251 255 252 251 230 194 178 159 167 201 233 230 216 175 160 141 132 126 125 126 121 102 94 109 109 86 60 66 83 100 112 136 177 209 220 230 210 196 186 149 123 121 159 233 255 250 254 255 255 255 255 
245 243 241 239 238 237 237 235 232 222 216 184 164 154 159 162 163 166 166 165 165 167 168 163 159 158 156 152 150 152 153 152 150 146 139 133 131 125 118 110 103 93 157 221 233 225 214 208 202 196 191 175 154 133 125 120 119 118 120 142 165 174 181 185 184 163 126 112 127 151 168 170 171 172 171 174 172 168 159 147 146 145 150 156 157 158 155 140 124 118 120 123 127 133 141 145 139 133 136 135 129 118 108 105 107 111 113 115 108 106 179 117 101 103 108 112 109 86 59 39 45 53 36 24 21 28 24 26 22 17 17 19 18 19 27 33 27 15 9 9 16 19 15 15 17 13 13 12 12 14 18 13 8 24 193 231 223 242 202 43 23 43 36 49 216 190 19 15 36 47 37 28 22 23 16 11 26 46 60 155 219 222 218 165 54 25 20 15 14 15 16 17 17 14 16 29 24 26 40 71 99 127 121 88 135 220 232 234 235 235 236 236 235 237 240 241 240 240 239 239 240 243 224 126 68 69 62 119 210 234 235 240 239 232 224 225 232 238 237 236 236 236 236 236 236 236 234 236 242 247 253 206 101 100 104 92 79 88 113 123 113 112 114 108 106 110 98 141 238 251 255 249 247 229 193 168 157 178 213 227 230 214 186 151 136 126 124 130 121 98 89 104 106 81 57 89 148 205 212 196 192 210 221 219 221 208 195 189 148 124 126 133 217 255 254 246 254 254 254 255 
244 243 241 238 237 237 236 232 236 221 193 164 155 153 158 162 165 168 167 168 168 169 167 161 156 156 154 150 148 152 153 152 148 143 136 132 128 122 114 109 103 95 155 215 228 222 214 210 204 198 189 175 154 135 124 119 118 117 120 143 160 165 164 170 171 142 95 68 98 141 169 174 171 169 166 168 168 164 158 149 148 146 150 155 155 156 151 133 115 108 109 113 119 124 131 141 143 142 148 146 134 126 114 107 107 108 112 109 106 146 167 90 101 105 109 114 112 103 78 54 46 41 34 29 25 33 25 25 21 18 17 19 20 21 21 31 33 13 8 13 21 23 16 16 20 15 13 11 11 12 11 12 12 0 86 237 223 237 144 3 16 31 34 18 136 209 33 11 36 49 42 29 23 20 21 21 23 37 40 58 161 240 212 163 57 26 20 15 15 14 17 17 17 15 14 23 26 32 47 85 110 133 133 99 150 229 234 235 238 239 239 238 240 239 240 241 242 241 242 242 241 243 234 138 69 70 61 118 215 238 236 241 237 235 228 229 234 239 238 238 238 237 236 235 235 237 236 236 241 247 250 203 103 103 108 93 78 85 110 120 111 111 118 113 112 115 102 134 235 253 255 246 246 246 253 252 251 244 235 227 223 214 171 134 124 120 129 125 112 109 113 98 66 92 188 243 239 223 206 205 216 227 227 223 221 213 205 185 160 159 148 123 210 255 254 239 251 254 254 255 
243 242 240 237 236 237 235 231 232 209 169 154 155 156 159 166 170 170 169 168 168 167 163 157 152 153 152 149 150 151 151 148 146 139 134 130 123 114 107 106 106 101 153 207 221 218 215 213 207 199 190 179 160 140 126 120 118 116 121 138 144 138 124 137 146 123 95 67 95 131 156 165 164 167 164 161 164 163 157 149 149 146 149 154 154 154 146 127 110 101 103 107 114 119 124 134 140 144 151 146 138 130 119 111 109 108 111 104 114 184 138 74 101 100 104 110 115 105 87 69 59 43 30 25 22 25 22 18 21 22 19 15 19 22 17 29 40 17 9 12 21 26 21 16 15 15 14 13 13 13 7 6 10 9 9 171 237 221 224 80 1 46 30 14 84 244 49 10 32 47 46 33 25 18 16 22 29 35 37 23 38 201 227 165 60 26 24 14 14 16 17 18 17 15 16 28 24 29 51 102 137 160 155 109 146 223 232 234 236 237 237 238 238 238 240 240 241 242 242 242 242 243 237 146 73 69 62 116 213 240 239 242 238 237 233 231 235 240 240 240 240 239 239 239 239 239 238 239 242 246 246 206 111 102 112 100 84 91 114 125 117 116 118 114 115 119 107 121 228 255 253 245 244 243 245 248 242 238 220 219 217 181 135 119 119 150 151 124 117 116 101 81 148 241 251 235 215 200 201 205 212 221 223 225 226 223 209 207 202 157 123 122 206 255 254 240 249 255 255 254 
243 241 240 237 235 235 234 224 204 177 157 156 160 164 169 172 174 171 170 168 166 164 159 153 150 151 150 148 150 148 146 143 141 133 129 125 115 107 103 108 115 114 155 201 218 216 212 210 206 199 193 182 163 144 130 123 119 117 120 125 114 85 61 73 94 99 107 100 101 104 117 135 144 160 165 162 165 164 155 148 149 145 147 151 152 149 139 122 111 109 109 112 116 120 127 137 141 145 151 141 131 124 118 112 112 112 110 100 134 183 123 84 92 82 92 106 118 108 88 75 72 61 36 20 20 19 25 22 25 26 21 15 16 21 19 28 42 28 16 6 16 27 26 17 13 15 15 15 14 13 9 5 12 14 1 62 222 189 223 209 94 12 18 42 49 233 70 5 28 44 46 36 27 21 18 22 32 33 38 43 13 74 216 149 55 25 23 15 15 17 18 19 18 16 16 27 25 30 54 112 155 178 170 116 138 214 231 233 235 236 236 236 238 238 239 240 240 241 241 241 241 243 233 140 71 69 64 110 204 235 237 239 236 237 233 230 233 239 239 240 240 241 241 241 241 241 240 241 242 243 246 202 111 98 109 100 79 84 107 118 112 110 111 108 111 117 106 112 222 255 249 245 244 245 242 238 233 223 209 198 180 135 124 99 150 241 209 129 124 105 105 193 255 244 233 223 204 198 208 216 208 201 209 218 223 227 230 225 180 130 131 136 203 255 255 242 250 254 254 255 
242 240 239 236 235 231 223 204 176 159 161 165 164 169 175 174 171 172 169 166 163 161 157 152 149 150 150 148 149 145 142 138 135 129 124 118 107 103 104 113 126 129 162 201 219 215 208 206 202 196 193 180 158 139 129 122 118 118 119 111 80 44 29 36 50 61 80 86 73 59 62 84 110 147 164 163 165 159 151 145 147 143 145 149 148 143 132 123 121 126 125 125 127 130 135 142 142 145 151 139 128 123 118 114 114 114 110 109 154 172 112 93 86 72 91 106 118 110 87 74 74 64 42 26 22 17 30 28 25 22 20 20 20 19 19 24 35 35 18 9 13 18 20 16 14 16 17 17 15 13 9 10 16 7 8 5 131 212 211 245 218 55 0 17 23 197 88 1 26 42 42 37 30 27 23 24 33 31 33 38 32 16 124 125 43 27 18 16 16 18 19 20 19 17 15 23 28 34 55 109 151 174 172 116 135 214 229 231 233 234 234 235 237 237 238 239 239 239 239 239 239 241 230 135 64 61 60 104 192 226 231 234 232 234 228 225 228 235 238 239 239 240 241 242 242 240 241 241 240 240 239 184 106 103 104 97 86 89 111 123 118 114 112 110 114 121 111 113 218 254 248 247 242 243 254 187 123 184 174 148 118 109 99 110 235 246 243 178 119 130 218 255 247 242 235 216 206 202 209 216 214 208 210 214 210 212 203 197 168 168 170 133 199 255 255 242 248 250 252 255 
242 240 239 237 234 225 205 180 163 158 165 169 166 169 175 172 168 170 167 163 159 157 154 150 147 148 150 149 148 145 140 136 133 128 120 110 101 102 109 123 134 136 165 202 220 216 206 201 198 196 191 176 153 133 125 120 118 118 119 104 63 36 32 35 36 39 48 49 40 28 27 39 76 133 158 163 163 155 150 144 146 142 141 146 146 140 129 125 128 137 139 139 138 138 139 139 137 139 145 137 130 127 122 118 115 114 111 119 168 167 98 94 85 73 93 111 117 103 79 68 67 59 43 30 19 11 22 28 21 16 18 23 23 19 15 17 23 31 19 22 21 18 15 16 16 16 15 16 14 12 10 12 16 13 8 5 35 205 220 228 200 28 3 8 36 141 89 1 24 39 42 39 35 26 25 24 31 30 31 39 37 21 59 109 40 26 18 17 16 18 20 21 19 16 17 27 27 30 56 111 148 172 169 117 130 210 230 231 233 234 234 235 236 237 238 238 239 238 239 239 239 239 233 141 60 54 56 99 187 221 228 231 230 233 227 222 225 233 238 239 239 240 241 243 243 240 240 240 239 238 230 169 102 107 105 95 84 88 107 120 116 113 114 113 117 125 114 109 214 253 249 247 241 244 255 175 32 67 122 128 94 89 99 211 245 208 239 227 169 228 248 246 240 231 232 220 218 216 216 223 220 217 218 217 205 203 204 190 179 166 153 132 193 255 255 238 241 244 250 255 
242 240 241 238 227 211 185 166 164 162 165 170 172 172 172 172 171 167 165 161 158 155 151 147 143 142 145 148 148 145 141 136 133 129 117 103 99 109 121 135 139 137 166 204 217 216 206 198 195 196 191 176 153 133 123 118 116 117 118 104 67 37 32 33 35 36 37 33 30 30 33 37 59 120 151 163 162 156 150 144 145 141 139 145 148 146 135 129 133 143 149 151 147 144 146 146 140 141 141 139 132 128 125 121 117 118 117 135 191 156 93 101 88 78 92 116 119 113 94 74 60 56 46 35 23 15 16 34 26 16 19 20 17 18 14 13 14 20 26 27 27 30 32 33 29 17 14 15 15 11 12 14 14 13 11 8 0 124 234 237 112 4 16 10 46 98 84 3 21 37 48 42 40 22 22 22 25 34 31 33 34 31 34 130 63 21 18 16 17 19 22 23 19 15 17 23 26 31 66 114 146 172 166 122 125 203 227 230 233 231 233 234 234 235 237 238 239 238 240 241 241 240 237 150 64 60 62 105 194 227 232 236 235 238 233 226 227 234 238 242 241 241 242 243 243 241 242 242 240 238 233 173 102 101 105 94 84 89 105 118 115 110 110 105 111 120 109 104 208 249 249 246 243 243 255 176 67 72 64 83 86 62 111 248 251 206 223 255 245 247 247 238 233 234 223 218 223 228 227 236 232 228 207 211 218 223 208 189 178 163 149 130 185 255 253 230 236 243 248 253 
243 239 238 230 210 186 167 162 165 166 164 171 172 172 172 172 170 165 164 162 159 158 152 147 143 140 140 141 144 140 134 127 123 117 109 103 107 121 133 139 143 138 164 202 215 214 207 199 193 191 188 174 150 130 120 116 114 115 116 103 67 38 31 35 44 45 41 35 32 31 35 40 50 97 139 160 160 155 145 141 144 140 140 145 152 153 138 131 141 156 161 160 154 151 152 149 143 140 138 135 131 129 127 125 123 124 120 159 207 132 93 100 94 83 97 114 115 111 109 88 58 48 40 30 25 16 14 30 36 21 18 20 16 14 14 13 14 18 21 24 22 27 35 35 28 24 20 19 18 13 12 13 14 14 11 10 2 35 226 229 53 12 16 26 10 75 102 3 21 38 48 38 38 22 19 27 30 43 44 31 35 26 16 113 72 26 19 18 22 19 22 24 19 16 16 18 24 31 70 119 150 172 165 122 120 189 220 224 227 226 228 230 231 231 233 234 236 236 237 238 238 238 230 142 69 65 68 110 194 228 234 238 237 240 235 229 228 233 238 240 242 243 242 242 242 242 243 243 242 240 240 180 107 104 105 98 90 94 109 121 118 115 120 114 120 129 119 112 203 248 249 240 240 243 253 177 83 96 100 92 68 48 211 234 203 196 186 112 142 240 228 220 221 233 221 226 226 225 228 232 224 222 219 231 233 220 199 184 174 157 140 124 183 255 246 226 238 250 250 247 
242 234 227 214 189 167 159 161 166 172 173 173 172 171 171 170 168 163 162 161 158 157 154 150 146 142 140 140 138 133 126 119 114 106 102 102 110 127 139 148 149 139 158 195 211 213 205 198 190 187 184 170 146 126 116 112 111 111 114 101 65 38 35 44 59 62 53 42 37 33 33 36 37 70 123 154 157 154 144 140 143 140 140 144 152 155 141 135 147 161 164 161 154 151 152 153 146 140 134 132 130 130 129 128 127 126 122 182 196 95 90 98 99 87 101 110 111 109 111 100 77 54 37 28 26 18 13 26 36 24 19 22 19 14 13 13 13 13 16 19 17 22 31 28 22 24 20 19 17 10 10 12 14 14 12 12 7 1 147 167 18 27 18 13 27 63 81 7 19 32 43 38 40 32 29 36 37 43 52 45 46 22 10 104 63 26 25 21 16 17 22 24 21 18 18 19 27 36 81 128 152 171 166 123 117 183 217 221 224 225 227 229 230 230 232 233 235 232 233 234 234 234 220 132 72 71 70 104 185 220 228 232 230 234 234 228 224 227 232 235 238 238 236 237 241 240 242 243 242 242 236 173 104 103 104 102 92 96 110 120 115 112 114 106 111 123 113 105 197 248 248 243 250 233 207 152 99 107 88 84 45 126 242 106 55 61 53 29 25 111 211 211 214 216 221 224 224 217 224 221 210 219 227 223 221 213 190 185 184 164 141 127 168 238 230 230 240 248 249 248 
236 227 210 191 172 161 162 165 167 176 176 172 170 169 167 166 165 162 161 157 155 153 152 150 148 144 141 139 132 127 120 113 108 104 104 107 116 131 141 150 151 136 152 189 209 212 202 193 187 185 180 165 143 122 112 108 108 109 111 100 64 41 44 57 69 70 62 52 44 34 30 30 28 46 105 143 152 154 147 142 144 140 140 144 149 151 142 138 147 158 159 156 149 148 151 153 148 139 133 132 131 130 129 128 127 125 127 211 192 82 87 90 97 84 97 98 101 112 111 104 86 47 34 27 24 21 16 23 28 28 21 21 20 14 13 12 11 10 10 15 18 24 31 28 22 19 18 20 18 10 9 11 13 14 14 11 14 6 41 69 9 41 27 14 57 70 49 7 19 28 39 36 38 44 34 26 31 35 46 46 44 21 20 107 65 22 16 13 12 16 22 25 22 19 19 21 30 39 89 134 149 170 167 124 121 191 218 223 226 228 231 232 232 232 234 235 237 233 235 236 236 236 222 134 72 69 72 99 179 217 226 231 228 232 233 227 221 221 227 233 234 228 220 223 232 236 237 239 239 240 226 159 99 102 99 100 95 99 111 120 115 111 113 104 109 121 112 107 196 242 252 245 218 171 160 134 101 92 73 91 70 220 135 55 87 87 58 43 40 9 111 228 220 211 215 212 222 226 224 205 214 226 217 209 220 213 187 187 188 165 138 122 133 203 213 224 233 242 247 251 
231 220 197 174 164 160 163 169 169 174 171 169 169 167 165 163 163 162 160 155 152 149 147 146 144 141 138 135 127 123 118 111 106 108 111 115 123 135 143 145 148 134 150 190 212 213 200 189 185 185 178 163 141 120 110 106 106 107 110 99 63 45 53 64 68 64 60 54 45 36 31 30 24 33 95 137 149 154 150 144 145 141 140 143 146 147 141 139 145 155 156 153 147 148 150 152 149 139 132 133 132 131 129 127 125 124 122 209 199 97 69 65 77 65 76 73 77 104 111 104 80 43 37 28 21 22 20 22 24 31 24 18 17 11 12 12 10 8 7 8 14 20 23 20 18 18 19 22 20 13 10 11 13 14 14 13 9 11 4 43 42 25 37 54 10 46 77 6 19 31 40 33 40 47 25 59 114 106 52 39 32 16 17 92 59 19 16 15 16 17 22 25 23 21 20 20 29 39 90 133 145 169 169 127 127 202 222 227 230 232 235 236 235 236 237 238 239 241 243 243 243 244 232 144 70 65 74 102 182 222 233 239 235 237 236 231 223 222 229 237 235 222 206 207 219 231 234 235 235 236 228 167 110 112 106 106 101 105 116 124 118 114 117 108 111 124 116 109 194 244 255 205 146 145 148 129 98 86 68 55 175 186 66 148 135 93 82 64 27 47 155 203 213 216 210 207 206 216 205 193 218 219 207 207 223 203 186 184 178 150 125 119 129 204 217 214 220 238 245 249 
225 204 182 164 162 165 164 169 172 171 168 168 166 163 163 165 164 158 156 156 155 149 145 141 137 136 133 128 123 117 109 105 104 110 115 122 129 136 141 146 145 134 149 189 211 208 196 186 181 180 175 159 136 117 106 103 103 105 111 99 70 57 65 70 65 56 52 51 45 38 31 25 21 38 100 144 156 150 148 145 146 146 140 142 147 147 141 137 139 148 149 147 143 146 150 150 147 137 129 128 133 133 131 127 122 120 116 182 215 155 109 68 55 60 60 60 72 91 98 84 69 49 31 28 25 21 16 22 18 29 28 16 17 7 9 12 10 8 11 4 8 14 18 19 18 18 22 27 24 15 12 11 12 16 17 14 12 9 12 23 37 40 39 43 21 54 71 3 18 34 39 34 33 45 15 90 223 249 155 44 30 21 25 109 61 19 18 16 12 20 28 32 28 24 22 19 23 46 94 128 153 167 168 139 136 202 225 229 232 232 234 236 237 237 238 239 239 240 242 243 244 244 241 158 72 78 81 106 194 232 239 243 239 240 239 239 234 222 227 238 238 227 204 195 211 229 240 238 238 239 237 169 111 107 107 106 99 103 112 125 117 106 113 103 101 117 107 106 189 246 201 143 131 129 146 122 100 78 40 37 188 110 145 117 89 92 94 70 50 193 225 181 178 204 205 199 205 192 184 207 223 216 208 207 218 190 181 175 157 129 115 132 143 207 219 224 228 235 238 247 
210 187 167 157 162 169 166 168 168 167 166 166 164 162 161 163 162 156 154 156 156 151 148 142 137 134 129 123 120 114 108 108 111 118 123 128 134 138 142 149 148 136 147 182 203 204 196 187 179 175 172 160 136 112 101 102 102 103 105 97 80 69 74 76 66 52 46 46 42 37 31 26 25 50 108 145 155 153 149 146 144 144 138 138 144 145 139 134 135 139 142 143 143 148 153 153 148 138 130 129 131 131 129 126 123 120 113 178 224 201 182 109 74 81 80 80 90 92 78 56 51 51 32 23 17 20 24 22 18 28 27 14 13 8 13 12 9 9 14 13 5 7 18 19 18 23 24 27 26 19 14 10 11 16 18 15 15 16 14 10 46 84 45 20 65 55 34 7 16 30 36 37 36 46 19 87 208 138 190 155 60 11 20 126 68 21 18 18 19 24 30 33 29 26 24 24 25 46 93 127 149 164 165 130 130 200 223 228 230 231 233 235 235 236 237 237 238 238 240 242 243 242 246 171 79 86 88 116 209 240 240 244 242 243 241 241 237 226 227 237 241 236 216 205 220 236 244 242 244 245 234 164 113 111 110 104 99 102 109 123 120 107 114 110 104 115 113 112 193 198 126 137 130 128 156 118 102 82 33 104 137 100 140 71 94 94 70 69 198 247 212 193 185 177 195 208 196 170 195 218 221 215 207 216 210 185 177 163 143 127 132 155 159 206 219 230 232 237 245 252 
189 170 161 159 165 172 169 166 163 163 164 164 164 162 161 159 158 154 152 155 156 152 147 140 134 129 123 117 111 107 106 111 119 128 133 135 139 143 144 147 148 138 147 178 197 200 191 182 176 174 169 159 134 106 98 98 97 102 104 97 86 73 79 83 70 54 43 40 37 33 30 28 31 67 120 149 156 156 150 145 142 140 135 135 141 144 139 132 130 130 136 141 146 152 159 158 148 138 131 128 127 127 127 125 123 119 110 181 200 219 197 104 84 96 90 70 61 50 36 23 29 32 27 31 24 16 21 26 23 30 31 16 12 11 16 13 8 9 15 17 9 4 8 15 20 19 17 19 20 16 14 11 11 15 17 17 15 10 13 14 26 36 49 52 42 42 40 8 16 30 38 37 32 55 25 57 169 53 53 235 189 28 5 116 71 24 20 19 18 25 32 36 32 28 27 28 29 45 89 125 139 158 161 123 128 203 225 229 232 232 234 237 237 237 239 239 240 240 242 244 244 244 246 167 81 93 95 118 209 239 237 243 243 246 247 246 243 235 229 234 240 242 229 217 227 239 244 241 244 244 227 164 120 114 112 106 106 106 112 128 129 119 119 109 105 113 111 110 170 138 132 136 129 117 139 108 103 88 54 147 96 70 103 84 75 91 94 192 245 214 207 206 192 182 207 189 149 163 217 220 216 209 203 218 192 171 157 141 128 135 163 183 180 206 219 232 234 241 252 255 
175 164 165 169 169 172 171 167 163 163 165 164 164 163 161 158 155 152 150 153 153 148 142 135 129 124 118 110 104 106 109 117 125 132 137 138 142 144 145 146 147 137 146 176 195 196 184 175 172 174 165 153 130 105 96 95 93 101 107 97 80 66 78 88 78 58 42 37 33 29 28 28 32 68 107 135 145 150 149 143 140 138 135 134 141 146 143 134 129 132 139 147 151 157 163 160 146 136 130 126 123 124 125 125 123 121 110 179 187 225 159 67 59 56 44 21 11 10 2 1 7 13 16 32 37 22 14 32 25 30 34 17 14 14 15 13 9 8 13 14 15 8 0 7 20 22 19 21 22 18 15 11 9 14 18 17 15 13 11 14 22 28 48 50 29 64 30 4 14 31 41 36 26 39 44 4 78 176 190 230 253 109 2 118 71 25 21 19 16 26 34 38 34 30 29 28 29 43 85 123 140 165 169 131 138 209 225 229 232 232 234 237 237 237 239 239 240 240 242 244 244 243 248 177 84 88 98 116 205 241 241 242 239 243 247 246 243 238 226 226 233 238 229 219 226 237 241 238 240 235 205 150 118 106 103 102 100 100 106 122 122 113 113 109 110 110 99 136 151 127 129 123 118 121 142 112 102 66 106 119 80 61 55 80 132 208 219 244 216 210 206 193 189 210 211 145 117 191 232 214 212 198 200 204 167 152 133 130 134 160 195 200 189 207 215 226 233 245 247 252 
170 160 166 172 169 170 170 168 167 166 166 165 166 165 162 158 155 151 148 149 148 143 136 129 124 119 114 107 106 112 120 127 133 134 136 138 141 144 146 152 149 134 140 170 189 191 182 175 171 170 160 146 125 106 98 95 95 97 104 95 72 59 77 94 83 57 39 37 32 27 26 26 27 51 69 98 122 138 146 140 137 138 136 135 143 151 148 138 131 138 147 154 157 163 167 161 145 134 127 122 119 122 124 124 123 121 109 185 193 161 80 33 18 12 9 4 6 2 9 26 37 53 50 52 69 57 23 28 20 23 31 14 12 12 14 14 9 6 8 13 13 9 4 4 12 21 19 22 22 16 15 11 9 13 17 18 13 17 18 10 22 31 29 23 54 44 14 8 13 27 39 38 30 36 45 30 6 46 140 151 173 109 7 121 78 27 21 21 21 29 36 39 35 32 29 26 28 40 82 122 141 167 169 129 132 194 220 224 226 226 229 231 231 231 232 233 233 234 236 237 238 238 233 163 84 88 107 109 175 222 235 235 233 239 238 237 235 233 214 199 201 207 200 190 198 216 219 217 216 204 170 135 126 112 107 109 108 109 114 128 126 116 121 120 112 119 146 174 145 133 113 119 117 150 176 106 100 63 126 95 79 101 143 180 217 231 223 223 208 211 201 179 208 223 152 111 143 231 230 217 208 187 199 182 144 133 123 136 159 192 220 203 190 210 211 214 231 247 235 243 
170 166 167 169 170 170 169 168 167 166 165 164 163 161 158 155 153 150 149 146 142 138 135 127 120 116 112 107 110 117 126 133 136 138 139 142 145 146 147 149 149 135 140 169 188 190 181 175 169 164 162 147 124 106 99 95 93 96 100 95 71 52 71 94 90 61 37 36 28 23 25 29 27 33 35 55 98 131 144 140 138 139 139 137 144 151 146 137 135 143 153 161 161 160 160 154 142 132 127 125 121 122 122 123 125 121 108 184 176 69 23 12 10 6 3 12 23 52 89 89 78 60 44 38 79 99 40 19 20 15 20 15 9 12 12 12 12 7 8 15 12 10 11 7 4 11 20 19 20 17 13 13 13 14 15 15 13 18 19 14 14 25 33 34 58 35 13 9 12 25 39 37 31 31 47 47 26 25 37 25 41 36 11 143 83 31 24 24 26 30 36 39 37 34 31 22 27 35 79 124 140 160 160 133 112 166 201 209 215 215 214 218 222 224 224 226 228 228 229 230 231 232 210 129 86 91 107 101 140 201 225 229 228 231 232 231 231 230 224 207 192 178 170 175 191 207 208 208 207 198 168 133 125 121 110 110 108 108 111 124 124 114 115 108 129 185 196 170 137 115 107 112 132 180 167 97 85 78 138 81 90 160 193 209 216 224 222 208 216 219 178 184 232 197 83 96 199 238 226 221 196 182 193 164 131 127 124 157 179 214 225 203 190 207 206 219 234 244 234 241 
172 171 169 168 168 169 167 166 164 162 161 158 156 155 154 152 152 150 147 145 141 135 132 124 115 112 111 110 115 122 131 137 139 140 142 145 147 147 147 146 148 137 144 170 190 191 181 176 170 164 162 148 125 107 98 94 93 95 97 97 82 68 79 97 97 70 42 38 36 31 28 30 29 28 24 40 90 130 143 141 140 139 140 141 146 152 144 136 136 144 154 162 161 158 156 151 141 132 126 126 124 118 120 121 117 118 139 150 74 16 11 8 8 12 41 76 86 82 73 53 38 28 24 14 45 67 24 14 24 12 10 11 12 17 12 11 13 7 9 15 13 12 14 10 5 7 17 22 22 19 14 14 15 15 15 14 16 19 17 14 16 18 55 55 35 28 6 7 12 27 39 36 29 30 45 47 31 39 42 30 58 36 115 191 74 32 28 28 27 31 36 40 38 36 36 27 25 29 76 125 136 158 157 133 105 164 209 214 217 216 215 220 223 223 223 225 227 231 233 233 233 233 223 151 91 93 103 106 162 218 232 234 236 237 236 237 237 238 239 238 227 207 194 205 223 232 230 232 232 226 211 164 126 115 105 109 108 107 108 119 122 115 118 89 133 207 183 145 116 103 104 123 162 190 147 89 72 111 111 107 171 211 202 213 220 220 212 218 212 182 179 214 225 136 51 99 239 234 226 211 181 167 157 130 113 118 143 182 206 230 221 198 180 200 203 215 227 242 239 248 
176 173 169 166 164 164 163 162 160 159 158 154 153 153 153 152 153 150 143 143 141 131 127 119 110 109 113 115 120 127 135 140 141 142 143 146 147 147 146 147 147 138 146 169 188 191 182 177 172 167 159 147 127 109 98 95 95 94 97 107 110 108 107 111 111 90 65 59 59 49 33 31 34 32 26 45 97 135 145 143 141 141 142 144 149 153 146 138 137 145 154 160 159 158 158 152 141 130 124 122 121 115 119 116 121 137 145 83 19 8 4 9 36 73 100 89 56 29 9 9 6 3 9 6 11 12 2 8 21 11 6 7 13 18 12 11 13 7 9 14 14 14 16 12 8 5 8 24 24 19 17 16 15 14 15 15 18 19 16 16 20 16 21 40 44 11 5 8 13 28 40 37 28 28 42 46 34 36 39 32 49 152 241 202 75 33 28 25 23 30 37 41 39 38 37 28 24 28 60 92 104 137 142 123 117 192 221 224 225 229 232 233 233 234 237 238 237 238 240 241 241 239 243 182 88 92 97 107 193 238 239 241 244 243 241 243 243 246 247 248 247 235 219 224 241 245 244 246 246 242 227 174 130 121 116 117 115 113 113 124 127 117 117 84 160 191 154 123 104 104 115 154 181 181 128 77 58 132 140 179 221 210 207 221 216 210 207 214 190 169 199 216 195 87 38 138 243 232 218 185 150 130 112 111 128 149 198 215 225 231 216 191 164 192 201 206 221 236 237 248 
178 174 168 164 162 161 161 160 158 157 156 155 155 154 154 153 153 147 140 139 137 126 121 114 108 112 118 122 126 131 138 141 141 143 145 147 148 147 146 145 145 136 146 167 184 188 179 175 172 167 158 146 127 109 99 97 97 94 101 119 143 152 142 137 135 121 104 99 91 74 45 34 34 30 23 45 98 135 146 144 143 142 143 146 151 152 148 143 141 146 152 156 155 158 159 152 140 128 120 118 114 114 118 117 144 143 82 27 9 6 31 73 98 92 58 28 9 0 4 7 8 7 6 7 4 0 2 5 9 10 7 8 12 14 12 11 13 7 9 14 14 17 19 14 11 7 5 20 23 20 20 18 15 14 14 16 19 19 18 18 22 26 20 56 62 4 3 9 14 28 40 38 29 26 35 41 37 35 42 35 76 237 233 184 79 31 25 24 26 29 36 41 40 39 39 29 22 26 48 71 75 113 123 107 115 198 225 230 230 234 231 224 230 238 242 243 241 241 243 244 244 242 247 185 81 88 90 102 192 237 238 243 244 240 241 242 243 246 246 244 245 237 223 225 239 244 241 243 245 242 233 181 131 120 112 108 113 110 109 119 123 116 100 136 195 159 139 114 106 108 140 176 168 171 100 60 41 97 162 205 218 210 214 213 211 207 208 188 172 196 208 197 154 66 48 193 232 232 181 127 105 106 112 137 173 198 228 233 235 231 214 180 146 190 203 211 225 238 243 253 
177 173 168 163 161 160 160 160 158 157 155 156 156 153 152 150 149 143 138 135 129 121 118 113 112 119 126 129 134 139 145 147 147 145 147 149 148 147 145 141 141 134 146 165 180 184 175 171 168 163 159 145 124 108 101 100 98 95 101 120 154 174 166 157 152 144 135 127 118 105 65 40 34 29 23 49 101 135 148 146 144 144 145 148 150 151 150 148 146 148 151 153 154 158 160 153 140 126 118 115 110 110 116 130 150 95 34 21 22 36 79 112 96 46 12 8 6 8 8 8 16 26 31 26 12 7 10 6 2 9 6 7 11 13 12 11 13 7 9 13 15 19 21 15 12 12 6 10 20 22 22 20 15 13 15 16 16 21 22 20 23 28 24 30 13 5 10 10 15 29 41 39 31 27 29 35 38 38 30 38 196 238 234 195 77 32 27 29 32 29 34 39 38 38 40 28 17 23 45 68 60 98 117 104 112 188 221 232 230 229 212 195 212 233 239 237 238 240 242 242 242 240 244 186 82 85 89 102 185 233 237 241 241 239 242 242 242 242 242 246 245 237 227 230 240 244 241 243 246 244 237 186 133 120 113 115 112 108 104 115 119 111 116 188 176 140 135 113 108 131 165 165 162 158 70 45 43 57 168 214 213 212 214 209 209 206 191 169 182 206 198 177 118 52 71 216 226 185 120 81 94 137 167 189 207 217 220 234 241 233 207 153 124 192 209 222 227 231 239 248 
176 170 165 162 160 159 159 159 156 154 154 153 151 149 147 143 138 138 137 129 123 117 113 112 116 124 131 136 144 148 152 153 151 148 148 150 149 147 144 141 140 134 142 161 176 182 174 168 165 160 160 146 125 109 102 103 100 97 100 116 152 176 170 161 158 157 152 139 134 125 85 45 35 37 43 67 111 139 148 148 144 144 146 147 150 151 151 150 149 149 151 152 154 158 159 152 139 125 115 111 108 104 122 134 112 56 35 38 79 95 105 88 47 10 7 13 10 15 18 42 52 55 58 38 17 16 18 9 4 8 5 8 11 13 12 12 14 8 9 14 13 17 23 19 12 15 10 5 15 24 22 21 17 12 13 18 18 21 24 24 23 29 24 34 27 15 5 11 15 30 42 38 29 26 25 32 39 38 29 48 206 232 233 202 79 35 33 29 28 27 31 36 38 38 38 29 22 28 40 51 60 110 128 116 92 150 204 221 225 226 209 193 210 235 240 238 244 240 240 241 241 240 244 189 86 85 92 107 184 234 238 239 241 243 243 243 243 243 243 247 244 236 230 233 240 243 241 242 245 244 237 191 142 126 116 116 116 111 108 119 123 111 165 190 150 137 126 119 124 162 178 156 169 136 49 90 120 56 128 211 214 215 216 212 208 192 166 173 203 205 180 144 95 47 87 225 198 111 79 96 173 216 212 206 205 214 224 238 236 224 196 130 104 194 216 227 225 233 240 247 
173 165 161 159 155 151 152 153 150 146 148 146 143 144 145 135 127 134 133 124 122 114 111 114 119 129 139 145 150 154 156 155 151 149 149 150 149 145 143 145 142 135 138 156 173 180 176 169 168 162 160 147 127 111 104 104 102 101 101 113 146 163 155 147 151 158 158 151 145 127 93 52 41 58 77 89 109 132 146 150 143 142 145 145 150 154 150 145 146 150 152 154 155 155 154 147 137 123 111 106 100 108 132 99 60 72 64 76 94 92 89 40 14 7 9 16 28 35 52 79 67 49 49 35 19 19 20 14 8 5 6 10 10 11 11 12 15 9 9 16 9 11 23 23 14 13 14 9 8 20 20 21 20 14 14 18 20 21 24 27 24 24 30 36 26 9 10 13 15 31 42 33 23 23 24 32 37 36 29 48 204 232 230 182 76 28 35 28 32 30 32 37 41 41 39 36 31 30 36 45 66 113 133 124 48 62 95 109 165 204 214 219 227 235 236 238 242 240 240 241 241 241 242 186 84 85 91 106 182 233 238 237 240 242 242 242 243 244 245 247 244 237 231 234 241 244 244 244 244 245 238 197 141 118 109 112 111 103 94 109 97 139 199 168 139 125 130 131 157 177 166 157 176 81 44 166 247 79 89 216 214 210 208 199 186 163 164 196 213 196 154 127 77 36 113 215 122 85 126 202 241 218 202 202 198 210 230 236 228 214 184 122 94 191 215 219 232 243 240 241 
164 161 158 157 150 144 144 146 143 140 138 135 137 139 138 133 130 131 126 120 120 118 120 124 129 138 146 151 156 158 159 158 156 152 150 147 145 145 145 147 144 136 137 154 167 172 172 168 169 164 154 140 120 108 105 104 99 99 99 103 127 140 134 130 136 147 154 158 154 132 99 70 78 98 105 100 109 128 141 148 144 142 141 142 149 148 144 140 139 146 150 154 154 149 146 141 131 119 108 101 97 117 113 66 72 88 85 95 99 93 77 26 15 14 22 36 39 48 54 62 51 47 52 36 18 14 17 16 12 5 2 7 11 12 9 10 13 7 8 12 11 13 18 19 18 16 13 11 9 8 18 18 17 20 19 14 15 21 23 24 27 30 32 32 25 15 15 13 16 30 39 30 23 23 23 26 32 36 28 58 211 228 224 177 78 25 30 26 25 28 34 38 38 38 36 29 28 29 31 36 31 55 82 82 43 30 26 47 108 149 173 200 227 234 234 240 235 237 238 238 237 237 239 187 85 82 83 98 179 231 238 237 239 241 242 242 243 244 244 246 245 238 232 235 243 244 244 244 244 244 240 200 139 118 107 109 113 108 91 99 92 178 181 144 124 125 134 148 171 173 154 176 171 57 35 118 221 142 204 234 210 213 205 182 161 164 188 204 205 183 140 114 55 64 188 152 91 152 229 237 223 207 200 197 196 211 234 234 217 194 162 108 87 183 207 210 229 243 246 240 
157 155 154 153 145 139 139 141 143 139 135 132 134 138 136 135 134 131 125 121 120 122 126 130 136 144 150 155 161 161 161 159 158 155 151 146 144 146 149 150 147 138 138 151 164 172 171 167 166 159 149 135 118 108 106 105 98 97 97 100 117 129 126 124 131 144 153 156 160 146 125 115 118 125 120 104 106 124 141 151 148 146 142 140 142 140 139 138 138 140 146 152 150 143 138 135 125 117 107 96 96 124 97 68 88 86 96 97 93 92 80 28 21 25 37 54 51 42 43 43 38 48 53 38 23 19 18 16 22 12 5 7 11 11 7 9 12 6 6 9 11 13 14 17 18 14 10 13 13 7 11 19 22 17 17 18 13 19 21 22 29 30 30 30 25 16 8 15 20 34 41 33 26 25 23 25 30 36 20 65 218 228 207 177 83 27 25 24 25 25 32 35 32 30 31 28 30 30 29 28 24 21 28 36 50 48 68 103 119 121 103 126 198 232 233 238 235 237 237 237 237 237 240 188 84 78 76 90 174 229 237 236 238 240 241 241 242 243 243 245 245 239 233 237 244 244 244 244 244 245 240 200 134 118 108 110 118 111 96 82 140 189 148 137 127 129 138 172 172 163 160 201 117 64 46 122 217 224 229 220 215 200 181 151 150 189 203 211 204 164 124 88 36 151 192 105 150 240 238 228 217 208 202 200 206 225 234 228 210 183 151 101 79 183 211 207 218 235 244 241 
154 150 148 147 143 139 141 144 150 148 143 139 138 141 144 143 140 137 131 130 125 128 131 135 142 150 154 158 162 160 160 157 156 156 154 149 147 148 151 155 152 143 139 150 163 172 171 166 162 153 146 136 122 112 107 105 100 94 97 105 126 139 141 140 142 151 158 160 169 167 160 160 161 157 142 121 115 124 143 152 149 148 144 140 137 135 136 137 136 135 140 146 145 140 136 131 121 116 107 93 88 150 106 83 93 92 99 91 90 92 87 54 39 34 36 42 41 35 34 31 30 38 45 46 36 22 17 22 24 14 6 8 11 11 8 9 12 6 6 8 9 11 13 16 16 13 11 13 14 11 7 18 23 15 13 19 14 16 19 22 28 28 27 25 25 20 7 12 22 36 43 37 28 26 28 27 29 36 21 80 237 218 186 153 72 27 25 24 25 28 37 39 33 30 32 27 28 28 25 20 22 23 33 43 55 47 63 101 118 104 88 107 168 217 228 230 233 232 232 234 235 237 240 186 78 74 74 83 169 227 236 236 238 239 240 240 241 242 242 244 242 237 233 237 244 244 244 244 244 244 243 205 131 117 104 105 112 105 85 88 171 180 153 136 131 123 162 180 160 159 192 188 95 58 36 103 215 231 218 210 195 184 163 138 181 213 206 206 186 141 103 73 69 219 145 153 234 238 231 230 209 201 199 203 215 228 224 212 192 165 140 99 73 182 223 214 215 228 234 238 
154 148 145 145 144 143 145 150 157 159 153 149 143 145 152 149 145 143 138 138 131 131 136 141 148 156 159 160 161 159 157 155 154 156 156 152 151 151 152 158 156 146 141 150 161 168 170 165 162 152 146 139 127 115 107 106 102 93 97 112 140 155 159 159 157 160 165 172 179 182 180 180 180 176 167 153 142 138 141 148 145 144 142 142 140 134 134 135 132 132 136 141 142 139 136 129 120 115 107 91 88 167 113 103 97 95 100 90 96 95 92 81 61 46 39 34 36 28 29 31 35 37 50 53 37 23 21 27 14 6 4 8 10 12 9 10 13 7 8 9 7 9 14 15 15 18 15 12 11 12 10 12 16 18 16 14 17 14 17 24 26 27 25 20 25 30 16 7 18 33 41 37 28 27 31 30 30 34 17 96 174 113 163 123 49 25 28 25 24 25 34 36 28 25 28 25 24 21 18 13 18 26 34 40 39 32 24 31 46 83 120 140 165 198 217 223 226 224 224 227 230 233 239 185 72 72 75 79 166 225 235 237 238 238 239 240 240 241 242 242 240 235 231 236 243 244 244 244 244 245 240 202 127 118 107 108 111 111 83 145 192 157 135 132 128 141 179 174 158 160 200 114 118 64 20 142 228 217 205 197 185 167 131 143 211 210 204 200 164 125 98 43 139 219 166 213 235 231 232 208 199 198 203 214 226 227 215 194 168 142 127 96 69 179 229 224 222 228 224 231 
159 152 150 146 145 151 152 158 163 163 161 155 150 149 152 154 151 147 141 132 127 129 136 142 147 152 155 157 165 160 156 156 158 157 154 152 152 153 154 151 153 147 141 147 158 164 164 165 161 152 148 141 124 108 102 102 99 93 93 115 147 165 168 170 170 169 169 170 179 183 182 182 182 182 179 171 158 147 138 144 144 140 139 139 137 135 133 133 134 135 138 141 140 137 137 128 126 114 104 83 105 147 98 107 101 94 103 94 98 100 91 93 87 59 44 43 30 26 33 44 51 65 60 38 17 20 27 23 9 1 6 10 11 11 8 12 13 9 6 9 8 10 14 12 10 16 19 13 8 13 12 10 11 12 12 13 17 16 14 25 26 19 22 21 21 21 9 12 15 28 39 35 24 25 26 20 27 30 32 33 8 47 145 99 39 34 24 20 28 25 28 29 24 23 27 22 18 22 18 13 15 24 31 39 39 38 33 35 70 120 152 161 160 183 202 212 215 214 213 218 228 232 236 187 71 63 63 73 159 224 230 238 236 236 238 239 240 242 243 242 238 231 227 235 245 242 241 240 242 245 243 211 129 114 104 106 112 102 96 183 175 136 126 130 134 175 180 166 155 198 165 85 92 28 112 218 205 201 199 200 166 133 121 188 203 198 195 186 149 115 89 52 189 215 220 235 223 232 219 200 198 208 217 221 229 215 196 172 148 134 122 88 67 173 228 217 222 228 219 231 
158 150 150 148 149 156 157 162 165 165 164 156 154 157 160 158 153 148 142 133 128 131 138 143 148 154 157 159 160 157 155 157 161 157 152 151 151 152 153 152 154 149 143 148 157 160 162 165 162 154 148 140 124 107 101 101 99 92 91 111 142 160 163 165 166 165 164 168 174 176 175 175 177 176 172 169 159 148 139 140 142 141 137 134 133 132 131 132 134 134 137 139 139 136 135 125 125 112 96 76 123 131 93 94 108 106 103 95 97 102 98 97 91 68 47 38 30 25 30 57 77 62 32 15 17 28 34 29 13 3 4 7 9 12 10 12 11 7 4 7 6 8 12 10 8 14 18 12 8 12 11 10 11 12 13 13 16 18 16 21 24 20 21 21 20 19 9 15 20 30 38 30 20 20 21 18 25 29 27 27 16 51 128 109 66 27 19 21 27 29 31 31 33 35 31 19 17 21 17 20 29 38 30 37 43 46 73 109 154 174 174 169 162 180 198 212 218 213 212 217 226 231 234 181 67 56 57 65 152 220 227 236 235 235 237 237 239 241 242 241 237 230 227 235 245 242 241 240 242 244 246 226 132 102 103 106 111 96 148 184 149 137 137 123 157 177 167 166 171 222 104 81 29 78 216 207 197 195 199 179 135 123 160 199 203 191 184 173 135 109 87 73 213 231 235 227 225 225 207 200 201 204 218 224 218 202 175 152 136 128 115 82 58 151 215 217 219 222 216 227 
158 150 150 150 154 160 160 164 166 166 166 155 152 153 157 156 152 148 142 134 130 134 141 145 151 157 160 161 159 156 155 155 158 155 152 151 151 151 153 156 157 151 144 149 156 158 161 165 162 155 148 140 123 107 101 101 98 92 90 107 136 154 158 159 160 159 159 163 168 168 166 168 167 162 160 159 152 142 139 137 140 141 134 129 129 128 129 131 133 134 136 138 138 135 132 123 125 111 92 78 119 97 92 90 103 98 101 95 91 98 94 95 88 77 63 43 31 40 62 81 73 27 17 20 19 22 28 33 17 4 3 5 8 13 12 12 10 5 2 5 5 7 10 8 6 10 14 12 9 11 10 10 11 12 12 13 14 18 16 15 21 20 20 21 19 15 10 12 21 33 38 29 21 19 17 17 20 22 29 20 15 39 102 106 64 23 20 19 23 26 29 33 47 53 38 16 15 19 13 28 45 64 44 32 42 68 103 132 168 192 195 179 162 181 200 213 216 213 210 214 223 231 232 180 64 50 53 59 144 215 225 233 234 235 236 236 237 240 241 240 234 228 229 237 244 242 241 240 242 244 246 237 139 93 107 114 117 127 191 161 148 145 129 136 178 172 169 168 204 172 69 45 36 170 218 199 196 197 186 159 128 153 194 207 204 183 172 160 123 104 70 93 234 240 229 217 225 214 197 202 208 208 220 224 206 186 155 137 127 120 106 74 53 150 215 213 208 208 217 227 
157 152 154 152 154 160 161 162 164 164 164 161 155 153 157 160 156 148 144 136 132 136 143 147 153 157 160 161 159 157 155 153 152 153 154 152 152 153 155 157 158 152 144 148 156 158 160 163 161 153 147 139 122 106 100 99 97 91 90 106 134 152 156 158 158 157 157 159 163 163 163 166 166 166 167 162 151 142 139 138 140 139 133 129 129 127 128 129 131 134 137 139 139 136 132 124 123 109 87 83 120 75 76 79 89 88 99 97 91 98 93 97 96 79 61 54 53 71 80 54 19 11 23 26 27 26 27 31 15 3 4 6 9 13 10 10 8 5 3 5 4 6 10 9 5 7 10 12 11 9 7 8 9 10 10 11 15 15 16 13 17 20 18 20 17 11 12 11 20 32 36 31 27 22 16 16 14 15 21 14 18 35 75 72 38 26 21 16 19 24 30 32 48 58 42 17 13 18 9 25 50 74 60 38 54 110 155 157 168 192 200 181 163 182 204 215 213 211 209 212 221 229 233 184 63 44 51 58 140 214 225 231 232 233 234 234 235 238 239 238 232 227 230 238 242 242 241 240 242 244 245 241 143 85 92 89 90 161 183 150 145 138 116 167 187 172 172 172 210 109 43 19 148 215 208 199 201 189 166 140 130 177 204 217 196 176 167 149 118 108 66 134 245 239 219 215 223 205 195 208 215 218 219 212 192 168 145 133 123 111 100 72 54 159 221 210 201 203 222 232 
157 154 159 156 153 159 159 159 159 160 161 157 154 156 158 159 154 149 144 136 133 138 145 149 153 157 157 157 155 155 155 154 153 155 157 154 154 155 157 157 158 151 143 146 156 160 161 163 159 151 146 139 122 105 99 99 95 92 91 107 135 153 157 158 159 158 157 157 162 162 163 168 168 175 179 165 148 140 140 143 142 136 133 132 130 129 128 128 129 135 138 140 140 137 134 129 121 102 76 77 146 88 63 68 69 71 81 88 84 94 88 84 94 80 70 75 73 59 40 18 7 17 20 26 28 28 27 28 11 1 5 10 11 12 9 8 6 6 6 6 5 7 11 10 5 5 9 12 11 8 5 5 6 7 7 10 16 10 15 14 15 19 18 20 17 8 13 16 24 31 32 29 28 19 14 17 14 15 20 14 16 24 35 29 30 26 16 16 14 16 22 19 37 65 56 16 11 17 6 18 44 55 59 60 89 158 195 187 171 181 197 187 166 180 201 215 216 211 208 209 220 229 233 186 59 34 45 56 139 216 227 230 229 232 233 234 235 237 238 236 230 226 232 239 241 242 241 240 242 244 246 244 151 93 85 69 96 186 164 146 126 127 159 185 176 180 178 202 168 48 21 111 210 201 203 201 190 172 155 149 159 184 207 207 177 165 160 140 113 106 72 186 241 220 213 220 220 198 200 215 218 224 211 191 176 150 132 129 119 101 97 78 52 144 214 219 214 213 222 237 
156 156 157 155 153 154 155 158 157 155 158 151 149 152 156 155 151 148 144 138 137 138 146 151 151 155 158 152 149 151 152 154 155 153 152 152 153 154 155 156 155 147 143 148 156 159 158 160 155 147 144 139 124 106 98 95 94 92 92 110 138 154 158 159 160 160 159 156 159 161 164 166 165 167 168 160 149 143 140 141 140 136 133 133 136 136 129 128 132 137 141 142 139 138 139 133 118 100 66 65 181 137 97 86 61 58 61 64 67 81 81 85 90 83 75 67 50 35 25 15 12 17 22 24 23 20 23 18 4 4 6 6 8 9 8 7 6 6 6 7 7 9 10 8 6 5 8 11 12 10 6 4 4 5 6 8 10 11 14 14 15 20 21 20 14 11 15 16 22 31 30 28 28 21 16 17 17 20 19 16 13 21 30 25 27 21 13 14 12 13 14 15 42 89 92 37 7 19 18 22 34 42 52 69 117 176 217 212 185 176 189 185 158 171 197 212 214 211 206 208 218 227 233 182 59 34 44 50 134 215 228 232 230 232 231 234 237 236 234 233 227 225 229 236 237 238 239 240 242 243 245 240 156 113 111 82 168 185 147 130 113 158 209 197 183 186 198 211 95 9 85 199 207 195 196 190 165 150 153 173 181 193 203 188 168 162 157 134 109 102 77 206 224 209 212 223 209 202 211 216 216 214 195 178 162 141 128 123 114 99 95 74 55 126 191 219 211 219 222 229 
156 155 155 154 153 152 153 155 156 155 155 150 147 149 152 152 150 148 143 139 137 138 147 151 149 152 154 146 145 146 149 151 153 151 150 151 152 153 153 156 153 146 144 148 155 157 156 156 151 142 140 137 124 106 97 94 93 90 91 110 139 155 157 158 158 160 159 158 159 160 162 163 165 165 162 156 149 142 141 141 140 137 134 134 138 138 130 128 134 138 142 142 139 139 139 130 110 89 55 41 169 163 126 110 85 78 72 70 68 73 71 71 64 61 61 51 29 22 16 13 17 24 22 19 27 24 24 10 2 5 6 4 6 8 8 7 6 6 5 6 7 8 8 7 6 6 8 11 12 11 7 4 4 4 7 7 7 12 14 13 15 19 20 18 12 11 14 18 23 32 27 25 26 22 18 16 17 20 16 14 12 16 20 21 22 18 14 12 16 17 19 24 63 129 133 67 11 17 17 33 34 30 35 51 105 170 205 208 192 178 175 166 140 147 173 188 196 192 183 181 195 213 216 157 56 31 40 47 119 197 217 226 222 225 224 225 226 226 226 226 213 201 208 224 233 230 227 224 225 233 236 215 152 125 118 132 195 162 138 130 140 183 198 198 197 192 202 148 24 57 184 201 190 195 190 169 148 155 178 192 187 197 202 182 165 164 157 130 110 90 83 199 205 210 217 220 206 205 206 206 207 193 179 167 150 140 129 114 103 99 100 77 57 139 208 207 197 214 214 218 
154 153 153 152 151 153 155 155 159 161 156 153 148 149 151 151 149 148 143 137 136 136 142 148 145 146 148 142 141 143 145 148 149 150 150 151 151 151 151 154 153 146 142 146 153 156 154 154 147 138 137 134 121 104 95 93 91 87 88 108 140 154 155 156 156 157 157 159 159 160 160 161 164 165 161 154 145 140 143 143 142 139 136 134 136 136 130 129 133 138 141 143 141 140 136 126 102 76 52 23 134 180 144 116 99 97 86 86 84 86 89 86 68 54 49 48 27 17 15 15 17 22 19 18 29 27 24 8 2 5 6 4 6 8 8 7 6 6 5 4 5 6 6 5 4 6 8 11 12 11 7 5 5 5 7 8 8 11 13 15 15 17 17 14 11 10 12 18 24 30 25 23 23 20 17 16 16 18 14 12 15 14 16 24 22 17 12 10 20 21 22 17 63 143 145 71 7 14 12 25 30 17 16 18 51 115 163 161 145 132 118 99 77 80 101 118 129 120 108 102 113 135 129 79 36 30 32 34 66 131 165 180 175 175 175 175 175 176 178 166 142 127 137 156 165 167 165 155 154 167 175 159 138 125 112 172 180 155 144 139 175 204 207 203 194 186 190 69 9 146 207 188 191 188 173 149 146 168 189 197 190 185 188 169 163 169 156 127 112 77 86 213 207 206 214 210 204 201 206 206 190 172 169 162 143 140 132 109 95 96 99 75 48 139 224 202 189 214 212 218 
153 152 152 151 150 155 160 160 164 165 161 160 155 151 153 153 151 148 143 137 134 134 134 141 141 141 145 142 140 142 144 146 148 150 151 150 150 150 150 153 152 146 141 141 148 153 152 152 147 138 137 134 121 103 94 90 90 88 90 109 140 154 155 155 155 155 155 158 159 159 160 160 160 160 159 154 146 142 143 143 142 139 136 133 134 133 130 131 133 136 139 141 142 138 132 121 96 71 57 26 129 187 160 145 110 100 87 87 87 87 90 72 54 44 30 31 16 18 17 17 18 20 20 18 24 21 22 9 2 5 6 4 6 8 8 7 6 6 5 4 5 6 6 5 4 6 8 11 12 11 8 6 5 6 8 9 7 10 14 16 16 16 15 12 11 12 11 13 22 25 25 24 22 18 17 15 15 15 12 10 12 24 39 45 25 14 9 8 18 17 17 8 53 140 149 72 4 10 10 9 17 15 18 10 11 44 61 51 34 28 22 20 19 14 21 21 23 19 12 5 5 13 20 19 23 28 25 20 15 36 47 46 40 42 38 43 46 45 42 39 30 25 30 36 35 35 37 31 27 34 63 98 118 118 130 188 167 155 144 158 201 205 205 184 182 203 136 9 60 204 194 191 186 172 156 151 165 176 179 194 189 167 167 159 167 177 159 125 104 69 74 216 210 205 212 207 202 198 210 199 173 166 169 165 146 136 119 103 97 99 97 71 45 126 219 215 204 218 212 220 
151 150 150 149 148 152 160 162 162 161 161 162 156 151 152 152 151 148 142 136 133 132 133 141 140 138 142 141 143 144 147 149 151 151 151 150 149 148 148 152 151 146 140 139 144 149 151 153 150 142 141 137 122 103 92 87 88 91 95 114 140 156 157 156 156 154 154 155 157 158 160 161 162 162 160 155 146 142 141 141 140 137 134 133 132 131 130 131 133 134 135 139 141 136 128 110 87 65 53 32 132 182 179 187 111 93 91 91 99 94 80 48 23 23 28 39 13 9 10 11 16 22 20 16 20 17 20 8 2 5 6 4 6 8 8 7 6 6 5 6 7 8 8 7 6 6 8 11 12 11 9 7 6 7 9 10 8 8 13 18 15 16 14 11 13 15 12 13 24 23 23 23 18 16 16 15 14 13 10 9 6 40 79 76 32 11 7 6 12 9 11 6 36 104 113 49 6 7 6 8 12 16 21 17 12 18 21 19 9 10 14 11 14 10 14 12 11 10 11 7 3 3 9 13 24 23 19 17 16 12 9 4 5 12 6 10 12 11 9 11 16 18 18 17 17 18 18 17 17 20 40 74 94 97 142 186 165 156 159 192 201 186 193 187 204 184 65 20 111 204 189 185 171 161 155 172 174 175 191 196 167 150 158 160 171 185 164 126 92 52 90 219 205 213 212 203 202 203 195 177 169 175 168 159 151 134 103 98 101 101 97 72 47 128 223 219 214 224 214 224 
152 150 150 148 148 151 155 159 159 158 161 161 155 149 148 148 148 148 141 135 131 130 133 140 141 138 138 139 144 146 148 148 150 150 150 150 149 148 147 150 152 147 139 137 143 149 151 153 149 142 143 138 122 104 91 86 85 90 96 112 138 154 158 154 155 154 154 153 154 156 158 160 163 164 160 153 146 141 141 141 138 138 133 129 130 129 130 131 132 132 134 139 141 134 123 99 78 59 49 32 118 177 201 181 88 92 94 105 102 57 31 18 29 56 80 82 48 21 11 5 7 12 12 13 21 19 14 4 3 5 6 5 7 8 8 7 6 6 5 7 7 9 9 7 6 7 8 10 11 12 10 8 7 7 9 11 10 11 12 17 16 17 16 12 13 14 12 17 24 22 22 16 14 17 15 15 17 13 11 8 5 56 107 98 41 10 8 5 9 6 6 1 7 31 34 7 4 7 5 8 12 15 16 14 14 10 13 17 12 12 13 12 15 11 13 10 12 8 9 9 8 11 13 13 26 24 20 17 13 10 15 14 10 13 14 13 13 14 15 14 17 20 18 19 23 21 19 17 21 26 34 47 61 70 153 194 158 170 191 210 195 157 135 173 210 114 81 45 118 201 187 178 173 158 168 181 168 181 199 180 139 134 153 163 181 187 166 124 83 40 155 240 207 215 206 190 197 200 188 175 177 182 167 150 151 131 101 102 100 97 94 65 45 127 225 213 207 229 221 233 
153 148 151 149 149 154 155 158 160 163 166 163 159 153 149 147 148 148 140 133 128 127 131 135 139 142 140 140 143 147 146 143 145 146 146 149 150 150 149 149 152 147 137 135 142 147 148 148 144 140 140 135 121 103 91 86 82 87 96 108 135 149 160 154 158 158 156 152 152 153 155 155 155 159 156 150 146 137 138 137 131 135 135 129 127 128 129 130 130 132 135 140 141 132 117 93 75 58 52 30 116 195 216 128 75 84 118 123 42 2 38 68 67 63 77 83 78 56 29 18 9 3 6 8 18 20 6 4 5 6 6 7 8 8 8 8 6 5 5 6 7 8 8 7 7 7 7 7 10 13 12 10 9 9 10 10 10 15 8 12 19 16 15 12 10 11 14 20 25 25 25 15 15 17 11 14 16 13 13 9 7 55 94 84 39 8 8 4 8 4 2 0 1 1 2 2 3 3 5 5 11 15 15 14 12 9 7 11 14 13 13 15 14 16 13 13 12 11 9 8 9 12 14 20 27 27 22 19 15 14 14 13 13 13 13 14 14 16 16 16 17 18 19 18 18 20 18 18 19 22 28 35 42 44 159 196 179 191 188 189 197 192 181 189 195 52 90 47 149 203 183 167 164 168 171 167 177 192 171 146 125 128 149 169 189 191 169 124 59 99 234 225 209 211 197 184 195 185 188 186 175 177 167 153 149 129 100 103 97 99 97 60 44 111 220 231 217 230 223 234 
152 148 151 149 149 156 158 159 161 162 164 163 161 156 152 150 150 148 141 133 129 128 130 135 141 145 146 145 144 149 149 145 145 143 143 147 149 150 149 148 150 144 134 134 138 141 142 143 142 139 139 135 121 102 91 88 85 87 94 109 133 150 158 153 153 153 157 159 154 156 156 146 147 155 153 145 142 142 140 137 136 130 132 132 126 127 128 129 130 131 134 139 138 129 112 87 74 58 48 21 101 219 190 89 74 105 115 37 23 64 91 57 35 69 81 69 50 37 41 48 33 20 15 7 7 10 7 6 5 6 6 7 8 8 8 7 6 6 5 5 6 7 7 6 6 7 7 7 10 13 12 11 9 9 11 11 12 13 7 10 17 15 13 13 10 10 17 20 27 27 21 15 20 16 10 19 17 12 11 12 8 28 45 35 13 6 6 5 4 2 2 0 0 1 1 1 2 2 3 4 9 12 14 13 11 9 8 7 9 10 10 14 14 17 11 13 11 13 13 11 11 12 14 24 32 32 25 20 15 15 16 16 18 17 13 14 15 17 18 18 18 18 19 20 22 20 19 19 19 20 26 26 28 23 158 215 203 193 183 187 192 194 202 206 154 30 83 65 203 195 177 163 165 173 172 182 201 178 144 127 118 131 154 171 188 198 175 107 66 207 250 214 211 200 186 184 194 181 172 178 176 171 165 158 138 117 101 98 96 101 95 56 43 109 222 234 223 227 223 237 
150 147 151 150 150 157 159 160 162 162 163 160 159 156 153 150 150 149 142 134 130 129 130 135 143 148 150 149 146 151 150 145 146 142 142 146 148 150 150 147 148 142 132 133 139 141 141 139 136 134 140 139 123 101 90 89 87 85 89 111 135 152 155 156 154 152 145 123 111 107 107 99 106 129 146 143 137 140 137 126 133 132 126 128 127 128 129 129 130 131 133 137 136 127 111 87 72 57 50 26 92 240 129 78 109 103 34 55 95 104 65 33 54 63 56 50 54 69 80 49 25 24 23 17 8 7 8 5 5 6 6 7 8 7 6 6 7 7 7 5 5 6 6 5 5 6 6 6 9 11 13 12 10 10 12 13 15 14 11 11 18 18 12 13 12 10 21 22 24 23 15 13 14 18 15 11 15 13 10 13 12 14 14 9 7 7 4 6 4 0 1 1 1 1 1 2 2 3 4 4 7 10 12 13 11 10 13 11 10 11 12 11 7 16 22 15 16 19 19 18 17 15 18 29 39 41 36 34 24 22 24 24 26 26 25 24 24 25 25 22 22 21 23 25 27 24 26 26 26 26 31 34 40 30 158 222 201 192 190 196 193 191 200 207 90 16 52 137 219 182 162 163 178 186 204 213 188 156 132 120 121 143 168 179 196 191 166 78 149 247 226 214 201 186 184 199 193 184 181 180 176 168 159 149 115 97 99 96 96 101 90 57 50 106 218 230 220 225 226 238 
150 146 151 150 151 158 159 160 162 164 165 161 160 159 157 153 152 149 142 135 130 129 131 137 143 148 150 150 149 150 146 142 145 145 144 147 149 150 149 148 149 141 131 133 141 144 141 138 136 134 144 145 128 100 89 89 91 92 97 118 135 148 133 124 102 74 45 23 15 13 17 20 19 32 66 103 127 143 145 136 133 133 129 128 129 129 130 131 132 132 134 138 136 126 112 91 74 58 50 26 101 223 87 104 101 26 64 90 100 67 34 75 94 69 54 49 58 100 92 43 20 22 23 25 16 8 8 4 5 6 6 7 8 7 5 6 7 7 8 5 6 7 7 6 5 5 5 5 8 10 13 12 10 10 12 12 8 11 15 13 17 23 9 2 3 2 14 13 8 10 13 23 14 4 17 16 13 14 12 10 15 12 7 8 8 8 7 6 6 2 2 5 6 6 6 5 6 6 7 8 9 10 13 14 14 12 10 14 12 5 2 13 31 9 6 8 7 16 19 19 20 18 20 28 35 37 36 37 33 33 33 33 33 34 37 37 38 39 39 37 34 33 35 40 43 42 45 48 49 49 53 62 73 62 150 211 202 194 193 192 191 198 204 197 45 4 38 193 200 170 169 185 205 202 211 198 150 137 128 116 119 147 172 183 197 185 149 113 229 237 224 212 191 182 190 210 193 187 192 182 165 153 141 121 98 96 98 95 98 98 85 55 44 93 208 227 226 240 235 235 
149 146 151 151 152 157 157 160 163 166 168 165 165 165 163 160 156 150 143 136 131 130 132 137 143 147 148 148 151 147 141 139 144 147 148 149 150 150 148 150 149 140 132 134 142 142 141 140 140 140 150 150 131 101 89 91 98 101 99 105 101 79 40 29 22 19 11 12 11 10 11 14 16 8 10 24 42 66 100 128 136 131 129 129 131 131 132 133 133 134 136 138 136 127 112 92 77 61 46 17 98 185 94 112 33 71 80 84 91 57 65 87 83 84 71 73 90 84 49 29 21 17 18 23 20 9 7 3 4 4 5 6 7 6 4 5 8 9 9 6 7 9 9 7 6 6 5 5 8 10 13 14 11 11 14 12 11 13 10 0 3 6 27 97 156 164 159 137 130 144 164 185 171 78 2 11 12 13 14 8 13 13 9 9 3 4 11 7 6 3 4 9 11 12 10 9 10 10 12 12 11 11 14 14 11 8 1 4 14 51 107 169 206 80 1 10 2 9 12 15 16 14 16 22 24 23 22 26 26 25 25 24 23 23 26 29 33 37 40 48 49 48 50 56 60 61 64 69 72 72 75 86 95 85 138 198 191 194 200 192 191 202 201 164 24 6 105 207 200 190 202 191 185 186 182 166 144 132 130 121 124 151 175 185 184 183 139 162 248 225 216 204 197 190 204 205 192 186 186 173 157 145 126 98 86 96 96 95 100 96 82 56 43 85 199 223 226 231 231 234 
147 143 145 151 154 155 158 163 168 169 169 164 161 161 165 164 158 149 144 137 132 129 132 139 144 145 148 151 148 143 139 138 140 145 149 151 152 152 151 148 145 137 130 130 138 141 136 135 136 139 149 155 131 103 97 96 92 80 67 48 28 14 10 10 12 13 14 17 17 13 20 22 16 19 19 26 32 51 51 84 130 132 131 132 130 129 132 132 130 136 135 136 133 124 114 94 77 62 48 25 81 158 106 44 41 82 72 98 81 78 88 75 75 87 93 96 94 71 48 48 50 49 49 41 35 28 13 10 13 15 21 13 5 7 1 0 9 9 9 7 5 6 10 6 4 8 6 5 9 12 13 12 11 10 11 12 16 8 33 101 149 154 187 229 234 232 232 239 237 239 245 244 235 213 90 7 9 12 9 12 17 15 13 8 5 4 3 5 9 8 9 11 8 11 11 7 13 10 7 3 0 2 3 18 27 43 76 133 188 228 245 242 255 180 23 10 7 9 10 10 11 12 13 15 15 15 16 18 19 19 18 18 17 18 22 22 21 27 39 48 52 56 60 65 67 72 73 75 77 79 85 92 93 88 123 200 191 191 198 188 196 202 204 122 12 16 161 209 198 196 202 178 167 170 165 153 140 133 134 129 133 162 174 186 186 170 139 199 236 217 212 205 200 203 209 197 189 184 175 156 143 129 104 90 89 93 95 97 96 95 76 52 47 87 212 221 202 216 231 228 
146 145 147 151 150 149 156 166 172 171 168 166 162 162 164 163 157 151 145 138 133 130 134 141 146 147 149 152 148 145 141 141 142 147 150 152 153 152 151 150 146 138 131 131 138 138 138 138 134 143 155 157 132 83 55 51 41 26 17 15 15 11 11 11 11 11 9 6 14 17 24 25 25 40 32 26 49 94 115 118 137 142 148 140 135 132 131 133 134 134 136 138 135 123 110 92 76 58 44 27 52 169 88 4 65 80 87 103 84 95 95 84 88 93 97 99 96 86 83 73 65 60 54 48 53 50 57 47 35 36 30 23 44 72 59 23 6 2 10 9 3 0 2 4 4 4 4 4 9 14 12 2 9 14 4 4 2 57 202 243 238 236 229 221 218 217 217 213 203 196 186 189 203 218 218 126 6 7 12 10 18 12 5 10 5 2 1 2 5 10 4 9 30 28 22 8 2 16 73 86 91 114 116 140 169 171 206 240 234 222 217 223 234 235 60 7 7 5 8 11 13 12 11 11 15 18 19 20 17 18 20 22 23 24 25 24 23 28 40 47 48 52 57 64 69 73 78 79 81 88 89 90 94 91 115 193 193 190 196 185 192 195 201 81 0 42 193 214 199 188 191 179 169 169 164 152 144 142 140 135 143 171 175 179 174 148 164 225 220 212 207 201 203 205 204 192 188 178 164 145 132 120 99 89 90 93 95 96 96 95 77 49 41 90 219 225 203 215 221 219 
150 146 145 148 148 150 159 167 173 174 172 169 165 164 164 162 157 152 147 140 134 131 136 142 146 147 149 152 147 145 144 145 146 149 151 153 153 153 151 152 149 141 134 134 137 142 140 134 142 149 146 87 39 24 19 17 14 16 17 15 13 9 9 9 9 9 8 7 13 13 15 17 26 55 55 65 104 133 156 166 168 159 156 149 148 143 136 132 133 133 136 141 137 122 107 91 76 57 42 30 49 158 29 20 85 89 107 106 94 89 93 97 98 97 95 93 92 93 84 70 77 80 73 66 50 51 97 83 22 15 39 83 108 110 98 83 73 56 49 54 49 39 29 23 18 10 7 5 5 8 8 15 21 11 42 110 143 195 228 226 222 220 223 220 229 223 226 225 207 189 144 84 121 167 206 217 126 20 19 11 7 7 2 3 3 2 0 0 0 1 6 3 16 20 8 30 8 7 136 236 229 232 196 188 201 177 193 211 207 213 206 212 215 239 117 0 4 2 7 12 14 11 10 13 19 22 22 19 19 21 24 29 33 34 32 32 31 36 48 54 53 51 54 60 66 78 85 85 84 87 90 97 103 103 109 188 190 185 192 186 192 198 191 41 1 90 212 205 199 189 189 178 162 162 156 148 145 150 154 147 150 174 170 169 156 141 194 225 208 203 195 191 197 197 190 183 178 160 147 137 124 107 93 87 89 92 94 96 95 94 75 49 43 92 221 230 214 215 212 215 
156 147 142 146 150 155 162 167 173 176 178 175 170 167 166 163 158 154 148 142 136 133 135 141 145 144 145 147 144 144 145 147 148 151 153 154 154 152 150 154 151 143 136 136 137 138 138 147 142 92 47 17 9 17 13 10 13 10 6 4 7 8 7 7 7 7 7 7 7 8 11 26 35 44 75 129 146 147 149 166 178 170 173 170 168 161 154 141 130 134 138 142 136 120 106 90 74 56 43 31 59 103 3 50 93 94 107 102 91 99 99 100 102 101 96 90 87 83 82 80 83 76 53 34 22 58 100 51 28 73 106 105 91 85 89 92 85 71 72 88 96 101 98 92 88 82 67 49 35 26 29 45 29 93 212 244 248 190 109 184 217 221 229 225 235 230 224 224 213 203 199 112 45 129 212 204 212 146 10 3 5 1 2 4 1 0 0 0 0 2 0 2 5 53 52 111 128 111 88 171 207 203 179 186 188 165 185 209 200 188 181 175 186 202 147 2 7 7 10 13 14 11 12 18 22 25 25 24 25 28 32 37 41 42 42 43 44 51 64 70 68 65 64 65 68 70 72 74 74 76 79 88 93 96 86 168 189 182 191 188 195 210 160 15 3 111 215 206 197 183 181 182 161 153 150 144 144 152 155 146 149 173 168 160 139 168 221 214 202 191 188 182 183 180 173 170 163 142 136 134 117 99 89 86 89 91 93 95 94 93 74 49 40 80 208 225 214 213 206 197 
155 148 146 150 153 156 161 171 177 180 179 180 175 170 168 164 159 155 149 142 137 135 133 137 141 139 140 142 141 143 145 147 148 152 154 155 154 152 151 156 153 145 137 137 140 137 144 138 79 23 7 16 15 11 10 5 6 12 10 7 8 8 8 8 8 8 8 7 9 16 20 41 60 90 110 141 162 163 165 166 195 200 200 192 185 182 182 163 137 136 138 141 135 120 106 84 64 50 41 27 60 47 0 84 88 96 100 107 103 106 101 92 94 99 99 94 89 85 86 87 62 26 17 47 70 105 90 55 88 96 89 88 94 92 99 109 92 68 74 87 98 104 99 92 89 90 85 81 80 79 84 93 125 201 240 221 198 162 162 195 191 192 163 119 178 233 225 225 222 213 205 187 51 60 203 206 186 206 68 0 5 1 1 4 0 0 1 1 1 0 1 1 2 55 150 134 128 101 35 76 199 195 166 177 171 157 180 178 170 162 149 130 150 147 91 0 6 14 14 13 13 11 12 16 20 26 32 36 33 34 38 43 47 49 50 53 56 65 81 87 87 86 85 85 83 70 52 42 45 47 54 64 66 70 50 139 191 183 192 190 197 201 98 6 3 101 206 204 196 183 180 186 160 152 151 148 148 154 156 146 150 173 157 139 147 197 220 215 211 199 190 182 173 168 164 159 154 134 132 125 106 96 89 87 89 88 93 94 93 93 74 51 43 75 207 228 213 210 211 201 
157 150 148 148 152 158 161 171 182 182 176 176 173 171 169 163 158 156 151 142 134 132 132 135 137 138 138 138 138 141 144 146 147 152 153 151 152 151 149 153 155 144 139 137 135 150 121 53 20 20 12 16 14 12 12 9 8 9 9 8 10 8 8 8 8 8 8 6 12 19 27 41 55 110 145 163 180 181 185 193 209 213 212 203 197 202 193 176 149 132 136 136 134 122 107 86 62 46 35 21 82 42 28 112 101 101 99 104 111 106 95 96 100 96 95 103 102 95 89 51 15 23 51 83 107 115 96 90 80 72 70 71 79 95 105 102 91 83 88 90 93 96 96 96 93 91 83 76 78 82 151 209 209 195 206 224 190 188 218 208 200 202 176 64 32 104 134 215 235 218 202 205 147 10 97 197 200 227 162 11 7 3 4 0 0 0 1 1 1 0 1 1 1 0 23 0 7 19 1 8 144 190 155 162 146 135 171 160 147 132 116 89 65 43 25 17 17 22 19 14 12 13 14 17 24 35 43 45 42 44 42 50 51 56 55 56 64 78 88 95 99 101 103 103 101 79 43 22 22 24 27 33 39 45 22 105 198 186 187 187 204 188 52 10 11 71 195 197 189 182 178 177 152 152 158 152 150 152 156 153 155 159 144 131 169 203 197 213 222 213 191 173 167 165 159 154 145 135 131 119 104 98 89 86 94 92 92 91 96 93 71 55 48 82 215 231 217 212 220 216 
157 150 150 147 150 159 165 171 179 178 171 168 166 166 168 164 158 155 151 141 131 130 132 134 136 138 138 138 137 140 143 146 148 152 152 151 154 152 147 149 152 143 136 133 149 125 54 18 16 10 9 10 10 10 10 10 11 10 10 9 9 8 8 8 8 8 7 8 12 15 22 31 48 102 170 207 194 176 193 205 210 208 206 205 205 206 199 188 155 139 130 133 126 114 106 86 59 42 33 24 84 43 69 114 106 112 103 95 94 99 100 99 100 96 100 103 96 85 42 12 29 66 81 85 96 100 90 77 79 70 67 74 88 99 100 101 103 99 92 92 89 88 89 86 83 85 89 80 64 151 225 222 208 201 187 174 132 167 234 214 204 197 208 175 27 0 1 76 218 231 217 183 177 100 27 128 222 220 220 43 1 0 5 0 0 0 0 0 0 0 0 0 0 1 3 3 1 12 3 0 78 178 140 129 129 136 156 136 88 43 21 16 14 17 22 26 29 24 20 16 15 17 18 25 36 42 46 51 49 48 45 54 53 56 56 59 68 81 92 100 106 112 114 114 110 88 50 30 24 22 23 28 38 50 60 84 188 181 189 194 212 156 16 17 6 59 203 200 190 181 173 170 148 146 158 154 155 158 160 157 155 145 131 135 181 181 184 204 219 213 189 170 162 158 151 147 140 136 130 116 103 95 89 88 93 92 92 92 99 90 65 56 50 81 213 231 219 212 219 217 
159 154 155 153 152 160 167 173 178 179 175 168 169 169 172 168 158 153 149 140 131 131 134 136 138 140 140 139 138 139 142 145 148 151 152 154 158 154 148 147 149 143 139 135 114 58 23 24 15 17 12 10 8 8 10 12 13 12 10 8 7 7 7 7 7 7 7 10 12 11 14 22 34 72 154 199 190 183 192 201 206 210 204 197 201 197 198 201 178 153 140 128 128 117 107 82 57 40 31 22 79 66 93 103 107 110 108 96 87 91 101 105 100 98 102 91 67 36 18 43 86 100 94 93 91 86 76 69 73 76 76 91 103 105 102 95 98 102 102 102 96 90 87 81 74 74 82 71 91 209 223 212 214 211 207 198 105 53 188 232 217 207 198 207 160 78 130 73 106 223 218 176 139 154 109 65 139 173 130 30 0 2 2 1 0 0 0 0 1 1 1 0 0 1 3 0 0 1 0 0 13 140 120 101 120 127 84 38 5 2 12 19 24 26 28 32 36 34 28 21 19 21 22 29 42 50 54 58 57 54 52 57 55 51 52 57 63 74 89 93 98 105 107 103 99 88 63 48 41 38 47 54 53 74 94 138 180 179 183 186 199 117 19 27 8 121 203 198 185 175 162 158 144 150 160 156 156 159 158 157 156 142 126 149 181 159 193 212 219 195 176 170 163 159 155 144 140 138 131 113 97 88 89 93 88 89 93 96 100 82 59 54 50 79 212 240 226 205 209 207 
163 158 160 157 157 163 167 175 181 186 190 200 208 206 203 193 169 153 149 141 134 133 135 137 139 141 141 141 139 139 141 144 149 151 151 154 158 155 150 149 152 149 147 125 55 30 34 26 9 9 14 12 11 11 13 13 11 10 8 7 5 6 6 6 6 6 6 6 9 9 11 18 23 47 131 180 166 162 177 199 194 185 183 170 169 174 185 205 224 231 154 57 87 111 96 76 55 40 26 10 90 102 104 103 108 103 109 104 99 96 97 100 99 102 96 65 34 29 47 77 99 104 104 106 101 87 73 66 66 74 84 103 113 108 101 88 85 92 99 98 100 104 100 86 75 76 71 72 152 220 210 216 217 215 209 210 208 70 10 124 222 225 209 192 203 180 204 205 122 132 219 185 153 137 183 192 61 24 7 0 1 3 1 3 0 0 0 1 5 3 1 0 0 1 1 2 2 0 2 2 0 90 79 50 46 20 3 5 10 14 19 19 22 29 31 31 32 37 30 23 23 27 33 39 46 57 61 53 57 55 56 55 55 47 41 44 48 58 74 80 83 89 89 83 78 76 64 60 57 60 75 82 66 62 143 224 198 178 190 191 192 121 27 12 41 173 201 194 179 170 154 150 144 152 161 157 158 160 160 163 160 139 123 157 165 158 202 218 204 176 169 168 164 162 161 149 142 136 125 105 91 86 89 93 86 90 94 98 99 78 56 49 47 75 210 249 228 207 211 206 
163 156 156 154 156 162 165 175 181 190 198 213 229 226 219 200 168 154 152 143 136 135 137 139 141 143 143 142 140 139 140 144 150 152 149 150 154 154 151 150 153 152 139 86 38 33 26 19 15 10 11 12 12 12 11 10 6 6 6 5 5 5 5 5 5 5 5 6 8 7 9 15 27 32 70 105 106 122 134 159 172 163 167 166 151 152 173 188 224 188 84 2 31 94 85 67 48 36 24 8 70 120 111 117 109 104 101 98 101 103 100 97 94 94 78 52 43 65 81 95 97 93 99 95 82 90 89 72 69 71 87 103 107 101 97 90 82 84 94 93 98 99 91 86 84 82 77 109 201 216 203 195 188 230 224 206 213 182 106 53 93 190 229 204 187 182 174 202 230 129 179 202 152 175 149 64 17 2 5 5 2 0 3 2 1 0 0 2 7 6 1 0 0 0 0 1 1 2 1 1 0 56 86 28 2 9 7 8 11 12 9 15 25 36 43 47 50 55 56 55 52 48 41 39 47 49 53 64 56 54 59 49 52 46 34 30 34 46 59 65 69 73 75 73 70 64 58 57 54 63 76 80 49 78 205 225 195 181 192 191 180 129 41 31 68 121 202 188 168 162 146 146 144 150 160 156 158 161 160 166 161 134 113 159 171 175 189 195 177 167 169 168 167 165 164 155 140 124 110 92 83 89 91 89 89 92 95 95 95 77 55 48 47 64 196 240 218 200 202 193 
160 152 150 148 152 158 161 169 172 181 197 223 240 237 228 204 166 154 151 145 137 137 137 139 142 144 144 143 141 139 141 145 150 151 149 148 151 153 152 153 153 154 120 51 39 34 21 14 13 11 9 11 12 12 10 7 5 5 4 5 5 5 5 5 5 5 6 11 10 8 9 13 23 22 26 41 60 98 106 116 151 143 135 161 161 155 165 165 178 55 30 62 47 64 65 55 39 29 23 14 26 122 106 115 111 95 92 88 94 101 102 103 92 75 54 53 77 97 98 102 105 99 88 63 58 91 105 88 73 80 99 103 92 83 85 95 94 92 92 83 88 88 81 82 89 93 77 122 221 211 187 110 38 121 207 220 208 206 197 167 111 73 172 217 188 171 167 163 199 178 89 196 167 183 174 35 0 6 5 3 4 0 0 0 1 0 0 2 6 4 1 0 0 0 0 0 0 2 1 0 3 29 75 34 9 12 7 10 9 6 8 11 26 48 88 113 103 83 81 81 76 65 54 42 45 55 81 106 117 123 110 66 47 42 35 30 30 41 47 48 50 57 62 62 62 58 54 49 42 49 64 66 30 160 205 200 194 168 140 178 164 60 43 53 19 91 197 170 152 145 132 132 142 157 162 153 152 151 153 161 147 130 136 181 193 186 179 176 164 162 160 163 170 176 176 160 134 111 97 82 80 91 91 86 92 95 96 94 93 78 56 50 51 56 173 226 207 199 202 194 
159 153 146 143 144 143 147 154 157 163 199 233 243 240 234 205 165 155 148 145 136 137 137 139 144 147 147 144 140 140 142 145 148 148 148 150 151 152 153 155 156 147 93 47 32 24 16 12 18 15 13 13 14 13 11 10 8 6 5 5 7 5 4 4 4 4 5 9 10 12 14 14 15 16 15 17 36 54 55 97 116 98 91 122 149 158 149 148 138 43 109 197 149 50 36 32 26 21 23 26 16 95 119 96 105 98 93 93 90 93 97 93 81 68 54 60 84 95 102 104 97 85 72 61 75 96 90 90 96 102 101 92 84 76 76 82 89 105 110 93 90 86 82 84 83 74 64 109 228 208 174 68 2 3 63 164 221 196 187 185 157 124 84 181 202 176 171 181 136 45 5 148 206 191 212 98 3 0 0 6 12 46 77 15 0 1 1 1 1 1 1 1 1 1 1 0 4 3 0 1 22 78 158 71 2 11 8 11 10 7 7 15 42 35 51 129 158 88 91 93 87 96 90 60 54 76 108 102 99 109 103 75 46 44 43 44 40 43 41 40 31 28 30 35 41 39 29 25 27 32 38 31 59 205 155 181 195 193 161 152 159 106 38 30 12 108 188 162 144 131 124 129 144 158 160 152 154 154 155 150 148 171 203 203 180 173 179 172 160 161 161 167 167 183 190 163 131 104 87 83 88 90 87 86 90 100 98 94 94 78 56 51 51 53 159 217 210 202 207 204 
154 143 136 137 135 131 137 140 141 136 186 235 244 244 242 211 169 157 147 143 137 138 138 139 144 146 146 144 139 139 140 142 145 147 147 149 150 151 153 156 164 127 62 51 29 20 19 20 22 17 14 12 11 11 11 11 8 7 5 5 6 4 3 3 3 3 2 2 7 12 16 15 10 10 9 5 10 16 32 74 68 82 79 92 123 141 142 135 125 108 192 246 151 19 21 19 15 15 18 23 17 48 137 91 95 99 98 101 92 81 78 74 71 73 77 85 98 98 92 86 77 71 70 75 95 103 87 84 88 92 94 91 91 88 88 89 89 99 100 98 95 92 88 80 71 77 72 58 218 195 157 55 8 8 0 18 120 194 192 215 190 175 212 122 144 196 187 213 203 98 5 25 125 124 103 36 1 24 46 105 105 62 58 3 1 1 1 1 1 1 1 1 1 1 1 1 1 2 13 46 58 42 61 31 10 8 9 11 11 10 10 21 34 30 41 142 180 36 23 59 94 79 107 81 53 61 52 51 61 60 71 77 49 53 52 56 53 48 40 27 44 46 51 57 54 56 59 56 51 38 29 16 120 198 137 142 176 187 183 162 145 142 67 30 8 126 175 154 135 120 120 135 153 164 163 156 154 153 140 143 192 210 198 176 166 178 183 174 170 173 177 178 176 197 202 169 130 96 81 83 91 90 86 85 91 100 97 94 94 78 56 50 45 49 163 212 216 215 215 207 
146 134 129 134 133 132 131 136 131 142 200 242 249 247 245 217 175 157 148 148 142 140 142 144 145 145 142 139 139 138 138 140 143 145 146 148 149 150 151 156 167 110 45 49 26 22 24 27 22 14 16 14 11 11 13 13 10 8 5 4 5 3 2 2 2 2 2 2 7 11 11 9 6 5 4 2 7 14 30 38 48 70 64 81 131 149 152 141 137 172 229 243 151 5 14 14 13 15 18 23 23 25 110 121 92 89 91 97 88 73 69 63 67 83 98 107 109 101 85 76 65 64 73 77 92 105 98 88 78 75 74 81 92 101 105 97 90 95 95 86 83 87 90 85 77 88 59 9 151 197 132 46 0 3 3 3 9 172 215 208 181 100 70 18 15 144 199 214 229 139 3 0 0 2 34 74 86 102 70 35 17 0 0 0 1 1 1 1 1 1 1 1 1 1 2 3 0 9 41 67 101 99 34 6 12 9 11 12 13 14 14 16 14 13 24 57 66 34 23 85 155 92 134 133 73 54 52 59 45 15 29 73 48 52 55 60 54 37 25 34 131 161 169 174 175 134 133 126 106 84 58 93 169 152 135 150 164 163 152 152 143 137 59 31 20 144 168 146 129 114 123 145 164 175 163 152 141 137 137 180 215 189 181 175 178 192 189 181 188 191 186 189 197 212 201 178 118 83 84 87 88 87 89 91 93 94 94 93 94 78 55 47 39 54 171 210 216 224 223 216 
153 145 138 139 137 138 139 148 152 205 248 243 249 244 245 233 199 168 153 149 143 141 143 145 146 145 141 138 140 139 139 140 142 144 146 148 149 150 151 154 152 82 36 33 22 24 26 31 23 16 17 17 15 15 14 14 11 8 5 4 4 3 3 3 3 3 3 4 6 7 6 4 4 3 2 4 12 20 28 33 48 52 49 91 149 164 159 142 141 183 213 233 190 45 18 34 23 17 20 26 29 28 52 124 104 93 83 81 74 74 83 66 70 87 97 98 92 85 72 71 67 73 80 77 83 97 100 94 88 72 61 74 94 104 106 100 93 93 89 92 85 78 80 87 95 103 51 12 39 147 127 38 0 4 2 4 2 72 78 45 28 0 0 3 0 15 103 153 126 33 1 36 56 98 125 94 32 9 0 0 0 1 1 4 1 1 1 1 1 1 1 1 1 1 1 0 1 2 8 6 51 47 4 16 13 17 14 12 14 18 18 17 17 19 21 15 26 34 30 26 36 49 67 69 57 50 35 29 29 20 40 77 41 46 49 50 41 21 13 41 80 70 115 179 161 105 107 126 164 160 105 134 183 161 123 146 199 204 151 112 151 117 45 29 23 124 166 133 122 116 137 164 177 174 155 144 136 135 143 193 190 172 183 182 194 199 191 190 199 201 189 197 204 197 178 155 100 78 89 89 84 85 89 95 95 91 92 92 94 77 54 44 43 65 175 209 216 222 230 230 
158 155 150 151 157 158 165 163 172 239 249 246 253 243 240 237 216 186 157 145 139 140 139 141 145 147 146 143 141 141 140 141 142 144 145 147 148 149 151 162 143 66 41 29 23 22 25 32 26 23 18 19 20 19 16 14 11 8 5 3 3 5 5 5 5 5 5 4 4 3 4 4 4 2 1 4 8 10 24 33 56 97 75 96 149 173 168 150 149 163 172 205 230 207 102 26 32 34 31 26 27 39 47 81 110 79 71 71 69 64 60 67 88 98 95 85 71 61 55 68 72 85 85 82 89 87 86 88 88 84 85 92 96 88 86 90 91 97 97 84 81 78 74 77 83 98 32 15 3 31 88 35 3 2 3 21 14 0 0 0 5 3 5 0 0 0 10 75 108 133 110 123 73 50 10 0 1 2 7 2 3 3 1 1 1 1 1 1 0 1 1 1 1 1 1 5 9 3 9 18 17 8 14 16 14 12 14 12 15 20 20 18 28 49 49 49 46 34 21 16 12 23 43 48 29 22 19 19 42 33 32 59 34 42 40 39 30 14 12 80 77 51 106 236 188 43 150 189 221 187 68 146 210 179 176 108 214 255 192 40 133 148 63 19 21 75 144 120 113 120 152 183 190 179 153 142 136 138 141 196 182 159 157 170 194 192 186 194 199 200 193 203 191 165 155 115 88 82 88 86 86 86 87 92 95 93 91 92 95 78 52 45 53 72 171 207 218 218 232 240 
168 161 167 195 221 228 223 218 220 234 246 244 239 238 241 240 234 211 172 147 141 141 140 142 145 147 147 145 139 143 142 139 142 144 143 146 149 151 152 161 132 60 37 24 20 29 33 28 20 17 22 18 23 22 14 11 8 8 7 6 4 9 8 5 5 6 6 2 3 1 0 1 4 1 3 3 2 11 42 47 67 93 71 97 170 195 191 172 161 160 157 177 215 237 166 76 63 35 17 17 24 42 48 51 73 79 65 64 65 63 55 61 70 78 82 74 65 57 52 68 68 78 81 89 91 86 82 70 75 88 96 98 99 86 75 79 83 93 93 86 90 79 76 77 78 77 34 6 0 2 4 4 4 1 7 36 23 4 7 3 4 0 0 37 78 135 169 176 158 104 32 7 0 0 0 2 2 2 1 0 0 0 0 1 1 3 2 7 9 0 3 4 0 3 15 8 2 8 13 16 18 17 16 14 16 16 15 12 16 21 23 22 31 46 63 80 85 65 78 82 89 95 94 105 103 81 74 66 45 40 37 35 35 37 35 36 31 23 15 20 60 62 62 126 71 53 115 158 205 136 94 206 206 71 69 49 67 95 139 108 146 173 63 9 29 33 83 110 116 149 178 196 189 181 159 146 136 139 139 180 187 161 152 158 168 172 173 187 195 192 199 194 171 147 127 95 80 82 90 82 81 84 84 87 92 96 94 89 91 67 41 44 63 86 177 211 215 222 236 240 
176 169 203 241 248 249 250 244 239 235 234 236 235 239 245 248 248 239 190 144 138 143 140 140 143 143 142 141 140 143 143 141 144 143 141 143 146 148 150 156 114 59 38 25 29 33 36 30 21 16 20 21 21 22 18 10 8 6 4 4 6 9 10 10 9 8 6 3 4 1 0 2 1 2 8 2 3 25 54 55 53 56 60 118 195 203 196 176 159 159 160 157 113 99 171 229 230 191 131 61 22 41 69 69 58 68 68 50 39 42 47 58 54 45 47 54 60 69 75 86 81 75 72 85 95 95 87 73 76 83 95 93 91 99 80 86 82 91 84 65 84 83 90 95 77 65 166 153 99 47 1 1 4 5 1 2 3 5 8 2 45 111 117 199 225 151 70 21 0 0 2 3 3 2 2 2 2 2 1 1 1 1 1 0 3 2 0 38 152 47 0 3 41 76 35 18 9 11 15 17 19 19 17 16 17 20 18 17 20 25 24 19 24 33 23 8 15 23 21 18 35 50 46 46 49 41 23 20 11 27 43 39 34 35 37 35 36 32 20 45 127 114 52 9 34 73 59 96 189 172 79 103 76 38 45 64 43 31 138 176 241 176 34 20 32 26 24 48 104 170 200 208 186 169 156 132 122 135 125 150 200 169 152 150 152 163 177 186 191 197 199 177 146 124 98 85 77 87 87 82 86 83 84 86 91 94 96 95 81 55 44 52 68 89 180 210 219 225 232 232 
169 173 220 249 248 250 248 246 243 238 234 235 237 243 248 252 252 246 204 148 138 143 143 145 147 150 153 152 142 143 142 142 142 145 147 148 150 151 153 149 99 56 42 28 36 37 36 31 23 17 18 22 17 21 21 11 10 5 2 4 7 6 8 9 9 6 4 5 5 2 0 3 3 1 6 5 8 26 33 53 53 48 52 121 171 167 172 171 160 163 163 151 107 102 215 239 227 228 250 240 163 55 69 74 71 70 69 70 69 60 51 37 29 29 35 41 44 56 82 89 83 82 76 78 88 93 89 83 85 82 78 74 74 123 85 87 103 76 74 71 68 69 85 97 97 44 95 126 88 22 3 1 0 2 4 4 1 19 168 177 155 199 126 60 14 4 0 1 5 6 2 2 3 2 2 2 2 2 2 2 2 2 2 3 5 2 11 122 181 70 1 4 60 122 28 17 13 12 14 18 20 19 18 18 21 22 21 20 22 25 21 25 27 26 29 34 39 53 27 37 33 21 35 31 15 4 7 22 38 43 42 35 31 31 33 28 35 44 39 68 148 95 58 48 56 32 52 82 85 72 68 121 135 56 45 53 38 42 30 53 149 73 27 26 18 13 12 9 28 119 164 165 167 157 150 147 133 114 67 53 164 187 149 135 145 152 169 182 203 212 192 153 122 109 87 78 80 88 83 82 85 81 83 85 87 89 95 95 65 43 50 65 82 87 170 204 231 231 230 232 
201 211 237 245 246 253 250 248 246 244 243 241 245 250 250 250 249 244 225 191 185 186 187 187 185 183 183 183 178 172 166 161 155 153 154 155 156 157 157 152 103 48 39 32 34 34 31 28 22 15 16 18 15 18 18 13 12 8 6 6 9 5 5 5 5 3 2 7 7 4 2 5 9 3 3 9 14 22 35 62 45 26 48 128 167 179 171 162 167 164 164 182 201 169 210 234 232 230 228 238 254 168 50 54 53 56 56 60 64 70 79 74 56 37 25 20 20 39 60 68 66 72 77 71 77 81 78 79 89 81 59 57 70 117 90 110 100 73 90 81 59 73 89 93 83 35 95 47 2 3 3 7 7 1 2 6 4 15 119 149 68 16 0 0 0 7 1 5 4 3 3 2 1 2 2 2 2 2 1 1 1 1 1 3 2 0 47 144 78 14 9 11 20 106 52 5 13 10 12 17 19 18 18 19 22 24 21 19 21 26 27 26 26 25 33 44 36 44 56 46 57 50 18 10 2 6 34 47 47 40 42 55 60 54 37 34 83 113 71 57 81 45 42 56 41 16 21 82 95 60 100 120 79 18 17 29 43 50 38 22 34 25 28 24 70 88 59 32 3 102 163 127 123 141 141 179 154 76 43 4 98 189 150 123 129 153 169 166 161 176 158 130 110 91 77 74 79 79 75 77 79 79 82 84 85 85 90 80 50 42 58 67 84 94 171 207 229 226 227 236 
248 252 252 249 247 250 252 252 250 247 244 243 250 255 251 250 249 244 244 242 242 245 241 236 231 227 226 227 224 219 218 217 212 211 211 212 212 212 213 215 157 56 38 37 29 29 25 24 21 14 15 9 13 16 13 15 13 12 11 11 10 9 7 5 4 4 6 8 8 5 2 6 11 11 11 6 7 26 57 56 39 22 52 127 160 169 166 167 177 188 202 217 231 211 222 234 236 225 213 223 239 231 75 29 29 32 41 42 42 44 53 55 52 47 42 33 24 19 10 33 46 48 65 72 87 93 81 74 79 85 79 66 63 99 91 113 87 68 91 60 46 67 89 90 69 19 24 5 6 6 2 7 6 3 3 0 3 5 0 0 0 3 5 5 4 4 2 1 4 5 2 4 4 2 2 2 2 2 0 0 0 0 0 1 1 5 27 37 10 16 19 7 29 124 54 2 17 13 12 14 15 17 17 18 21 23 17 15 23 35 46 39 30 33 38 43 45 44 56 64 50 27 17 8 6 37 49 42 37 38 44 53 57 60 60 58 84 101 85 56 42 46 51 57 37 4 11 55 47 40 96 127 49 15 23 29 37 40 30 40 30 22 24 48 133 181 187 160 99 126 180 174 132 97 125 205 173 84 50 16 52 183 157 123 166 208 216 199 168 178 158 146 146 137 153 163 98 71 77 79 75 78 81 83 83 82 84 60 41 49 62 64 86 101 169 210 226 215 213 223 
253 253 252 253 252 250 250 251 250 247 244 245 249 251 250 251 250 246 246 246 245 246 245 244 243 242 242 243 244 243 245 248 247 246 244 242 242 242 244 254 196 63 46 36 26 29 25 22 17 14 12 11 16 16 13 11 10 14 16 13 7 5 3 2 5 8 7 7 11 2 7 13 14 15 13 3 12 42 50 23 23 47 81 124 144 154 170 174 184 203 217 225 231 228 222 226 233 219 208 215 242 250 110 22 33 28 43 48 44 38 39 39 29 25 30 30 33 38 27 76 172 71 33 41 54 67 70 70 79 75 72 72 82 94 71 81 82 69 78 63 37 66 88 89 65 16 0 3 2 3 4 1 0 1 2 0 2 5 3 2 4 3 1 2 2 1 3 1 3 4 2 3 5 2 1 1 2 1 0 0 0 0 0 2 2 1 3 10 22 26 28 15 16 59 19 5 13 11 11 15 17 17 17 20 22 20 18 18 18 37 56 49 32 35 42 48 51 43 40 75 69 25 12 29 52 47 35 27 27 21 30 45 50 52 59 58 53 58 66 66 61 61 57 72 86 66 11 10 9 12 49 86 54 24 21 17 20 28 49 52 27 26 29 86 149 198 202 211 210 206 184 149 101 115 152 193 180 100 59 37 59 190 163 120 171 244 255 255 255 255 244 239 244 242 255 249 149 67 81 76 75 79 82 80 78 83 75 46 38 55 67 76 97 102 161 210 225 221 219 228 
254 253 252 251 251 251 252 252 251 247 244 246 246 246 247 248 248 247 247 247 247 246 246 246 247 247 247 247 248 248 247 246 246 248 248 246 246 247 249 255 187 55 49 39 30 28 24 20 17 16 15 16 17 16 12 10 11 14 16 12 7 7 3 1 4 5 3 2 3 12 21 11 8 6 7 8 21 48 27 19 45 61 72 110 132 145 161 166 182 205 222 231 234 234 221 222 216 187 201 230 239 196 80 41 39 45 48 54 51 48 54 53 33 26 31 29 29 31 27 74 176 52 22 23 19 19 27 36 41 44 40 46 61 65 69 85 79 69 64 65 45 71 93 96 69 12 1 4 0 2 1 2 2 0 6 16 2 2 2 2 2 2 2 2 2 2 2 2 0 0 0 1 3 2 2 6 5 1 2 2 1 1 0 0 3 1 0 2 16 35 34 30 28 46 21 4 11 11 9 8 13 14 14 20 23 20 18 25 23 27 34 24 22 26 36 47 45 36 11 19 70 38 13 79 102 86 69 58 52 40 35 30 34 44 50 58 61 70 68 62 61 64 53 59 72 50 34 16 17 23 21 22 27 26 19 16 29 35 30 28 29 34 59 122 191 204 187 201 207 196 159 146 160 207 193 179 193 144 93 64 54 174 170 98 111 238 255 249 238 242 251 245 239 234 239 234 171 73 81 79 82 81 77 78 83 80 53 39 45 61 74 95 110 89 148 214 226 229 225 229 
253 252 252 250 250 250 252 252 250 247 244 243 243 243 244 244 245 246 246 247 247 248 248 248 248 248 248 248 249 249 248 248 247 246 246 246 246 247 249 251 165 49 46 32 29 28 24 21 19 17 19 17 15 13 12 13 14 13 13 12 11 11 8 4 3 2 1 2 12 23 20 10 10 5 10 15 20 38 25 42 70 74 75 106 129 138 152 159 173 191 208 223 228 229 228 222 221 197 194 207 130 50 46 40 39 36 44 46 46 51 63 62 38 27 32 29 25 23 20 93 100 13 19 25 33 32 38 49 44 51 31 23 28 20 18 26 25 25 29 30 28 38 56 59 44 10 1 4 0 1 1 4 3 0 8 23 2 2 2 2 2 2 2 2 2 2 2 2 0 0 1 3 5 3 3 6 2 1 2 2 1 0 0 0 2 1 2 1 4 25 39 28 19 41 12 7 12 10 4 1 5 6 10 18 22 22 20 22 25 28 21 10 21 30 49 42 21 11 8 19 105 80 27 98 93 102 103 71 62 67 67 48 35 38 42 51 59 67 69 67 66 61 46 41 44 14 70 113 38 27 27 31 33 24 22 29 25 23 14 23 29 42 91 151 212 192 185 195 205 199 158 165 203 205 184 174 199 186 110 86 76 172 162 78 87 229 255 247 217 225 240 238 229 224 223 223 185 82 80 87 86 82 74 83 91 66 38 43 54 61 75 100 109 87 151 219 219 214 220 225 
252 252 251 250 250 249 250 250 248 245 242 242 242 241 241 241 241 244 244 245 246 247 248 248 248 248 248 248 247 248 248 249 250 247 245 246 245 245 246 239 143 59 51 35 31 29 28 25 19 16 17 16 13 14 17 17 13 12 11 11 12 9 8 5 3 3 7 14 19 21 20 15 12 8 13 23 27 29 49 62 50 64 77 85 109 128 142 150 157 173 184 197 198 197 202 200 222 197 165 122 27 47 50 43 40 39 36 30 28 37 52 56 36 23 23 20 20 18 24 129 50 8 28 41 48 44 47 61 65 59 31 24 25 14 11 2 0 0 2 1 4 1 8 7 6 7 1 3 1 1 3 2 0 0 2 5 2 2 2 2 2 2 2 2 2 2 2 0 0 0 4 7 12 9 7 6 1 4 1 0 0 0 0 0 0 2 0 0 2 3 29 35 25 40 11 9 9 4 0 0 2 3 5 13 19 18 18 24 24 23 44 48 28 39 52 27 24 80 45 40 174 160 18 41 53 63 74 58 28 34 59 67 46 31 30 34 52 70 80 82 75 60 41 25 30 33 71 121 126 102 37 18 30 50 31 23 20 16 17 33 38 73 118 188 221 200 184 185 194 198 175 171 201 193 186 174 172 178 127 65 65 179 144 52 94 227 246 249 233 218 217 228 226 221 222 227 199 93 81 85 83 81 81 90 83 49 37 47 58 61 80 106 112 91 145 215 225 221 233 235 
251 251 250 249 249 248 246 246 244 241 238 241 242 241 240 239 239 239 240 242 244 245 246 246 246 246 246 246 244 243 243 242 240 240 241 242 239 237 237 224 120 60 45 34 36 35 28 21 17 16 17 17 15 16 17 16 10 10 9 9 8 7 8 7 3 4 9 9 12 21 18 9 4 17 13 7 24 29 54 42 31 45 58 70 97 120 135 141 144 165 168 174 170 168 174 186 218 193 151 188 149 60 44 42 33 37 32 20 16 28 45 49 33 21 16 13 20 8 66 113 19 26 41 51 52 48 56 73 68 42 23 27 22 9 14 8 8 5 3 2 1 0 1 0 0 4 1 3 2 1 3 0 0 1 1 0 2 2 2 2 2 2 2 2 2 2 2 2 1 1 3 4 0 0 0 1 0 1 2 3 3 4 5 10 18 5 16 18 1 0 9 22 23 28 4 6 8 5 1 3 4 2 4 10 12 11 12 12 11 31 105 107 40 71 58 56 119 158 108 37 113 132 58 32 50 60 59 32 26 18 34 49 28 12 19 17 46 72 80 77 68 46 31 13 20 22 11 36 165 137 29 20 40 56 25 19 20 17 15 17 45 120 172 228 215 191 193 196 202 208 203 189 202 204 198 185 163 160 174 123 92 167 116 49 165 234 229 236 223 213 217 227 199 178 204 228 221 118 84 84 86 82 88 90 64 42 43 49 60 67 85 105 113 93 146 218 229 240 240 235 
251 251 251 250 249 246 243 243 242 239 236 241 242 242 240 240 240 241 241 242 243 243 244 245 245 245 245 244 240 237 233 230 226 226 226 227 227 220 214 170 84 53 39 44 45 37 21 14 17 22 22 21 18 17 14 11 9 10 8 6 4 8 10 8 4 2 6 7 8 4 13 70 136 163 131 52 17 38 51 32 39 56 70 90 111 123 131 137 139 151 153 159 161 162 175 194 202 219 218 234 247 186 60 29 33 32 30 16 14 28 47 50 35 23 16 14 17 5 109 78 15 44 53 59 61 59 61 67 56 31 26 33 25 15 14 7 6 4 3 2 0 2 4 2 4 3 1 2 1 1 1 0 2 4 1 3 3 2 1 2 1 1 1 0 2 5 6 8 5 4 1 16 39 42 50 55 31 6 4 5 9 11 10 21 45 23 53 65 26 13 1 0 27 77 15 3 8 11 9 6 7 7 3 6 10 7 5 5 10 7 10 50 116 132 47 68 117 164 124 19 49 59 55 22 50 53 36 23 40 31 35 48 31 13 11 6 36 60 62 65 55 32 23 7 14 16 23 40 92 129 55 72 76 18 17 31 21 15 9 23 131 205 216 217 207 198 197 196 198 198 201 191 193 192 184 181 163 148 158 173 145 144 94 92 225 194 201 218 207 195 193 215 176 167 211 224 229 151 89 88 89 86 91 76 43 42 56 59 71 74 79 98 111 95 153 226 221 203 195 197 
250 252 252 252 250 247 244 244 243 241 238 241 244 244 241 242 245 246 246 244 243 243 242 242 244 243 242 239 233 228 223 221 224 224 213 205 207 208 204 152 76 57 41 48 36 28 17 14 18 22 22 18 17 17 14 10 9 9 8 7 7 15 13 7 6 6 8 8 5 9 114 200 193 147 172 186 98 77 95 95 82 96 117 120 118 118 122 131 137 137 140 144 151 155 165 179 187 205 224 230 232 248 163 44 29 32 28 16 19 30 50 57 40 24 23 19 6 28 109 50 39 70 73 61 59 63 63 57 46 38 40 35 25 20 15 10 4 0 1 1 1 1 1 1 1 2 1 0 0 0 11 56 7 1 6 6 9 10 4 1 1 2 7 17 18 14 11 4 5 7 0 24 97 131 106 90 75 51 24 6 9 5 4 1 6 7 6 14 27 28 10 0 49 127 13 10 3 9 9 9 6 7 2 1 4 3 3 6 8 1 3 51 147 153 44 36 110 168 125 12 45 46 37 16 37 26 12 33 49 42 30 41 27 8 11 7 27 48 62 70 57 34 21 5 12 21 34 34 76 138 81 106 74 6 17 25 31 20 8 36 197 219 212 216 212 205 203 191 181 179 184 184 179 174 167 183 169 150 160 158 146 139 111 172 246 171 167 193 192 181 162 185 183 196 219 218 210 170 94 87 83 91 82 51 34 45 59 67 85 81 80 99 108 98 153 231 216 172 183 195 
250 251 252 252 251 250 249 249 247 243 240 244 247 245 241 241 242 241 241 243 244 244 241 240 241 240 238 235 229 225 216 213 223 226 212 194 189 192 196 161 66 44 42 42 33 36 34 26 19 19 17 13 12 15 13 9 8 9 12 13 14 17 14 8 4 8 12 12 0 69 208 176 100 49 55 160 170 106 125 139 138 130 129 133 129 123 119 122 125 126 125 128 135 145 155 165 175 194 215 229 226 226 242 100 21 28 31 21 23 30 49 56 40 23 20 16 2 65 128 66 78 94 93 82 81 80 69 61 57 44 42 38 25 20 16 8 4 2 1 1 1 1 1 1 1 2 1 0 0 0 40 197 126 37 9 1 8 4 0 0 8 27 52 73 61 29 10 4 5 3 3 0 4 9 5 4 14 50 67 54 40 21 11 2 1 0 1 0 4 3 9 3 24 61 39 7 2 5 1 5 7 11 18 13 10 12 8 12 12 5 1 53 143 153 33 19 110 150 126 42 51 43 25 5 11 11 9 26 48 41 27 30 18 8 10 10 22 35 53 66 55 32 10 4 26 31 27 30 45 129 125 65 14 12 20 29 25 24 12 34 181 210 213 216 212 203 199 190 184 179 180 188 189 171 163 183 180 149 150 163 170 141 138 235 252 209 185 175 174 190 193 168 172 180 195 223 218 177 109 90 89 88 63 36 38 51 57 72 94 88 84 100 114 91 141 228 195 143 152 165 
248 250 252 253 252 252 252 251 249 244 241 242 245 242 237 237 238 239 240 242 244 246 244 243 242 241 239 235 225 224 214 207 214 220 216 211 204 194 185 143 60 37 40 37 40 49 47 33 21 23 23 16 13 13 12 8 7 8 9 10 10 7 6 5 8 20 34 21 4 131 196 156 109 93 59 75 164 153 155 151 150 143 133 135 134 122 114 111 111 108 111 120 132 143 155 167 177 192 210 224 223 203 232 141 21 17 24 18 18 22 39 47 33 17 12 7 1 91 130 86 99 110 109 108 106 100 91 94 81 76 69 48 33 28 17 7 4 4 3 2 2 2 2 2 2 2 1 0 0 0 0 66 129 134 144 143 134 96 62 32 11 16 14 6 1 3 5 2 5 0 6 8 2 2 1 8 2 8 13 10 10 7 3 13 10 10 9 8 10 11 7 23 22 22 129 73 3 15 11 15 14 11 27 24 20 14 16 20 17 13 5 57 136 126 29 8 86 137 128 93 89 57 18 1 5 2 7 33 49 38 20 18 9 7 9 18 28 33 47 61 38 16 7 12 24 26 29 23 46 167 151 44 13 17 22 26 31 31 19 43 169 197 204 210 209 201 197 194 191 183 178 185 191 175 163 175 181 156 141 165 167 139 175 248 251 243 228 205 187 201 235 203 169 183 196 223 219 176 121 91 90 74 48 36 42 53 56 80 101 93 86 99 118 98 148 239 193 141 135 135 
247 249 252 253 253 252 252 250 247 242 239 240 243 241 238 238 240 241 242 244 245 246 245 245 243 242 239 234 222 219 211 207 212 220 221 220 216 207 200 158 84 36 38 34 34 37 36 24 16 18 24 17 11 11 10 8 7 7 5 5 4 3 2 1 12 41 59 22 15 146 174 164 151 109 72 50 116 194 215 183 153 150 147 138 132 124 114 108 105 96 102 115 131 146 155 165 177 189 200 209 207 188 205 127 9 18 13 11 10 9 24 35 26 12 6 1 11 120 107 88 116 126 119 108 97 91 81 87 84 82 78 61 50 43 22 8 3 2 0 3 3 3 3 3 3 2 1 0 0 0 0 0 4 54 109 141 146 180 217 199 163 140 119 94 74 52 31 13 15 12 4 5 4 8 7 10 3 7 7 2 7 48 30 6 7 9 4 14 8 13 7 24 62 41 38 45 11 8 16 29 38 25 15 9 23 7 7 10 6 8 4 37 116 117 27 1 69 131 139 122 120 76 9 4 2 20 60 59 50 30 11 10 3 7 14 26 34 31 39 55 24 5 4 10 10 17 19 6 66 247 138 38 21 15 24 28 28 25 38 103 190 195 204 212 213 206 202 197 196 190 181 181 185 182 173 166 182 188 145 139 158 153 198 237 247 246 238 233 238 236 243 238 189 186 193 213 225 194 148 92 81 57 42 42 48 55 59 88 105 94 86 92 108 96 153 245 207 163 157 158 
247 249 252 254 253 252 250 248 245 239 237 242 246 245 242 244 245 243 244 245 245 246 243 241 240 238 234 230 219 211 205 209 220 228 229 227 218 204 197 182 135 62 38 24 20 20 25 21 17 18 17 11 6 9 10 8 7 7 7 6 6 2 4 7 9 24 35 11 19 147 165 180 183 135 103 66 20 87 196 185 157 151 147 136 132 127 121 113 108 98 99 108 125 143 155 166 181 191 198 205 195 176 132 35 9 8 8 8 7 4 17 31 24 12 7 2 26 152 97 96 141 123 88 71 68 61 52 66 61 49 55 53 35 25 16 4 4 9 8 4 3 3 3 3 3 2 1 0 0 0 1 8 24 55 72 73 68 83 97 95 132 162 181 196 203 199 188 128 76 79 87 67 50 44 29 21 7 1 1 0 91 199 151 100 50 50 78 130 103 71 59 65 77 100 93 35 17 87 63 25 63 75 78 83 79 18 0 2 0 4 6 21 89 128 42 10 46 98 141 100 104 85 8 4 2 45 122 96 55 23 4 7 2 10 22 26 28 23 28 37 11 3 1 8 7 9 16 11 25 168 111 72 21 20 22 28 34 58 107 188 216 194 202 211 209 201 195 194 194 194 188 183 179 186 200 186 189 194 142 124 150 163 220 236 244 243 242 244 238 234 224 198 167 184 178 194 228 215 172 88 65 49 40 42 56 59 62 92 105 92 84 89 104 95 151 241 222 171 162 167 
248 250 251 252 250 249 251 249 239 235 240 244 247 247 242 240 242 242 243 242 243 242 242 242 242 239 228 217 207 202 197 195 218 233 236 236 200 167 186 190 184 111 36 22 24 23 22 20 18 16 16 12 11 13 12 5 2 3 5 7 9 8 8 6 6 13 19 21 26 132 158 183 166 147 115 57 8 24 124 147 142 140 135 138 133 129 125 119 115 111 113 116 123 134 146 166 180 182 195 195 177 145 76 15 12 9 8 10 11 6 18 32 27 14 9 0 69 169 102 125 162 146 101 78 80 67 71 82 61 54 76 67 38 16 7 5 7 8 5 2 2 3 4 5 4 2 1 0 0 0 2 7 27 72 83 74 73 75 75 68 65 69 65 67 71 106 110 50 25 61 110 110 93 71 91 164 169 116 85 67 124 78 104 143 165 170 135 140 149 183 205 198 197 200 173 142 139 154 152 99 90 75 71 84 41 3 2 2 0 10 13 12 67 120 58 7 18 110 145 119 127 69 5 5 2 38 123 116 82 4 2 5 3 8 7 8 8 9 8 6 3 3 2 5 6 6 4 10 6 105 86 54 23 24 20 25 57 99 158 213 206 199 201 203 204 204 204 204 204 199 203 205 191 172 175 178 180 180 147 133 140 162 236 247 250 244 250 248 239 212 206 175 137 150 191 220 239 202 167 83 51 52 42 40 56 59 59 107 106 89 78 82 100 97 147 242 247 198 150 167 
245 247 248 248 246 247 251 251 242 234 236 238 242 243 239 238 240 240 241 244 245 246 246 246 246 243 234 223 213 204 192 189 211 227 234 214 146 132 159 184 190 152 57 38 31 25 23 21 19 17 15 14 13 11 10 7 4 5 7 9 9 14 11 5 5 18 29 32 30 107 145 167 174 129 94 105 59 7 38 114 125 127 129 132 129 130 127 123 121 113 114 115 118 127 137 154 165 166 180 183 165 161 201 135 15 12 9 10 10 8 19 32 35 17 8 8 110 160 123 155 174 152 98 78 89 81 82 85 71 65 67 50 31 13 7 5 7 8 4 3 3 4 4 5 5 3 1 0 0 1 0 3 22 53 60 76 81 81 88 89 79 82 78 79 73 70 72 70 67 70 70 73 70 58 56 99 202 245 233 219 184 162 156 123 77 44 46 96 53 48 73 102 106 78 46 38 48 29 26 21 24 14 5 13 7 0 0 2 1 10 16 4 75 153 87 2 3 114 153 103 55 30 10 3 0 28 127 139 52 0 5 7 4 4 6 8 4 3 7 8 5 6 8 6 1 8 7 8 5 116 72 27 15 19 15 22 107 171 198 197 198 195 204 211 216 218 217 210 207 199 199 200 193 185 173 157 148 146 139 142 146 154 181 200 212 220 235 232 214 191 183 168 160 171 185 185 198 152 114 64 53 54 42 45 58 56 67 116 111 88 73 78 100 95 142 239 244 238 172 166 
243 244 245 245 243 245 250 252 246 236 233 237 242 244 242 241 243 242 242 244 245 245 245 244 245 243 234 224 223 219 206 201 215 226 211 137 92 119 136 157 176 176 97 51 33 19 18 16 14 12 12 15 13 8 8 9 6 7 8 9 9 11 9 4 5 16 28 41 40 79 127 152 173 101 72 127 78 38 48 101 123 116 124 117 117 121 119 117 116 113 113 110 111 117 125 137 145 147 160 166 173 196 221 207 56 17 25 25 25 31 44 47 46 41 50 61 159 161 148 167 156 122 80 74 86 80 79 76 62 63 56 35 23 11 7 5 7 8 4 3 4 4 5 6 5 3 2 0 0 1 2 0 3 4 6 48 54 30 38 51 58 68 69 73 73 64 69 67 69 70 68 66 70 70 74 70 61 126 189 233 176 135 80 35 27 24 23 47 32 35 36 43 47 36 26 22 42 100 74 24 26 34 26 24 23 14 10 6 0 0 7 7 75 164 51 0 0 67 61 34 11 69 130 15 3 4 73 143 24 0 6 4 4 1 3 8 5 8 20 24 12 3 6 9 6 4 7 8 7 127 63 12 10 12 6 9 138 225 221 213 206 207 200 204 204 198 192 190 188 188 191 195 196 199 200 187 170 150 143 143 142 152 144 150 153 205 236 231 225 212 195 175 168 175 182 159 103 61 51 54 60 49 43 53 64 59 88 126 109 79 66 76 98 92 137 238 241 248 232 188 
245 247 247 247 246 246 250 252 249 241 236 240 245 247 243 243 244 243 242 242 242 241 241 241 241 238 227 216 217 221 207 199 205 205 205 139 93 105 130 149 171 184 144 47 19 24 21 20 17 15 13 14 12 8 8 8 7 7 7 7 8 3 4 6 6 9 14 28 41 54 102 138 173 151 86 102 119 144 163 134 141 109 103 103 108 110 106 104 108 104 103 100 99 104 112 120 128 132 142 150 164 185 161 150 64 60 87 101 108 105 96 73 59 77 111 129 183 168 160 159 137 104 76 72 77 71 69 64 48 57 58 34 19 9 8 5 7 8 4 4 5 6 6 7 6 4 3 1 1 2 4 2 0 0 13 74 78 16 0 6 28 27 25 31 34 38 36 47 58 64 68 70 70 55 63 76 61 54 69 97 56 52 87 105 107 110 89 79 90 115 102 51 72 127 100 24 21 84 63 18 23 35 34 34 67 93 105 99 93 65 7 1 24 73 63 31 16 8 37 120 71 41 91 89 10 7 31 58 11 3 5 2 3 3 3 7 4 6 14 23 17 11 13 13 9 7 7 6 7 103 50 17 8 10 10 8 31 92 109 121 142 147 152 160 169 178 184 178 176 179 178 177 184 192 189 196 214 206 198 186 171 177 176 159 140 226 255 253 255 255 252 243 232 232 245 210 75 47 58 58 55 50 49 60 63 58 110 130 101 72 62 73 93 91 137 242 242 243 248 228 
251 252 253 253 251 251 251 251 250 246 243 242 245 244 240 239 239 239 239 240 241 241 243 241 239 235 223 209 207 209 189 180 182 195 217 200 131 113 144 159 161 171 189 88 23 25 23 21 19 17 14 10 9 10 8 6 6 6 6 6 5 3 7 8 6 6 6 18 43 30 55 96 131 176 139 125 141 171 190 181 200 144 92 93 92 90 81 80 87 88 87 84 83 88 95 103 112 120 127 133 153 177 153 68 51 97 125 149 161 158 142 99 74 104 138 166 186 167 160 144 126 95 80 74 81 76 71 64 55 59 68 39 15 9 8 5 7 8 4 5 5 6 6 7 7 5 3 2 2 3 2 6 3 0 17 76 98 36 0 33 74 62 45 39 34 40 27 17 23 23 33 42 45 61 61 61 74 80 76 70 80 79 78 95 102 102 89 91 91 103 94 46 21 44 61 53 43 44 27 27 36 37 32 30 75 120 138 149 169 140 12 5 4 94 152 127 175 163 86 61 20 33 100 81 17 12 7 10 14 7 7 9 7 9 11 12 14 16 17 23 23 17 15 17 19 24 20 22 24 82 52 39 11 8 14 13 65 110 99 80 69 54 43 41 44 56 67 86 99 122 136 146 155 157 167 204 242 231 190 196 202 200 211 162 131 220 254 253 252 252 253 253 247 246 250 190 51 41 44 52 43 37 50 65 69 70 122 129 98 73 58 64 87 92 140 248 244 248 252 252 
253 253 252 255 253 251 252 253 253 251 249 246 245 243 240 238 238 240 240 241 242 242 244 241 240 235 222 215 212 212 190 171 169 194 224 222 149 124 150 159 149 155 200 173 65 16 26 18 16 14 10 9 12 14 11 7 6 4 7 8 3 7 6 12 10 3 11 23 35 34 34 41 81 149 133 91 71 98 137 165 214 187 98 79 81 77 63 61 71 78 77 72 68 72 80 87 98 106 108 116 137 176 164 49 55 99 126 148 164 169 156 108 77 101 136 171 184 162 144 138 115 87 78 82 81 77 79 70 61 60 67 37 16 10 5 3 5 7 3 5 6 6 6 7 6 5 4 3 3 2 2 6 4 0 20 68 85 41 9 50 97 74 59 54 58 66 53 43 40 35 34 29 25 22 26 28 35 46 57 65 71 75 85 92 96 98 87 83 82 96 91 85 76 69 76 93 100 102 93 90 85 74 73 74 85 107 130 137 156 94 3 5 37 72 29 18 44 77 54 22 7 24 48 19 6 14 46 56 26 10 8 13 11 10 14 16 22 28 31 38 29 19 13 13 19 24 21 19 53 161 102 51 34 28 25 21 77 125 144 138 127 122 107 96 83 67 53 44 46 55 61 62 58 57 67 186 255 252 198 195 209 99 182 176 132 230 255 253 253 255 255 254 245 238 244 214 122 103 114 127 113 92 57 68 67 82 122 125 97 77 65 69 85 95 133 232 239 242 244 245 
255 253 252 255 253 251 252 252 250 249 249 250 247 241 238 238 237 236 239 241 242 241 243 241 238 229 218 220 220 218 198 174 166 182 201 171 120 127 131 142 134 146 196 219 131 37 22 22 17 13 7 9 11 11 7 3 4 5 2 0 4 7 2 7 9 7 18 36 46 45 43 38 23 71 134 149 127 109 110 133 167 157 79 55 64 64 53 52 63 68 64 58 58 63 68 71 82 89 89 101 116 150 133 23 47 78 104 125 145 152 139 97 62 79 112 164 180 155 139 135 108 85 82 92 85 72 72 64 59 57 58 27 8 6 4 2 5 7 4 5 6 6 6 6 6 5 4 3 3 2 1 4 2 0 25 77 86 44 16 53 96 78 71 63 61 68 65 51 50 54 54 37 38 46 41 37 37 36 27 26 26 32 46 61 74 81 81 79 84 90 84 78 80 82 80 80 80 80 84 93 87 82 86 93 97 102 96 111 131 92 43 19 41 65 29 8 9 49 81 44 97 70 1 8 8 19 52 54 27 14 10 13 14 10 14 16 21 29 34 39 33 28 22 18 27 30 26 24 52 171 111 44 26 31 36 36 56 87 119 127 128 128 126 124 124 122 116 108 106 106 103 93 81 68 67 140 222 244 249 248 241 175 123 77 148 228 254 255 254 245 227 220 236 240 230 230 239 250 242 204 193 187 139 141 123 111 139 118 107 82 70 64 84 105 126 204 207 218 219 225 
254 253 252 252 252 252 253 250 247 246 246 244 245 246 244 240 237 239 236 232 227 223 218 214 210 197 191 203 211 209 194 173 161 167 149 111 100 118 117 124 126 152 192 215 184 96 32 22 19 12 13 9 5 6 9 10 8 9 5 3 8 8 11 14 16 17 19 42 64 67 86 99 70 31 24 68 123 126 87 78 66 70 52 44 47 49 40 38 44 51 48 48 54 56 56 59 68 74 75 89 109 124 145 51 41 78 90 100 114 129 125 83 37 49 80 166 182 151 143 125 97 80 81 95 91 76 75 70 63 61 56 22 6 5 6 4 6 8 6 5 5 5 5 5 5 5 4 3 3 2 2 3 1 0 30 86 86 39 11 46 84 72 67 60 57 60 61 53 53 57 59 53 47 51 57 60 57 52 51 56 57 50 42 33 31 40 42 44 48 58 60 63 71 75 75 78 85 82 76 78 82 84 76 71 75 71 65 61 73 93 90 29 12 25 16 6 12 38 67 33 150 108 1 8 9 19 29 29 26 18 14 14 12 10 13 15 21 27 33 35 29 28 26 19 22 30 34 27 39 52 34 70 38 16 23 17 35 64 102 129 131 123 124 125 124 116 107 106 102 103 110 114 117 106 193 228 186 195 201 230 254 203 90 55 66 94 149 157 129 140 139 122 127 180 239 244 253 247 200 111 97 116 140 188 227 224 225 131 98 77 61 47 70 94 122 204 204 207 216 229 
252 253 253 253 254 253 251 248 245 241 238 232 238 241 231 213 198 187 177 167 161 160 157 154 153 145 144 157 162 160 154 144 135 133 114 96 105 112 114 121 128 157 185 199 191 144 84 29 11 11 0 3 20 39 45 50 57 42 39 34 21 9 14 17 23 37 55 90 95 93 107 113 115 122 69 20 32 46 44 47 40 48 42 31 31 33 29 28 34 36 39 46 50 45 43 48 54 59 62 78 97 118 168 111 35 73 84 99 123 145 144 94 29 26 63 173 178 155 147 110 83 73 70 82 82 68 68 61 54 57 48 17 7 6 6 4 6 8 6 5 5 5 5 5 5 5 4 3 3 2 5 6 1 0 31 90 92 40 14 46 81 71 59 52 57 59 56 54 62 62 54 51 57 64 65 63 59 56 59 67 76 76 65 62 69 66 58 50 45 39 36 37 39 37 39 60 69 72 72 80 80 84 82 77 75 66 70 58 70 69 38 3 4 3 9 1 7 9 20 7 66 52 8 12 10 14 14 17 24 20 15 11 7 7 13 15 19 24 29 29 28 26 13 13 33 51 59 65 148 102 52 138 114 24 23 25 24 30 57 107 131 128 133 140 141 137 132 123 114 107 108 108 106 114 232 253 248 246 246 240 254 242 214 190 165 156 163 157 161 189 209 208 184 197 240 249 241 246 241 222 235 239 246 247 253 245 240 176 173 195 169 159 156 128 122 188 212 214 218 228 
221 225 227 228 231 237 241 242 238 231 226 212 204 193 175 160 147 134 131 127 124 122 120 114 115 113 112 120 117 113 114 113 108 104 105 94 104 115 115 130 132 154 185 197 178 148 140 87 38 28 52 64 95 122 116 94 71 55 54 57 51 39 38 41 37 50 85 110 111 109 109 109 113 134 127 71 51 61 58 51 41 41 35 20 15 17 18 23 32 32 36 39 37 32 31 32 35 39 44 62 87 121 152 125 50 71 78 101 135 163 161 110 29 12 63 182 170 159 145 96 75 71 74 88 84 71 68 55 47 52 39 9 4 4 4 2 5 7 4 4 4 4 4 4 4 5 4 3 3 2 3 4 2 0 31 88 88 32 9 39 73 66 61 62 59 59 67 60 58 56 55 55 55 55 55 55 56 55 66 70 78 83 79 76 77 77 74 70 66 64 58 52 48 42 36 38 37 33 34 39 45 52 63 70 66 63 63 60 68 52 20 3 6 0 6 2 4 8 8 6 1 1 6 11 11 6 6 8 11 12 11 9 8 8 13 13 13 16 20 22 19 35 58 58 56 71 80 178 233 140 77 151 240 134 80 44 55 58 51 76 113 124 130 134 135 136 139 136 133 132 133 129 122 130 240 251 251 248 253 255 250 252 255 255 255 255 255 255 255 255 255 255 255 252 248 243 242 242 246 247 249 250 251 246 247 246 246 153 130 237 255 252 255 248 190 159 172 184 187 195 
212 216 215 212 218 228 233 231 228 216 201 179 160 141 129 128 126 122 125 125 121 115 115 110 110 109 106 107 109 103 104 105 103 100 95 91 105 108 120 139 140 161 190 191 170 139 128 113 106 116 133 131 141 163 153 120 96 79 68 71 76 62 66 79 72 78 103 100 113 121 123 125 119 113 129 86 46 53 48 42 37 31 22 16 12 10 9 15 21 28 30 27 22 21 20 17 18 22 31 46 71 93 106 85 47 74 80 85 113 146 149 101 25 2 65 197 167 153 131 83 73 70 72 81 75 64 64 52 50 55 37 10 5 5 5 4 5 6 4 4 4 4 4 4 4 4 4 4 3 2 3 3 3 0 33 90 89 34 11 44 75 59 63 62 60 53 86 119 86 66 61 46 45 57 60 59 59 63 66 66 72 80 79 77 81 80 77 77 77 76 73 70 68 68 66 65 64 60 55 51 49 41 40 37 29 31 46 50 49 33 13 6 8 8 11 7 7 10 7 9 8 6 4 6 9 3 3 3 2 4 6 6 7 9 14 13 27 39 26 28 13 40 128 155 120 94 74 159 169 96 51 103 231 132 58 53 48 61 54 59 102 123 131 140 141 135 133 136 135 137 140 140 138 133 204 242 253 255 255 253 253 255 255 251 253 254 254 251 255 250 252 253 255 253 253 245 248 245 254 253 250 254 254 255 253 241 190 89 58 161 229 231 203 132 108 111 148 170 166 168 
216 218 211 197 193 195 193 191 183 166 152 140 132 128 129 128 127 128 128 128 125 123 122 120 117 112 109 108 108 106 104 105 110 113 103 96 99 99 123 144 146 169 182 183 157 131 120 107 122 140 140 138 141 166 158 136 122 104 91 89 71 67 79 86 88 102 113 107 111 117 123 127 123 117 119 97 57 47 40 38 31 22 15 12 11 8 9 12 15 20 19 18 15 12 11 12 13 17 24 29 36 50 58 37 43 84 91 67 76 107 114 70 21 0 67 202 157 144 112 75 76 67 74 82 73 59 64 60 53 55 33 11 6 7 8 7 6 5 5 4 4 4 4 4 3 2 4 5 4 2 6 4 6 0 37 94 92 38 11 50 75 65 66 59 57 71 105 56 71 106 111 93 93 96 76 57 61 85 70 63 68 78 80 76 79 86 85 82 82 76 79 82 78 74 75 82 80 72 64 62 61 63 66 63 55 48 44 41 40 27 15 12 8 5 3 4 6 13 12 8 7 7 8 7 6 6 5 5 5 5 4 3 2 1 5 4 38 79 66 78 81 83 117 161 185 124 75 133 100 59 30 103 188 98 37 49 36 21 26 48 103 121 130 135 132 129 129 131 137 142 143 139 138 143 167 193 195 184 201 224 239 240 243 245 250 252 252 253 248 249 251 249 250 248 244 241 237 228 217 209 205 186 165 148 110 80 43 33 60 104 201 229 191 103 67 92 151 178 173 175 
203 195 181 165 149 140 138 136 134 134 132 136 135 134 135 135 135 134 128 122 117 114 111 115 117 112 113 119 123 128 132 140 157 166 141 95 88 95 120 144 152 168 172 173 139 103 105 104 114 137 125 133 148 162 148 147 142 129 115 101 76 73 81 87 97 109 116 116 117 119 120 123 124 113 117 119 86 60 49 38 25 16 11 6 5 7 9 11 12 15 15 14 12 8 9 11 14 16 14 10 10 20 27 22 46 94 99 62 41 53 63 43 12 1 95 205 153 144 109 75 74 71 76 82 75 64 68 61 55 56 35 15 11 8 7 7 6 5 4 4 4 4 4 4 3 2 4 5 4 3 2 2 4 0 38 97 100 43 12 51 79 65 66 54 73 118 74 0 4 11 13 37 74 94 102 108 113 119 91 81 79 82 79 75 77 80 84 78 80 81 80 80 80 77 76 80 86 86 81 74 72 76 80 77 70 66 69 67 71 66 63 63 55 42 37 32 18 15 14 12 10 10 10 8 8 7 6 6 6 5 4 4 3 4 5 2 4 24 47 54 68 100 91 74 100 87 79 80 57 65 36 65 102 61 61 50 36 32 32 42 91 110 121 128 118 120 123 125 127 127 127 125 121 120 197 226 203 186 180 179 171 150 128 116 109 98 98 100 103 111 113 100 88 83 76 66 62 53 42 33 30 20 27 31 20 24 28 47 58 80 158 225 233 238 188 155 168 174 165 162 
169 157 145 141 135 131 135 133 128 135 135 134 132 128 125 127 129 131 135 144 155 163 174 186 191 189 193 204 209 211 206 204 216 219 181 100 78 87 111 136 137 153 169 163 118 89 91 101 119 106 110 137 160 173 160 159 160 141 126 109 96 98 95 96 106 112 114 121 123 125 123 119 118 111 116 122 106 88 62 44 26 17 11 6 5 8 10 11 11 10 11 11 10 7 9 13 12 12 11 10 17 25 26 18 37 74 85 64 41 39 42 34 13 2 122 199 153 140 105 75 72 72 72 75 69 62 65 54 49 50 32 17 13 9 6 6 4 4 3 4 4 4 4 4 3 2 4 5 4 2 2 5 3 0 32 92 94 37 9 50 81 69 66 61 92 42 5 16 13 19 20 15 14 13 18 30 46 54 68 89 115 128 119 110 108 99 88 82 78 78 79 82 83 80 78 84 90 93 86 76 76 84 90 87 81 80 80 77 79 76 77 78 75 75 80 73 41 15 13 10 9 9 9 9 9 8 7 6 7 6 6 5 4 4 4 6 8 18 39 52 47 52 54 53 69 76 90 77 56 86 79 73 86 76 69 60 49 44 34 36 74 98 117 127 117 117 119 121 119 115 112 111 111 110 167 225 226 244 244 241 237 234 225 209 177 162 152 132 118 107 98 80 72 80 69 60 56 49 46 45 49 48 64 67 62 80 98 94 91 123 151 204 211 207 183 161 169 167 149 139 
153 147 142 141 138 134 136 136 151 169 153 148 165 185 198 205 214 226 230 236 243 248 248 250 251 248 248 251 249 248 241 236 237 240 202 96 63 80 110 145 141 154 174 161 110 86 88 100 115 70 34 72 112 141 145 156 159 138 128 111 102 107 102 102 113 119 119 119 114 111 114 120 118 116 115 113 107 101 77 55 36 27 20 14 11 11 11 11 13 10 11 12 11 9 10 13 10 9 12 16 27 37 34 20 23 44 63 57 44 41 41 28 7 1 142 176 148 132 99 77 70 70 70 76 73 68 70 55 48 48 31 18 14 8 5 5 4 3 3 4 4 4 4 4 3 2 4 5 4 2 2 7 2 1 29 89 88 34 8 50 80 71 56 76 51 3 17 20 26 47 54 47 52 60 59 54 44 38 37 31 28 37 51 74 103 110 118 125 121 102 98 93 83 81 86 87 88 89 89 81 80 89 97 93 89 90 90 87 89 84 83 87 85 78 80 76 43 15 13 10 8 8 8 8 8 7 6 6 7 7 6 6 5 7 7 3 5 13 32 46 52 53 53 60 68 71 68 66 58 62 61 62 63 68 73 77 74 71 67 66 75 81 93 111 118 114 118 115 113 113 113 112 114 109 129 195 215 228 232 233 238 251 248 236 241 239 242 243 240 229 221 206 218 235 203 173 168 161 156 155 153 156 176 164 151 152 134 101 89 140 165 177 145 132 128 128 123 110 98 94 
162 152 145 151 162 177 205 228 240 252 247 237 244 251 252 253 253 249 251 253 250 248 250 251 249 248 247 246 244 245 247 247 245 250 216 97 60 90 131 170 173 175 180 166 117 86 90 100 98 61 49 32 22 36 58 105 127 137 134 115 115 100 93 93 100 107 106 104 104 105 107 110 111 109 108 111 110 103 87 64 46 37 27 21 18 14 11 13 15 12 13 14 14 11 11 11 10 10 11 12 19 32 32 21 22 33 52 62 58 50 34 22 8 9 162 167 149 126 96 79 69 66 67 74 73 70 72 55 57 54 34 19 13 6 5 4 3 3 2 4 4 4 4 4 3 2 4 5 4 3 1 4 1 3 31 91 91 39 13 52 77 69 59 80 20 5 19 38 79 101 83 76 87 90 91 86 82 82 72 70 65 58 55 49 39 42 54 61 62 83 109 126 121 113 111 103 96 93 90 83 81 90 100 98 94 96 87 84 87 81 77 82 85 80 84 84 54 19 15 12 11 12 11 7 6 5 4 4 7 8 7 6 5 6 4 6 6 5 25 41 52 60 55 56 66 58 66 59 52 55 57 59 60 71 63 65 71 62 60 66 65 60 58 79 97 86 87 93 96 103 110 114 114 105 104 143 185 187 190 209 227 229 221 216 219 217 212 216 212 196 191 188 216 230 177 153 152 147 137 127 124 132 140 116 109 105 92 91 82 87 81 71 63 71 71 66 65 58 62 73 
223 207 207 220 239 250 252 254 252 251 251 253 252 251 250 250 249 248 252 250 249 253 252 251 249 246 245 248 249 247 249 249 247 250 221 92 61 91 150 207 205 201 206 196 163 111 93 99 84 49 50 47 37 23 13 11 18 41 67 83 86 77 71 73 74 76 88 96 92 98 110 107 106 108 104 104 108 106 99 69 61 53 32 19 17 14 12 12 12 15 14 16 18 14 10 11 11 11 11 11 15 20 25 24 19 19 36 51 47 29 21 19 7 24 177 160 155 125 81 80 76 63 67 72 69 72 73 59 56 53 30 14 11 7 5 5 5 5 5 3 4 6 6 6 5 5 5 5 5 5 2 3 3 0 28 83 92 48 21 61 75 69 69 83 15 11 34 65 95 101 112 113 114 118 123 123 116 108 106 104 93 94 102 97 92 87 77 62 49 45 34 36 47 67 101 114 118 130 133 121 107 98 104 97 89 94 86 82 90 83 79 91 87 80 80 82 47 17 13 11 13 12 11 11 11 9 7 4 5 5 4 3 3 3 4 4 5 5 6 11 20 28 31 39 49 54 68 56 49 53 56 54 54 60 61 54 58 57 50 51 47 53 51 49 53 55 53 54 57 69 85 93 97 97 95 104 125 109 90 122 149 141 127 126 129 120 113 114 99 79 79 93 83 78 72 75 72 67 61 58 62 68 68 63 65 70 71 73 71 64 57 52 55 58 56 62 63 63 63 77 
255 249 248 248 247 249 252 251 251 251 251 252 250 248 249 251 251 249 252 251 250 253 252 250 248 247 249 249 249 248 246 246 244 244 185 71 60 94 167 227 219 214 209 214 203 156 110 102 73 47 43 41 37 31 25 21 15 2 2 10 17 28 30 34 35 43 63 81 86 96 107 103 101 102 101 100 100 91 88 73 61 54 34 18 15 11 9 12 14 16 15 16 16 8 5 9 9 9 9 9 8 11 15 15 11 9 17 24 18 8 9 8 1 47 188 160 144 102 72 75 73 65 72 74 68 68 70 58 58 52 29 14 9 5 5 5 5 5 5 5 5 4 4 4 5 4 4 4 4 4 2 3 3 0 25 81 88 39 14 57 82 72 101 82 8 25 61 82 109 118 130 130 135 143 148 148 142 136 135 131 125 130 136 129 120 120 115 105 96 90 83 85 75 61 62 51 56 56 64 83 102 119 126 113 127 130 115 99 93 81 79 87 81 79 87 89 49 15 14 14 12 11 11 12 13 11 9 6 6 6 5 5 4 4 5 6 6 7 8 7 8 6 4 5 8 14 25 32 32 35 45 48 49 58 62 57 56 55 50 54 49 56 56 52 51 52 50 48 52 53 52 54 57 58 73 76 63 60 53 57 60 56 52 54 58 57 57 64 59 55 55 58 54 59 62 61 60 61 64 67 69 70 69 65 63 66 67 67 69 68 60 54 61 61 57 65 66 66 65 79 
253 253 254 252 247 248 252 252 252 252 252 251 251 251 249 244 244 247 248 250 250 249 246 243 241 242 244 243 245 243 238 241 242 221 131 54 63 89 154 200 206 183 177 202 178 134 84 81 64 42 42 39 34 29 26 23 18 10 6 4 1 0 3 7 45 73 51 41 54 83 84 86 97 99 100 100 96 80 74 62 43 41 35 21 15 10 9 14 19 20 14 9 8 4 3 7 7 7 7 7 4 5 9 8 6 3 4 7 2 0 0 6 0 77 187 160 135 77 63 69 65 62 73 75 64 62 65 56 51 42 22 12 7 3 5 5 5 5 5 3 3 3 5 8 8 4 4 4 4 4 3 3 3 0 18 79 87 38 14 51 75 71 70 20 6 26 67 101 126 139 150 151 156 162 167 167 164 160 158 151 148 153 155 151 148 149 145 136 128 128 125 127 121 112 109 97 93 75 60 59 52 37 103 156 184 185 172 162 154 136 124 121 99 83 95 95 40 15 16 14 13 14 15 13 14 13 12 9 7 7 6 6 5 5 6 7 7 8 9 8 7 7 8 8 8 10 11 26 27 25 23 20 23 30 33 31 45 45 44 52 47 51 53 53 55 59 62 58 54 53 56 56 56 56 53 63 74 65 55 52 53 60 62 58 61 62 62 61 61 63 59 55 59 67 69 63 59 57 59 59 58 61 61 61 64 66 61 59 66 71 61 54 64 61 56 63 65 59 57 71 
251 255 252 251 252 252 252 252 252 252 252 249 251 250 245 238 235 240 241 245 246 242 242 243 241 238 237 240 240 233 225 233 230 190 101 55 63 73 118 172 175 161 167 129 66 37 15 41 61 40 33 30 26 23 21 20 14 7 5 8 8 4 4 3 25 97 161 144 111 60 62 77 86 96 101 100 95 83 81 71 55 47 34 21 16 14 15 20 25 19 10 3 2 4 5 7 7 7 7 7 5 6 8 8 6 4 4 5 5 2 0 3 0 104 181 168 134 65 59 62 59 56 69 71 59 57 60 50 39 35 16 8 7 4 5 5 5 5 5 2 3 7 9 11 9 3 3 3 3 3 2 3 1 0 13 75 78 35 20 51 73 72 73 15 12 33 76 112 136 151 161 162 167 169 173 175 174 171 174 169 168 165 165 168 171 171 168 160 151 156 155 155 150 140 133 124 119 115 107 94 86 72 199 255 245 244 236 230 221 206 193 184 159 143 150 133 59 9 10 14 17 12 9 12 13 14 13 11 9 9 8 8 7 7 8 9 9 10 11 7 8 9 10 9 10 12 11 24 33 32 34 35 33 32 29 25 22 21 25 36 32 38 45 48 50 55 60 63 54 52 58 59 51 53 56 57 76 65 60 57 54 57 60 60 62 60 61 58 59 67 68 61 65 63 60 63 57 58 62 61 61 63 60 60 61 60 59 59 65 70 62 52 51 50 46 53 55 49 48 62 
251 255 252 252 255 252 250 250 250 251 251 247 246 242 239 239 237 233 235 240 241 235 233 238 235 223 222 231 236 217 203 214 202 149 82 53 58 78 115 164 176 185 145 48 24 23 27 20 20 21 27 23 17 14 13 12 9 4 4 3 2 5 3 2 0 0 21 96 180 196 136 75 68 89 100 95 93 89 82 64 59 50 34 23 19 20 23 27 30 9 4 3 6 4 4 7 7 7 7 7 5 5 6 6 5 7 9 3 4 3 0 1 2 135 182 168 114 61 54 57 59 58 64 64 55 55 57 46 39 39 20 6 7 5 5 5 5 5 5 6 10 14 13 9 4 2 2 2 2 2 2 3 1 1 8 74 79 35 22 49 71 59 65 21 15 47 86 119 142 160 170 170 178 181 184 188 187 187 183 183 186 178 178 185 181 184 183 177 171 174 173 172 172 167 158 152 148 144 138 132 121 116 227 247 239 244 242 244 246 248 248 244 237 230 219 200 150 62 30 6 3 5 6 8 11 13 12 11 10 10 9 9 8 8 9 10 10 12 12 8 12 15 8 5 7 7 11 20 39 47 46 47 46 42 38 36 37 33 32 40 29 26 27 30 29 31 37 42 48 51 50 60 70 68 54 59 70 58 54 59 59 57 60 65 58 54 59 59 60 64 65 59 61 55 55 57 48 44 47 42 44 47 42 44 46 44 37 38 41 41 38 35 38 40 39 45 45 49 51 64 
248 255 253 250 249 250 251 248 247 245 243 235 211 207 228 239 238 231 228 234 235 224 212 214 215 199 191 206 209 188 174 187 178 140 75 46 58 84 145 202 219 212 72 20 32 30 25 19 16 15 14 11 7 7 10 11 10 4 1 2 2 2 2 1 1 2 1 0 11 85 188 205 159 91 69 87 90 88 87 72 59 49 41 30 21 26 26 35 22 4 4 5 6 4 4 7 7 7 7 7 4 5 6 6 5 5 7 3 3 3 1 3 15 152 182 162 90 52 48 54 61 61 61 58 51 53 59 46 45 45 22 6 5 6 6 4 2 2 3 8 13 14 13 10 4 2 3 4 3 3 2 2 2 2 5 67 78 38 19 47 68 58 60 19 22 55 91 123 143 162 174 175 183 186 189 193 193 193 191 192 191 187 186 187 180 185 192 191 181 180 186 188 188 186 181 170 170 164 160 153 135 156 240 239 243 239 241 242 241 241 241 242 246 246 248 255 247 221 195 162 129 94 62 32 12 5 1 2 6 4 8 10 11 8 9 9 9 9 9 9 11 13 10 9 10 12 12 14 39 52 57 57 62 60 46 40 41 42 41 42 36 31 32 35 30 26 29 25 30 30 30 48 80 109 94 74 65 55 56 52 61 57 52 51 49 47 49 49 48 48 49 46 44 39 36 37 36 37 39 36 34 34 35 38 40 40 39 41 42 41 39 40 43 46 48 52 54 53 53 66 
250 253 252 247 245 244 243 242 235 226 222 210 177 159 190 222 227 213 200 210 213 189 180 203 213 194 191 210 213 197 189 207 210 171 84 41 60 96 168 221 243 164 29 26 29 26 21 17 17 18 15 10 6 4 5 6 5 3 0 0 1 0 0 0 1 3 4 3 2 0 8 81 169 204 168 88 70 80 88 82 64 50 35 34 35 23 25 34 13 4 5 5 5 5 5 6 6 6 6 6 4 5 6 6 5 4 4 4 3 2 2 0 33 176 190 155 73 58 52 55 58 57 60 60 53 52 59 44 44 41 19 5 4 6 6 2 0 2 5 12 15 10 8 9 3 2 4 5 4 3 2 1 2 2 3 63 83 43 19 46 68 56 63 24 25 56 95 134 150 165 178 179 184 184 189 193 195 195 192 192 193 194 194 192 188 187 195 199 192 187 195 200 197 192 190 190 186 179 179 172 155 186 248 240 242 239 241 241 241 241 241 242 243 239 242 245 233 215 209 211 219 221 212 198 181 160 121 85 52 29 16 7 1 11 9 9 9 9 9 10 10 10 10 10 9 9 9 15 34 41 49 52 58 61 57 54 42 46 49 46 39 37 42 45 43 40 42 36 39 40 39 43 46 60 60 42 39 35 25 35 56 41 32 37 40 40 40 39 40 40 41 42 41 38 36 38 39 40 42 41 41 41 41 43 45 47 43 42 42 42 43 44 45 46 49 52 54 53 53 66 
242 247 247 239 230 229 235 236 218 199 195 175 157 136 159 198 203 194 187 207 219 203 196 226 233 215 219 232 235 224 215 230 230 193 98 43 58 92 150 203 226 92 25 32 24 22 17 13 14 16 15 11 7 4 4 5 3 2 1 0 0 0 0 0 0 0 1 3 4 1 5 0 6 72 189 234 170 87 59 64 71 59 47 41 41 21 30 25 3 3 4 4 4 4 4 5 5 5 5 5 4 5 6 6 5 4 3 3 3 1 1 0 45 186 177 129 61 60 53 55 59 57 60 60 57 55 59 47 39 37 16 3 5 5 4 1 1 5 9 14 15 7 5 8 4 2 4 5 4 3 0 1 2 2 2 58 88 45 22 49 73 60 66 28 25 53 95 134 152 166 176 174 181 183 187 192 197 199 197 196 195 194 193 192 188 185 190 195 193 192 199 204 202 197 194 198 197 190 190 181 174 208 249 240 241 239 241 241 241 241 241 240 242 241 244 239 218 205 197 191 192 193 188 190 206 221 220 207 193 175 154 138 93 8 9 10 10 10 10 10 10 11 11 12 12 12 9 16 27 39 40 45 52 55 57 49 43 48 53 52 47 46 50 53 53 52 52 45 41 44 52 55 53 58 57 37 33 29 30 63 78 46 34 41 38 38 38 39 39 41 41 42 42 42 41 44 42 40 42 45 46 44 42 42 45 49 47 44 41 42 45 47 47 48 50 51 52 54 54 66 
219 231 234 223 206 202 212 216 199 181 181 160 148 138 171 212 218 215 219 229 235 228 224 237 235 227 232 234 238 230 219 224 215 171 85 40 55 79 121 154 160 48 30 31 25 20 15 11 10 11 13 11 8 6 5 5 4 5 4 4 3 2 0 0 0 0 0 3 6 6 2 6 4 0 4 111 230 226 144 80 72 72 63 44 38 20 20 12 3 3 3 3 3 3 4 5 5 5 5 5 4 5 6 6 5 4 3 3 1 1 1 0 60 190 164 101 55 60 53 55 57 55 62 62 61 57 52 43 36 34 14 2 5 4 3 4 6 9 11 9 10 4 5 9 5 2 4 5 4 3 0 2 2 2 1 50 80 42 23 54 80 65 71 29 20 52 102 134 154 173 183 176 181 183 186 190 196 199 198 197 196 195 193 194 194 197 201 202 198 199 198 198 199 198 198 201 200 196 197 187 182 223 242 238 240 241 241 241 241 241 241 240 241 241 244 233 205 191 188 184 184 182 184 188 189 194 195 193 183 187 188 218 200 14 7 9 9 9 9 8 8 10 11 12 13 13 12 14 21 36 44 53 52 51 58 54 48 49 50 52 53 53 53 56 59 61 60 52 41 40 54 61 60 67 66 43 38 36 44 72 63 38 35 40 39 40 41 43 43 46 46 43 42 41 41 43 41 40 41 44 46 44 41 40 43 47 50 47 44 44 48 49 48 49 51 52 53 54 55 67 
199 211 219 213 199 204 222 226 218 209 213 204 174 163 197 229 233 227 229 235 237 229 224 231 235 223 220 227 228 218 200 201 192 148 76 44 55 77 119 151 115 32 31 28 28 23 16 10 7 7 9 9 8 8 7 7 7 9 10 10 8 4 2 0 0 0 1 2 2 3 3 3 3 5 0 0 58 188 248 197 126 72 47 56 37 34 11 2 9 2 2 2 2 2 3 4 4 4 4 4 4 5 6 6 5 3 2 2 1 0 0 0 86 198 165 88 45 61 52 53 55 50 59 62 62 57 48 40 37 35 15 1 3 4 5 11 14 13 10 6 9 5 5 6 2 3 4 5 4 3 0 3 2 1 0 44 79 43 25 52 72 60 72 31 20 53 109 143 159 175 184 180 184 183 184 187 193 196 194 194 194 195 196 194 191 197 201 200 196 200 199 199 201 201 199 201 203 200 200 189 185 234 239 238 240 240 241 241 241 241 241 241 241 240 243 232 201 189 186 182 178 177 177 181 190 195 192 186 181 177 167 194 152 7 6 6 6 6 6 5 5 8 9 11 10 8 12 10 38 78 68 56 51 49 48 49 47 48 49 50 51 51 50 53 60 64 61 52 42 44 57 61 61 70 67 40 34 32 37 67 50 36 40 42 39 40 42 44 45 46 46 43 43 44 45 43 45 45 46 46 46 45 45 44 45 46 49 49 48 48 49 48 46 48 51 54 55 56 55 67 
221 230 238 237 231 233 242 244 236 228 231 229 197 189 218 239 241 226 212 217 221 200 190 200 205 186 175 188 190 174 152 149 144 120 68 44 59 94 152 184 81 23 33 28 25 24 17 11 8 6 5 5 7 8 9 10 11 12 13 12 11 8 6 4 3 2 2 2 2 6 6 8 9 9 6 6 0 14 147 243 222 179 84 42 29 60 38 0 2 2 1 2 1 2 5 5 4 5 5 4 3 4 5 5 4 2 2 1 1 0 0 0 109 193 153 76 44 55 47 50 55 55 55 50 55 55 52 47 39 34 15 2 3 5 9 15 18 13 8 7 10 7 5 4 2 4 4 5 4 4 1 2 2 1 1 39 83 46 26 47 61 50 69 33 22 53 105 149 163 170 177 176 182 184 185 185 188 192 196 196 194 193 191 193 198 202 204 204 203 202 201 204 206 204 200 200 201 199 198 186 192 239 241 239 241 241 241 241 241 241 241 242 241 242 246 231 199 184 181 177 175 173 177 184 186 186 185 183 179 166 164 174 65 0 5 6 6 6 6 5 5 6 8 9 9 9 9 4 38 87 95 105 124 119 86 70 60 53 50 48 50 47 48 48 53 59 57 47 40 43 61 71 70 67 63 41 36 35 33 68 56 40 40 42 40 40 41 42 44 44 43 42 43 45 48 45 45 48 49 47 49 50 50 49 48 46 49 50 50 50 49 47 44 48 52 55 58 57 57 69 
241 246 250 248 241 238 243 247 239 229 229 225 204 189 197 207 199 171 152 151 153 141 135 140 139 131 130 135 138 128 120 111 100 91 65 51 56 102 166 134 26 23 28 27 23 20 18 14 10 8 7 7 8 10 11 12 12 12 12 11 11 13 14 15 18 20 19 15 15 11 9 12 12 13 14 12 5 0 10 128 241 240 226 129 11 66 115 109 48 4 15 2 10 3 3 2 1 2 4 4 1 2 3 3 2 1 2 1 1 0 0 1 135 193 141 58 52 54 43 44 50 53 56 51 47 46 48 39 38 30 16 6 8 11 12 14 15 11 7 8 8 7 6 5 5 5 5 5 5 5 3 0 4 1 2 32 76 42 25 48 61 46 66 30 21 54 99 148 170 176 182 180 181 183 186 185 185 189 195 193 190 189 190 193 199 202 205 205 202 202 202 203 204 204 205 207 204 205 202 190 204 236 242 237 245 243 241 241 241 241 241 242 241 244 245 224 195 183 180 178 179 177 178 184 186 187 184 179 177 162 163 160 34 0 6 7 8 8 7 6 6 6 6 7 7 7 7 5 2 6 17 30 49 62 73 96 114 113 108 81 43 46 51 52 48 53 52 45 39 47 66 72 68 65 56 41 37 33 35 63 53 39 39 46 46 45 44 44 46 45 44 44 44 44 45 48 43 46 42 43 46 43 46 48 51 52 49 50 52 54 55 56 58 60 63 64 66 66 70 80 
244 247 250 247 239 234 238 240 231 218 213 199 182 166 155 142 128 123 119 112 111 118 116 114 115 115 116 116 114 111 106 92 73 62 59 57 55 109 136 30 9 25 21 25 24 20 18 16 14 12 14 18 20 19 17 14 13 12 13 13 13 9 9 14 19 23 27 31 30 24 17 17 17 18 18 17 13 11 9 6 149 244 242 243 91 20 50 136 94 29 23 8 3 3 5 2 3 1 1 2 1 2 3 3 2 1 2 1 1 0 0 5 163 192 126 49 47 52 43 45 50 51 55 48 42 45 47 34 36 32 20 12 13 14 12 12 11 7 4 7 8 7 6 5 5 5 5 5 5 5 2 0 5 2 1 24 66 41 26 51 62 46 65 30 24 60 107 148 168 175 181 179 179 176 179 185 190 190 196 193 188 186 188 191 196 199 202 202 200 202 203 203 204 205 206 206 205 205 200 193 215 240 242 241 246 241 241 241 241 241 241 242 242 235 223 206 190 180 182 180 176 176 179 183 186 186 184 183 180 163 167 152 23 4 7 8 9 8 7 6 6 6 6 6 5 4 7 8 10 18 17 10 10 9 6 12 13 20 72 104 46 51 53 53 48 53 58 50 44 49 65 71 68 65 61 44 38 35 35 61 51 38 42 49 46 48 49 48 46 47 48 48 48 48 48 45 49 53 49 54 61 61 62 63 64 65 68 67 65 63 63 60 55 55 54 54 53 51 54 64 
235 237 240 233 215 206 212 210 198 182 172 159 151 143 133 120 116 125 125 125 123 122 120 116 115 118 118 112 102 101 101 93 79 69 56 54 68 95 59 10 18 23 18 23 21 19 18 16 16 14 20 24 27 25 21 19 19 17 14 11 9 12 13 14 16 18 18 23 30 30 26 24 22 23 24 23 22 20 16 4 22 182 243 251 166 0 3 26 90 68 7 8 1 3 2 2 5 5 3 1 1 2 3 3 2 1 2 1 1 0 0 13 181 183 118 50 46 58 48 47 49 47 51 45 39 45 49 34 32 30 21 14 13 13 10 10 9 7 4 7 8 7 6 5 5 5 5 5 5 5 1 2 6 2 0 16 59 41 26 53 66 47 66 31 25 64 112 151 170 175 179 175 176 173 175 183 191 190 195 192 187 186 188 192 199 202 205 204 203 203 204 205 205 206 205 203 207 210 200 195 226 244 241 242 246 242 242 242 242 242 242 244 246 227 199 186 180 174 177 176 171 172 177 181 185 184 182 184 181 162 169 133 11 11 11 12 11 10 8 8 8 7 7 6 5 4 7 7 10 16 19 15 19 23 17 16 16 3 37 123 47 39 46 46 45 50 59 53 45 49 62 69 67 64 63 46 39 37 39 69 62 47 44 48 47 49 51 50 47 46 47 47 47 47 46 49 62 66 63 66 67 62 59 53 47 44 41 40 37 38 39 40 39 39 40 40 41 45 51 60 
212 211 211 204 183 171 172 166 157 145 137 129 131 132 129 128 128 126 127 131 128 119 119 116 114 114 112 108 105 103 104 101 93 79 55 57 66 55 14 18 17 10 12 18 16 15 15 16 16 16 19 21 23 24 22 22 24 20 15 11 7 4 4 6 10 11 15 23 22 21 25 37 31 26 27 28 28 29 27 22 12 48 230 233 132 52 11 7 17 24 12 1 17 16 7 7 1 1 5 2 1 2 3 3 2 1 2 1 1 0 0 41 198 171 103 49 48 52 43 43 44 39 52 54 45 45 45 31 30 31 24 16 12 11 9 9 8 8 8 8 8 7 6 5 5 5 5 5 5 5 3 3 4 1 0 12 58 44 25 54 70 52 70 31 24 62 110 150 169 174 178 174 176 177 179 183 187 188 191 192 191 190 190 193 199 203 207 206 203 204 204 205 206 206 206 203 208 211 197 200 232 244 241 241 244 244 243 243 243 243 243 245 246 218 184 178 175 172 172 172 172 172 175 181 185 179 177 182 178 160 167 106 7 17 16 17 16 13 11 12 12 11 9 7 7 7 7 6 11 21 24 22 30 32 21 16 19 19 14 90 118 50 41 47 54 50 47 47 43 45 56 64 66 62 64 47 39 37 42 74 69 53 48 49 48 48 49 48 48 48 47 47 47 47 47 51 55 45 39 37 32 29 30 32 33 34 39 36 33 33 35 38 41 42 45 47 49 48 51 61 
180 172 169 166 154 143 139 133 129 125 123 122 128 131 128 127 126 125 131 128 123 124 119 115 114 113 111 112 114 112 111 104 92 73 52 57 54 31 22 18 17 12 12 12 13 13 13 14 15 16 15 15 17 18 21 22 23 20 17 13 11 6 5 6 8 9 11 17 15 13 14 21 26 27 28 30 32 31 29 27 23 3 131 198 123 105 14 15 14 27 26 16 5 9 23 41 11 2 3 1 1 2 3 3 2 1 2 1 1 0 0 78 211 158 91 47 45 49 42 45 48 46 53 54 50 46 47 38 34 35 29 20 15 11 7 8 9 10 12 9 7 7 6 5 5 5 5 5 5 5 5 5 2 0 0 11 61 46 24 53 73 55 73 32 22 58 106 145 165 173 180 178 180 182 184 183 183 186 188 191 195 195 193 193 196 201 203 203 201 203 205 206 206 207 208 207 206 205 193 207 236 243 241 240 241 247 243 243 243 243 243 243 241 211 180 181 180 176 173 175 178 176 176 181 184 177 172 178 175 158 166 87 8 21 19 20 19 16 13 14 15 13 11 9 9 10 9 9 16 33 37 34 45 44 30 27 23 18 14 10 80 109 53 44 49 46 45 42 39 41 52 62 65 60 64 47 38 37 40 70 64 51 50 53 49 46 46 46 48 50 51 51 51 51 53 64 54 33 29 32 32 35 36 38 40 41 43 41 38 40 45 46 46 47 49 50 52 51 54 64 
148 131 129 125 127 126 121 115 119 125 122 126 125 125 126 128 128 126 125 122 120 123 120 125 129 127 124 125 125 116 98 79 71 59 51 50 42 29 21 17 14 12 13 15 15 13 13 14 14 14 13 12 12 13 16 16 18 22 24 21 17 12 8 6 7 11 14 10 10 17 17 6 7 15 23 27 26 25 29 34 27 21 25 165 155 129 57 2 11 15 42 45 21 8 6 7 5 4 4 4 2 2 2 2 2 2 2 3 1 4 0 101 205 155 83 43 55 52 42 49 45 43 52 55 53 46 47 41 35 32 23 18 20 19 13 13 11 10 7 4 6 10 10 9 6 3 3 4 4 4 3 2 2 2 1 9 54 40 23 49 71 55 69 25 13 56 112 153 167 176 183 184 183 183 181 184 186 183 191 196 197 194 192 195 200 203 201 200 204 203 203 205 206 205 206 207 204 199 194 214 242 242 243 244 245 245 244 244 244 244 244 245 242 199 180 177 180 173 176 180 183 181 180 182 182 177 175 179 181 160 172 64 20 32 26 25 30 31 27 22 21 21 20 15 12 12 8 13 23 58 73 55 53 55 43 36 35 22 23 12 12 75 102 39 41 47 42 40 36 39 54 62 64 63 59 45 41 35 35 66 63 50 48 51 46 46 47 48 48 48 49 50 49 52 57 50 39 32 35 39 38 42 40 37 43 41 45 49 51 50 52 55 55 55 56 57 58 56 54 69 
134 122 124 119 123 124 125 120 119 118 115 118 118 117 121 130 139 138 134 138 142 141 136 135 134 130 124 117 107 94 69 48 38 40 44 44 40 33 26 16 14 13 12 12 13 14 14 12 12 11 11 10 10 12 15 16 14 15 17 18 17 19 16 12 9 10 12 8 6 13 19 18 7 6 12 17 22 23 25 36 32 27 1 98 174 143 119 72 29 18 2 21 50 8 0 4 4 4 4 4 2 2 2 2 2 3 2 1 2 4 0 122 201 142 72 44 48 49 41 49 44 39 48 57 61 53 49 36 36 33 24 18 20 21 16 14 12 9 8 6 7 8 8 7 5 4 4 4 4 4 3 2 2 2 1 7 48 39 27 50 67 53 66 22 15 58 112 148 164 173 180 182 181 182 181 184 186 184 191 197 198 194 194 197 200 203 201 200 204 202 206 207 204 202 204 203 202 197 197 225 246 242 243 244 245 245 244 244 244 244 244 247 228 178 176 176 175 173 174 175 178 180 182 182 183 179 177 177 181 167 157 46 27 39 36 34 36 37 35 30 29 27 24 19 17 16 11 16 45 87 102 89 75 68 53 44 32 22 24 16 5 23 104 68 41 49 46 43 38 41 52 58 56 56 59 46 39 35 33 63 59 47 44 47 47 47 47 49 49 50 47 49 57 53 38 31 31 34 38 38 41 47 43 41 49 51 53 59 62 61 63 65 69 70 70 68 65 68 65 76 
135 126 128 120 120 117 116 116 111 104 103 107 105 101 110 137 160 159 145 144 144 133 125 116 106 96 83 71 65 57 43 33 31 36 39 39 37 32 28 18 15 12 14 19 19 13 13 11 9 8 8 7 8 11 14 13 8 8 8 12 15 20 18 15 12 12 13 11 5 9 18 24 12 4 3 5 11 16 20 24 22 26 16 33 161 158 157 90 6 3 7 3 16 20 9 4 4 4 4 4 2 2 2 2 2 3 3 0 3 3 0 149 206 143 65 46 49 47 42 55 51 46 54 61 65 57 50 37 41 37 28 21 23 23 17 14 11 9 8 8 8 7 6 5 5 6 5 5 4 4 3 2 2 2 1 6 45 36 25 50 66 53 65 24 21 53 99 137 158 167 173 178 179 180 180 183 186 184 191 196 198 196 195 197 200 203 201 200 204 202 209 210 202 200 204 200 199 193 196 230 245 242 243 244 244 245 245 245 245 245 245 248 226 181 182 173 174 175 173 172 175 181 184 183 183 181 178 175 179 179 136 30 33 39 38 46 50 45 35 34 34 31 27 24 22 23 18 20 66 121 127 116 100 86 67 52 48 27 20 20 19 8 52 102 38 37 43 42 38 42 54 59 56 59 68 50 37 35 35 65 61 47 44 48 47 47 48 49 49 52 50 51 52 44 29 31 35 40 44 46 49 53 53 55 60 61 67 75 74 76 82 83 85 86 85 80 73 79 78 82 
127 114 117 115 115 113 116 120 113 105 103 106 101 91 96 130 157 142 120 113 110 100 81 70 65 58 51 46 48 47 41 37 40 40 38 38 35 31 28 21 15 12 16 25 22 10 11 9 8 7 7 6 6 7 10 9 5 4 3 7 10 13 13 13 12 12 13 14 9 9 13 18 16 10 3 0 3 6 13 17 23 25 27 9 122 182 185 113 1 6 18 21 10 16 16 3 4 4 4 4 2 2 2 2 2 3 3 1 3 1 8 167 207 141 64 45 52 46 42 56 53 51 60 62 62 53 52 42 44 40 30 23 24 22 15 11 9 8 10 10 9 7 7 7 8 8 7 5 4 4 2 2 2 2 1 6 43 35 24 49 68 53 63 28 21 42 87 129 150 161 166 174 176 176 176 181 184 182 189 194 196 194 195 197 200 203 201 200 204 202 208 209 203 201 204 198 194 192 200 231 242 242 243 244 244 245 246 246 246 246 246 246 235 198 189 176 179 178 175 174 177 183 186 185 184 183 180 173 177 186 117 29 38 42 46 49 49 44 42 40 38 35 32 30 30 29 24 22 68 137 144 137 126 114 97 74 59 39 28 24 20 17 14 112 60 41 51 42 38 44 58 63 61 68 74 53 38 36 39 70 65 50 47 50 48 48 49 50 50 50 53 51 39 32 34 35 37 39 43 48 53 55 63 70 68 68 79 89 86 90 100 98 97 97 94 88 83 87 86 88 
145 123 125 128 128 120 121 122 117 105 97 97 94 76 63 84 106 92 69 60 61 59 55 57 57 54 56 57 56 57 52 44 41 38 36 37 36 34 31 18 17 15 14 15 12 8 9 9 8 8 9 7 5 4 4 5 4 4 4 4 4 7 8 9 8 7 7 11 12 13 12 11 16 14 6 1 1 3 1 13 23 23 20 9 47 174 199 164 14 2 9 16 9 23 3 4 4 4 4 4 2 2 2 2 2 3 2 2 2 0 19 188 206 126 70 51 57 55 46 55 52 52 58 60 61 54 53 44 41 36 26 18 19 17 10 7 6 8 12 11 10 8 8 11 12 9 8 7 4 3 2 2 2 2 1 5 40 37 30 54 66 50 60 23 12 35 88 122 146 157 161 171 173 171 172 177 181 180 186 191 194 193 194 197 200 203 201 200 204 203 203 206 206 206 204 197 191 198 213 241 241 242 243 244 244 245 246 246 246 246 246 244 234 194 184 183 181 180 180 180 183 187 188 185 184 185 181 172 173 184 94 34 48 55 53 55 50 46 48 46 43 41 40 42 43 32 29 22 54 134 157 156 143 132 121 98 73 58 42 34 26 21 11 67 86 43 49 46 44 49 60 61 60 68 69 49 38 38 40 70 65 51 47 50 49 49 49 50 51 50 50 45 34 31 36 36 41 45 48 55 60 58 65 74 72 76 81 99 100 105 110 105 109 105 101 98 95 95 96 95 
166 141 136 134 135 122 115 118 110 89 70 71 68 56 45 47 55 51 43 43 49 52 56 60 62 61 61 61 60 61 61 47 39 36 34 33 31 30 28 19 18 16 14 10 10 9 9 8 7 6 6 5 4 4 4 4 4 4 4 4 4 5 5 5 4 4 4 7 9 10 11 13 12 15 15 9 3 2 0 4 12 17 21 17 9 135 216 188 25 1 4 2 5 2 4 4 4 4 4 4 2 2 2 2 2 2 1 1 3 1 27 190 195 118 56 42 53 48 40 51 43 42 54 56 54 54 57 51 44 38 23 16 15 12 9 7 6 7 9 10 7 7 13 16 15 11 9 7 4 2 1 4 5 4 2 8 45 43 32 53 67 54 62 23 13 34 83 117 138 153 166 169 171 169 172 175 177 177 184 189 193 193 190 191 199 206 204 199 202 203 205 206 202 202 202 192 189 198 223 247 244 244 244 245 245 245 245 245 245 245 245 246 227 186 180 187 181 181 181 181 185 191 191 186 185 184 180 178 176 179 82 46 50 52 54 62 66 57 50 50 49 48 49 46 43 39 37 27 55 143 167 165 155 142 130 115 97 73 53 39 27 23 18 35 97 38 47 53 45 46 56 60 61 67 68 49 39 36 38 75 81 53 47 46 46 47 48 50 50 50 49 40 32 32 37 38 47 53 62 69 65 66 70 74 85 93 93 107 110 114 119 113 112 114 111 108 110 105 98 103 
161 129 120 117 113 95 87 86 78 62 49 51 50 50 53 53 51 47 41 42 48 50 52 54 57 59 59 58 59 61 57 43 32 33 33 31 28 27 25 20 18 16 14 12 11 10 10 8 6 5 4 4 4 4 4 4 4 4 4 4 4 4 4 4 4 4 4 3 3 5 8 12 12 13 17 19 12 2 0 1 5 10 18 19 8 82 230 186 18 1 4 4 4 4 4 4 4 4 4 4 2 2 2 2 2 1 5 8 1 1 36 188 190 111 48 49 55 44 40 52 41 43 54 51 47 47 51 45 44 40 25 18 14 9 9 7 6 6 8 10 9 11 17 18 16 13 11 8 5 2 5 4 1 1 1 9 44 43 27 46 65 55 61 26 15 38 69 103 130 143 161 167 167 167 172 176 179 180 183 186 189 190 186 186 194 203 201 196 197 199 204 205 202 201 201 189 189 197 227 247 244 245 245 245 245 245 245 245 245 245 245 245 216 180 178 183 181 179 177 178 185 194 194 187 183 180 180 183 184 167 60 48 60 67 64 65 73 66 58 57 55 55 56 50 44 46 43 35 57 146 179 178 170 152 139 124 105 82 64 46 33 39 35 23 104 105 59 47 43 44 56 62 63 67 69 50 39 35 37 73 79 50 45 46 45 47 48 49 49 50 47 38 32 35 38 40 51 56 65 68 64 72 76 76 90 96 107 117 127 136 134 124 124 128 123 115 111 109 103 110 
113 85 81 81 79 72 72 65 57 51 49 45 44 51 63 63 55 46 38 37 42 45 43 45 50 55 59 60 61 62 45 38 31 30 32 29 27 26 24 19 17 16 14 13 12 10 10 8 6 5 4 4 4 4 4 4 4 4 4 4 4 4 4 4 4 4 4 3 3 4 7 10 14 13 16 21 19 10 3 1 0 3 10 17 10 30 195 196 22 0 4 4 4 4 4 4 4 4 4 4 2 2 2 2 2 3 7 5 5 5 51 203 184 93 46 59 62 44 41 48 39 45 59 62 56 50 50 42 42 42 30 23 17 7 6 5 5 7 9 13 13 17 21 20 16 15 13 10 7 5 4 2 2 3 3 6 44 47 33 49 69 53 68 26 12 38 52 89 128 133 151 164 163 165 171 178 183 185 183 185 187 188 186 186 191 199 199 195 194 198 202 204 203 201 196 187 191 200 235 248 243 245 245 245 245 245 245 245 245 245 245 243 214 179 178 175 180 175 173 176 184 195 196 186 179 177 180 183 187 147 50 58 65 79 79 70 72 67 59 62 63 63 63 58 52 51 47 43 57 144 184 183 171 156 144 128 112 94 75 54 40 55 51 15 38 105 88 46 44 48 59 62 62 68 70 51 40 36 36 68 65 46 43 47 47 49 51 51 49 49 43 35 36 39 40 49 62 68 75 74 73 83 85 86 100 108 116 128 136 138 135 129 128 133 130 126 119 121 116 116 
82 72 72 65 73 76 74 69 63 57 54 50 48 55 64 61 53 45 38 36 39 40 38 40 45 53 59 63 62 55 35 32 36 33 30 29 26 24 23 18 17 16 14 14 12 10 10 8 6 5 4 4 4 4 4 4 4 4 4 4 4 4 4 4 4 4 4 4 5 6 9 12 12 16 17 13 17 23 9 4 0 0 4 10 14 6 103 225 49 0 4 4 4 4 4 4 4 4 4 4 2 2 2 2 2 3 2 1 6 0 61 213 175 87 56 54 60 43 41 43 36 47 64 71 65 54 49 42 42 44 35 27 20 9 4 4 6 9 13 18 18 20 23 20 16 16 14 11 8 6 4 5 5 2 0 2 39 46 37 54 66 49 78 35 6 23 30 79 121 127 143 157 158 159 167 175 182 185 185 186 188 189 188 188 192 198 200 197 195 199 202 202 200 194 186 183 191 208 242 247 243 245 245 245 245 245 245 245 245 245 245 246 230 189 179 173 179 173 174 177 184 192 192 181 173 174 179 180 191 122 47 61 63 70 74 66 71 69 62 66 67 67 67 62 56 54 50 49 65 151 187 184 174 165 158 143 121 103 83 60 44 40 28 25 10 56 83 51 48 51 60 62 62 69 71 52 40 37 38 70 67 48 45 49 49 53 55 52 49 45 39 35 38 41 42 53 65 71 79 82 81 88 89 90 111 125 115 126 143 145 138 133 134 134 130 135 130 130 128 127 
83 75 72 61 66 70 68 66 62 56 52 49 51 57 62 62 57 51 46 46 46 41 44 46 47 51 54 57 51 42 33 28 35 34 28 27 24 23 21 16 16 16 15 15 13 10 10 8 6 5 4 4 4 4 4 4 4 4 4 4 4 4 4 4 4 4 4 4 3 5 8 12 10 12 16 14 15 19 14 10 4 1 0 4 13 9 26 163 65 0 4 4 4 4 4 4 4 4 4 4 2 2 2 2 2 2 4 5 3 1 56 200 173 78 51 50 55 41 42 38 34 49 62 68 64 50 43 35 39 40 29 23 18 8 5 6 8 13 16 23 21 19 21 20 17 15 13 10 7 5 1 15 33 28 17 16 38 38 32 55 67 54 76 76 19 18 27 59 96 113 132 145 153 155 163 171 177 180 185 185 186 186 187 188 190 195 197 196 192 195 197 198 197 190 182 180 187 218 246 245 245 245 245 245 245 245 245 245 245 245 245 246 242 197 177 176 178 173 176 181 184 184 182 175 169 173 178 176 188 91 42 55 68 68 64 67 75 69 63 66 65 66 67 62 55 55 51 49 76 160 190 188 177 172 169 155 134 112 90 66 46 37 27 25 22 59 85 53 46 49 61 68 68 69 70 52 41 37 40 77 83 55 50 50 51 55 57 54 49 41 37 37 37 42 46 56 64 66 75 80 80 89 93 96 114 125 119 125 145 152 144 142 146 143 137 142 132 139 138 130 
85 73 71 65 68 64 61 60 58 56 53 48 51 56 63 68 68 62 62 59 57 55 61 56 51 48 52 48 35 33 33 27 30 30 27 26 23 21 20 15 15 15 15 15 12 9 9 8 6 5 5 5 4 4 4 4 4 4 4 4 3 3 3 3 3 3 3 0 0 2 4 7 8 8 11 18 15 9 16 14 9 5 1 2 6 13 1 57 58 0 3 3 3 3 3 3 3 3 4 4 2 2 2 2 2 1 4 2 1 3 6 106 142 68 49 49 48 39 40 38 32 47 63 69 62 48 43 34 34 37 23 18 14 7 5 7 11 16 19 25 21 17 16 16 16 15 14 10 6 3 3 32 50 58 57 52 44 36 33 54 60 45 47 85 26 8 17 36 68 96 121 135 147 154 160 166 172 176 182 183 184 186 187 187 187 191 195 193 190 192 191 195 196 189 183 180 184 229 246 245 245 245 245 245 245 245 246 245 244 243 244 244 244 197 177 181 178 172 178 184 183 179 176 174 169 173 179 174 174 69 49 56 69 69 66 72 79 67 58 63 66 67 65 59 51 50 49 49 89 166 188 186 177 174 169 151 136 113 92 74 54 46 34 30 19 64 92 49 43 46 63 72 72 71 80 60 39 39 43 82 86 55 51 51 52 55 55 54 49 38 36 39 37 42 50 65 68 69 73 78 84 94 103 110 121 124 132 128 137 136 134 139 144 149 146 152 135 135 136 130 
79 71 71 69 72 63 62 61 57 55 56 49 48 53 64 70 70 72 77 73 71 79 82 63 60 61 61 41 29 31 31 30 28 27 27 25 22 21 19 14 14 14 14 14 12 8 8 7 6 6 7 6 3 3 4 4 5 4 3 3 2 2 2 2 2 2 2 0 1 2 3 4 5 6 9 9 9 9 13 12 11 8 5 2 7 8 3 23 24 0 0 0 1 1 1 0 0 1 2 3 2 2 2 2 2 2 2 2 2 2 1 1 40 33 39 38 44 39 40 45 38 49 69 70 57 44 44 32 33 43 22 17 14 10 5 7 13 18 16 25 24 20 17 15 15 14 14 10 4 0 31 65 49 65 64 48 39 30 33 38 31 26 28 51 25 9 17 22 40 68 97 125 143 150 155 157 165 177 182 184 186 188 188 189 188 190 197 193 194 196 192 197 194 184 186 181 189 241 245 246 243 244 244 244 244 244 248 244 241 240 243 244 243 197 182 180 173 171 179 183 181 179 175 174 170 170 175 173 155 56 54 53 58 68 62 65 77 65 60 61 65 67 60 52 48 47 46 52 114 174 184 185 182 180 175 156 135 116 96 82 68 52 35 29 23 59 85 49 42 47 63 69 66 66 98 81 39 37 44 81 69 47 48 52 54 54 50 54 50 37 35 38 39 44 52 66 72 80 75 79 87 94 104 112 124 124 132 128 134 138 137 135 139 142 144 154 145 140 130 125 
81 72 72 69 70 60 58 59 55 54 61 62 59 61 68 72 73 79 83 83 84 91 94 83 81 66 46 32 29 30 31 29 27 27 27 25 23 21 19 13 13 13 13 13 13 12 10 8 6 5 6 5 3 2 3 4 5 4 3 3 2 2 2 2 2 2 2 1 1 2 3 3 3 4 6 7 7 6 8 9 9 8 6 2 4 0 6 3 4 2 2 1 0 1 1 0 0 0 1 1 1 1 1 1 1 1 1 1 1 1 1 4 19 31 36 32 24 25 27 29 26 33 51 57 47 42 46 32 34 39 21 15 15 12 9 11 16 18 13 21 19 17 15 15 13 8 8 6 4 1 27 51 39 52 56 50 43 36 32 34 35 38 31 42 27 14 11 15 17 37 57 95 129 138 146 152 160 168 179 180 180 182 184 186 186 188 196 193 195 198 197 197 191 183 182 181 202 245 246 245 243 244 244 244 244 244 247 244 241 242 244 245 234 174 170 176 172 172 179 182 179 176 174 172 168 170 167 177 123 29 44 50 53 65 66 62 73 66 56 53 56 57 53 50 52 54 45 60 140 183 182 184 180 182 180 170 157 136 113 95 76 59 41 32 22 55 78 46 43 49 60 65 67 67 83 68 42 42 46 80 68 51 53 56 54 54 50 54 50 37 35 39 41 49 57 66 75 86 82 84 92 104 116 120 132 127 132 138 136 147 157 148 142 133 136 144 149 149 135 141 
69 65 67 68 79 79 81 85 89 99 111 107 97 90 88 86 83 87 90 91 94 101 100 95 71 39 23 25 28 28 29 27 25 26 26 24 22 20 18 12 12 12 12 12 13 13 11 9 6 5 7 5 3 2 3 4 5 4 3 3 2 2 2 2 2 2 2 2 2 2 2 2 1 2 4 5 5 3 4 6 7 7 6 6 3 4 6 8 11 6 9 7 2 1 2 0 0 0 0 0 0 0 0 0 0 0 0 0 0 0 0 4 30 57 39 41 28 32 31 22 20 15 19 24 20 18 25 13 22 24 13 8 10 6 5 7 12 14 10 9 7 6 5 6 6 3 3 3 3 4 1 8 9 18 24 32 37 38 38 39 42 45 40 52 58 51 37 18 9 20 30 61 106 127 136 146 154 161 169 170 173 178 183 186 181 183 191 191 195 198 200 196 187 181 179 182 218 247 246 243 242 244 244 244 244 244 245 243 243 243 244 249 231 159 163 174 173 173 178 181 177 172 173 171 174 176 171 184 98 22 40 48 53 65 63 60 70 69 59 56 57 56 51 50 54 50 40 86 159 182 184 183 184 184 177 169 157 138 117 101 82 65 47 38 27 59 81 46 43 50 62 65 67 68 71 56 43 46 44 78 68 51 52 55 54 54 50 54 50 37 36 39 43 54 66 77 84 93 90 96 102 111 131 138 139 134 125 129 128 137 139 134 137 142 148 144 135 148 134 135 
94 94 113 135 155 146 131 124 124 131 137 133 121 109 102 97 94 96 95 95 97 99 99 74 33 26 25 22 27 27 28 26 24 24 23 21 19 17 15 12 12 12 12 12 11 11 10 8 6 5 8 7 5 4 5 5 5 4 3 3 2 2 2 2 2 2 2 3 3 2 1 1 0 1 4 4 4 3 3 5 6 5 4 4 1 5 3 11 9 10 19 19 10 4 3 2 1 0 0 0 0 0 0 0 0 0 0 0 0 0 0 0 43 72 34 40 32 44 44 35 40 31 27 35 31 20 20 9 7 8 9 4 7 4 3 0 1 4 2 5 5 4 5 8 8 3 2 2 3 5 4 0 2 8 10 14 13 18 25 31 35 40 42 49 62 62 56 44 30 21 13 16 30 53 92 124 142 150 156 156 159 166 175 179 173 175 183 185 191 194 199 193 181 180 178 185 232 246 245 243 243 244 244 244 244 244 242 243 243 244 245 247 238 187 181 174 172 174 178 180 174 168 166 163 173 174 167 166 70 34 44 51 57 67 63 63 68 68 63 58 58 58 55 54 55 49 64 127 177 186 188 178 182 180 168 163 150 134 117 103 86 70 51 41 30 62 84 46 40 50 69 71 63 63 70 55 43 40 40 82 76 53 50 53 54 54 50 54 50 37 36 40 46 60 73 84 89 96 93 99 104 110 129 136 137 138 138 129 128 133 140 140 138 162 172 166 144 142 140 146 
230 224 219 204 193 171 148 129 125 126 124 121 111 101 98 97 98 100 97 94 95 95 94 65 29 26 22 24 25 26 26 25 23 22 21 19 17 15 13 11 11 11 11 11 9 8 8 7 6 6 9 9 7 6 7 7 5 4 3 3 2 2 2 2 2 2 2 4 3 2 1 0 1 2 4 5 5 4 4 5 5 4 2 0 4 5 5 8 3 12 26 28 16 8 5 4 3 1 1 0 0 0 0 0 0 0 0 0 0 0 0 0 49 76 38 42 36 45 45 34 42 29 32 53 50 34 31 23 15 17 26 23 24 21 20 10 7 7 5 3 2 3 5 8 8 5 3 1 2 4 7 1 3 2 9 25 19 13 12 15 17 19 30 46 60 56 50 46 37 28 29 28 22 15 13 29 70 106 141 146 150 156 162 167 167 169 177 181 188 190 197 189 178 179 179 189 240 245 244 245 244 244 244 244 244 244 241 242 244 245 246 242 229 190 183 176 178 175 179 179 173 167 164 165 175 173 165 147 44 43 49 58 60 68 68 69 68 66 63 53 54 58 56 57 58 74 115 160 186 182 183 173 173 171 162 164 152 136 122 107 89 73 53 41 28 58 80 46 39 50 74 76 64 65 68 49 40 40 41 90 89 59 51 55 54 54 50 54 50 38 37 40 48 63 77 87 95 103 98 100 106 117 128 129 142 150 143 138 145 156 160 157 149 169 168 170 149 143 156 166 
253 248 241 213 189 158 130 108 102 94 91 94 94 93 93 94 95 96 92 88 90 93 88 56 38 28 25 22 28 29 29 26 21 18 18 17 16 14 12 13 13 13 13 13 12 10 10 8 6 5 7 7 5 5 3 3 4 4 4 4 4 2 2 2 2 2 2 2 2 2 2 2 2 2 2 2 2 2 4 4 4 4 4 3 2 2 2 2 2 4 14 24 15 8 4 6 11 11 7 7 3 2 2 2 1 0 1 2 0 4 3 2 52 69 38 33 39 45 43 40 40 34 43 50 43 37 32 20 20 26 28 27 29 31 24 15 14 7 5 4 2 2 3 5 6 7 9 5 1 3 3 3 7 0 11 48 46 32 21 18 16 14 16 21 30 42 48 46 42 36 32 30 29 27 22 20 16 11 32 60 98 127 147 158 164 168 168 172 184 185 186 178 179 183 170 202 243 244 244 245 243 242 243 244 245 244 243 247 245 242 244 224 197 176 172 170 173 170 177 174 172 167 161 170 166 171 167 128 32 38 50 56 58 63 71 70 73 71 65 57 56 61 60 62 65 115 170 187 197 190 180 177 175 173 161 156 144 133 127 109 87 79 62 47 32 62 84 46 45 45 61 70 64 65 74 61 45 45 46 91 96 70 55 58 59 63 59 54 52 39 37 40 51 64 76 90 104 102 111 121 120 119 133 144 144 141 138 143 146 156 152 155 149 156 151 154 147 138 144 154 
245 233 200 148 125 110 99 95 95 93 96 96 95 94 93 93 92 93 91 88 87 87 84 53 38 29 29 26 26 28 27 24 19 18 18 16 15 14 13 13 13 13 13 13 12 10 10 8 6 5 6 6 5 5 4 4 4 4 4 4 4 2 2 2 2 2 2 2 2 2 2 2 2 2 2 2 2 2 4 4 4 4 4 2 1 1 1 1 2 6 3 26 30 22 18 20 20 18 10 4 4 4 5 4 5 4 4 6 5 6 8 2 72 74 37 36 36 41 43 44 45 37 48 54 41 29 25 20 16 20 21 20 22 27 22 15 15 8 5 4 3 3 3 6 7 7 9 5 1 3 4 1 1 4 20 44 45 41 41 39 34 24 16 12 11 16 20 22 27 31 30 26 23 23 25 29 28 22 19 15 16 31 59 90 127 153 170 174 175 177 170 167 171 174 171 209 245 244 241 245 244 243 243 243 243 243 245 247 243 241 246 207 172 170 174 167 162 165 171 170 170 166 161 172 171 166 173 113 41 43 46 51 56 60 66 70 77 76 68 57 55 59 58 60 72 139 193 199 196 195 187 181 174 172 164 159 143 130 123 109 86 74 62 49 34 61 81 49 44 43 58 72 70 69 75 65 49 43 45 80 78 60 55 62 63 66 61 56 54 37 35 38 48 68 86 95 102 96 106 119 124 121 127 133 136 138 156 156 144 143 152 145 141 156 158 154 143 142 136 143 
147 138 119 96 98 98 99 99 95 94 98 102 101 99 98 96 94 90 91 89 86 84 79 52 39 29 29 27 26 28 27 24 19 19 18 16 14 14 14 13 13 13 13 13 12 10 10 8 6 5 5 5 5 5 5 5 4 4 4 4 4 2 2 2 2 2 2 2 2 2 2 2 2 2 2 2 2 2 4 4 4 4 4 2 1 1 1 1 1 2 7 7 32 78 80 74 70 63 52 44 34 30 25 21 18 18 16 18 26 11 9 8 89 68 24 29 25 32 37 41 44 35 43 51 41 26 22 21 21 23 21 20 24 28 20 15 16 8 5 5 4 3 4 6 7 7 9 5 1 3 4 0 0 15 33 34 24 28 37 43 42 41 39 34 28 24 20 13 12 15 17 20 23 26 28 29 29 27 27 30 31 27 20 14 22 60 102 140 167 174 163 158 162 162 166 221 247 243 238 244 245 244 243 242 241 241 243 243 241 242 246 216 186 177 173 167 167 166 167 167 164 158 157 168 170 156 171 87 37 42 45 55 61 62 68 72 77 74 62 54 54 56 58 57 82 168 204 204 199 194 187 181 169 166 163 158 153 136 122 107 78 61 55 47 35 64 87 52 43 42 57 71 78 75 67 53 45 46 46 73 69 58 59 64 65 67 60 57 57 38 38 44 49 67 86 92 100 102 110 113 118 123 130 130 136 143 165 166 150 143 159 145 147 148 142 136 134 140 139 164 
102 93 93 92 91 86 93 91 84 86 91 92 91 90 89 88 85 79 79 78 77 77 69 47 41 31 27 25 28 29 29 26 20 20 19 15 12 13 15 13 13 13 13 13 12 10 10 8 6 5 4 4 5 5 6 5 4 4 4 4 4 2 2 2 2 2 2 2 2 2 2 2 2 2 2 2 2 2 4 4 4 4 4 2 0 0 0 0 0 0 3 0 5 61 118 113 116 111 105 102 96 88 77 66 59 60 61 65 76 51 45 47 108 65 21 28 29 35 40 45 48 42 44 46 40 29 26 22 22 22 17 16 23 27 18 15 18 9 6 6 5 4 5 7 7 7 9 5 1 3 4 0 6 28 36 33 32 29 30 32 30 29 35 42 49 50 48 33 23 13 11 13 16 18 22 23 26 28 29 29 31 34 34 32 28 20 18 28 41 64 102 139 156 154 166 235 245 242 239 244 242 242 241 241 241 241 244 244 242 243 242 206 178 174 172 168 170 169 165 165 159 151 153 163 161 151 156 64 38 48 52 58 58 57 62 64 69 71 65 55 55 54 60 57 93 184 200 200 200 193 184 177 163 161 162 152 146 136 123 112 89 68 57 50 33 59 82 51 41 44 58 66 70 67 71 61 47 40 43 75 74 63 60 63 63 65 59 59 61 40 39 48 55 69 84 89 101 113 119 113 114 129 142 139 146 152 155 158 149 144 149 140 152 150 150 141 139 135 131 151 
100 88 83 84 89 84 88 90 86 90 87 81 80 79 80 80 79 76 73 72 76 83 58 36 41 35 31 27 29 31 31 28 22 21 19 14 12 13 15 13 13 13 13 13 12 10 10 8 6 5 3 3 5 5 7 6 4 4 4 4 4 2 2 2 2 2 2 2 2 2 2 2 2 2 2 2 2 2 4 4 4 4 4 2 0 0 0 0 0 0 1 1 1 9 75 108 116 113 108 114 112 106 99 95 94 95 97 102 102 88 89 96 123 63 23 29 38 40 42 43 48 45 51 51 37 27 27 21 28 25 18 18 26 28 17 15 18 10 6 6 6 5 5 8 8 7 9 5 1 3 3 0 18 37 32 34 32 29 31 31 27 24 25 29 35 41 46 48 45 39 30 21 13 11 15 13 14 19 26 26 30 37 36 33 34 36 36 33 27 24 18 29 53 83 142 247 242 241 241 243 238 239 240 241 242 242 238 241 245 247 244 204 174 173 170 164 168 168 162 164 158 151 155 161 156 156 145 55 39 49 56 57 60 62 60 54 56 62 66 58 56 54 61 57 100 185 201 198 194 196 188 177 164 164 165 151 147 143 126 114 94 74 60 50 28 55 83 48 40 50 60 59 61 65 80 71 51 44 45 78 76 62 56 59 59 61 57 59 65 49 43 45 54 69 83 98 99 110 120 123 119 123 139 129 136 145 147 151 149 153 146 145 143 146 159 156 153 156 143 139 
92 87 84 76 77 79 81 84 84 84 81 82 83 85 87 90 92 91 84 86 92 71 40 35 39 35 31 28 28 31 29 25 24 21 18 15 14 14 14 15 13 12 11 12 13 11 9 7 6 6 4 4 5 5 6 5 4 4 4 4 4 2 2 2 2 2 2 2 3 3 3 4 3 3 4 4 4 3 2 3 4 3 3 1 0 0 0 0 0 1 1 1 4 0 14 45 63 69 75 78 83 80 77 76 76 80 90 96 93 90 96 108 123 51 21 29 33 37 40 48 48 43 51 44 29 27 25 22 27 26 22 20 26 25 15 13 13 7 5 6 5 4 5 7 5 6 10 2 1 3 0 13 36 37 32 40 32 29 27 27 24 23 26 25 27 36 38 37 41 43 42 39 36 29 19 13 11 10 18 17 20 26 31 34 37 39 40 38 34 36 38 38 27 5 86 254 237 240 241 245 242 243 242 242 243 244 240 240 244 247 233 181 164 162 163 165 165 163 161 162 152 148 156 161 154 156 125 46 45 48 51 54 61 64 61 57 55 58 60 56 56 57 64 59 104 187 210 201 198 193 186 180 167 161 161 152 147 147 135 111 96 75 56 44 32 55 84 46 39 50 62 60 61 68 76 64 51 44 45 79 87 58 55 55 54 57 58 58 63 43 39 43 54 72 88 97 112 116 111 129 132 134 132 136 141 136 149 155 161 150 135 142 146 139 143 143 146 159 155 139 
91 84 82 78 85 93 90 91 92 91 90 94 99 105 109 107 105 105 105 101 78 41 31 37 39 34 30 28 26 30 28 23 22 21 20 19 18 17 15 15 13 11 11 12 13 11 8 6 6 7 5 5 5 5 5 5 4 4 4 4 4 2 2 2 2 2 2 2 3 3 4 5 3 2 4 3 1 0 1 3 4 3 2 0 0 0 0 0 0 1 0 0 3 2 0 2 11 14 21 22 27 28 26 27 29 32 39 47 50 52 62 72 106 49 19 26 32 37 40 51 49 44 49 36 26 28 24 23 24 25 22 20 24 22 14 12 10 7 4 6 5 4 4 5 6 7 3 1 3 1 6 32 44 37 39 43 32 30 27 25 25 25 28 27 28 36 35 32 33 34 37 38 40 40 40 40 31 20 17 17 18 18 19 21 27 27 31 37 44 41 42 37 36 18 122 253 236 241 240 240 240 242 242 244 246 246 242 235 242 239 183 152 152 151 154 155 160 158 157 154 145 146 156 162 157 165 98 29 45 48 51 54 59 60 57 57 56 56 58 52 49 51 57 54 103 185 209 200 200 191 179 171 161 159 162 153 139 137 130 110 98 77 55 40 32 56 87 50 39 45 55 58 61 66 70 55 47 44 41 79 96 63 57 53 54 55 57 55 62 42 39 44 52 67 81 97 116 121 122 134 129 137 136 151 154 133 143 153 156 143 132 132 140 143 136 132 147 156 150 139 
97 89 90 91 99 108 106 108 112 114 112 107 112 117 116 109 105 99 91 79 44 28 34 39 38 32 28 27 25 29 27 22 21 21 21 20 18 17 15 14 13 12 12 11 12 11 8 6 6 7 5 5 5 5 5 5 4 4 4 4 4 2 2 2 2 2 2 2 3 3 4 5 4 5 5 3 1 0 3 5 6 5 4 1 0 0 0 0 0 1 0 0 3 2 1 4 5 5 7 8 8 9 10 12 14 13 9 15 16 16 21 26 77 45 23 25 33 38 42 50 47 45 48 35 28 28 22 22 26 26 20 22 26 22 15 13 11 8 5 6 5 4 4 5 8 6 0 3 1 0 31 50 44 36 39 35 34 31 28 26 26 27 29 28 28 32 31 28 29 30 31 32 29 29 35 41 42 40 35 31 24 19 16 16 17 19 22 25 26 33 44 38 37 20 153 252 237 242 242 242 236 236 239 242 242 242 246 240 247 221 143 136 137 145 151 143 155 150 149 145 139 145 155 155 150 164 69 37 45 47 52 56 57 57 54 54 53 54 56 53 52 54 58 52 102 180 201 196 198 190 183 183 179 171 169 161 147 137 130 114 101 78 57 42 31 54 88 50 41 44 55 58 59 63 70 57 50 48 47 85 88 58 59 60 57 56 54 53 63 43 38 43 53 68 79 95 110 114 131 138 128 129 125 138 152 142 156 158 151 145 139 139 141 151 145 130 137 144 139 147 
118 111 115 117 119 124 121 119 120 119 113 102 99 94 87 82 78 69 57 49 42 39 37 39 38 31 28 27 25 28 26 22 21 20 18 16 15 14 13 13 13 13 12 11 12 11 8 6 6 7 5 5 5 5 5 5 4 4 4 4 4 2 2 2 2 2 2 2 3 3 4 5 8 9 9 8 5 3 4 6 7 6 5 2 1 1 1 1 1 1 0 0 3 2 0 3 8 13 12 8 7 8 11 12 14 14 14 15 14 10 11 10 54 32 28 29 28 36 41 48 42 45 47 35 29 29 23 24 27 27 19 24 29 21 16 13 11 8 6 6 5 4 4 5 6 5 5 2 0 14 43 48 39 35 35 33 34 31 28 26 26 28 28 27 28 28 30 26 26 27 27 27 27 27 29 29 29 30 39 43 46 41 33 25 18 14 12 13 17 17 23 26 41 26 182 251 237 241 244 246 242 241 240 240 239 240 242 246 238 188 146 143 134 137 139 128 138 140 143 137 134 142 147 145 151 150 45 42 43 44 49 53 55 54 52 51 51 53 55 54 57 60 58 48 97 178 194 194 196 190 179 179 176 165 160 154 145 133 127 112 93 72 60 49 35 52 82 45 46 53 66 67 60 61 82 74 62 52 46 88 85 57 60 60 58 56 54 52 62 41 37 45 60 77 86 100 114 108 114 124 124 118 117 129 153 158 138 139 150 159 142 153 145 130 128 119 118 144 146 155 
129 118 116 116 116 118 111 104 103 99 87 77 72 64 56 52 51 54 51 46 47 42 39 40 37 29 27 27 24 28 25 21 20 20 18 17 16 15 13 12 14 14 13 11 10 11 8 6 6 7 5 5 5 5 5 5 4 4 4 4 4 2 2 2 2 2 2 2 3 3 4 5 7 9 9 10 8 6 6 8 9 8 7 4 2 2 2 2 2 1 0 0 3 2 0 1 5 16 14 10 11 13 15 16 15 15 15 14 14 14 13 16 55 27 23 27 30 33 39 44 38 43 46 36 34 32 25 26 28 29 18 25 31 20 17 14 12 9 7 6 5 4 4 5 6 6 5 0 8 35 43 37 40 38 31 36 35 32 29 27 27 29 25 26 29 27 31 27 27 27 27 27 21 21 28 29 27 28 35 37 37 40 42 45 43 33 24 21 22 21 18 13 19 20 210 245 236 243 240 237 229 225 222 221 224 229 240 242 205 158 148 148 149 148 142 122 110 132 141 135 132 139 140 142 162 131 32 35 40 42 45 48 52 53 51 50 51 54 56 55 58 58 56 49 104 181 192 193 196 188 181 181 175 167 163 155 142 136 136 121 103 76 58 50 35 53 86 48 50 55 68 71 61 62 89 84 68 52 38 88 87 62 58 55 57 58 57 53 60 39 36 44 61 78 85 102 109 108 110 114 130 134 140 138 148 150 149 147 152 163 143 154 152 131 128 139 134 135 134 140 
114 99 93 91 91 93 86 81 82 81 75 65 60 52 44 39 42 53 53 39 35 39 40 40 37 31 28 28 25 27 25 22 20 21 20 18 16 16 16 13 14 14 13 10 11 11 8 6 6 7 5 5 5 5 5 5 4 4 4 4 3 2 2 2 2 2 2 2 3 3 3 4 3 4 6 6 6 5 6 7 8 8 8 5 3 3 3 3 3 2 1 1 2 1 1 0 4 17 15 10 13 15 17 15 13 13 16 16 15 12 10 22 63 27 20 25 35 34 39 43 36 40 44 35 33 32 27 30 29 27 19 29 33 22 18 15 11 8 7 6 5 4 4 5 6 10 1 0 23 45 45 39 45 40 27 31 34 31 28 27 28 29 24 26 28 27 30 29 28 28 28 27 25 25 25 22 22 25 32 30 28 30 33 36 41 45 48 47 46 31 19 12 7 32 233 240 236 240 226 206 178 167 166 168 172 174 177 179 151 138 142 141 145 147 149 148 140 137 144 136 133 139 139 143 162 99 27 37 37 39 41 43 46 49 49 47 48 53 56 60 57 55 54 54 115 181 193 194 194 186 184 189 182 168 162 155 138 136 136 119 97 73 55 44 30 53 94 55 53 52 62 67 62 61 90 84 59 50 39 87 81 55 57 56 56 58 57 54 58 39 35 43 60 75 82 92 98 114 119 120 132 133 143 136 150 155 143 147 149 160 143 135 142 150 142 158 143 129 142 151 
97 84 81 80 81 87 88 86 84 83 84 84 78 62 43 35 38 51 53 42 40 42 40 39 36 34 31 29 28 28 26 23 20 20 19 15 13 13 14 14 13 13 12 11 12 11 8 6 6 7 5 5 5 5 5 5 5 4 3 3 2 2 2 2 2 2 2 2 2 2 2 2 2 2 3 4 4 5 5 6 6 8 9 6 4 4 4 4 4 5 4 2 0 0 1 4 8 5 1 14 15 16 18 14 14 14 14 18 16 11 10 28 61 25 29 33 37 38 40 45 39 38 43 32 27 28 26 29 32 23 20 34 36 24 21 15 9 7 7 5 5 5 5 5 6 6 0 8 41 47 39 40 41 39 34 31 33 32 30 30 31 29 27 27 27 27 26 30 28 28 30 26 24 26 26 27 27 27 29 29 30 31 34 36 36 36 41 48 55 54 31 24 13 80 245 232 215 203 179 152 146 147 149 154 153 149 142 138 135 135 137 138 141 143 146 150 153 150 150 139 137 145 144 149 160 67 22 28 30 36 39 37 36 40 43 41 43 48 54 51 42 46 46 53 123 183 194 190 187 189 184 182 174 167 161 149 141 133 126 116 95 72 52 42 28 50 91 54 50 52 58 62 63 65 95 88 49 50 38 88 96 56 52 54 54 57 54 55 59 39 35 44 60 77 89 97 103 109 105 111 123 128 140 132 155 157 144 149 146 143 138 129 143 156 145 152 147 147 153 165 
104 92 91 91 92 99 102 102 101 99 96 94 92 73 46 35 40 54 59 49 43 40 39 38 36 33 30 28 28 28 27 24 21 19 18 16 14 13 14 14 13 13 12 11 12 11 8 6 6 7 5 5 5 5 5 5 5 4 3 3 2 2 2 2 2 2 2 2 2 2 2 2 3 3 4 4 5 6 4 5 5 5 5 4 3 3 3 3 3 6 5 4 3 2 1 0 2 70 111 39 9 18 19 16 16 18 20 24 23 19 19 42 63 26 31 35 39 35 38 42 38 39 41 35 33 27 19 24 27 22 22 32 32 23 21 15 9 7 7 3 3 5 5 7 7 1 5 31 52 44 38 38 36 36 35 35 36 37 37 36 34 31 29 29 29 29 29 29 27 29 31 27 23 24 25 28 29 31 31 30 31 33 35 37 36 35 35 39 43 42 30 36 23 130 226 185 169 162 149 139 139 138 136 140 143 143 136 134 132 133 137 140 143 144 146 147 148 149 149 139 140 148 147 156 155 35 15 29 29 32 35 34 35 37 40 42 45 48 50 45 43 46 40 64 140 180 182 179 181 179 179 176 173 172 163 159 146 127 113 105 88 68 50 40 27 51 91 51 48 54 64 68 69 75 100 91 52 49 37 94 127 65 50 53 49 53 50 54 59 41 37 44 59 77 90 107 107 107 119 131 125 124 136 131 154 149 153 159 150 139 138 141 152 159 158 144 141 161 151 151 
119 108 106 104 102 104 105 106 105 102 99 93 92 77 50 40 45 56 63 53 45 40 39 39 36 33 30 28 29 29 28 25 22 19 18 16 15 14 12 14 13 13 12 11 12 11 8 6 6 7 5 5 5 5 5 5 5 4 3 3 2 2 2 2 2 2 2 2 2 2 2 2 3 4 5 6 6 6 4 4 3 3 3 2 2 2 2 2 2 6 6 5 4 4 6 3 1 130 255 124 16 24 26 25 25 27 31 35 37 38 41 70 70 24 26 31 37 33 37 38 38 43 40 35 34 28 19 24 25 21 26 32 28 24 21 15 9 7 7 3 2 4 6 8 6 4 26 46 46 37 38 38 35 34 37 38 34 36 37 36 32 31 31 31 31 31 31 28 28 31 33 29 25 27 27 28 28 28 32 31 31 33 36 37 37 34 33 36 39 35 24 24 22 157 191 161 157 158 148 138 135 129 127 131 137 138 139 137 136 140 144 147 149 151 152 151 149 151 147 136 137 142 141 162 135 12 13 22 25 25 27 29 30 31 34 38 42 43 42 48 44 41 44 86 152 178 178 177 180 171 175 174 168 165 151 148 144 124 107 98 79 61 47 38 26 51 93 50 46 55 72 79 76 77 97 88 51 45 39 83 119 66 54 52 48 51 48 52 59 43 38 45 60 77 90 99 106 113 129 133 123 131 136 124 138 141 139 148 154 149 143 145 154 156 160 141 140 168 162 141 
122 113 111 109 104 106 107 107 105 104 102 100 97 80 53 40 41 55 62 52 46 43 41 40 38 35 32 30 30 30 28 25 23 18 17 18 16 14 12 14 13 13 12 11 12 11 8 6 6 7 5 5 5 5 5 5 5 4 3 3 2 2 2 2 2 2 2 2 2 2 2 2 3 5 6 6 7 7 5 4 4 3 3 3 3 3 3 3 3 5 5 5 5 5 3 3 0 54 245 165 38 42 46 45 46 49 52 56 58 61 67 93 73 23 24 27 32 33 38 36 40 47 46 37 34 29 22 25 23 22 31 33 27 24 21 15 9 7 7 4 4 5 5 6 4 12 44 51 47 43 42 41 38 36 37 37 34 34 34 32 31 30 30 30 30 30 30 27 28 33 35 29 27 29 29 28 28 28 31 30 31 32 35 37 37 33 31 31 34 32 22 11 41 176 172 156 148 145 139 139 136 128 127 132 139 140 136 134 134 138 143 148 152 155 156 154 152 153 147 134 135 138 141 169 97 4 12 14 19 17 17 22 24 24 28 31 33 33 33 36 34 35 51 116 177 188 179 170 174 175 171 168 164 159 148 139 131 117 100 84 67 55 43 35 25 51 93 49 40 46 66 76 74 76 92 87 54 48 43 76 90 58 57 52 51 52 47 51 58 42 39 49 63 77 86 87 98 115 128 127 130 140 139 128 132 155 152 144 149 154 146 140 138 134 132 140 148 156 153 157 
126 117 119 117 114 115 114 110 108 108 109 105 98 83 61 45 42 53 59 50 46 45 43 42 40 37 34 32 30 30 29 26 23 19 17 18 17 14 11 14 13 13 12 11 12 11 8 6 6 7 5 5 5 5 5 5 5 4 3 3 2 2 2 2 2 2 2 2 2 2 2 2 4 5 6 7 8 8 7 6 5 4 3 4 5 5 5 5 5 3 3 3 4 4 4 8 1 5 216 150 50 64 67 66 67 70 73 74 72 74 79 98 68 25 28 27 28 33 39 36 42 50 53 44 33 29 22 23 24 23 35 35 28 26 21 15 9 7 8 6 5 5 5 4 8 33 54 53 54 41 42 44 41 39 37 37 38 35 33 34 35 31 29 29 29 30 29 26 28 34 37 31 26 27 27 29 30 32 29 29 29 31 33 37 38 31 25 22 23 19 14 2 64 185 163 145 141 142 136 136 136 132 133 138 143 143 138 136 136 139 143 145 149 153 156 154 152 153 146 136 138 141 149 175 63 2 12 13 16 12 12 17 19 19 23 24 25 26 27 27 32 32 32 98 165 174 170 162 162 161 156 161 159 154 148 132 120 108 88 69 57 51 41 33 24 51 93 59 47 47 63 73 69 65 82 81 50 44 43 80 75 50 55 54 55 54 48 51 58 41 39 52 66 76 84 100 101 116 122 128 137 131 141 162 158 161 154 137 148 158 142 134 148 152 142 161 153 141 149 161 
134 128 127 122 121 116 116 114 112 109 107 103 98 87 69 50 43 52 51 50 49 49 46 43 43 42 38 33 35 33 29 26 24 23 21 17 13 12 11 13 13 13 13 13 13 12 11 9 8 7 6 8 9 9 8 6 4 4 4 4 4 4 4 4 4 4 4 4 4 4 4 4 3 2 4 6 7 8 8 7 7 6 5 5 5 5 5 5 5 4 4 4 4 4 3 3 5 8 123 97 62 74 77 78 76 77 81 79 78 81 82 103 61 26 32 28 32 32 38 38 39 47 45 39 28 26 28 29 31 28 41 44 34 26 18 12 8 8 9 8 5 7 4 2 24 52 51 54 47 41 45 42 39 40 41 41 42 37 41 36 29 27 27 30 31 32 31 27 29 30 31 28 25 27 27 29 30 32 30 29 30 30 33 33 29 22 15 13 13 13 9 3 116 193 156 140 139 142 138 138 141 141 143 144 144 144 139 136 135 137 141 146 148 150 156 159 156 150 143 144 140 134 162 165 28 6 15 15 13 13 14 14 15 16 18 19 16 18 24 27 28 27 23 62 158 161 157 159 161 157 152 158 152 146 134 132 119 98 80 80 63 40 36 29 26 51 90 55 44 45 60 70 72 60 92 94 47 42 44 78 81 57 52 55 54 52 51 51 53 41 37 50 62 73 88 98 102 111 119 126 135 132 143 151 158 149 133 137 157 146 146 143 152 160 150 166 162 152 141 162 
133 127 127 122 122 117 118 116 114 111 108 103 100 87 66 50 48 52 49 48 48 50 44 39 41 42 39 35 32 31 29 27 25 24 22 18 15 13 13 13 13 13 13 13 13 12 11 9 8 7 7 9 9 9 7 6 4 4 4 4 4 4 4 4 4 4 4 4 4 4 4 4 4 4 5 5 5 6 7 7 6 5 5 4 5 5 5 5 5 4 4 4 4 4 5 2 6 1 25 67 75 73 72 76 76 75 78 81 84 83 81 100 58 29 31 28 35 35 40 38 40 51 38 28 23 22 27 32 30 27 43 48 35 27 22 12 8 8 6 8 7 2 1 19 47 50 50 54 47 45 46 42 40 42 42 40 38 37 39 34 31 31 31 32 32 30 29 26 28 29 29 27 26 25 26 28 29 30 32 30 33 35 33 27 21 16 12 11 13 7 4 18 177 194 156 135 135 141 139 140 143 143 143 143 143 142 145 143 141 142 146 148 148 149 152 154 150 145 143 146 153 141 160 134 13 11 13 17 14 13 14 14 15 16 21 24 21 15 13 14 16 25 24 45 128 149 146 146 148 151 145 146 143 138 124 120 110 92 73 69 56 39 33 27 22 45 84 52 41 44 61 71 71 67 81 72 46 45 43 86 114 66 50 60 53 52 52 52 54 43 38 44 66 92 97 102 113 120 123 126 132 135 136 129 137 149 156 153 162 151 166 157 144 151 153 162 159 167 138 147 
133 127 128 123 124 117 116 114 112 109 106 104 103 88 65 53 53 53 50 47 48 51 46 41 39 40 38 34 30 30 29 28 27 26 23 19 16 14 14 13 13 13 13 13 13 12 11 9 8 7 8 9 9 9 7 5 4 4 4 4 4 4 4 4 4 4 4 4 4 4 4 4 5 6 5 5 4 4 7 6 6 4 4 5 5 5 5 5 5 4 4 4 4 4 6 5 1 1 8 60 77 66 65 76 80 76 71 78 83 76 73 94 55 33 29 31 39 41 44 39 41 53 41 33 29 21 20 27 29 26 44 49 33 25 22 10 9 12 12 5 2 9 29 48 57 48 48 53 48 47 47 42 41 43 42 40 43 45 39 33 33 35 35 35 34 31 29 32 32 31 32 32 29 25 26 28 29 30 34 31 35 39 30 17 13 11 10 10 12 12 0 73 215 184 151 138 137 141 137 137 144 145 143 142 141 143 147 144 143 145 148 151 152 154 154 153 151 146 136 130 146 141 155 93 2 14 9 14 14 13 14 14 15 18 33 41 41 32 25 23 13 14 14 25 95 128 121 125 131 128 120 125 124 125 113 107 95 80 61 50 42 36 34 28 20 42 82 51 40 44 63 72 70 73 75 57 50 48 44 83 128 74 49 55 54 53 52 54 57 44 37 46 66 91 104 112 110 111 124 129 140 149 145 141 145 155 157 141 141 151 169 151 144 142 142 146 156 171 146 149 
132 127 129 125 126 118 116 113 111 108 106 105 105 92 71 58 55 54 52 52 51 51 51 46 41 40 37 34 34 32 31 30 29 27 25 21 18 16 16 13 13 13 13 13 13 12 11 9 8 7 9 10 10 8 5 4 4 4 4 4 4 4 4 4 4 4 4 4 4 4 4 4 4 5 5 5 5 5 6 5 4 3 3 4 5 5 5 5 5 4 4 4 4 4 4 5 1 4 12 57 72 62 63 74 80 79 74 77 80 69 70 95 53 35 33 38 43 46 48 42 40 49 40 36 31 25 25 29 30 28 42 43 28 22 19 9 4 7 12 11 27 41 47 52 51 47 46 50 44 45 45 43 43 45 43 41 52 50 40 35 33 34 35 37 36 36 34 29 28 27 28 29 27 26 27 29 31 32 33 31 33 33 23 12 11 11 11 12 12 11 1 136 210 178 154 144 141 142 136 134 143 145 141 140 142 144 146 143 142 144 148 153 158 160 159 157 157 153 144 142 152 145 149 58 2 15 7 9 13 13 14 14 15 17 28 39 43 40 37 38 31 27 22 14 51 104 102 105 110 113 102 99 100 105 97 91 72 61 49 39 34 34 33 29 20 41 84 51 43 47 62 68 68 73 76 59 56 49 45 74 106 70 51 50 55 54 54 56 60 44 37 50 62 77 100 114 109 114 135 130 133 134 138 147 153 147 149 154 155 148 161 154 148 156 149 137 137 146 142 152 
132 127 129 126 128 120 120 117 115 112 110 109 106 97 80 63 54 54 57 58 56 51 50 46 41 41 41 39 39 37 34 31 29 28 26 22 18 17 17 13 13 13 13 13 13 12 11 9 8 7 10 10 10 8 5 3 4 4 4 4 4 4 4 4 4 4 4 4 4 4 4 4 3 3 5 5 7 7 5 5 4 3 3 4 5 5 5 5 5 4 4 4 4 4 4 2 5 2 4 50 69 66 66 70 75 77 72 67 65 52 60 95 50 36 39 45 45 48 52 44 40 43 36 32 28 28 29 28 30 32 40 33 21 18 17 16 13 23 38 43 53 52 51 53 48 47 44 46 39 40 45 44 44 47 44 41 49 44 34 35 32 29 33 37 40 42 42 35 33 30 31 34 32 28 29 31 32 33 30 30 29 23 15 11 13 13 13 13 13 6 30 186 198 172 153 145 142 144 138 138 144 143 140 140 143 147 149 146 145 147 150 153 159 162 160 158 160 161 154 155 157 158 153 31 8 13 11 11 14 13 14 14 15 14 16 26 32 35 40 37 43 41 41 28 23 22 37 59 75 79 79 83 76 80 73 67 59 48 43 33 24 25 27 25 14 36 83 50 49 52 57 64 66 67 77 61 51 47 43 71 78 55 52 57 55 54 55 58 62 45 37 47 64 81 90 104 113 117 134 139 150 136 142 138 144 141 156 165 173 143 143 144 146 165 161 155 147 155 139 144 
137 130 132 129 128 128 127 121 115 111 111 110 105 94 76 60 51 52 55 59 58 53 52 48 44 41 41 39 34 33 32 30 30 29 28 23 20 17 15 16 16 15 14 13 13 12 12 10 9 9 9 9 8 7 5 4 6 5 5 4 4 5 5 4 3 3 3 3 3 3 4 5 4 4 5 5 6 6 5 4 4 3 2 3 4 4 4 4 4 5 5 5 5 5 4 6 5 4 5 55 78 75 74 71 69 64 56 50 40 35 42 85 55 32 39 44 44 44 42 41 36 37 37 34 28 23 22 25 30 28 33 35 28 23 28 37 40 47 58 61 44 37 53 51 48 50 48 39 38 42 45 43 44 44 41 39 43 33 32 38 32 23 22 28 33 39 41 41 45 48 47 43 39 33 34 37 36 35 35 33 26 16 14 15 15 14 13 13 14 2 69 208 188 165 151 148 144 147 147 141 144 144 141 140 144 147 145 145 145 147 151 158 163 163 162 161 162 162 160 158 152 169 134 20 10 15 10 13 15 14 13 13 12 12 12 17 23 31 39 38 42 43 44 39 32 27 20 20 26 32 39 51 57 60 53 48 42 37 33 29 27 27 25 20 38 50 80 48 47 50 55 58 61 67 77 63 50 45 41 69 72 47 53 61 55 56 56 57 62 47 38 47 63 80 87 100 112 114 123 133 150 137 145 148 152 161 161 156 167 143 142 143 148 156 169 161 155 173 159 162 
143 128 124 122 122 125 117 104 94 91 93 90 88 81 69 56 48 48 52 58 59 52 52 50 45 41 38 37 32 31 30 29 28 29 28 25 21 18 16 19 17 16 14 13 13 12 12 11 11 10 9 8 7 6 5 6 6 6 5 5 4 4 5 4 4 3 3 2 3 4 5 5 6 6 6 6 6 6 5 5 4 3 3 3 4 4 4 4 4 5 5 5 5 5 4 6 1 3 5 58 78 70 65 57 51 47 43 34 25 21 16 73 45 35 41 43 41 39 40 48 48 48 54 55 51 44 40 44 48 46 50 53 48 45 50 52 47 43 42 42 33 25 32 28 31 40 43 38 41 41 44 43 41 40 40 41 35 20 18 31 40 37 27 16 15 25 35 42 50 57 58 51 46 40 37 40 42 41 41 33 21 14 15 16 15 14 13 13 12 4 130 210 167 163 154 147 142 145 150 147 141 142 144 147 150 150 144 146 146 145 150 158 160 158 159 162 165 166 164 161 153 170 106 11 11 16 14 15 15 14 13 13 12 12 14 11 13 22 32 44 46 42 38 35 33 28 28 27 25 23 23 25 25 22 23 28 26 27 28 26 24 25 16 18 111 119 77 41 42 45 54 58 59 62 75 64 52 48 41 69 86 55 52 58 54 57 56 56 61 48 39 46 60 80 94 99 106 114 128 132 142 138 141 140 149 166 160 151 152 147 167 171 157 157 164 155 159 164 158 163 
139 121 112 109 109 114 104 85 74 73 76 75 70 66 62 57 50 45 50 56 58 52 50 48 45 42 39 38 34 33 30 27 26 26 26 24 23 22 20 19 18 17 15 14 14 13 13 12 11 11 8 8 8 8 7 7 7 7 6 5 5 3 3 4 5 6 6 3 4 4 6 6 7 8 8 8 8 8 6 6 5 4 4 3 4 4 4 4 4 3 3 3 3 3 3 5 1 3 5 46 61 52 43 35 31 27 23 24 21 20 24 108 71 57 72 71 61 64 67 72 73 74 70 70 72 69 67 68 59 61 58 50 44 42 46 49 46 43 44 42 44 32 28 27 22 26 32 39 46 43 46 46 44 40 42 44 39 31 22 21 21 31 37 34 30 23 19 27 33 42 48 52 55 53 47 45 51 49 42 29 17 15 15 15 16 16 14 13 10 13 167 194 167 160 156 147 141 142 149 152 145 142 144 146 147 146 148 150 148 147 150 156 155 152 153 158 164 168 163 159 156 169 79 3 17 15 19 17 15 15 14 13 13 13 15 10 8 12 19 25 32 38 40 37 32 30 29 29 28 28 30 32 31 26 25 29 22 18 17 19 20 20 13 27 77 52 47 41 38 40 50 57 58 56 73 62 52 51 42 71 103 70 49 54 54 56 55 55 60 48 38 43 57 77 90 87 98 121 145 140 134 139 155 148 150 159 147 161 162 154 166 169 157 153 154 159 177 167 142 170 
125 114 109 104 99 102 93 77 72 76 78 83 70 57 56 60 57 48 50 54 56 52 49 49 47 45 41 39 35 34 32 29 28 27 27 25 25 24 23 20 19 18 16 15 15 14 14 13 12 11 8 8 8 8 9 9 8 8 7 6 6 4 4 5 6 7 6 4 4 5 6 6 8 8 8 8 8 8 7 6 6 4 4 4 4 4 4 4 4 2 2 2 2 2 3 6 6 7 3 21 36 32 27 23 22 23 27 23 18 16 26 155 157 99 70 62 68 68 63 54 51 49 47 50 51 46 40 38 34 41 46 43 44 46 47 49 44 41 40 47 45 33 26 27 19 16 20 33 40 40 42 48 49 44 42 43 39 40 35 29 24 19 21 30 35 36 35 26 22 22 28 37 51 61 52 47 54 50 35 24 16 15 16 16 16 17 16 13 8 20 180 177 169 164 160 154 147 144 146 151 146 141 139 139 143 147 151 152 151 150 153 158 157 152 150 154 158 163 158 155 158 164 50 7 20 15 17 15 15 15 15 14 13 13 12 12 11 10 9 9 14 22 29 29 29 32 32 30 29 28 26 27 31 29 29 31 28 23 22 23 17 17 8 52 84 37 43 42 38 39 47 53 55 59 75 62 50 50 42 71 103 73 51 53 54 57 56 56 61 47 37 44 55 68 76 83 101 118 134 143 149 150 169 163 155 157 148 151 154 163 165 153 151 156 166 167 170 172 149 173 
116 107 107 104 98 98 93 89 96 104 104 95 75 58 58 63 62 55 51 51 54 54 51 51 51 49 45 41 37 36 35 33 32 30 30 27 26 25 24 21 20 19 17 16 15 15 14 13 13 12 8 8 9 10 11 10 9 8 7 7 6 6 6 6 6 5 5 5 5 6 7 7 7 6 6 6 6 6 8 7 6 5 5 4 4 4 4 4 4 3 3 3 3 3 4 4 6 7 2 8 22 25 25 25 24 25 24 19 19 17 32 103 132 108 56 46 54 53 50 39 36 34 28 32 37 37 38 41 42 47 51 50 48 47 48 51 50 47 49 55 54 45 23 34 43 28 34 41 35 31 28 36 42 39 42 48 45 41 38 35 33 33 29 21 18 23 29 29 24 18 18 22 30 39 35 33 44 38 24 21 18 16 18 18 17 18 17 13 2 65 199 174 163 166 162 160 153 149 148 151 146 142 141 142 145 148 151 153 153 152 157 160 157 155 154 156 158 160 154 152 156 153 27 15 18 15 16 16 16 16 15 15 14 14 12 13 13 13 13 15 13 10 12 17 20 21 22 24 25 27 27 28 27 25 29 36 42 35 32 34 27 22 22 45 49 34 45 39 37 41 49 54 55 60 79 64 50 51 45 68 88 64 56 55 57 59 58 58 63 50 39 44 54 67 76 95 110 114 122 143 156 145 152 154 167 169 167 151 150 162 152 150 165 166 169 168 166 172 167 172 
114 105 105 105 105 106 107 110 125 135 132 105 74 62 63 66 63 60 53 50 52 54 52 51 51 51 47 43 39 37 35 35 34 32 30 29 26 25 24 21 20 19 18 17 17 15 15 14 13 12 10 9 10 10 11 11 10 10 8 7 6 8 8 7 6 5 4 5 6 6 6 7 5 4 5 5 6 7 8 7 7 6 6 4 4 4 4 5 5 4 4 4 4 4 5 3 2 3 4 7 18 21 24 27 26 27 26 27 27 23 37 101 116 106 58 65 55 43 45 41 44 41 34 34 38 41 46 51 58 61 63 62 59 55 53 56 55 52 54 55 58 50 14 32 60 55 59 62 48 35 20 20 24 29 37 43 40 39 42 42 37 35 36 37 33 24 18 20 18 15 15 19 16 17 18 20 30 26 18 21 21 18 19 19 17 19 17 12 9 145 201 173 165 161 159 159 157 154 151 154 155 154 152 147 145 144 150 152 153 154 160 159 156 158 160 162 163 161 157 154 161 130 10 18 16 16 16 18 19 18 17 16 15 15 15 13 13 15 17 14 12 13 13 14 13 11 14 17 20 23 24 28 32 31 30 32 50 37 29 31 37 38 46 38 14 25 22 27 29 40 54 59 56 57 75 62 52 53 48 68 74 58 57 56 56 59 58 58 65 52 42 44 57 76 86 99 109 118 136 149 155 148 150 147 159 153 165 163 157 162 158 162 172 173 162 175 173 174 172 174 
121 112 114 116 121 114 111 114 128 132 121 101 70 65 67 70 61 61 58 54 51 50 52 50 49 51 48 43 42 39 35 32 31 30 29 28 26 26 25 21 21 21 20 20 18 15 15 14 14 13 13 12 12 11 10 11 11 11 9 9 8 8 8 7 7 6 5 5 5 5 5 5 5 5 5 6 7 8 8 8 8 8 8 6 6 6 6 7 7 4 4 4 4 4 4 3 3 3 4 6 13 16 20 24 26 30 28 26 25 27 33 100 117 113 79 90 70 50 49 50 49 42 42 42 44 51 61 68 68 70 66 57 54 54 54 54 55 56 56 59 59 47 11 30 60 63 60 65 66 59 49 31 17 17 20 23 35 37 41 43 39 37 38 40 39 36 33 31 26 20 18 19 20 20 19 19 20 22 21 22 24 23 21 19 18 18 18 2 62 194 196 183 164 163 155 158 156 156 151 156 159 159 156 149 148 151 150 149 150 153 156 156 157 160 163 164 166 163 162 156 174 94 4 18 17 17 17 17 20 20 19 18 17 16 14 14 14 14 14 14 14 14 14 14 14 15 16 17 16 15 16 17 21 25 32 36 35 27 29 31 32 38 34 37 24 15 17 15 17 26 36 51 52 58 66 57 51 51 46 75 77 63 53 58 54 57 56 57 63 48 39 43 59 83 87 101 110 109 123 133 137 142 159 151 150 146 169 169 159 176 173 162 167 168 140 159 154 177 184 161 
136 128 132 131 129 111 99 97 104 106 96 78 78 74 67 70 64 62 61 57 52 49 51 51 50 51 48 45 44 40 36 34 34 31 29 27 26 25 23 23 22 21 20 19 18 16 16 14 14 13 13 13 12 11 11 10 11 11 10 10 9 9 8 7 7 6 6 6 6 6 6 6 10 11 9 7 5 5 10 10 10 10 10 11 11 10 8 7 5 3 3 3 3 3 3 2 2 2 3 5 7 18 26 25 25 28 25 25 26 23 30 100 116 95 70 74 61 49 57 73 61 54 51 47 50 57 65 70 69 69 66 60 56 56 60 62 64 66 67 66 66 53 10 24 73 74 67 58 58 70 73 56 37 26 21 17 22 28 34 36 39 42 42 40 39 40 42 40 39 35 29 22 20 21 19 18 18 19 21 22 23 23 22 22 20 16 18 12 144 205 193 188 175 172 164 156 154 157 152 154 158 157 156 154 155 157 153 151 149 149 150 153 155 156 158 160 162 165 162 158 169 64 9 18 18 18 18 18 20 20 19 18 17 16 15 15 15 15 15 15 15 15 15 15 15 14 14 14 14 14 16 15 13 14 21 27 33 27 33 35 30 46 72 47 20 16 15 17 14 13 14 21 59 63 69 56 49 48 40 77 88 62 52 60 56 59 57 57 63 48 39 45 62 86 95 100 111 116 130 140 143 146 158 147 150 148 135 147 160 164 161 166 169 173 150 152 150 146 140 157 
155 147 150 143 127 97 79 75 80 86 84 91 100 85 71 67 62 60 61 60 56 52 50 51 52 51 49 48 46 42 38 36 36 33 30 28 26 24 22 25 24 22 20 19 18 17 17 16 15 14 14 14 13 13 12 11 11 11 11 11 11 10 9 9 8 7 7 7 7 7 7 7 10 11 10 9 8 8 11 11 11 11 11 11 10 8 5 3 1 2 2 2 2 2 2 2 1 1 2 4 3 17 28 26 25 28 26 24 25 24 44 111 114 73 45 50 50 50 60 81 65 59 60 57 58 60 64 66 68 70 71 72 71 71 74 74 74 75 75 69 63 47 15 17 64 82 74 57 49 59 61 57 54 50 40 29 21 22 20 20 27 36 38 40 41 41 41 46 46 44 39 32 26 20 18 17 17 17 19 20 21 21 22 22 22 21 7 70 198 202 190 190 190 178 168 162 160 163 159 159 159 158 156 158 160 161 159 157 154 153 153 154 156 155 156 158 161 158 159 165 155 35 14 19 19 19 19 19 20 20 19 18 17 17 16 16 16 16 16 16 16 16 16 16 16 13 14 16 20 25 21 17 17 16 16 17 20 22 25 28 47 97 154 136 117 77 14 6 21 18 22 24 54 67 69 54 46 44 42 71 81 58 53 55 55 57 58 59 66 52 41 48 63 83 98 111 113 113 128 145 154 141 145 139 146 161 152 164 156 151 168 173 178 181 163 179 193 185 149 173 
164 156 159 146 119 82 72 79 93 107 112 129 115 85 76 69 67 65 63 60 56 54 49 51 53 51 50 51 48 45 41 38 38 36 33 30 27 24 22 26 25 23 20 19 18 17 17 16 15 15 15 14 14 13 12 12 11 11 12 12 13 11 10 9 9 8 7 7 7 7 7 7 7 8 9 10 10 11 11 11 11 11 11 10 9 6 3 2 0 3 3 3 3 3 3 2 2 2 3 6 5 15 26 27 27 28 29 25 28 27 56 124 129 96 57 55 52 47 52 65 63 64 64 61 61 59 58 57 59 57 57 58 54 49 45 45 45 44 44 51 52 38 33 42 76 93 85 73 62 57 58 58 55 53 51 48 38 32 24 22 24 23 24 30 35 39 41 44 47 48 44 38 26 17 17 16 17 18 17 17 16 18 21 25 26 20 9 112 200 199 208 194 183 165 161 168 165 171 168 164 164 160 157 158 159 158 160 159 158 159 160 161 159 157 157 159 163 156 160 170 123 21 17 19 19 19 19 19 20 20 19 18 17 17 16 16 16 16 16 16 16 16 16 16 16 13 15 19 26 34 39 34 25 19 19 21 17 19 19 18 39 92 148 160 217 232 147 49 7 12 20 28 53 66 67 50 42 42 42 68 80 56 53 53 56 59 59 59 66 50 36 44 57 75 97 120 118 120 128 139 149 138 154 159 160 174 153 165 163 162 175 165 166 170 176 174 191 195 174 159 
161 155 159 146 113 77 80 104 131 147 149 154 110 76 79 73 77 72 66 58 52 50 49 52 54 51 51 52 49 46 42 40 39 37 35 32 29 26 24 28 26 24 21 19 18 18 18 17 16 15 15 15 14 14 13 11 11 11 13 14 15 12 10 10 9 8 8 8 8 8 8 8 8 8 8 8 8 9 10 10 10 10 10 11 10 9 7 6 4 5 5 5 5 5 5 4 3 4 5 8 8 13 22 29 29 27 28 28 31 25 52 123 129 106 60 60 57 56 45 36 38 35 34 32 32 30 29 29 27 26 26 27 23 21 26 27 29 30 31 47 59 42 44 70 90 79 78 83 81 71 60 57 55 54 54 55 56 50 45 40 31 27 24 22 23 26 30 40 48 54 47 33 21 15 15 16 18 20 15 14 14 16 20 22 22 25 23 30 44 83 159 187 196 190 175 168 165 172 170 164 166 162 158 157 156 152 156 155 156 160 164 165 163 159 159 162 165 164 163 171 94 17 18 20 20 20 20 20 20 20 19 18 17 17 17 17 17 17 17 17 17 17 17 17 17 16 15 18 25 33 39 40 39 36 31 28 23 17 18 17 18 21 53 147 215 218 211 217 134 19 19 33 54 62 64 47 40 41 36 71 90 55 50 58 63 63 59 57 60 50 38 49 64 82 106 111 120 133 137 133 143 145 158 156 151 157 164 158 162 163 167 162 177 165 162 166 187 184 168 148 
164 158 158 149 113 80 92 124 157 165 164 160 100 87 80 77 72 66 63 58 53 50 53 50 49 51 50 47 48 49 47 41 35 32 32 30 27 24 24 30 28 25 22 19 17 17 17 17 18 18 17 15 13 13 13 13 11 10 9 11 14 13 13 13 13 13 13 11 10 10 9 8 10 11 11 11 11 11 11 11 11 11 11 13 13 9 6 5 5 3 3 3 3 3 3 3 2 3 4 7 9 8 16 33 24 26 30 31 28 27 59 121 123 95 66 67 65 79 70 43 35 19 18 23 25 26 29 30 37 45 41 46 44 38 41 40 36 45 47 50 48 42 38 39 37 24 43 64 65 75 78 72 68 69 75 62 58 51 53 52 51 47 34 31 30 22 21 26 32 48 41 23 18 18 18 19 19 20 15 16 17 17 16 14 16 18 21 20 20 14 17 43 101 157 182 178 175 172 169 169 168 167 164 163 160 160 159 154 156 155 157 163 161 162 165 166 163 168 167 174 62 16 24 23 25 24 23 19 20 21 22 21 19 18 17 17 17 17 17 18 18 16 15 14 15 19 18 20 26 33 37 38 35 36 39 42 40 37 32 27 21 16 7 33 141 223 222 180 213 140 21 30 54 60 59 45 42 42 37 60 74 59 50 55 56 58 56 55 60 49 43 56 73 85 96 108 127 133 137 146 143 149 146 150 158 160 181 172 156 159 181 165 168 179 153 140 146 155 154 157 
168 166 166 152 111 82 99 131 166 169 175 142 93 88 78 75 72 66 64 60 57 54 53 50 49 51 50 48 52 53 51 45 40 35 33 31 29 26 25 28 26 25 22 21 19 18 18 18 18 18 17 15 14 13 14 14 12 11 11 11 13 13 13 13 13 13 13 11 11 10 9 9 11 12 12 12 12 12 12 12 12 12 12 14 13 10 7 7 6 5 5 5 5 5 4 2 1 2 3 5 5 8 12 36 39 35 41 44 39 35 61 120 129 106 74 76 79 88 100 91 91 77 54 58 69 80 85 89 132 123 80 75 46 30 23 19 21 20 22 16 13 10 8 6 12 10 5 10 19 45 61 73 83 79 89 87 70 55 51 49 54 67 59 48 41 29 27 29 29 32 25 17 20 22 22 21 21 21 19 20 21 19 17 16 17 17 19 20 21 23 28 20 8 24 58 106 154 184 182 176 172 169 166 164 163 164 165 159 161 159 153 154 157 159 164 167 165 168 177 161 35 21 29 23 23 21 21 21 22 22 23 22 20 19 18 18 18 18 18 18 18 17 17 16 16 18 18 19 24 31 35 36 36 37 40 41 42 45 46 46 42 37 34 15 16 124 167 119 124 103 25 29 61 62 61 48 44 44 43 61 90 78 53 53 54 56 54 53 57 44 39 49 65 87 95 107 129 133 132 141 148 142 139 149 158 160 164 158 162 168 178 161 163 186 188 162 157 176 184 182 
171 171 168 148 107 83 102 136 167 169 175 110 83 85 78 78 76 72 69 63 58 54 52 51 50 50 49 49 52 51 49 46 42 37 35 34 31 29 28 26 25 25 23 22 22 21 21 19 19 18 18 16 14 14 15 15 13 13 12 12 12 13 13 13 13 13 13 12 12 11 10 10 11 12 12 12 12 12 12 12 12 12 12 14 14 11 9 9 10 9 9 9 9 9 8 6 5 5 6 7 7 8 4 30 57 54 54 53 48 42 68 124 128 102 78 82 80 92 103 88 90 84 79 88 95 97 92 87 112 104 81 64 16 18 8 7 8 14 12 10 10 8 8 9 10 10 13 14 4 4 4 35 78 89 112 124 86 71 60 50 51 58 55 57 60 49 43 40 38 30 19 13 14 17 18 20 21 22 22 23 23 21 19 18 18 18 17 16 16 22 21 21 25 23 19 18 28 65 119 164 180 180 174 166 163 165 168 163 162 163 157 155 159 162 164 165 165 169 184 131 18 25 26 23 20 19 20 23 23 23 24 23 21 20 18 18 18 18 18 18 18 18 18 18 18 18 18 20 23 26 30 33 36 39 39 40 42 38 36 40 48 50 44 49 33 21 59 82 67 38 26 56 68 65 65 52 48 48 49 61 76 59 52 53 52 54 52 51 56 44 36 43 59 81 93 106 115 125 133 125 139 139 140 155 156 152 140 151 167 156 156 155 169 179 173 168 170 175 169 159 
170 168 159 134 101 84 106 137 159 162 153 87 80 83 80 80 79 75 70 64 57 53 50 51 51 49 49 50 49 47 45 42 40 39 37 36 33 31 30 29 28 27 25 24 24 23 23 21 20 19 19 17 15 15 16 16 15 15 14 12 10 12 13 13 13 13 13 13 13 12 11 10 12 13 13 13 13 13 13 13 13 13 13 14 14 13 11 11 12 11 11 11 11 11 11 10 8 7 7 9 8 6 0 18 61 69 64 58 52 48 80 129 123 94 78 86 81 100 105 88 76 93 109 115 121 125 126 125 133 142 161 124 64 44 2 23 16 13 12 8 8 6 6 8 9 12 9 8 6 9 5 15 40 43 63 88 93 87 83 68 60 61 53 52 56 55 58 52 50 43 34 22 11 11 14 17 19 21 21 22 23 23 22 22 22 21 18 17 16 15 17 18 20 22 26 29 24 15 22 45 85 125 159 176 172 167 167 167 162 164 166 164 167 170 169 167 168 168 187 95 12 25 25 23 22 22 23 25 25 25 26 25 23 21 19 19 19 19 19 19 19 20 20 20 20 20 20 21 23 24 27 29 32 35 37 39 39 40 42 44 45 43 51 48 47 43 69 88 62 35 52 74 71 67 67 53 50 50 45 68 77 52 61 54 53 55 54 53 58 48 37 44 60 75 91 101 118 126 131 136 145 133 131 142 144 153 163 155 153 150 160 156 164 166 165 160 154 161 159 160 
165 160 142 117 94 85 113 140 152 159 129 81 86 82 80 76 72 70 67 63 60 58 51 52 52 48 47 51 49 47 44 42 42 40 39 37 35 33 32 35 33 30 27 25 25 25 24 22 21 19 19 17 16 15 16 16 16 16 16 13 9 12 13 13 13 13 13 14 13 12 11 11 13 14 14 14 14 14 14 14 14 14 14 15 15 13 12 12 14 11 11 11 11 11 10 8 5 3 3 5 4 4 2 12 53 73 67 66 64 62 92 128 127 100 78 94 111 150 116 93 88 203 237 222 219 218 220 223 221 226 233 215 185 171 80 16 9 0 0 11 12 8 7 8 8 14 13 10 10 10 15 4 8 2 3 13 46 58 74 73 76 80 66 57 57 55 58 55 53 50 53 39 20 17 17 17 18 17 17 20 23 24 24 24 25 24 23 22 20 18 18 18 20 21 20 19 25 27 25 25 20 23 34 63 113 154 172 179 170 165 165 167 173 178 176 176 178 175 185 55 19 25 27 22 25 27 27 26 25 26 27 26 24 22 20 20 20 20 20 19 19 20 21 22 23 23 24 24 24 24 26 27 26 29 35 39 40 43 47 49 48 49 49 51 44 40 78 71 48 35 69 78 73 66 66 54 50 50 42 70 97 66 64 60 57 59 58 57 62 46 37 46 62 81 95 113 123 116 121 148 148 140 144 148 139 149 172 164 152 155 165 149 166 177 162 158 150 158 168 174 
163 150 135 116 95 91 118 139 147 158 114 85 87 82 79 76 71 69 66 62 60 61 53 53 55 53 50 48 47 48 49 48 43 40 40 40 38 35 34 36 35 32 29 28 26 28 29 23 20 26 22 19 16 14 16 16 15 16 15 13 12 13 14 14 14 14 14 14 13 13 12 11 12 13 13 13 13 13 15 15 15 15 15 16 16 13 11 11 12 9 8 8 8 7 7 4 3 3 3 3 4 3 7 5 53 75 75 76 74 67 101 129 129 113 88 96 148 185 141 90 90 223 248 243 239 227 219 220 216 219 221 226 227 237 186 94 83 99 86 13 10 10 25 10 6 10 5 12 9 12 15 9 7 11 7 5 0 12 48 68 61 74 86 81 69 61 55 54 48 48 56 55 34 26 25 20 17 19 17 18 21 22 22 26 29 26 23 24 23 20 18 17 19 19 18 18 22 24 25 26 29 29 28 25 29 36 75 121 160 172 172 168 175 178 177 176 180 192 168 28 26 26 25 23 25 27 28 27 27 27 28 28 27 25 22 22 22 22 22 22 22 23 24 25 25 24 24 24 23 23 24 25 26 28 31 34 43 44 44 48 50 50 52 55 46 55 55 54 47 27 70 81 72 71 79 54 47 51 42 71 93 64 60 62 61 64 62 60 65 50 41 48 63 84 98 122 122 120 125 138 144 144 148 164 152 151 157 164 161 153 164 148 174 172 155 170 161 161 180 177 
158 143 135 125 109 111 132 141 144 145 103 86 89 87 82 76 72 70 68 65 62 61 58 58 60 59 55 51 50 49 51 51 46 40 40 40 39 38 36 36 35 33 30 29 28 29 29 24 24 28 26 23 20 19 19 20 18 18 17 17 16 15 14 14 14 14 15 17 17 16 15 15 15 15 15 15 15 15 16 16 16 16 16 16 16 16 14 10 7 10 10 9 9 8 6 5 5 5 5 5 4 2 6 8 66 78 76 77 77 69 104 134 131 114 113 119 140 181 182 121 115 233 240 241 244 245 238 228 225 222 220 220 223 223 228 235 233 244 151 13 5 15 46 9 16 21 6 10 17 8 7 14 5 6 2 5 30 43 58 68 61 54 73 96 96 85 67 53 45 50 54 51 30 23 21 18 16 17 19 19 20 21 22 24 26 26 24 23 27 24 22 22 22 22 22 23 22 23 24 25 26 29 32 33 32 28 24 30 45 78 125 154 178 179 174 172 173 197 127 16 22 26 28 27 26 28 28 29 29 29 29 29 29 28 27 27 27 27 27 26 25 25 25 26 26 28 27 26 24 24 24 25 26 28 29 31 41 44 47 51 53 52 55 53 50 61 62 61 44 33 82 89 78 74 105 65 49 55 46 70 86 62 61 62 63 65 62 61 65 50 39 47 62 82 95 107 124 130 133 143 153 150 137 151 149 156 155 154 154 150 172 160 156 157 167 178 179 158 155 178 
179 160 151 145 134 131 136 134 135 121 95 88 89 86 81 74 70 72 72 69 64 60 60 60 61 60 56 55 55 50 49 50 48 40 38 40 41 40 38 37 36 34 31 30 30 29 26 28 29 28 27 26 23 22 21 21 20 20 19 18 18 16 15 15 15 15 16 18 17 17 16 15 16 16 16 16 16 16 16 16 16 16 16 15 15 15 14 12 10 12 11 11 10 9 8 7 7 7 7 7 11 8 11 7 60 81 75 75 79 73 106 128 122 108 135 150 124 103 110 99 119 239 244 241 238 243 245 241 236 229 222 219 221 224 224 227 217 233 194 94 66 15 6 7 41 52 2 1 9 6 4 12 11 23 41 49 61 60 78 110 121 82 70 59 58 89 92 84 75 62 56 53 33 22 20 22 24 22 21 21 21 21 22 21 24 28 24 20 27 27 26 26 27 27 27 26 26 26 27 27 26 27 28 32 34 36 39 40 36 34 39 50 95 142 171 184 191 208 86 22 33 34 32 29 29 30 30 30 31 31 31 31 31 30 28 28 28 28 28 28 29 27 27 25 25 28 28 27 26 26 26 26 26 28 29 29 35 42 49 54 55 55 53 54 58 63 70 64 36 46 96 95 86 89 131 62 51 59 54 67 84 61 64 67 65 63 60 61 65 48 39 49 65 84 97 113 128 129 140 143 142 146 141 148 146 150 155 162 166 147 153 160 172 165 164 176 178 173 147 157 
234 199 171 156 142 136 132 124 117 95 87 89 85 78 74 73 73 73 73 70 65 60 58 58 57 56 53 53 54 48 45 46 44 40 39 41 41 41 39 38 36 35 32 30 31 28 27 31 33 28 25 24 24 22 20 19 19 19 18 17 17 16 16 16 16 16 16 16 15 15 14 13 14 15 15 15 15 15 16 16 16 16 16 16 13 10 11 16 20 11 9 9 8 7 8 9 9 9 9 9 14 12 15 0 37 85 75 76 75 67 102 125 123 115 139 150 139 127 90 76 71 199 239 240 245 243 242 246 244 241 236 228 223 220 219 218 216 209 221 229 222 126 51 50 8 8 50 129 113 74 74 76 70 62 57 45 60 93 117 126 129 126 120 82 30 33 75 84 90 74 55 49 31 22 19 22 24 24 22 22 22 22 21 21 26 30 24 18 22 23 23 23 24 26 27 28 28 28 28 27 26 26 26 27 28 29 33 34 33 32 34 32 30 31 53 90 142 166 48 17 25 30 32 31 31 31 30 30 32 32 32 32 32 31 27 27 27 27 27 29 30 28 28 27 26 26 26 25 24 24 26 27 27 28 28 28 31 37 47 53 56 55 54 56 61 64 69 50 27 60 106 101 93 120 142 57 61 58 48 68 100 71 65 63 67 63 61 63 68 53 44 53 70 91 104 120 140 134 136 143 142 142 147 147 146 150 145 157 165 155 155 162 171 164 155 156 174 177 168 157 
242 196 157 142 134 130 123 121 110 95 96 89 84 79 77 78 79 75 72 66 63 60 58 57 55 54 53 54 55 48 46 46 43 40 41 42 42 39 37 39 37 36 33 31 30 29 31 34 34 31 27 27 28 25 22 21 21 20 19 19 19 17 17 17 17 17 17 17 16 16 14 14 16 16 16 15 15 15 16 16 16 16 16 18 16 12 11 16 19 12 10 10 9 8 9 11 11 11 11 11 11 10 11 5 18 71 74 72 62 48 89 124 130 123 132 136 133 129 151 155 128 169 198 217 237 247 247 244 244 246 246 242 236 229 225 220 217 216 220 223 221 206 196 149 73 139 219 188 112 126 142 96 67 71 84 88 104 115 127 139 126 114 142 162 113 45 42 39 50 77 73 55 29 19 19 17 18 20 24 24 23 22 21 22 25 27 25 21 20 19 20 22 24 25 27 30 29 28 27 26 25 26 29 29 27 25 28 28 29 30 30 31 35 33 36 26 35 52 25 30 31 31 27 31 31 29 29 28 30 31 31 31 31 30 28 28 28 28 28 29 29 30 30 31 30 27 27 26 25 25 26 28 28 27 27 27 30 34 42 49 53 52 56 60 59 62 58 32 28 71 104 98 94 155 115 52 63 66 53 74 111 71 64 67 68 62 62 69 74 57 46 52 68 93 110 113 133 144 148 155 152 144 149 141 149 163 154 153 148 158 165 158 157 164 180 159 155 175 169 153 
197 158 140 149 162 170 171 158 112 90 88 88 90 87 84 80 79 76 70 65 61 59 59 57 56 55 54 55 58 54 52 50 46 44 45 44 42 39 37 39 38 36 33 32 32 29 31 32 32 30 28 29 29 27 25 24 25 24 24 24 21 18 18 18 18 17 18 20 19 18 18 18 17 17 18 19 19 18 17 16 16 17 16 18 19 16 14 13 13 14 13 13 12 12 12 12 12 13 13 13 14 13 10 12 7 37 61 62 50 33 74 115 125 123 128 130 128 125 124 119 154 196 198 197 204 220 237 246 245 245 247 246 247 248 243 243 234 235 233 222 200 210 207 201 203 197 196 71 70 136 85 71 95 98 109 128 127 130 141 127 67 61 113 131 138 131 84 89 82 100 81 46 27 26 25 23 21 22 23 23 25 23 21 22 21 23 27 24 22 21 22 24 25 26 27 29 29 28 27 27 25 27 30 32 30 28 27 27 28 30 29 27 30 35 54 50 40 38 37 38 34 32 31 30 31 33 31 29 30 32 33 33 33 32 33 32 33 34 33 30 30 30 31 32 32 32 31 30 29 29 29 28 28 28 28 28 29 33 37 46 54 52 60 62 58 61 45 22 33 80 95 88 90 155 81 56 64 69 55 80 115 74 64 66 66 63 66 73 79 59 43 48 66 88 103 114 117 145 164 158 150 151 153 146 153 164 155 150 144 153 161 159 165 165 182 182 177 171 158 160 
190 198 221 235 242 245 244 219 110 90 91 90 93 91 83 79 78 76 73 68 64 61 57 56 56 55 54 54 57 56 55 53 52 51 49 47 44 42 40 39 41 38 34 37 39 32 27 28 29 28 28 27 27 26 25 26 27 25 27 27 20 19 20 22 22 19 18 20 19 18 19 20 16 16 19 22 21 20 19 16 18 21 18 17 18 17 15 14 13 14 14 14 14 14 13 13 13 15 15 16 16 14 12 11 12 13 29 42 42 30 71 119 124 128 126 123 123 125 126 119 113 120 134 154 176 192 205 219 241 244 248 245 245 244 241 247 241 240 226 177 173 201 207 197 202 186 126 91 110 70 77 94 102 104 114 132 141 107 100 68 18 8 20 33 105 154 131 135 166 136 47 23 27 23 23 24 22 18 19 18 24 24 22 25 22 23 30 24 24 24 24 25 25 24 24 28 28 29 30 30 32 32 32 32 32 31 29 29 29 29 29 29 32 35 60 69 64 61 51 52 45 53 75 63 42 40 37 33 34 36 38 37 35 34 35 33 35 39 36 34 32 31 31 32 34 35 33 32 31 32 31 29 30 31 31 32 30 34 34 44 53 58 65 60 63 57 30 28 52 91 87 82 96 126 60 57 66 71 52 78 93 70 69 67 66 69 71 74 77 58 42 48 68 87 93 108 119 141 146 148 153 162 158 158 154 155 159 149 154 149 154 158 164 164 167 171 178 166 175 174 
245 255 255 255 255 255 255 208 97 96 89 88 88 88 85 83 83 80 77 72 68 66 62 61 59 56 54 53 54 54 54 54 54 52 51 50 46 45 44 43 43 41 39 41 41 34 28 29 33 34 32 31 30 30 29 29 29 27 28 27 23 21 22 24 25 24 23 20 19 19 19 20 19 19 22 24 24 24 21 19 20 21 20 19 19 18 16 15 14 17 17 17 17 17 16 14 14 15 15 16 16 14 12 12 13 11 15 21 23 25 75 122 126 129 133 133 131 133 128 129 126 110 101 103 125 168 185 172 199 221 238 247 243 246 245 249 243 245 237 217 212 208 207 210 181 129 84 96 73 59 79 93 94 97 125 151 114 39 17 49 56 48 36 12 68 126 136 120 108 72 15 16 16 19 22 23 22 21 24 24 20 22 26 26 24 22 28 28 24 24 25 26 26 25 24 28 28 29 30 30 37 40 38 37 36 36 36 35 34 32 31 29 34 35 37 43 54 63 59 54 47 64 87 62 32 33 38 37 38 38 38 36 35 35 36 34 36 39 37 37 36 34 34 36 37 36 34 32 32 33 33 33 33 34 35 35 35 32 37 39 44 59 64 63 64 45 24 35 67 81 75 85 116 99 58 64 68 70 53 66 80 67 70 71 73 72 72 71 72 59 47 50 70 91 100 114 126 140 146 150 158 167 167 166 157 154 158 155 163 162 164 170 166 156 166 167 158 164 184 179 
247 255 253 253 255 253 254 153 89 98 87 91 89 86 85 83 81 78 76 72 68 66 65 63 61 58 55 55 58 57 55 53 52 52 53 52 50 49 48 44 41 40 40 40 41 38 31 32 36 36 32 31 30 30 29 30 32 31 29 28 28 26 26 26 26 27 26 22 21 21 21 22 20 19 21 21 23 24 23 24 24 23 24 23 21 20 18 17 16 20 20 20 20 20 18 16 16 16 16 15 17 16 13 13 14 15 13 8 12 9 20 38 42 56 78 91 96 107 105 108 113 113 111 104 103 120 135 139 177 193 199 223 235 255 249 246 240 247 245 224 207 206 194 145 134 100 77 83 75 88 91 86 93 118 101 76 26 18 31 59 98 165 191 169 82 33 73 69 24 10 14 21 9 20 20 19 18 18 23 24 20 21 24 24 23 21 25 29 26 27 29 31 31 29 28 28 28 29 30 30 33 35 37 37 39 40 41 39 38 35 34 33 34 36 36 33 30 30 30 35 33 31 36 32 28 36 35 36 35 34 36 37 38 39 38 36 38 41 39 39 38 37 37 38 39 38 36 34 34 35 35 35 36 37 37 38 38 34 39 37 43 61 67 68 55 30 35 60 75 72 68 75 92 68 64 69 71 73 58 62 82 77 72 66 73 73 73 72 73 63 50 51 69 88 98 124 132 135 145 155 159 157 155 159 163 171 169 158 159 161 161 170 166 161 185 186 158 162 177 186 
240 253 255 252 254 255 223 109 96 97 95 95 90 85 84 82 78 75 73 70 67 65 65 64 62 61 59 60 62 60 58 55 53 54 55 54 54 53 53 45 41 39 42 41 42 42 38 39 38 34 33 33 32 31 30 32 35 34 30 28 30 31 30 27 26 26 26 24 23 22 23 24 22 20 20 20 23 25 26 28 27 25 26 27 26 25 23 22 21 21 21 21 21 21 20 17 17 16 16 15 17 16 14 13 13 17 16 10 18 16 7 8 9 8 9 8 8 14 20 25 29 37 41 42 44 51 59 63 78 109 146 197 187 205 226 250 247 240 228 210 203 172 103 95 129 76 73 79 88 93 97 87 113 116 31 13 40 73 82 62 64 170 216 196 86 4 4 7 8 28 54 56 37 27 20 22 27 26 29 28 38 34 24 30 38 36 28 28 26 28 31 33 33 30 29 28 28 29 30 30 30 31 33 36 39 39 41 40 39 38 37 41 38 35 35 38 34 35 30 29 32 28 26 29 30 32 27 32 32 31 32 35 38 41 39 37 39 42 40 40 40 38 38 40 41 39 37 36 35 36 37 37 37 38 39 39 39 40 40 41 52 65 69 64 46 38 53 61 62 62 95 98 49 59 71 72 76 83 74 69 82 76 75 74 72 72 73 74 76 60 46 52 72 93 101 120 125 125 143 145 146 150 154 160 157 158 168 160 165 180 172 168 170 166 164 183 169 163 171 186 
193 212 244 255 255 242 130 93 104 96 97 95 89 84 84 83 79 77 75 72 69 68 65 64 63 63 62 62 61 60 60 60 59 57 56 56 55 55 55 49 44 43 46 44 44 45 43 42 39 31 36 37 36 35 34 34 37 36 31 28 32 35 32 27 24 24 24 26 24 23 24 24 24 24 23 24 27 29 27 31 29 26 28 31 29 28 26 25 23 22 22 21 21 21 20 19 18 16 16 15 17 17 14 14 15 16 13 13 15 12 13 14 16 16 14 15 19 20 15 15 17 15 14 13 13 14 17 18 20 9 46 146 158 163 166 202 230 235 196 166 150 84 58 100 122 74 75 75 89 93 83 83 75 58 33 65 93 102 92 75 40 91 82 40 19 12 25 54 75 77 77 65 64 52 39 47 58 58 53 50 69 62 45 53 58 55 34 25 25 27 27 30 30 28 27 29 29 30 30 30 32 33 35 36 37 37 39 39 39 40 40 39 35 40 36 37 36 32 34 29 26 29 32 28 25 34 35 33 33 31 30 32 34 38 40 38 40 44 41 41 40 38 38 40 41 40 38 37 36 37 37 37 37 38 39 38 37 45 40 46 63 70 68 53 46 57 60 62 63 57 136 172 71 79 82 87 95 104 103 100 104 86 77 76 74 74 74 73 75 63 53 59 77 95 100 116 125 130 151 139 143 157 162 169 169 170 185 165 160 179 170 173 174 164 165 170 163 167 179 181 
197 142 170 222 243 156 91 99 97 100 96 96 92 86 84 81 77 75 72 73 74 72 70 69 67 65 62 61 60 61 63 65 67 59 58 63 60 55 52 51 47 46 48 45 42 42 41 39 38 37 37 37 37 37 36 35 35 35 31 28 32 38 36 30 25 23 23 26 25 24 22 21 22 23 25 27 29 29 26 27 27 29 30 34 34 30 26 25 26 27 25 22 21 22 21 19 20 18 16 14 17 17 15 14 15 16 15 16 16 15 15 15 16 18 19 19 18 18 18 18 19 19 16 15 16 16 16 16 17 12 26 39 65 143 169 175 182 150 87 99 83 49 69 98 93 82 76 66 65 69 49 44 47 65 87 100 103 83 52 23 4 7 36 57 80 103 124 109 89 83 75 75 79 64 59 56 53 63 69 71 75 82 96 107 102 112 103 48 25 26 23 33 28 30 28 29 29 32 30 32 35 34 34 34 34 34 38 38 38 39 42 42 42 42 41 40 39 34 33 32 31 32 31 29 33 36 35 31 32 32 31 31 31 34 40 44 43 40 41 41 40 40 40 40 40 39 38 37 35 35 37 39 39 40 40 39 37 46 38 57 67 75 69 44 42 59 70 75 80 83 75 162 197 129 96 103 121 123 130 134 123 103 89 76 75 74 75 71 75 68 55 62 80 93 103 115 133 142 144 136 146 155 155 160 168 161 171 175 175 168 163 161 154 157 166 171 150 148 170 155 
242 170 119 156 166 93 96 96 95 100 99 98 92 86 85 82 77 74 72 75 78 76 74 73 71 69 66 64 60 60 60 61 61 61 63 63 58 52 51 50 47 46 47 44 42 42 41 39 38 37 39 38 38 37 36 36 37 37 33 31 34 36 34 30 27 25 25 27 26 25 23 22 22 22 24 25 27 28 28 28 29 30 31 32 32 29 27 27 28 28 26 23 22 22 20 18 21 22 21 19 19 18 16 15 16 16 15 16 16 18 18 17 18 20 21 21 20 20 19 18 17 17 17 17 18 18 18 17 15 17 18 17 28 86 89 81 86 48 46 52 48 52 69 76 76 77 74 67 60 68 77 90 106 100 74 51 34 16 14 40 70 87 108 105 103 101 100 98 67 64 68 61 60 57 54 51 49 45 71 90 108 115 108 101 104 105 122 106 72 51 33 27 23 32 31 27 32 36 38 38 36 35 35 35 35 35 38 36 36 38 40 41 40 40 40 41 41 41 38 34 33 33 33 34 36 35 33 29 31 31 29 29 31 34 41 44 43 40 41 41 40 40 40 40 40 39 39 38 37 36 38 40 40 41 42 41 39 41 43 64 72 75 60 42 42 51 69 82 101 85 75 193 255 173 103 120 133 134 139 142 145 135 106 80 75 74 76 69 73 69 57 65 83 98 112 126 129 134 146 153 149 152 165 157 157 166 161 162 166 168 164 164 169 169 166 163 163 154 153 153 
255 239 167 119 114 95 98 95 94 95 98 97 92 86 86 83 79 78 75 77 79 76 73 72 70 68 65 65 63 63 62 60 59 58 59 59 54 50 52 51 47 46 47 45 43 43 43 41 39 38 40 40 38 37 36 35 34 34 34 33 34 34 32 29 28 29 29 28 27 26 24 23 23 23 24 25 25 26 30 30 30 31 31 30 29 29 29 29 30 27 26 25 23 22 20 19 22 24 25 25 22 19 17 16 17 18 16 16 17 19 20 20 21 23 24 24 22 22 20 19 17 15 17 17 17 15 15 15 16 16 11 18 13 11 14 19 17 28 30 23 17 28 36 36 49 66 63 55 85 80 35 48 39 34 43 26 30 50 97 132 109 81 88 88 82 66 59 61 47 54 62 61 58 58 52 48 52 41 44 48 46 45 54 56 46 49 58 92 119 130 102 60 29 26 37 39 36 32 38 40 37 36 36 36 36 36 38 36 35 36 38 38 38 39 40 41 42 42 43 43 39 33 32 35 36 36 35 32 32 31 29 29 30 34 41 45 44 41 42 42 41 41 41 41 41 39 39 39 39 39 40 40 41 43 44 45 43 41 55 71 75 66 41 34 41 44 67 76 81 67 66 128 168 144 130 141 134 154 170 153 150 151 120 91 78 74 73 71 81 73 58 68 85 102 121 134 127 130 149 170 172 167 165 160 166 179 167 172 169 170 180 183 170 160 153 155 165 169 171 177 
253 250 229 148 105 105 103 98 98 93 94 96 91 87 87 85 82 82 78 77 76 72 69 68 66 64 61 62 66 65 65 63 62 56 56 58 54 52 54 53 49 48 49 47 45 46 45 43 42 41 42 42 40 38 36 34 32 32 35 36 34 34 33 30 30 30 31 30 29 28 26 25 25 25 26 26 26 27 31 30 30 29 29 28 28 29 30 30 29 27 27 27 25 22 20 20 22 25 26 26 23 21 19 18 19 21 21 18 18 19 21 21 22 24 25 24 24 23 22 21 20 18 18 17 17 15 14 12 14 22 17 16 18 21 19 19 26 22 19 28 22 29 32 30 37 35 32 25 70 145 161 114 92 107 98 89 96 109 95 81 66 63 78 66 60 60 55 56 63 69 66 69 74 73 63 58 62 59 62 64 68 77 91 101 106 115 117 65 82 139 157 138 85 41 29 30 34 40 36 34 37 38 38 38 38 38 39 38 36 36 37 38 38 38 39 39 40 38 43 47 45 36 32 34 35 37 38 38 34 32 31 31 32 35 42 46 45 42 43 43 42 42 42 42 42 40 40 41 41 41 41 41 42 45 46 47 48 52 66 72 69 53 36 34 41 41 53 73 79 75 67 75 100 139 163 146 150 217 236 187 152 144 123 95 78 72 69 71 86 74 57 66 81 100 122 135 138 141 146 167 169 161 164 168 167 167 163 182 176 163 164 167 162 148 150 168 171 159 167 167 
254 254 245 142 100 109 100 101 104 96 97 97 91 87 88 87 83 79 75 77 76 72 69 68 66 64 61 61 62 62 62 61 61 60 63 67 63 56 54 55 52 51 52 50 48 49 49 47 46 44 44 43 40 38 35 35 36 37 41 43 39 36 34 31 30 30 30 31 30 29 27 26 27 28 28 28 27 27 30 29 29 27 27 27 29 30 31 29 27 27 28 28 26 23 20 21 23 25 25 24 24 22 20 19 20 23 27 21 17 18 20 20 22 24 25 24 23 23 23 23 23 23 23 22 21 18 16 15 18 19 18 19 19 17 17 18 22 23 31 37 30 29 30 26 21 20 24 16 10 20 105 211 216 91 37 67 89 98 68 52 59 61 73 72 65 53 62 74 76 70 63 66 72 69 65 62 58 65 74 89 113 135 151 163 164 145 149 105 51 73 132 143 139 102 65 70 24 34 37 35 39 39 39 39 39 39 42 40 38 37 38 39 39 39 38 38 37 36 39 42 44 43 41 38 37 37 37 37 35 34 32 32 34 36 43 46 45 42 43 43 42 42 42 42 42 40 41 41 43 44 42 41 43 46 48 49 50 68 75 69 61 37 34 38 50 57 54 69 87 73 68 68 91 138 154 140 164 247 255 212 150 132 121 91 74 70 69 65 73 65 55 62 75 93 116 123 149 158 144 156 165 167 177 178 163 161 172 180 170 170 171 165 173 168 160 182 178 165 163 157 
233 234 207 113 94 103 101 102 103 99 97 96 93 89 86 81 78 75 74 75 76 75 72 70 68 65 63 63 63 63 63 62 62 65 68 67 64 60 57 57 55 53 50 48 47 49 51 47 43 44 42 41 40 39 40 41 38 38 40 42 40 36 34 33 32 30 29 33 31 30 28 27 28 28 28 28 28 29 32 31 30 29 29 28 28 30 30 29 27 28 29 29 27 25 24 24 25 24 24 23 25 24 21 23 24 26 27 23 19 20 22 23 23 23 26 26 24 24 24 23 23 23 24 25 28 29 28 26 24 22 18 16 18 24 31 40 38 30 35 36 30 24 21 18 17 18 17 17 19 12 0 29 146 216 105 79 114 80 57 50 45 45 63 65 59 53 47 51 54 49 55 67 83 83 76 68 61 63 83 107 123 140 147 123 123 115 122 128 107 78 73 107 143 136 124 196 114 25 36 36 39 38 38 38 38 40 41 40 39 39 39 40 41 40 39 38 37 37 38 39 41 42 44 42 40 38 38 39 40 38 35 35 38 41 45 46 42 39 42 42 41 41 41 42 42 41 42 42 43 44 44 43 44 49 51 50 60 71 76 70 49 34 36 44 57 65 71 89 113 95 69 64 76 103 122 124 153 228 254 201 141 128 114 84 71 70 71 64 66 64 54 61 76 90 105 125 151 168 156 156 158 165 161 167 182 168 174 171 168 174 194 179 161 167 158 162 162 164 165 165 
179 175 145 102 95 94 91 93 95 95 93 97 97 94 90 84 81 80 79 78 77 76 77 77 74 71 71 71 71 71 69 68 67 67 67 65 63 61 59 58 57 54 50 47 47 50 51 47 43 43 46 44 41 40 41 41 41 41 39 39 39 41 41 40 36 32 31 34 33 32 30 29 29 29 29 29 29 30 36 34 34 33 33 31 29 30 30 31 29 30 29 29 29 28 26 24 25 25 26 27 25 25 24 24 27 28 27 24 21 22 24 25 23 23 27 28 25 25 24 24 23 22 22 22 24 25 25 24 23 25 27 28 28 26 30 36 32 26 27 24 21 19 18 19 20 19 18 17 16 16 22 10 8 140 233 106 58 76 83 73 49 43 53 65 64 52 41 37 42 47 63 80 95 96 89 80 79 67 52 70 74 64 58 38 69 95 101 111 117 127 95 64 103 141 170 206 115 30 43 39 38 38 38 38 41 43 41 41 40 40 39 40 40 40 39 38 38 38 39 39 40 41 41 41 40 39 39 41 43 40 36 36 40 43 46 46 41 39 42 43 42 41 41 40 40 41 41 42 43 43 44 43 47 50 51 57 74 76 78 60 34 33 37 49 61 67 81 105 114 95 68 63 68 89 109 112 128 170 191 163 133 122 108 86 70 69 70 64 67 66 55 59 78 96 111 118 136 158 161 169 158 156 161 163 188 194 171 162 169 169 181 185 184 174 168 178 173 169 170 171 
169 152 116 108 103 101 98 98 97 94 92 91 91 90 88 85 84 86 85 83 82 81 83 83 80 77 77 77 77 76 73 70 69 68 67 65 63 61 59 60 58 56 53 50 51 53 53 51 46 45 49 46 43 42 41 42 46 45 42 41 40 44 45 43 41 37 35 36 35 34 32 31 31 31 31 31 31 32 38 38 38 37 36 33 32 33 34 33 31 32 31 31 30 30 28 25 26 27 27 27 26 26 26 26 28 29 27 25 23 24 26 27 25 24 28 30 27 27 26 26 25 24 25 27 29 29 25 22 17 20 24 26 25 22 20 23 19 17 21 19 19 17 18 20 20 19 18 18 18 18 20 22 14 18 186 220 74 86 102 90 67 59 62 69 72 75 76 58 55 61 76 85 98 98 92 91 102 93 82 78 79 72 63 60 66 45 58 118 147 147 142 105 50 53 74 81 43 37 38 43 40 38 39 41 45 47 44 43 42 41 40 40 40 40 39 38 38 40 40 41 41 41 39 37 36 37 39 41 41 40 38 38 40 42 44 44 43 42 44 45 44 43 41 39 39 41 41 42 43 43 43 43 52 51 49 70 77 80 76 47 35 37 43 56 64 72 95 112 95 75 70 67 64 77 97 109 117 126 134 133 129 119 101 84 68 68 69 64 68 67 54 57 72 89 103 121 129 143 150 167 161 166 185 179 176 191 182 168 177 173 168 177 190 179 164 177 178 169 167 165 
187 161 117 112 107 107 103 101 98 96 95 89 88 90 89 87 86 87 87 87 87 87 85 82 79 76 76 76 75 73 71 68 67 67 67 65 63 61 59 61 59 58 56 55 53 54 54 55 53 50 51 46 44 48 47 45 47 46 44 42 42 40 40 42 42 40 39 39 38 37 35 34 35 36 36 36 36 36 40 42 43 42 39 37 37 38 39 38 36 37 34 31 31 33 33 32 31 28 26 25 26 27 29 29 29 29 28 25 24 26 30 29 26 26 30 31 28 28 27 27 26 25 27 31 36 36 28 21 22 20 18 18 19 20 20 20 18 19 22 23 21 18 17 17 18 18 19 19 19 19 17 14 21 1 77 250 165 83 99 101 96 82 73 72 76 84 87 76 72 80 90 96 116 120 116 119 119 109 121 118 121 118 115 139 138 77 38 45 81 119 127 136 98 77 77 23 31 39 34 39 38 39 39 42 46 48 45 44 43 43 42 42 42 42 41 40 40 42 42 41 41 41 39 37 36 37 39 41 40 40 39 39 40 41 42 43 45 47 46 47 47 45 43 42 41 43 43 44 45 45 45 47 54 54 61 82 82 81 60 38 40 47 58 68 76 86 113 108 80 67 73 70 63 67 81 98 108 108 117 115 113 110 93 74 68 68 70 66 71 66 54 60 75 87 100 127 129 137 143 157 163 173 183 176 162 167 164 155 169 175 168 176 178 173 168 174 162 158 161 162 
184 144 115 113 108 101 97 95 93 94 95 92 91 93 92 90 88 87 87 86 87 86 83 79 76 74 73 73 71 70 70 68 67 67 67 65 63 61 59 62 61 60 58 57 55 53 54 58 60 56 56 48 45 50 48 44 45 45 44 44 44 41 41 43 43 41 40 41 40 39 37 36 37 38 38 38 38 38 41 43 45 44 40 39 40 40 41 41 39 39 36 32 32 35 36 33 32 29 27 25 27 29 31 32 30 30 28 26 25 28 32 31 28 27 31 32 29 30 29 29 28 27 27 28 31 30 26 22 28 26 24 22 22 21 21 21 22 23 24 26 24 20 18 17 17 18 19 20 21 21 20 18 21 17 17 213 218 91 91 108 111 96 79 70 76 81 78 89 85 91 89 89 115 128 131 135 138 132 139 147 142 126 125 147 128 91 84 78 45 35 74 100 87 64 81 40 34 33 34 39 41 41 40 41 44 46 43 43 44 45 46 45 44 44 44 43 43 44 43 42 42 41 41 41 39 39 39 41 39 39 40 40 39 39 40 41 47 51 47 47 49 47 47 47 46 45 45 46 47 47 47 53 52 56 79 89 89 75 43 36 45 53 63 81 99 110 132 94 73 73 76 70 66 65 74 84 93 100 107 105 99 94 83 71 69 69 72 68 73 69 57 63 79 93 107 120 127 141 149 158 157 165 170 164 166 173 173 168 169 180 168 176 181 177 195 199 176 152 148 148 
182 133 119 121 117 107 104 99 94 92 92 90 90 90 88 85 85 89 86 85 84 84 82 78 76 74 73 71 72 71 71 70 70 69 68 65 63 62 61 62 61 61 60 60 58 54 54 60 63 59 60 54 50 51 47 43 43 45 46 45 44 44 44 44 44 42 40 40 40 41 39 37 38 39 39 40 39 39 42 45 45 43 41 39 40 43 44 42 42 41 38 35 34 36 36 33 33 32 30 29 28 30 32 32 30 30 29 26 26 29 34 33 29 28 31 32 30 29 29 27 27 27 30 30 27 28 28 28 24 26 27 25 21 20 20 21 23 24 24 26 24 21 20 21 20 19 20 20 22 23 16 18 16 25 5 145 249 122 83 104 101 98 82 66 80 98 92 92 97 101 104 114 137 143 133 124 135 135 148 140 134 131 114 111 111 110 133 114 49 31 28 28 28 34 28 36 38 41 35 34 41 40 39 39 40 41 39 42 44 47 48 47 47 46 45 43 43 45 41 45 41 42 41 43 42 41 41 41 40 40 41 41 39 39 39 40 46 51 52 50 50 49 48 48 50 49 49 50 51 50 51 53 50 61 87 90 87 56 36 45 55 59 68 94 114 133 122 79 73 79 75 68 71 75 88 90 95 109 115 115 108 91 76 72 72 74 74 71 76 73 57 61 74 90 101 117 129 149 157 158 153 165 183 182 176 182 176 171 164 170 176 172 163 169 186 189 172 177 182 175 
175 131 119 118 119 113 105 101 96 95 96 96 96 95 93 88 87 87 86 85 86 88 85 79 76 77 73 70 77 76 76 75 74 72 69 63 61 63 66 62 61 61 61 61 62 62 62 65 66 61 60 59 56 52 50 48 48 50 51 47 42 41 41 41 41 41 42 40 40 47 42 41 39 38 40 41 41 41 43 45 43 39 41 40 42 47 46 45 46 43 41 40 37 35 37 36 36 38 30 29 31 32 32 32 29 30 33 29 26 28 32 35 31 29 31 32 30 30 28 26 27 30 32 30 27 30 30 26 25 27 27 26 23 22 23 22 22 23 26 24 21 19 19 20 21 21 20 20 19 19 16 21 17 25 4 91 255 155 84 101 90 90 98 98 110 127 117 133 150 151 154 160 156 142 125 108 99 90 96 80 86 93 73 52 65 87 99 54 26 35 33 31 32 33 35 37 37 36 39 39 40 40 41 40 40 40 39 42 47 48 48 49 50 49 47 46 45 45 38 44 37 47 38 40 40 40 40 40 40 40 39 38 38 37 37 38 41 46 51 51 52 52 48 47 49 49 52 53 53 52 52 49 61 83 88 90 75 43 47 63 67 76 92 109 130 126 79 74 76 77 73 70 83 118 134 120 114 128 141 135 124 106 86 74 77 82 76 71 74 72 55 63 78 95 102 110 129 149 156 151 156 164 178 185 170 173 173 173 176 167 189 180 175 179 175 186 178 178 191 186 
170 128 120 120 118 113 111 106 101 101 102 102 102 100 97 95 92 91 93 93 93 91 89 85 83 81 79 75 76 75 75 74 73 71 68 65 65 67 69 67 67 66 65 65 63 63 66 68 66 60 56 54 53 52 50 51 55 55 53 49 44 43 43 43 43 43 44 44 43 48 44 43 41 39 40 42 45 45 42 45 44 42 44 48 46 44 45 47 47 46 44 43 40 38 38 37 38 40 34 34 32 33 35 35 34 36 41 38 34 33 32 35 33 31 34 36 35 33 31 31 31 32 33 33 31 32 32 29 27 28 28 27 25 24 23 23 23 24 27 29 28 26 25 26 27 27 25 23 21 20 20 22 23 23 6 50 233 192 85 92 94 105 131 148 145 140 128 127 125 105 89 68 58 52 46 40 30 32 32 30 36 40 41 50 76 66 32 24 33 29 34 37 34 35 40 37 36 35 38 40 41 40 40 40 40 40 40 41 43 43 42 45 47 47 46 46 46 48 49 41 49 71 49 39 40 40 40 40 40 40 39 38 38 38 39 42 44 44 43 45 46 47 50 47 44 50 52 54 54 54 50 54 73 92 92 84 56 49 66 81 86 97 104 119 124 82 71 82 75 72 80 74 80 120 144 131 123 139 159 152 139 123 98 78 78 81 79 73 75 73 56 62 75 93 105 115 126 135 142 158 169 170 164 159 162 165 167 175 186 179 180 167 177 179 165 163 181 184 174 182 
164 128 125 124 120 117 117 112 109 109 111 111 109 104 100 96 93 93 96 97 96 93 92 90 88 85 82 81 83 82 82 81 81 76 72 72 72 73 75 70 71 71 72 72 69 66 64 63 62 63 61 59 58 57 56 55 53 53 53 51 48 48 48 48 48 48 48 45 43 46 42 42 43 42 42 44 47 49 47 50 50 49 51 55 51 44 46 50 51 49 47 45 43 41 42 45 44 41 38 34 34 36 38 39 39 37 36 34 33 33 33 36 35 33 37 40 38 35 36 36 36 36 35 36 35 34 33 33 31 30 29 28 28 27 25 26 27 28 28 28 28 27 27 26 24 23 23 22 22 22 25 19 17 17 17 36 216 196 73 97 109 125 148 160 156 143 127 116 89 47 28 24 27 29 30 34 29 35 35 40 57 80 95 100 103 95 71 56 46 48 41 34 38 40 38 37 38 40 39 37 41 42 42 42 42 42 43 43 42 42 41 44 46 46 47 47 47 49 50 41 44 53 41 41 42 42 42 42 42 42 41 40 39 38 38 42 46 47 45 52 51 46 49 51 50 51 54 56 58 58 56 66 85 92 86 75 58 64 79 88 97 112 121 120 91 75 79 77 72 70 78 65 75 111 128 115 112 131 158 153 141 129 107 86 77 77 80 75 79 75 55 61 72 91 105 122 142 153 151 157 159 166 170 157 168 182 182 182 188 182 179 169 175 178 175 168 176 184 166 181 
138 114 114 107 106 105 102 98 95 96 99 98 95 89 85 83 81 77 77 78 77 77 77 78 76 70 67 68 65 65 64 63 63 61 59 59 59 58 57 53 53 52 52 52 53 55 51 46 46 51 51 49 47 46 44 44 47 47 47 46 46 47 47 47 47 47 47 44 40 42 37 38 43 41 39 38 41 43 44 47 47 44 46 51 52 47 46 48 50 44 41 39 37 35 36 41 40 36 37 32 32 33 36 36 34 34 36 34 34 38 42 36 30 29 31 33 31 33 35 35 35 34 31 32 33 29 28 30 29 27 25 25 26 25 24 25 27 27 26 23 23 24 23 21 20 22 22 23 23 23 25 24 23 21 16 27 193 166 88 119 121 130 142 147 152 147 139 130 108 61 33 35 35 33 39 56 67 69 91 99 105 116 111 101 106 114 126 114 91 84 55 29 30 37 37 39 39 39 41 41 42 42 42 42 42 42 43 41 40 40 42 43 43 42 41 41 40 43 43 43 45 42 39 43 43 43 43 43 43 43 42 42 41 39 36 40 43 48 50 55 51 44 42 45 48 50 53 56 58 59 58 73 89 87 78 67 83 90 94 96 104 121 121 87 81 79 74 75 74 76 73 61 121 180 157 127 121 130 143 140 135 129 117 105 87 78 80 74 79 76 61 70 79 96 110 120 140 154 155 160 166 180 188 176 176 184 184 181 188 187 179 170 164 166 172 177 168 165 162 176 
204 190 191 179 180 180 175 172 169 170 173 171 169 165 165 166 165 161 159 158 159 161 161 163 161 154 152 153 149 148 148 147 146 144 144 143 141 139 137 138 136 133 129 127 123 122 123 117 114 117 117 115 112 109 106 105 102 100 98 96 95 93 92 92 92 92 93 91 86 87 83 83 89 86 81 79 81 84 85 87 84 81 82 85 89 88 83 82 85 83 82 80 77 76 74 78 80 78 84 81 77 78 78 77 75 75 78 73 71 75 82 79 72 70 71 72 69 67 70 71 70 68 66 68 68 64 63 65 64 62 59 59 60 60 59 62 64 63 61 62 64 65 64 61 59 59 58 56 55 54 54 55 54 53 48 63 185 163 143 157 139 142 167 193 196 175 160 156 148 103 61 60 61 61 62 77 95 86 99 125 140 145 138 125 128 131 131 128 111 106 94 81 78 79 79 76 65 54 52 55 56 57 57 57 57 57 57 55 54 56 59 58 56 55 52 51 50 49 49 51 58 57 55 54 54 54 54 54 54 54 53 53 52 51 50 51 52 57 61 63 63 59 52 50 54 59 62 66 68 69 81 100 96 86 93 99 105 110 110 107 111 112 96 86 85 82 84 81 80 84 73 71 170 223 171 132 127 131 141 161 180 181 159 138 115 97 93 84 89 84 69 80 89 104 116 127 141 152 156 165 177 184 187 191 189 186 180 172 177 183 182 182 172 171 171 190 184 175 176 171 
