P2
320 240
255
49 50 48 49 48 48 49 50 50 50 50 50 49 49 48 50 50 51 50 49 49 48 49 51 51 50 50 49 50 51 50 49 50 49 49 51 51 50 51 51 52 52 51 51 51 51 50 52 52 51 52 52 53 53 53 53 53 52 52 53 50 49 52 51 51 51 51 51 51 52 53 54 53 51 52 52 51 52 52 53 52 51 52 52 52 51 50 52 53 53 52 51 51 51 52 52 50 52 51 51 52 53 52 52 52 52 52 53 53 54 51 52 51 51 51 51 52 52 53 52 52 53 53 54 54 53 53 54 54 54 53 53 54 55 54 54 55 56 56 57 56 55 56 57 56 55 55 57 56 57 55 55 56 56 55 56 57 56 56 57 56 58 57 56 55 55 56 57 57 56 56 56 56 56 57 56 55 57 57 57 57 57 57 59 59 58 58 58 56 57 57 58 57 56 56 58 58 57 57 59 59 58 57 57 57 58 57 59 58 58 57 55 56 56 56 57 59 59 58 58 58 58 57 58 58 56 57 57 57 57 57 58 58 57 56 57 58 57 55 55 57 58 56 55 56 57 56 56 56 55 55 56 54 54 55 56 56 57 56 57 57 56 57 57 56 56 57 56 57 58 59 58 56 58 58 57 58 57 56 55 56 57 58 57 56 57 59 58 57 58 58 56 58 57 56 57 58 58 57 58 57 58 58 58 57 58 58 58 59 57 56 56 56 57 57 57 57 58 55 55 
47 47 49 48 50 49 50 49 48 49 49 49 49 48 48 49 48 49 50 50 50 49 49 49 49 49 50 49 49 50 50 51 51 52 50 52 51 50 50 50 52 51 50 51 52 52 52 51 50 50 50 50 50 51 51 51 51 51 51 51 50 51 51 51 52 52 53 53 51 51 52 53 53 53 52 52 52 53 53 53 53 52 52 51 52 51 52 51 51 52 51 52 52 52 53 52 52 51 51 53 52 53 53 53 54 54 53 54 54 53 53 52 52 52 52 52 53 53 54 54 52 52 54 55 53 53 52 52 54 55 52 53 53 54 55 54 54 56 57 56 56 56 55 56 57 55 54 56 55 56 57 58 58 57 57 56 56 56 56 57 58 58 57 55 57 56 57 57 56 56 57 56 56 55 57 57 57 56 58 58 57 56 56 58 59 58 57 57 56 56 56 58 59 58 58 58 59 58 58 58 58 57 57 56 58 57 59 59 58 57 57 57 57 57 58 59 59 58 57 56 56 57 58 59 58 57 58 58 56 56 57 56 56 57 57 59 59 58 57 58 57 56 55 57 57 57 57 57 55 54 54 55 56 56 57 55 56 56 57 56 55 55 55 56 57 57 57 58 59 58 58 59 58 58 59 58 58 58 57 55 56 58 57 56 57 56 56 58 56 58 57 56 57 58 58 59 58 56 57 58 58 56 59 58 58 58 59 59 58 57 56 56 58 58 57 56 56 56 57 55 
48 48 49 49 49 49 49 49 49 49 50 49 50 50 50 49 49 49 49 50 49 48 48 49 50 50 50 51 50 50 51 51 51 50 49 50 50 50 50 49 50 51 51 50 51 52 53 52 52 53 51 51 52 51 51 52 52 52 52 51 52 52 51 53 52 52 53 53 52 52 51 51 52 52 53 54 52 51 53 52 52 54 53 52 51 51 51 52 52 51 52 52 52 52 51 53 51 50 50 52 52 51 51 53 55 54 52 54 55 53 52 54 53 53 53 52 52 54 53 52 53 52 52 54 55 54 53 53 53 54 54 53 54 53 53 55 55 55 55 55 56 57 56 57 57 57 55 55 57 57 58 58 57 57 58 56 56 58 57 58 57 57 54 55 56 56 56 56 57 57 56 56 54 54 55 56 56 57 57 57 58 58 57 57 58 59 58 57 57 57 58 57 58 58 57 58 58 57 57 58 58 58 58 58 58 58 59 57 57 59 58 58 58 57 57 57 57 57 57 56 57 57 57 56 56 57 57 58 58 57 56 56 57 58 59 59 59 59 56 57 59 56 56 58 57 56 56 56 56 56 56 55 56 57 58 56 56 56 57 57 56 55 55 57 58 57 58 59 59 58 59 59 57 56 57 57 57 57 58 58 57 56 55 56 57 57 56 56 56 56 56 57 58 58 58 58 58 57 57 56 57 56 56 56 58 56 58 58 58 57 56 56 57 57 56 57 57 57 56 57 
48 50 49 48 48 49 49 49 50 49 49 50 49 50 50 49 50 49 50 49 50 50 49 49 51 51 50 49 50 51 50 50 51 49 49 49 50 50 50 49 50 51 51 50 52 52 53 51 53 53 52 52 51 52 53 52 51 52 52 51 51 52 52 52 52 52 52 52 53 53 52 52 52 52 52 53 53 53 52 52 52 51 52 52 52 51 50 51 52 52 53 52 52 51 50 52 52 51 52 52 53 52 52 53 53 53 52 53 52 51 54 55 54 54 53 52 53 52 52 53 53 53 52 54 56 57 53 52 52 54 54 54 54 53 53 55 55 55 56 56 56 55 54 55 56 56 57 55 55 56 57 57 56 56 57 58 57 58 58 58 58 57 55 56 56 55 55 55 56 56 55 56 56 55 57 57 57 56 58 58 58 57 55 55 56 56 57 56 57 58 57 57 57 57 56 57 57 56 56 57 59 60 59 56 56 58 59 58 58 59 59 59 58 58 57 56 57 56 57 57 58 57 57 55 56 57 57 56 57 58 57 57 58 58 58 57 57 56 57 56 57 57 58 58 56 56 56 57 57 57 57 57 56 56 56 55 55 55 57 57 57 57 57 57 59 59 59 58 58 58 59 57 57 57 57 57 57 57 57 56 56 57 57 56 56 57 57 57 57 57 57 58 58 58 58 58 58 58 57 56 56 57 58 57 57 56 58 57 58 57 58 57 56 56 55 56 56 56 57 55 
48 48 47 48 50 49 49 50 50 48 48 49 49 49 49 48 49 50 50 48 50 49 49 51 51 50 51 50 49 50 49 49 49 49 50 51 51 50 51 52 52 51 50 50 52 52 51 51 50 51 51 51 51 52 51 51 52 53 52 51 50 52 51 52 51 52 52 50 51 52 53 54 55 53 52 52 53 52 52 53 51 49 51 52 51 52 52 52 53 53 52 51 52 53 53 51 51 53 54 53 52 53 53 54 55 53 53 54 52 52 53 55 54 54 53 53 52 53 54 53 52 53 53 54 54 54 53 54 54 54 54 54 54 55 55 56 56 56 57 58 57 57 56 55 56 58 57 57 57 56 57 57 57 57 57 57 56 57 57 57 55 55 56 55 53 54 55 55 56 56 55 56 57 57 57 58 57 56 57 58 59 58 58 57 56 56 57 58 57 57 58 58 58 57 57 57 59 59 59 58 58 58 58 59 58 59 59 57 59 58 58 58 58 59 58 56 56 57 58 58 59 59 58 58 58 58 56 57 58 58 58 59 59 58 57 56 55 56 57 58 57 58 57 56 56 56 56 57 58 57 56 55 56 56 55 54 55 56 56 57 56 57 58 57 58 60 60 58 57 57 56 56 57 58 57 57 56 57 57 56 55 57 59 58 56 57 58 58 58 59 59 56 57 58 58 56 56 56 57 58 57 56 58 59 58 58 59 58 57 58 58 57 57 57 57 58 57 56 56 55 
48 48 49 50 50 51 50 50 51 50 49 48 48 48 50 49 50 49 49 50 51 50 50 50 51 51 50 51 50 50 50 50 49 49 50 49 49 50 51 52 52 51 51 51 51 51 51 52 52 50 51 50 51 50 50 52 51 50 51 51 50 51 51 52 52 52 53 52 51 52 51 52 53 52 51 51 52 52 53 53 51 50 52 53 52 53 55 55 53 52 52 52 52 52 52 53 53 52 52 53 53 52 52 54 54 53 53 54 54 53 52 53 54 53 53 53 54 55 54 54 53 53 54 53 54 54 54 53 54 56 54 54 55 55 54 54 54 55 56 57 57 56 55 56 57 58 58 58 58 58 59 63 68 73 77 80 82 82 82 81 78 73 68 61 56 54 54 54 54 55 57 58 57 56 55 57 58 57 56 57 57 58 59 59 58 56 56 57 58 58 57 59 58 58 59 58 58 59 60 60 59 57 56 57 58 58 60 60 59 58 57 57 57 57 57 56 56 57 58 58 58 58 57 57 58 58 57 57 59 58 58 58 58 57 57 57 57 58 57 57 58 58 57 57 58 57 57 56 56 56 56 57 56 56 55 56 57 57 56 56 56 57 57 58 59 59 58 59 58 58 57 58 58 57 56 55 55 56 56 57 57 57 56 57 57 57 57 58 57 59 58 56 56 57 58 57 57 57 58 59 57 57 56 57 57 56 57 58 56 57 58 58 56 56 57 56 56 57 57 58 
48 49 51 51 50 50 50 49 50 50 49 48 49 49 50 50 49 50 49 51 49 50 50 51 51 51 50 51 51 50 49 49 50 50 50 49 49 49 50 51 51 51 51 52 50 51 50 51 51 52 52 52 52 51 52 52 51 51 52 52 52 52 51 51 51 51 51 52 52 52 52 51 51 53 53 53 53 52 52 52 52 51 53 53 51 52 53 54 54 53 53 52 51 51 53 52 52 53 53 53 52 53 54 53 53 54 53 54 54 53 54 53 54 55 54 54 53 54 55 53 53 53 54 53 53 53 55 55 54 54 55 54 55 56 56 55 55 55 55 56 56 56 57 56 56 56 58 62 71 82 98 113 127 139 147 155 158 156 155 151 146 141 132 123 110 92 75 63 56 53 53 56 57 56 54 56 57 58 57 58 57 58 58 59 59 56 56 58 59 60 58 59 58 59 59 59 58 58 58 59 59 58 57 58 58 58 58 59 58 58 57 56 56 57 58 59 59 59 59 60 58 57 58 58 58 58 59 59 59 58 59 59 57 58 59 57 57 58 57 56 58 58 58 59 60 59 59 58 57 55 55 57 57 56 56 56 56 57 59 58 58 57 56 56 56 57 58 59 58 58 59 59 58 58 56 56 56 55 55 55 55 55 56 55 57 58 58 57 57 58 56 56 57 57 56 56 58 60 60 59 58 57 58 57 57 56 56 56 57 56 57 57 56 56 56 55 56 58 58 59 
51 50 48 48 50 50 49 48 49 50 50 49 49 50 51 49 50 51 52 51 49 50 51 51 51 51 50 51 52 51 49 50 51 51 51 50 51 50 49 49 51 51 51 51 50 51 53 53 52 53 53 52 52 52 52 52 52 51 51 51 53 53 53 52 53 50 51 52 53 54 54 53 53 53 53 53 54 53 51 51 51 51 52 51 53 52 52 51 51 52 53 53 52 52 54 53 54 54 52 52 52 53 54 53 53 54 54 54 53 54 55 54 55 55 54 53 55 54 54 54 54 54 54 53 53 53 55 56 56 53 54 55 54 55 56 57 56 56 56 57 57 57 56 56 60 68 83 105 127 147 163 177 189 194 188 178 180 193 201 190 168 167 175 178 173 160 147 130 104 79 62 56 54 55 55 55 57 57 58 59 58 58 59 59 59 58 58 57 59 60 60 60 59 59 60 59 58 57 57 59 60 60 59 59 60 59 59 58 57 60 60 59 59 60 61 61 61 60 60 61 59 59 59 59 59 60 60 59 59 58 57 57 57 57 58 58 58 58 58 57 57 58 59 58 56 56 57 58 58 56 55 55 56 57 55 56 57 57 58 58 57 56 57 58 57 57 58 59 59 59 58 57 58 59 56 56 57 56 56 55 55 56 58 58 58 58 57 57 57 57 57 57 58 59 58 56 56 57 57 56 57 57 56 57 58 58 57 56 57 56 56 56 57 59 58 57 58 58 57 57 
50 50 48 49 48 49 50 49 49 50 50 50 49 50 51 50 50 51 51 50 50 50 50 51 51 49 50 51 51 51 51 51 50 50 48 49 50 51 51 50 50 51 51 51 52 53 53 52 53 51 51 51 50 51 50 50 52 53 52 52 52 51 51 52 52 52 52 53 52 53 53 53 53 52 52 52 51 52 52 52 53 53 52 53 53 53 53 52 52 52 52 52 51 52 53 52 53 52 54 54 53 53 53 54 54 54 54 53 54 53 54 54 54 53 55 55 54 55 55 55 55 54 54 54 55 53 54 54 55 55 54 54 55 56 56 55 55 57 57 56 57 58 60 73 94 121 148 169 183 190 195 205 216 222 219 196 181 200 220 216 190 177 182 182 176 167 169 181 177 153 125 96 69 56 54 55 56 57 56 56 57 56 56 56 57 58 58 57 58 59 60 58 57 58 60 59 58 58 59 60 59 59 60 59 60 60 60 60 59 59 60 60 60 60 59 58 58 59 58 59 58 58 58 59 60 59 60 59 58 57 56 55 56 58 58 57 57 57 57 58 59 57 56 56 55 55 56 57 57 56 57 56 57 58 58 57 56 57 56 57 56 57 58 58 57 57 58 59 58 59 59 59 59 56 57 57 55 55 54 55 57 57 57 58 58 58 59 57 58 57 58 59 58 59 59 57 56 57 56 56 58 58 56 56 57 58 59 57 56 57 56 57 58 58 58 58 58 56 56 56 
51 50 50 49 50 50 50 50 49 48 49 50 50 49 50 50 49 49 49 49 49 49 50 51 51 50 51 51 51 50 50 50 51 50 50 50 51 51 51 51 50 50 50 51 51 51 51 51 52 52 51 51 52 51 51 51 53 53 52 53 53 52 51 51 52 52 53 54 53 52 53 52 52 53 53 52 51 52 53 53 52 53 52 52 52 52 52 53 53 53 52 53 54 54 54 51 51 53 53 54 54 53 53 55 55 54 54 55 54 54 53 55 54 55 55 54 54 55 55 55 55 55 55 55 55 55 55 55 55 54 55 55 56 56 56 55 55 57 57 57 62 73 96 126 152 173 190 202 211 218 224 229 230 229 226 214 203 214 223 214 199 196 201 205 205 192 179 173 170 171 179 173 141 98 68 56 55 55 55 56 56 56 57 57 57 57 58 58 58 59 60 60 60 59 60 60 58 59 60 61 61 60 59 59 58 59 59 58 58 59 60 58 57 58 57 57 58 58 58 59 59 57 57 59 59 59 58 57 57 57 58 57 56 58 59 58 58 57 57 59 59 58 57 57 58 57 57 57 57 57 57 58 58 57 58 57 56 57 57 58 56 57 59 59 58 57 58 59 58 57 60 60 58 57 57 56 54 55 56 56 57 58 59 58 59 58 57 58 58 57 58 59 59 58 58 57 57 58 59 59 57 58 58 57 57 58 57 57 56 56 57 58 58 57 58 58 57 57 58 58 
49 48 48 50 50 50 50 49 47 47 48 48 50 50 49 51 51 49 50 48 48 49 49 49 51 51 51 49 50 50 51 51 50 52 51 50 51 51 50 50 52 52 52 52 51 51 50 50 51 52 53 52 53 53 53 52 54 55 54 52 52 52 53 53 53 53 52 53 52 52 52 52 53 54 53 54 52 52 54 53 54 55 53 52 52 54 53 53 54 54 53 54 55 55 54 52 52 52 52 52 53 53 53 53 54 54 53 53 53 54 54 54 56 55 54 53 55 54 54 55 55 55 55 55 56 56 57 57 56 56 57 56 55 55 56 56 57 56 57 66 91 123 155 178 190 202 213 222 227 224 223 225 221 213 210 201 192 196 201 197 194 201 199 198 201 199 187 176 167 165 171 181 184 171 134 92 64 55 55 55 57 58 59 59 59 58 59 60 59 58 58 60 60 58 59 59 58 58 58 59 59 58 59 60 59 58 58 58 59 60 60 59 59 58 58 58 58 58 59 58 58 59 57 58 57 57 57 57 56 58 59 58 57 57 57 59 58 58 58 57 57 57 58 58 59 58 59 59 58 57 58 59 59 59 58 58 58 59 58 57 58 59 59 57 57 58 57 58 58 59 60 59 58 58 58 58 57 58 58 58 58 59 59 60 60 59 57 58 59 58 57 57 58 57 57 57 58 59 60 60 59 57 57 59 59 56 55 56 57 57 56 56 56 57 58 58 58 58 59 59 
47 49 49 49 48 49 49 48 48 48 49 49 49 49 50 50 51 50 51 50 50 49 49 50 51 50 49 49 50 49 51 51 52 52 51 50 50 50 51 51 50 51 51 51 53 52 52 52 52 53 52 51 52 54 53 53 55 54 54 54 54 54 54 53 53 52 53 53 53 54 53 53 54 53 52 53 53 53 53 53 53 53 53 53 53 54 54 54 54 53 53 54 54 53 53 53 52 53 53 54 53 54 55 54 53 53 53 54 54 53 53 55 54 53 54 54 55 55 55 54 54 56 55 56 56 55 56 57 55 57 56 56 56 57 58 57 56 59 75 107 148 179 196 208 216 221 223 221 216 211 204 199 195 191 191 189 182 179 181 184 180 185 184 180 182 187 187 179 172 169 169 172 174 180 189 177 129 80 58 53 54 56 56 57 58 57 59 59 58 59 58 58 59 59 58 59 59 59 59 59 59 59 59 59 59 58 59 59 59 59 59 59 60 60 59 58 59 59 59 58 59 59 59 58 58 58 58 59 58 57 57 57 58 57 56 57 56 57 57 58 58 57 57 58 58 58 58 58 58 57 57 57 58 58 59 58 58 59 58 57 57 58 59 58 56 57 58 59 58 59 59 60 58 58 57 58 59 59 59 58 58 58 57 58 59 58 57 59 58 57 58 57 57 58 58 57 57 58 58 57 58 58 59 58 59 57 58 56 57 57 57 57 57 58 59 58 58 59 57 57 
49 50 50 48 49 48 48 49 49 49 50 49 49 50 51 52 51 49 49 50 51 50 50 50 50 50 50 51 52 51 50 51 51 51 50 51 50 51 52 52 50 50 51 51 52 51 52 52 52 53 52 52 53 53 53 53 53 53 53 53 54 53 53 53 52 52 53 53 53 54 54 53 54 54 53 52 53 52 53 52 53 52 53 54 54 54 54 53 53 53 53 53 54 52 52 54 54 54 54 54 54 55 54 55 55 54 54 55 54 54 54 55 54 54 54 54 55 56 56 56 56 57 56 56 55 54 55 56 57 58 58 58 57 57 58 58 63 86 124 160 191 209 215 217 219 219 215 210 200 192 186 182 180 181 183 186 184 184 184 184 181 181 184 183 184 183 181 180 178 173 168 171 180 183 192 208 201 158 97 61 54 55 55 56 57 57 58 57 57 58 58 59 59 60 60 59 58 60 60 59 59 59 59 58 59 59 60 59 58 58 58 59 59 60 59 58 58 59 59 59 60 59 60 59 59 59 59 59 58 58 57 56 57 57 56 56 58 58 57 58 58 58 58 58 57 57 57 58 58 59 59 58 57 57 57 58 57 59 60 59 60 59 58 58 59 60 59 59 59 60 59 60 59 58 58 58 59 58 58 59 59 58 57 58 59 58 56 57 57 56 58 56 58 59 58 57 57 57 57 57 58 59 58 58 58 58 59 58 58 57 58 58 58 58 58 59 58 57 58 58 
50 49 49 50 49 49 49 49 49 50 50 50 48 49 49 51 51 50 50 51 51 50 51 51 51 51 50 51 52 51 51 52 50 51 51 51 51 51 51 51 50 51 52 52 52 52 51 51 52 53 53 53 53 53 52 54 54 53 53 54 55 54 53 54 53 53 53 54 53 54 53 52 53 55 54 53 54 53 53 53 54 53 54 54 55 55 54 52 52 53 54 55 53 53 54 55 55 55 54 53 54 54 54 54 55 55 54 55 55 55 54 56 55 55 54 55 54 55 56 57 57 55 56 57 56 57 58 57 58 58 59 59 58 58 57 67 94 135 173 194 209 220 221 214 209 206 202 197 190 185 182 181 182 182 182 182 182 183 185 185 184 184 184 185 185 183 183 183 184 186 184 178 178 185 195 195 200 211 175 106 64 55 55 56 57 58 59 58 59 58 59 60 59 59 60 59 57 58 60 60 59 59 60 59 60 60 59 60 59 59 59 60 59 58 57 58 59 58 59 58 58 58 58 58 58 59 59 58 59 58 58 58 58 57 57 58 58 57 58 57 59 59 59 59 58 58 58 58 58 60 59 58 59 58 56 58 58 58 60 59 59 59 58 58 59 59 59 58 58 59 58 58 58 59 58 57 58 58 58 59 58 58 58 57 58 57 58 57 56 57 57 58 59 58 57 57 58 58 58 59 59 59 56 59 59 57 58 59 59 58 58 57 57 57 57 57 58 58 58 59 
50 49 49 50 49 49 49 50 51 49 50 51 51 50 49 49 50 51 52 52 52 51 51 51 51 50 50 51 51 50 50 51 51 51 52 52 52 52 52 52 51 50 50 50 53 53 52 52 53 53 54 55 54 54 53 54 54 54 54 54 54 53 54 54 53 53 53 54 54 53 53 52 52 53 54 54 54 54 55 55 53 52 54 54 54 54 54 54 54 53 54 55 53 52 54 54 55 56 54 54 54 54 54 55 55 54 54 54 55 55 54 56 55 55 55 55 55 55 55 54 55 56 56 58 58 57 57 56 56 57 58 58 58 58 67 99 141 176 198 210 218 221 217 209 199 196 195 191 188 186 184 183 183 183 181 181 180 181 183 183 184 184 183 182 183 184 185 185 185 186 188 186 182 182 187 194 193 198 220 190 115 66 53 54 57 57 60 61 60 59 59 59 58 59 61 60 59 59 60 60 59 61 61 61 61 60 59 59 60 60 59 59 60 59 58 59 59 57 58 59 59 57 57 57 59 59 58 58 58 57 57 57 57 57 58 59 57 56 58 58 59 58 59 58 57 58 57 56 56 58 58 58 58 59 57 59 59 58 58 57 57 58 59 59 57 58 59 59 59 59 59 58 59 59 58 56 57 59 58 58 57 57 58 58 58 58 59 58 57 59 57 58 58 57 57 56 57 57 57 58 57 58 57 58 58 58 59 59 58 60 59 58 58 58 57 56 57 57 57 58 
50 49 50 51 50 50 51 51 51 50 49 48 50 51 50 49 49 50 51 51 51 51 50 51 51 50 51 51 51 50 51 51 51 52 51 52 52 51 51 51 51 51 51 51 52 52 52 52 53 53 54 53 52 53 54 55 55 55 54 52 53 54 55 53 53 54 54 54 53 54 54 53 53 53 53 54 54 54 55 54 54 53 54 53 53 53 54 56 55 54 54 54 52 53 54 53 55 55 55 55 56 55 55 56 55 55 54 53 53 55 55 55 56 55 55 55 56 55 56 55 55 54 55 57 58 56 56 55 57 57 57 58 57 68 101 144 180 201 211 211 206 199 192 192 195 195 195 193 192 190 187 185 183 183 183 183 181 182 183 182 183 183 183 180 180 181 182 181 182 183 183 185 187 186 183 189 193 185 204 230 193 118 66 54 56 56 57 58 58 59 60 58 59 60 59 59 60 59 59 60 60 61 60 59 60 59 61 60 59 59 58 58 59 59 60 59 59 58 58 59 59 58 57 57 58 58 57 58 58 58 58 58 56 56 57 58 57 56 57 58 58 58 58 58 57 58 58 57 57 57 58 59 57 59 59 58 59 59 59 60 59 58 59 61 60 59 58 59 59 59 60 58 57 58 59 57 58 60 59 60 59 58 59 60 59 58 57 58 57 58 56 57 57 57 58 58 56 56 57 57 58 58 59 59 59 59 59 59 59 59 59 59 60 59 57 57 57 57 57 59 
49 49 50 51 49 49 50 50 50 49 48 48 49 49 50 49 50 49 50 50 50 51 51 52 51 51 50 50 50 50 52 52 52 52 52 53 53 52 51 51 53 52 52 53 52 51 51 53 52 53 53 53 53 52 53 53 53 54 53 53 54 55 55 54 54 55 54 54 54 54 54 54 54 53 54 55 55 56 55 53 54 54 55 53 54 53 55 56 55 54 55 55 53 55 56 54 54 54 55 55 56 55 55 55 54 54 54 53 54 55 56 56 56 55 54 55 55 56 57 57 57 55 55 56 57 57 56 57 59 59 58 57 64 99 146 184 204 212 212 202 184 170 167 172 183 189 193 194 193 192 191 189 187 186 185 184 183 185 186 186 185 183 182 181 178 179 180 180 181 182 181 182 186 190 186 179 184 186 192 210 228 194 118 66 54 56 56 57 57 59 59 59 60 60 58 58 60 60 60 61 61 60 59 58 59 60 61 61 60 58 59 57 59 60 59 59 59 59 59 59 58 59 58 58 58 59 59 59 60 59 59 59 58 58 58 59 58 57 58 57 57 58 59 58 58 59 59 59 58 56 57 59 59 59 61 59 59 59 59 59 58 59 60 60 60 60 60 60 59 58 59 59 58 58 58 58 58 59 60 59 59 59 59 59 59 58 58 58 58 59 57 57 57 57 58 58 57 56 57 58 60 60 60 60 60 59 58 58 58 58 58 59 60 59 58 58 59 58 59 59 
49 50 49 49 49 48 48 49 49 49 49 50 50 49 49 48 49 51 51 51 51 51 51 50 50 51 52 51 50 50 51 51 53 52 53 53 53 52 52 51 53 53 52 52 52 51 52 54 53 53 54 53 55 54 54 54 54 54 53 55 54 55 55 55 55 55 54 53 54 54 53 54 54 53 54 55 55 55 55 54 53 54 53 52 53 54 55 55 53 53 55 54 54 55 56 56 55 55 54 54 56 55 54 54 54 55 55 55 55 56 56 55 56 56 55 56 56 56 56 56 57 57 55 57 58 58 57 59 58 59 58 62 90 138 180 204 214 212 205 197 190 179 175 169 164 167 175 184 190 189 187 186 188 186 183 181 182 185 186 188 188 185 183 181 181 181 181 181 182 181 181 182 185 186 186 182 182 190 201 208 218 230 187 108 62 54 56 57 57 58 59 59 59 60 59 59 60 60 60 60 60 61 61 60 59 58 59 59 59 59 58 58 58 59 58 57 58 59 59 58 57 58 60 60 59 58 60 59 60 59 57 58 60 60 59 58 57 58 59 59 59 59 58 59 57 57 58 58 58 58 58 59 59 59 60 58 57 59 58 58 57 58 59 58 58 59 59 59 59 59 57 58 60 60 56 57 59 60 59 57 57 57 57 58 59 59 59 56 57 58 57 58 59 57 56 56 57 58 59 58 59 59 59 59 59 60 59 60 60 58 59 60 59 59 60 60 60 59 60 59 
50 51 51 50 50 50 50 49 49 50 50 51 51 51 50 50 50 51 50 49 51 50 50 49 51 52 52 51 51 50 52 52 52 51 52 53 52 52 53 52 52 54 53 52 52 52 52 53 52 52 53 53 54 54 54 55 54 55 55 55 55 55 54 55 54 54 54 55 54 54 54 55 55 55 56 54 55 54 54 55 55 54 54 53 54 55 54 53 53 54 54 54 55 56 56 56 56 54 55 55 55 56 56 55 56 56 56 54 54 55 55 54 56 55 55 56 57 56 56 55 55 57 57 57 57 56 55 57 58 58 59 82 129 171 195 208 213 207 193 185 190 196 190 174 164 165 168 169 177 183 182 177 178 184 184 183 185 185 184 184 185 185 182 180 182 182 182 182 181 179 180 182 184 186 186 187 187 190 198 206 204 212 218 168 93 55 54 58 58 58 59 58 59 59 59 59 58 60 60 61 60 59 60 61 58 58 59 60 60 58 59 60 60 59 58 58 60 60 59 59 59 59 60 59 58 59 58 58 59 59 58 59 59 59 58 57 58 59 58 59 60 58 58 59 58 58 58 58 59 60 59 58 58 58 58 59 58 58 59 57 58 58 59 58 57 58 58 58 57 58 58 59 59 59 57 58 59 58 58 58 58 58 58 58 57 58 58 57 57 58 58 58 58 58 57 57 58 59 59 58 58 58 58 59 59 58 60 60 60 59 59 58 58 58 60 61 61 59 60 59 
51 51 51 52 51 50 50 50 48 48 50 51 49 51 50 50 50 50 49 49 50 50 50 50 51 51 51 51 51 52 52 51 50 51 51 52 53 53 52 51 51 53 54 54 53 53 54 51 51 52 54 55 54 53 54 53 53 54 55 54 55 54 54 54 54 55 55 55 55 54 55 54 54 56 55 55 54 54 55 55 55 55 55 55 56 56 55 54 55 55 56 55 54 55 55 55 56 55 54 55 53 54 56 55 55 54 55 55 55 54 56 54 55 56 56 56 56 57 56 55 55 56 58 59 58 56 56 58 60 59 70 113 160 190 202 206 206 197 182 175 180 189 189 179 173 175 179 174 166 167 170 165 161 168 180 186 189 187 185 183 182 184 182 181 183 183 182 181 179 179 180 182 182 183 186 185 186 188 189 188 188 189 210 209 144 72 53 58 58 57 57 59 60 59 58 59 59 59 60 61 61 61 60 60 58 60 60 59 59 58 60 60 61 60 59 60 60 59 58 60 61 61 59 58 58 60 58 58 57 58 60 61 60 59 58 58 59 60 58 58 58 59 59 60 61 60 60 59 59 60 60 58 58 58 58 60 59 58 58 58 60 59 60 60 59 58 59 59 57 59 60 57 57 56 56 57 58 57 58 60 60 60 59 57 57 59 59 59 59 58 58 57 57 59 59 58 57 58 59 60 61 60 59 59 60 58 60 59 59 59 57 56 57 59 59 60 61 60 60 60 
50 50 50 53 52 51 51 51 48 48 49 50 49 50 49 50 51 51 51 50 50 51 51 50 50 52 52 52 51 51 51 51 51 52 51 52 52 53 53 52 52 52 53 52 52 54 53 53 53 53 53 55 55 55 54 53 54 55 54 54 54 53 55 54 55 56 55 54 55 55 54 54 56 55 54 54 54 55 56 56 53 54 54 54 55 55 55 54 54 55 55 53 53 53 53 54 55 56 55 54 54 54 54 54 53 53 55 56 56 56 55 55 54 55 57 57 56 57 55 57 56 56 57 58 57 58 58 60 60 62 93 143 178 199 210 210 200 185 177 181 184 180 179 181 181 182 182 177 171 164 158 155 155 156 160 172 186 189 183 180 177 176 175 175 179 182 182 181 180 180 182 183 183 182 184 185 184 185 182 174 176 180 189 211 187 109 57 55 56 56 56 58 59 58 59 60 60 60 60 60 61 61 61 61 60 60 59 58 58 60 59 59 60 59 58 59 59 59 60 60 60 60 60 59 59 58 59 60 58 58 59 61 61 60 59 58 58 58 59 59 58 58 60 59 60 59 58 58 58 59 59 59 59 60 60 59 60 60 60 60 60 60 59 58 59 57 58 59 57 58 58 57 57 57 56 57 59 58 58 59 60 58 58 57 57 58 58 59 59 59 59 56 57 58 59 59 59 59 60 61 61 61 60 60 60 60 59 58 58 58 57 56 56 57 58 59 59 60 59 61 
51 51 51 53 52 50 50 50 50 50 50 51 49 51 49 49 50 52 51 51 52 51 51 52 52 51 51 52 51 51 51 51 51 52 52 53 52 52 52 53 54 53 53 52 52 53 54 55 54 54 53 54 54 55 54 55 55 55 55 54 55 55 55 56 55 55 54 54 54 55 54 54 57 57 55 54 55 55 55 56 54 55 56 55 56 56 56 54 53 54 54 54 55 54 55 55 54 56 55 56 56 55 54 55 55 54 55 56 55 55 56 54 54 54 56 57 58 56 55 58 58 57 56 56 57 58 59 60 59 76 125 169 184 191 202 202 189 180 184 190 185 176 176 180 182 185 184 176 176 174 167 159 159 160 160 161 166 176 173 162 154 153 156 155 157 163 172 180 181 181 181 182 181 182 183 184 185 183 182 177 171 169 172 197 211 157 79 52 56 57 58 58 59 59 59 60 58 60 60 59 59 60 60 60 59 59 61 60 60 60 58 59 59 59 59 59 60 61 61 61 59 59 59 59 59 57 59 60 61 60 60 59 59 59 59 59 59 58 58 58 59 59 59 59 58 58 58 59 58 58 58 60 60 59 59 60 59 59 60 60 61 59 58 57 57 57 57 57 58 59 58 59 58 59 58 58 59 58 58 58 58 58 59 58 58 57 57 58 58 58 58 57 58 58 60 60 60 59 58 58 59 59 59 59 59 60 59 58 58 58 59 59 58 58 58 58 59 59 60 61 
50 51 50 51 50 51 51 51 51 50 51 52 51 50 49 50 51 50 49 50 52 51 51 53 52 51 51 52 52 52 51 53 53 53 54 54 53 53 53 54 54 54 54 53 54 54 55 56 54 54 55 55 54 54 55 54 54 55 54 54 54 55 56 56 56 56 55 54 54 55 56 56 57 57 56 55 57 56 55 54 54 54 55 56 55 55 55 56 55 55 55 55 55 55 56 55 55 54 55 56 56 56 55 55 57 56 56 55 55 55 56 56 56 56 55 57 58 57 57 58 59 58 58 57 59 58 60 59 64 102 157 186 182 167 166 175 182 186 188 184 175 173 176 180 182 180 178 178 181 179 176 173 167 164 167 167 154 147 159 162 155 149 150 151 149 144 145 159 175 179 179 180 180 181 183 181 183 183 184 184 173 166 171 189 213 194 118 58 53 55 57 57 58 58 57 58 59 59 59 58 60 61 60 59 59 60 62 61 61 60 60 60 60 60 60 60 61 60 60 61 60 60 59 60 60 59 58 58 60 59 60 60 59 59 59 59 58 59 58 59 60 60 60 60 58 59 60 61 59 59 60 59 59 60 60 60 59 58 59 59 61 61 59 59 59 59 58 58 59 59 60 58 57 57 59 58 59 58 58 59 59 59 58 58 57 57 57 59 59 58 59 60 61 60 60 60 61 61 59 58 59 60 60 60 60 59 60 60 59 60 60 61 60 60 60 61 60 59 59 60 
49 50 50 50 51 51 51 51 51 51 50 50 51 51 50 50 50 50 50 50 50 50 50 51 51 52 51 52 53 52 52 53 53 53 53 53 53 54 55 54 54 54 55 55 55 55 54 56 55 55 57 56 53 52 52 51 52 52 51 51 50 51 51 50 52 53 55 55 55 55 56 55 55 55 56 56 57 56 55 53 53 54 55 54 55 56 55 55 55 55 55 55 55 55 54 55 55 54 56 55 57 57 56 56 57 56 55 56 56 57 55 58 57 57 57 56 57 57 58 58 57 58 59 58 59 59 59 58 76 131 176 195 195 179 160 157 175 188 184 174 172 179 184 188 186 179 179 183 189 188 183 180 179 173 163 157 153 143 153 172 177 171 164 163 164 160 147 141 154 173 179 180 181 180 180 182 181 182 182 181 178 172 174 178 192 200 154 77 51 54 56 56 57 58 58 58 59 59 60 60 61 60 60 60 61 61 61 60 60 59 59 60 61 60 60 61 60 59 59 60 60 60 60 61 60 60 58 58 60 59 59 60 60 60 60 59 58 60 60 60 59 59 59 58 59 60 61 61 60 59 59 59 58 59 60 59 61 60 59 59 59 60 59 58 60 60 60 59 58 59 60 59 57 56 58 60 60 59 59 58 58 58 59 59 58 59 59 59 60 60 61 61 61 61 60 61 61 61 60 60 61 61 62 62 61 60 61 60 60 61 61 62 61 60 61 62 61 61 59 61 
50 51 50 50 51 50 50 50 50 50 50 49 50 50 49 50 51 51 51 52 50 51 51 52 52 51 50 51 53 52 53 54 53 54 54 52 52 53 54 54 54 53 54 54 54 54 55 54 54 54 53 54 57 62 67 75 82 85 87 89 89 85 79 73 63 55 51 50 51 53 55 55 54 54 54 55 55 54 55 54 55 55 56 55 54 55 54 54 56 56 56 56 56 56 56 56 56 55 55 56 57 56 57 57 56 54 55 56 57 58 56 57 57 56 58 57 57 58 58 57 57 58 59 59 58 58 59 61 94 151 180 191 201 211 204 181 164 166 171 173 178 187 191 187 184 184 184 183 186 190 189 188 189 183 171 160 163 166 164 166 170 176 177 173 171 173 169 154 147 160 178 180 180 179 177 181 181 181 181 179 177 172 172 174 183 197 177 106 55 55 58 57 58 60 60 58 59 60 60 60 60 60 60 60 62 62 61 60 60 58 59 59 60 59 59 61 59 58 59 59 59 59 60 60 61 61 58 60 60 60 60 61 60 59 60 61 61 60 59 59 59 59 57 58 61 61 60 59 60 60 59 58 59 59 59 59 60 61 59 59 58 59 58 58 59 59 59 59 58 58 58 59 59 58 59 60 58 59 58 59 59 58 59 60 60 61 61 58 59 60 60 59 59 59 59 60 60 59 59 60 60 61 61 60 60 60 62 61 61 60 60 61 60 59 60 61 60 60 61 62 
51 50 51 50 50 50 51 50 50 51 51 51 49 49 49 51 52 50 50 51 50 51 52 51 51 52 51 50 51 51 52 53 52 54 54 53 53 54 54 53 53 54 54 53 55 55 55 53 54 59 71 89 106 123 136 146 150 153 154 159 164 163 156 149 137 123 105 85 66 53 49 51 53 55 55 55 55 55 54 55 56 55 55 54 54 55 55 56 56 55 55 56 56 56 57 56 55 55 56 55 56 57 57 56 55 55 55 56 56 57 56 55 56 57 57 57 58 57 57 57 58 59 60 61 59 59 58 68 115 162 178 184 188 197 215 219 192 166 165 174 183 190 189 182 183 186 185 182 183 186 188 190 193 190 178 169 173 178 178 172 167 167 170 171 171 170 171 169 158 154 168 179 179 178 178 178 179 180 183 181 178 173 176 185 192 197 188 134 68 54 58 56 57 59 59 59 59 59 59 60 60 60 59 60 62 62 61 59 59 59 60 60 60 60 59 59 58 59 60 60 59 60 61 61 60 60 59 59 59 61 61 60 60 60 61 61 62 60 59 60 60 59 59 59 60 60 59 60 60 59 59 59 60 59 59 60 60 60 60 60 59 60 60 60 60 60 59 59 59 58 57 58 58 58 58 58 57 58 58 58 60 59 59 59 61 60 61 60 60 61 60 60 60 59 60 59 60 60 60 60 60 60 58 59 61 60 61 61 62 60 59 60 60 59 60 61 61 61 62 62 
50 51 51 51 49 50 51 51 51 51 51 50 52 51 51 51 51 51 51 51 51 51 51 50 50 51 51 52 50 51 52 53 53 52 53 53 53 54 54 53 54 55 54 55 55 54 56 62 81 107 134 154 162 166 174 184 189 191 189 188 188 192 194 190 186 183 177 166 149 120 84 58 47 49 54 55 54 55 55 53 54 55 55 55 54 54 55 56 55 56 56 55 56 55 55 56 56 56 56 56 56 56 56 55 54 55 55 56 56 57 56 56 56 57 56 57 57 58 57 58 59 58 59 61 60 60 58 78 135 175 183 191 194 191 199 218 225 206 181 175 183 186 184 183 186 184 184 189 195 196 191 187 186 187 186 180 175 178 180 180 178 176 174 172 170 174 176 175 170 160 161 176 180 176 177 177 178 179 182 182 182 179 176 180 185 190 192 156 85 55 58 57 57 59 59 60 59 58 58 59 60 60 59 59 60 61 60 59 58 60 61 60 59 59 59 58 59 60 60 60 60 61 60 61 60 60 61 60 60 60 60 59 60 61 61 60 60 59 61 61 59 59 59 59 58 59 60 60 60 60 60 61 61 60 59 60 60 59 59 60 59 60 60 60 60 59 59 59 60 60 59 58 58 59 58 57 59 59 59 59 60 60 60 60 59 61 61 60 61 62 61 62 61 60 61 61 60 60 61 60 59 60 59 59 60 61 61 61 59 59 60 60 59 59 60 61 62 60 62 61 
51 50 51 52 52 51 51 51 52 51 50 50 51 50 52 51 50 51 52 51 52 52 52 52 51 52 51 51 51 51 52 53 54 53 54 53 53 53 54 56 56 55 55 54 56 69 92 118 140 162 186 199 201 203 207 209 207 202 197 197 196 193 199 209 213 211 210 206 201 189 167 136 97 62 48 51 54 54 56 54 54 55 55 56 55 55 54 55 55 57 58 57 55 55 54 55 57 56 55 55 57 56 55 56 56 56 57 57 56 57 57 58 57 56 57 57 57 58 59 58 58 58 59 61 62 62 62 95 154 181 186 188 191 190 192 202 217 220 211 194 179 177 180 185 188 188 189 194 197 196 190 183 181 186 194 198 193 181 176 177 180 185 185 179 171 174 184 187 179 166 164 178 181 175 174 176 179 181 183 181 182 183 177 173 176 184 195 173 102 55 57 58 58 58 58 60 59 59 59 60 61 61 60 60 59 59 61 60 60 59 60 60 59 60 61 61 59 60 61 61 61 62 60 61 61 59 61 62 61 60 59 60 61 61 60 58 59 58 59 58 58 60 59 58 58 59 60 61 62 61 60 61 60 59 59 58 58 59 60 59 59 60 60 60 58 58 58 59 59 60 60 59 60 58 60 60 58 59 61 61 60 60 59 60 60 62 62 61 60 61 60 61 60 59 59 61 62 61 60 61 60 61 61 61 60 60 59 59 60 60 60 59 59 59 60 61 60 60 61 59 
50 51 50 51 50 50 51 51 51 51 51 52 51 51 52 51 51 50 51 51 51 53 54 52 52 52 52 52 52 52 51 52 53 54 53 53 52 53 54 55 56 54 55 63 88 122 153 175 186 197 207 219 240 248 246 226 211 214 212 204 207 202 213 239 246 231 213 218 225 222 212 199 176 137 91 56 48 53 56 55 56 56 54 55 56 55 55 56 56 54 56 56 55 55 54 55 56 55 54 56 57 58 56 57 57 56 56 57 56 55 57 58 58 57 57 57 58 58 58 57 58 60 59 59 61 61 64 110 166 183 182 176 178 184 189 195 200 201 205 215 209 185 178 186 186 190 193 191 187 189 186 182 184 189 189 187 192 187 176 175 176 176 178 178 171 167 178 192 192 175 166 177 182 177 175 177 178 181 184 182 182 184 182 176 176 185 194 184 123 60 53 56 57 56 59 59 59 59 59 60 60 60 61 61 60 60 61 61 61 60 61 61 61 61 60 60 59 60 61 61 60 60 60 60 61 59 60 61 60 60 60 60 59 59 60 60 60 60 59 60 60 59 60 59 60 60 59 60 61 61 60 60 59 58 60 59 59 61 60 60 60 60 59 60 59 59 59 60 59 60 59 58 59 59 58 58 58 59 60 59 59 59 60 60 60 61 61 61 61 61 60 60 60 60 60 61 61 61 61 60 60 60 60 60 60 59 59 60 61 61 60 60 60 60 61 62 61 61 61 60 
51 51 50 51 50 51 51 51 50 50 51 51 51 51 51 50 50 51 52 50 50 52 53 52 51 52 53 53 52 53 53 53 53 53 52 53 53 54 54 54 55 56 74 108 148 175 181 188 197 222 216 203 224 245 243 222 206 211 221 219 218 213 223 242 236 217 206 218 227 220 220 226 218 197 169 125 70 48 54 55 55 55 53 53 55 54 54 56 57 55 55 55 56 56 55 56 55 55 56 57 56 57 57 57 57 57 57 57 57 56 56 56 57 58 57 56 57 58 59 59 59 59 59 58 59 58 67 124 172 182 184 178 179 185 189 192 193 189 187 201 229 230 201 183 182 184 184 183 184 184 181 180 183 188 185 181 180 185 190 188 182 177 171 168 166 165 167 178 190 183 168 172 180 178 178 179 178 178 180 182 182 184 182 174 170 175 187 185 137 67 50 55 56 57 59 59 59 60 59 59 59 60 60 60 61 61 60 61 61 60 60 61 62 62 60 59 60 60 59 59 61 61 60 59 60 59 60 60 61 60 60 61 60 59 60 60 61 63 61 61 61 59 60 61 61 61 60 58 58 59 59 59 59 60 62 60 61 60 58 59 61 60 60 60 60 60 60 59 60 61 58 58 59 60 58 58 59 60 60 60 60 60 61 61 60 60 59 61 61 62 61 60 61 61 61 60 60 61 61 60 61 60 59 60 61 62 63 61 62 61 60 60 61 62 63 63 62 61 62 61 
50 52 51 52 52 51 51 52 51 50 50 51 50 50 50 50 50 50 50 52 51 50 51 50 50 51 53 54 53 53 52 55 54 53 54 55 55 55 54 53 59 83 125 166 188 195 193 186 188 217 243 226 192 180 193 221 225 205 205 225 228 223 215 204 193 196 208 211 206 195 196 210 226 230 216 189 149 84 51 53 54 54 55 55 55 54 54 55 56 56 55 56 57 56 57 58 57 55 56 56 54 54 55 56 57 58 58 57 59 59 58 57 58 60 59 58 57 58 58 58 58 59 59 60 61 60 71 134 177 178 180 178 176 180 186 190 193 190 182 183 201 227 236 210 188 181 180 183 182 180 180 184 186 184 183 181 181 190 197 198 195 183 174 167 168 172 170 163 161 164 169 173 181 179 180 178 177 176 176 180 181 184 188 185 184 187 190 184 140 73 52 57 57 58 58 57 58 60 61 60 61 62 62 61 60 60 61 60 59 59 60 62 61 60 61 61 61 61 60 60 61 59 59 59 59 59 62 61 62 61 61 62 62 62 61 61 62 61 61 60 59 60 60 60 59 59 59 60 59 59 59 60 61 61 60 61 61 59 60 61 61 61 62 61 59 60 62 61 60 60 59 58 60 59 61 60 59 60 61 62 62 61 60 60 60 59 59 62 60 62 62 62 61 60 60 61 61 61 61 62 61 59 60 62 62 62 61 62 63 61 60 60 60 61 62 63 63 62 61 62 
51 51 52 52 51 50 50 52 52 51 52 53 52 52 51 51 52 51 51 52 53 52 51 50 51 52 51 52 51 51 53 53 53 53 53 55 55 55 54 61 90 134 172 188 187 190 217 228 199 190 210 223 211 186 172 186 208 209 202 209 209 204 196 188 200 214 215 201 194 197 196 186 186 206 233 231 203 161 94 52 51 54 56 56 58 57 57 57 55 55 55 55 57 57 57 57 57 58 57 57 55 56 56 56 57 58 57 57 59 58 58 58 58 60 59 59 60 59 58 58 60 60 61 61 61 59 75 138 174 179 185 186 182 181 185 189 194 196 191 185 185 191 205 223 220 197 179 172 173 181 188 190 187 181 179 182 188 195 191 187 189 182 170 169 172 174 172 167 157 152 160 173 182 182 180 179 177 175 176 177 178 182 188 192 190 185 184 181 149 81 52 56 59 58 59 59 59 60 60 60 60 60 60 61 60 60 60 61 60 61 62 61 59 59 60 60 60 60 60 59 59 58 60 60 60 61 61 61 62 62 62 61 61 62 62 61 61 59 59 61 60 61 60 59 59 59 60 61 62 62 61 62 61 61 61 60 60 59 60 61 62 61 61 61 61 60 60 61 61 62 61 61 60 60 59 59 58 59 59 60 61 61 61 61 61 61 61 61 61 61 61 62 61 62 62 62 62 61 61 62 61 61 60 62 62 60 60 62 61 62 62 62 62 62 62 61 63 62 62 62 
52 52 51 51 51 51 51 51 52 53 53 52 51 52 51 51 52 53 52 51 52 52 52 51 51 52 53 53 53 54 53 53 55 55 54 54 55 55 66 98 144 182 194 194 195 191 207 249 234 191 190 205 206 191 174 165 169 179 182 183 182 182 182 184 192 203 213 205 205 213 204 193 191 190 195 219 238 212 163 98 54 52 54 55 56 56 55 55 56 56 57 56 56 56 56 57 56 57 56 57 57 56 57 57 56 56 56 57 57 58 58 59 59 59 57 57 58 60 61 59 58 59 61 61 58 58 79 145 174 173 182 185 182 181 184 185 186 192 195 190 184 177 174 190 212 216 194 176 172 180 190 189 182 179 181 191 199 197 193 187 183 182 182 180 171 171 173 169 161 159 166 170 174 182 181 178 176 175 176 177 178 180 184 187 188 184 181 179 152 85 51 55 57 58 59 59 60 61 61 60 60 60 60 60 60 60 61 62 61 63 61 60 60 60 60 61 61 60 59 59 60 61 60 61 61 61 60 60 61 62 62 61 61 61 61 60 60 60 59 61 60 60 61 61 59 60 61 60 60 61 62 62 62 61 62 60 60 61 61 60 61 62 62 62 61 60 60 60 62 62 62 59 59 61 61 60 59 60 60 60 60 60 60 60 60 61 63 62 61 62 61 62 61 61 60 60 61 61 60 60 60 61 62 60 61 62 62 61 61 62 63 63 62 62 61 61 62 62 61 61 
53 51 51 51 51 51 51 50 50 52 53 51 50 50 52 52 51 52 52 51 51 52 53 52 52 52 53 53 53 52 52 53 54 54 56 56 53 65 103 149 177 188 196 212 230 228 193 208 238 208 189 194 186 170 160 158 159 164 173 177 178 180 182 182 180 178 183 191 197 207 201 194 195 193 190 203 227 244 210 163 94 54 52 53 54 55 54 54 55 58 58 57 56 56 55 58 57 56 55 57 58 58 57 56 57 57 56 56 58 59 59 59 59 57 58 59 59 59 60 60 59 60 60 59 58 59 81 149 177 175 181 184 182 183 185 186 185 185 185 182 181 182 177 174 190 221 225 206 186 177 178 182 180 178 185 195 193 187 189 188 185 186 189 189 187 181 176 174 167 159 158 162 162 168 180 179 177 176 179 179 179 180 181 184 186 184 181 179 153 86 52 56 56 57 58 58 60 59 60 60 60 61 61 61 62 60 60 61 62 61 59 60 62 61 61 60 61 62 62 62 61 62 61 61 61 60 59 60 62 61 61 62 61 60 61 62 61 59 60 62 61 60 59 61 61 60 60 59 59 59 61 62 61 61 60 60 62 63 61 62 61 61 61 61 61 60 59 60 61 60 59 59 61 60 60 60 62 61 62 62 62 60 60 61 62 62 62 62 62 63 61 62 63 61 60 60 60 61 62 62 61 60 61 60 60 60 61 60 61 61 61 61 61 61 60 60 60 60 59 61 
51 52 52 52 53 52 52 51 51 51 52 53 51 52 51 52 51 52 54 54 52 53 53 53 54 54 53 52 53 53 55 55 54 55 56 54 58 97 151 186 193 186 180 185 199 227 225 192 200 196 182 168 157 153 150 147 148 157 169 175 179 181 178 180 184 180 178 180 181 192 210 205 191 195 208 203 190 212 247 210 154 88 55 53 53 54 56 56 57 57 56 57 56 56 57 57 58 56 55 55 57 57 57 58 58 57 58 57 57 57 57 59 59 57 58 61 60 59 59 59 60 61 60 59 59 59 81 153 176 170 177 183 181 179 182 185 186 184 181 178 180 185 183 177 182 194 218 233 216 193 182 179 179 182 191 194 184 182 181 183 187 187 186 187 191 193 187 183 181 171 156 149 154 158 162 175 179 179 182 183 182 181 181 182 183 181 180 180 154 87 52 57 58 59 58 58 59 59 58 58 59 59 60 61 61 62 61 60 60 61 61 61 61 61 60 60 60 61 62 63 61 61 60 61 61 61 62 62 61 60 60 61 61 60 61 62 62 61 60 61 62 62 59 59 60 60 59 60 60 59 60 61 62 61 60 61 62 63 63 62 61 62 61 62 62 60 60 61 61 61 59 61 62 62 60 60 60 60 61 60 60 61 61 61 62 62 60 62 62 62 62 61 62 63 62 61 61 61 62 63 61 61 62 63 61 61 60 61 62 61 60 61 62 61 61 60 60 62 62 64 
52 52 52 52 52 52 51 51 53 53 53 53 52 52 51 52 52 53 53 52 52 52 52 52 52 53 54 54 54 55 55 56 56 56 55 54 82 137 181 192 198 212 208 185 179 185 204 196 183 183 177 159 149 153 156 157 158 161 168 173 177 180 176 166 167 174 175 176 179 181 191 214 216 203 198 190 181 182 222 246 198 142 76 54 53 54 54 56 57 57 56 56 55 55 58 57 57 58 57 56 57 57 57 58 58 58 57 56 57 55 56 57 58 59 59 60 59 60 61 61 60 60 60 59 60 60 78 152 179 164 166 166 172 178 181 183 184 183 179 174 176 180 183 183 180 169 179 217 235 219 196 187 190 193 191 185 180 179 180 187 193 188 187 186 188 196 197 189 181 178 171 160 156 168 176 178 182 180 181 182 181 180 180 181 180 178 177 177 148 80 50 58 59 59 60 60 59 59 58 59 60 59 60 61 61 61 61 61 61 61 61 60 60 60 60 61 61 61 62 62 60 60 60 62 62 62 63 61 62 61 61 61 61 59 59 60 61 61 60 61 61 61 60 59 59 60 61 62 62 61 61 60 61 61 61 61 62 62 62 61 62 63 62 62 63 63 62 61 60 59 58 60 61 60 62 61 61 62 62 60 60 60 61 61 61 61 60 61 60 60 62 62 62 63 64 63 62 62 63 63 61 60 62 62 62 61 61 62 63 63 63 62 62 62 63 62 62 63 64 64 
51 51 51 51 51 52 53 52 51 52 52 53 53 52 51 53 53 52 51 51 53 52 53 53 52 52 53 54 55 55 54 54 56 56 54 69 116 161 182 183 188 215 233 210 198 197 188 188 187 182 180 171 171 177 176 168 165 170 175 174 173 183 190 178 165 167 171 173 178 182 179 184 206 213 195 187 187 186 187 235 235 188 115 61 51 55 56 57 57 56 55 55 57 57 58 56 56 58 57 57 58 57 56 57 58 58 58 58 58 57 57 58 58 59 60 59 60 60 61 60 59 61 60 59 61 59 73 147 184 166 172 178 178 178 181 184 183 181 178 175 174 179 182 186 187 181 181 193 203 219 220 204 190 189 186 180 179 177 181 191 196 194 190 189 192 195 190 182 181 181 177 173 165 157 174 194 188 182 184 183 180 179 178 177 177 175 175 174 137 72 50 57 58 58 59 60 61 61 60 61 62 61 62 61 60 62 62 64 63 62 60 60 61 61 62 61 61 63 62 61 60 61 59 61 62 61 61 60 61 62 62 63 63 61 60 59 60 62 62 61 60 60 61 62 61 61 62 62 62 62 62 62 62 61 61 62 63 63 63 61 60 60 61 62 62 61 60 59 61 60 59 59 60 61 62 62 63 63 62 62 62 61 59 61 62 62 62 62 61 61 64 63 61 62 62 62 62 61 61 61 63 63 64 63 63 62 63 62 62 62 63 63 62 60 61 61 60 62 63 61 
52 52 52 52 53 54 54 53 52 52 51 52 53 53 53 51 52 53 52 53 52 53 54 54 54 54 54 53 53 54 54 55 55 54 58 100 153 178 183 184 184 191 216 223 193 186 184 184 191 185 177 180 183 185 179 175 183 191 184 169 168 179 185 179 176 175 175 177 181 182 180 176 181 206 220 203 191 185 180 193 242 221 158 85 54 53 55 55 55 54 55 56 57 57 55 56 56 56 58 59 58 56 56 57 57 56 57 58 59 60 60 58 59 60 60 60 58 58 59 60 60 60 60 61 62 59 66 136 185 168 166 174 172 168 175 183 185 185 185 185 181 179 180 182 184 188 189 186 180 190 226 242 216 186 179 180 175 177 187 193 193 191 185 187 192 189 182 183 182 180 180 179 176 173 164 174 187 186 184 185 184 181 179 176 174 171 174 175 133 66 52 57 58 58 60 60 60 60 60 61 61 60 61 62 61 60 61 63 62 61 62 61 62 62 62 61 61 61 62 62 63 63 62 62 61 61 59 59 61 61 60 61 62 62 62 61 61 62 63 63 60 60 61 62 61 62 62 61 61 61 60 60 61 62 62 62 62 62 63 62 60 61 61 61 60 60 61 61 60 61 62 60 61 61 61 61 60 61 62 61 61 61 60 60 61 62 62 60 62 64 63 62 61 62 62 62 62 60 61 62 62 62 63 62 61 61 62 62 63 62 62 61 61 61 61 62 63 61 61 60 
52 52 51 51 53 53 53 52 52 52 51 52 53 54 53 53 53 54 55 53 52 53 54 53 53 55 55 54 54 55 55 55 56 54 79 137 181 192 196 206 204 187 185 199 190 178 178 181 191 212 203 192 190 184 182 192 210 216 196 175 175 172 180 186 184 184 180 179 179 182 185 187 185 186 196 202 191 185 181 173 210 238 196 127 67 52 53 53 54 55 55 56 57 56 55 57 57 56 56 56 56 56 57 58 58 58 57 58 59 59 58 58 59 60 60 59 58 59 59 60 60 60 60 61 62 60 60 123 188 174 162 166 174 171 173 180 183 180 176 172 171 175 179 179 180 182 184 184 184 185 193 216 236 225 194 183 185 185 187 194 194 187 187 188 189 183 178 178 180 180 181 182 178 172 172 168 165 177 185 185 185 183 181 179 174 169 175 171 121 57 55 58 58 59 60 61 61 60 60 59 59 59 60 61 62 62 61 61 61 61 62 62 61 62 63 62 61 61 61 62 63 62 62 63 62 62 61 62 62 61 60 62 63 63 63 62 62 62 61 62 62 60 60 61 61 63 63 61 60 60 60 60 62 62 62 62 62 61 62 62 63 62 61 61 62 64 63 62 61 61 61 60 60 61 61 62 62 61 61 60 60 61 61 62 62 61 61 61 63 63 62 62 62 63 63 63 62 61 63 64 62 61 61 62 62 61 62 62 63 62 63 62 61 61 61 60 62 61 60 60 
51 51 52 50 52 51 52 52 52 53 54 54 53 53 52 55 54 54 54 53 52 53 53 52 53 54 54 55 55 54 54 55 55 60 108 170 197 191 186 189 199 208 202 184 179 179 177 179 187 208 237 234 218 211 214 220 221 206 182 179 202 208 190 189 196 196 192 183 183 186 192 196 194 186 189 211 215 193 184 179 179 223 216 160 89 56 52 53 54 56 56 57 57 57 55 58 57 55 56 56 56 56 57 58 58 59 59 59 59 58 58 57 57 58 57 58 61 61 59 59 59 60 60 59 61 60 58 106 188 181 169 170 172 170 172 179 181 179 180 177 174 177 178 178 179 179 181 186 188 184 176 178 201 231 232 203 185 189 190 185 184 187 192 191 185 184 183 176 174 178 182 183 186 185 176 174 170 162 174 185 186 184 181 179 174 170 175 160 98 52 56 59 59 59 59 60 61 61 62 62 62 62 61 60 59 60 62 60 60 60 61 62 62 63 63 63 63 62 61 61 62 62 62 62 63 64 63 63 62 59 60 61 60 62 61 60 61 61 61 63 62 61 60 62 62 61 60 61 62 61 61 62 61 61 61 62 63 61 62 61 62 63 62 62 61 61 62 61 60 60 61 60 62 62 62 61 60 61 60 60 60 62 63 63 63 61 62 63 63 62 61 60 61 62 62 62 62 63 63 62 61 62 62 63 63 63 64 61 62 63 64 63 62 62 62 61 61 60 59 61 
53 54 53 51 52 52 52 53 53 52 53 53 53 52 51 53 54 53 54 54 55 55 55 54 55 54 53 54 54 54 53 53 54 72 132 182 203 199 183 171 169 179 189 182 176 179 178 179 183 184 205 240 245 234 225 211 187 159 149 166 189 212 212 201 210 213 211 205 196 195 196 197 192 183 178 186 201 197 192 199 188 200 213 180 116 65 52 53 54 55 56 57 56 57 57 58 58 58 57 57 59 59 58 58 57 56 58 59 59 59 60 57 58 58 59 60 61 61 60 59 59 59 61 63 64 62 57 87 183 193 173 177 179 176 175 179 183 184 186 184 181 180 179 179 180 180 180 181 183 184 182 180 179 187 213 234 221 196 186 180 174 182 189 185 182 182 183 182 179 175 176 182 189 193 188 178 181 182 168 173 181 181 178 177 174 174 175 145 78 51 57 58 59 61 60 59 60 62 61 61 62 62 61 60 60 60 60 60 61 62 61 62 62 62 62 63 63 63 63 62 64 64 62 62 61 63 66 67 70 72 73 73 72 69 65 63 62 60 59 59 60 62 62 61 62 60 59 61 62 63 64 63 62 61 63 63 63 62 62 62 63 62 62 61 61 62 61 62 60 60 62 61 61 63 62 61 60 60 60 61 62 62 62 62 63 62 60 62 61 62 62 61 61 62 63 61 61 61 61 60 61 61 61 62 63 63 63 61 61 61 62 62 61 61 61 60 60 61 61 60 
53 53 54 52 51 52 52 53 53 53 52 53 52 52 53 54 54 54 53 54 55 54 53 52 53 55 54 53 53 53 55 53 56 91 154 187 194 204 205 194 188 186 181 180 177 172 169 170 177 183 184 198 217 215 199 183 177 171 164 161 174 185 201 200 189 195 198 210 200 195 196 189 181 179 177 179 189 197 191 194 195 194 210 195 144 80 52 51 54 55 56 57 57 58 57 58 57 58 57 58 58 59 60 60 58 58 58 59 58 58 59 59 60 60 60 59 59 60 59 60 61 60 62 63 64 63 59 70 163 213 173 170 177 174 168 171 178 182 183 185 184 179 175 178 180 181 180 178 180 182 183 182 179 175 184 213 243 235 198 181 180 182 186 186 186 182 179 180 177 173 175 183 188 188 187 191 187 183 170 159 166 172 176 176 173 178 173 121 59 53 57 57 58 60 61 60 60 61 61 60 60 61 61 60 61 63 62 61 62 62 62 63 63 62 61 62 63 63 63 64 63 66 69 77 86 94 102 114 126 136 142 143 144 140 131 121 115 101 86 74 63 59 61 61 60 60 60 61 60 61 62 62 61 63 64 63 62 61 61 62 62 63 63 62 62 63 63 62 62 62 63 62 62 63 62 62 62 61 61 62 63 62 62 61 63 63 63 62 61 61 62 63 64 63 63 64 63 61 62 61 63 63 62 62 63 63 62 60 59 59 59 58 59 60 59 59 59 61 62 60 
51 53 53 54 53 52 51 51 53 53 53 53 53 54 55 54 55 53 53 54 54 53 52 52 54 55 54 53 53 54 54 55 63 113 172 191 180 176 184 194 195 192 186 182 184 180 172 170 170 179 183 187 205 216 212 203 193 183 170 161 171 181 181 184 172 169 174 180 189 186 181 173 168 172 177 180 193 211 192 179 184 186 200 200 166 98 55 50 53 55 57 57 59 59 57 58 57 59 58 57 57 57 58 60 60 59 59 59 59 59 59 60 61 58 59 59 60 60 59 61 62 61 62 63 63 61 61 58 119 219 188 161 167 172 171 169 173 180 184 185 182 179 183 183 180 181 181 181 180 179 177 179 185 188 183 179 192 225 242 209 189 188 188 188 186 181 179 179 176 177 181 187 185 186 196 203 200 187 175 166 164 170 176 174 172 174 155 96 52 56 58 59 59 60 61 60 59 60 62 62 62 63 62 61 62 63 63 61 61 63 63 64 64 63 63 64 63 62 65 71 81 97 115 132 141 147 160 177 188 192 195 195 196 198 196 194 193 186 169 154 133 102 77 63 60 59 59 58 58 59 60 62 63 63 63 61 61 61 61 62 61 62 63 63 61 61 62 61 62 63 63 61 62 61 61 61 62 61 62 63 61 61 62 62 62 63 63 63 62 61 63 62 63 62 61 63 64 62 62 63 64 64 62 63 62 62 62 60 59 60 60 60 61 62 62 62 62 62 62 61 
52 51 50 52 54 53 53 53 52 51 52 52 53 53 53 52 52 54 54 54 55 56 55 53 53 53 53 54 54 55 56 54 72 133 183 186 174 166 167 174 179 179 182 185 181 182 181 180 175 177 180 179 203 242 240 211 195 194 196 184 166 174 184 183 171 169 188 200 195 187 176 168 166 167 169 175 182 194 196 179 168 168 187 203 181 116 63 50 54 56 56 56 57 57 58 58 58 59 58 59 60 58 58 60 59 58 59 60 60 61 61 60 61 61 60 60 60 59 58 59 61 61 60 60 60 61 64 57 80 202 220 170 161 173 181 176 169 173 183 189 194 189 188 187 181 181 180 181 181 178 176 178 182 186 181 164 157 173 219 235 207 201 197 186 180 179 179 177 177 187 197 196 193 196 204 204 195 194 191 184 179 178 176 174 176 170 127 68 52 57 59 59 58 60 60 61 62 62 62 62 62 62 61 61 63 63 62 62 63 62 63 63 64 64 63 63 69 79 95 115 137 154 170 180 174 167 183 197 200 200 200 199 204 209 203 202 209 211 198 192 201 200 168 125 91 67 58 57 58 60 62 64 63 62 61 61 61 61 62 63 63 63 63 62 62 64 63 62 61 63 63 63 63 62 63 62 61 61 62 63 61 61 63 63 61 62 62 62 62 63 62 63 62 62 61 61 61 62 63 63 63 63 61 62 61 60 61 61 60 61 62 63 62 61 62 62 61 61 60 61 
53 52 52 51 52 53 52 52 53 53 52 51 52 52 51 52 52 53 54 53 53 55 56 54 54 55 55 55 56 57 57 54 80 148 190 187 175 169 164 165 172 175 183 200 206 195 186 183 181 177 173 164 168 210 238 230 220 218 209 184 153 146 159 184 180 171 173 200 208 190 178 179 181 182 182 181 181 184 192 193 185 186 194 202 189 130 70 50 54 55 56 57 55 56 58 59 58 58 58 57 59 58 57 57 58 58 58 59 61 61 61 60 60 60 60 60 61 60 60 61 61 60 59 59 60 61 63 60 57 145 245 208 172 174 179 176 169 170 180 186 189 190 186 181 179 180 182 182 181 180 183 186 185 180 176 176 171 156 157 176 187 202 217 210 192 184 183 186 189 191 188 185 192 204 209 199 186 186 187 182 177 176 173 172 174 152 94 52 55 57 59 59 60 60 61 62 63 62 62 62 62 60 60 61 62 62 63 64 63 63 63 64 63 65 70 83 107 134 158 176 191 200 200 197 195 193 192 194 192 195 198 196 201 212 214 208 210 211 201 190 198 225 227 208 189 153 103 68 59 61 61 61 61 62 62 61 61 63 63 62 63 64 64 62 62 62 61 60 61 62 61 62 62 62 62 61 61 62 61 61 60 60 61 62 62 62 63 64 62 63 64 64 62 61 63 64 62 62 63 62 63 63 62 63 62 62 61 62 62 62 63 63 62 60 60 61 61 59 60 60 
52 52 53 53 51 52 53 53 51 51 52 52 52 51 54 52 52 53 55 54 52 53 54 55 55 55 55 54 56 58 57 57 94 158 189 189 188 190 188 178 173 174 176 195 232 227 204 184 178 176 178 177 172 188 234 249 226 205 194 186 173 161 161 183 194 184 171 175 195 196 185 182 186 189 187 183 181 182 186 186 189 190 189 195 192 144 79 51 53 56 56 56 57 57 58 58 59 59 58 57 58 59 58 58 58 58 59 61 62 61 59 60 59 60 59 59 59 60 61 61 60 59 61 62 61 61 61 63 56 84 209 243 187 163 165 173 179 179 178 183 185 184 184 182 177 174 173 175 178 177 180 181 179 178 176 175 179 168 148 145 162 182 197 220 220 198 188 193 194 185 175 186 207 215 209 197 183 181 177 176 177 173 172 175 165 118 64 51 58 59 58 59 61 61 61 62 61 60 59 61 60 61 62 61 62 61 61 62 64 63 64 64 69 81 106 135 163 188 208 217 220 217 207 202 199 202 200 192 191 193 192 190 192 200 204 206 208 207 196 187 193 206 211 199 198 209 192 141 90 64 58 60 61 61 61 62 63 65 65 63 63 64 64 62 61 62 62 63 63 62 61 61 62 61 62 62 61 61 60 60 61 63 63 62 63 62 62 64 63 63 63 62 61 62 64 65 64 63 64 63 63 63 63 63 63 64 63 62 61 61 62 61 61 62 61 61 61 61 61 61 
53 53 52 53 53 52 53 53 51 51 51 52 51 51 53 54 53 52 53 53 54 53 54 56 56 55 56 56 56 56 55 60 103 164 187 197 195 186 189 189 181 175 174 180 212 241 233 211 184 179 185 190 189 180 205 238 233 207 194 193 199 196 197 196 201 207 202 185 179 190 197 193 188 188 185 182 181 185 192 192 189 187 185 189 194 154 85 52 54 57 57 56 57 57 59 59 58 58 59 60 60 60 61 61 60 59 60 61 60 60 60 60 61 61 59 60 60 60 61 60 60 61 62 62 63 63 64 64 64 56 129 239 221 171 160 168 172 171 172 178 183 183 181 180 178 175 176 175 171 171 177 180 181 180 180 179 178 177 175 169 164 165 170 185 203 213 211 200 187 179 184 202 214 204 193 193 182 179 181 178 173 166 170 173 142 83 51 57 57 58 60 61 61 60 62 61 61 60 60 61 60 61 63 64 63 62 62 62 63 63 65 75 97 127 159 187 202 212 221 225 219 209 208 203 195 190 190 185 184 189 188 185 187 193 196 199 202 196 188 182 177 193 201 192 188 189 198 202 172 114 70 59 59 59 60 60 61 62 63 62 62 62 61 61 62 63 63 64 64 64 62 63 62 63 64 63 64 65 63 62 63 64 63 62 63 64 63 63 62 61 62 62 62 62 62 62 63 64 63 61 61 62 62 61 61 62 62 62 62 62 61 61 62 62 61 62 62 61 63 63 
54 53 53 52 53 52 52 52 52 51 51 51 53 53 53 53 54 53 53 54 54 55 55 54 54 55 56 57 56 56 57 62 110 167 182 190 199 193 186 183 180 177 179 176 179 201 223 230 214 196 193 199 205 192 178 198 217 210 200 194 195 204 218 221 212 206 212 206 182 186 207 206 196 191 186 181 180 179 179 185 186 187 187 188 192 158 91 54 54 57 58 58 57 58 59 59 59 58 59 61 60 59 58 60 61 61 61 61 60 58 59 60 60 59 59 60 60 58 59 60 60 61 62 62 62 62 65 66 66 59 68 177 246 206 163 158 165 172 172 168 172 178 180 180 182 186 183 180 174 173 174 174 177 179 180 178 177 179 183 183 173 172 173 172 173 185 206 215 200 181 181 194 199 192 186 183 177 173 174 170 164 167 173 155 101 55 51 58 57 57 59 60 60 61 60 60 61 62 62 63 63 61 62 63 63 63 65 64 64 66 81 109 143 173 198 216 221 221 219 212 197 178 167 163 173 178 174 184 190 187 186 187 190 193 196 198 200 197 190 192 199 196 204 205 201 201 198 194 197 183 135 83 59 58 61 61 61 60 61 62 61 62 62 63 64 64 62 61 62 63 62 63 62 64 65 62 63 63 63 63 63 63 64 64 63 64 63 64 64 62 62 62 62 62 61 60 62 63 63 63 62 62 61 62 61 61 61 61 61 62 61 61 61 62 62 62 60 60 62 62 
52 50 51 51 51 51 51 52 52 52 52 53 53 53 54 53 53 55 55 55 54 54 55 57 57 57 57 56 57 59 57 62 112 170 182 174 169 176 179 174 172 177 180 179 176 179 183 191 216 218 214 216 212 198 175 166 179 198 207 201 190 184 190 200 204 192 187 211 209 188 191 194 187 183 181 178 179 182 179 182 180 177 182 187 193 161 91 52 52 57 57 57 57 57 57 59 60 59 58 60 61 60 59 58 60 60 60 59 61 60 60 60 59 60 60 60 61 60 59 61 62 61 62 61 61 63 63 64 64 63 55 88 202 240 195 162 160 162 167 168 164 168 177 180 182 188 183 179 183 188 181 170 170 175 175 173 171 173 175 173 178 186 182 174 171 172 186 212 225 207 178 164 169 180 184 180 177 172 166 161 163 173 166 117 64 48 55 57 59 59 60 63 63 63 61 62 63 64 63 63 63 64 63 62 63 64 66 65 71 89 121 153 182 204 218 227 229 221 207 189 183 189 180 169 161 177 191 194 193 188 186 189 192 192 192 194 198 200 198 198 199 200 208 211 201 198 201 191 181 190 194 159 97 63 59 61 61 61 61 63 63 62 62 63 64 62 61 63 63 62 61 61 62 63 62 61 62 61 61 63 64 64 64 64 62 62 62 63 63 62 63 63 61 62 63 63 63 65 64 63 64 61 61 63 64 63 61 60 62 63 63 63 62 61 62 63 63 63 62 61 
52 51 52 52 53 52 51 51 52 53 52 52 52 53 54 54 54 54 54 54 54 55 56 57 58 58 58 59 58 58 57 62 110 169 188 190 182 172 171 172 172 174 179 178 169 182 206 191 189 209 222 222 203 185 181 182 186 197 207 204 197 186 174 182 188 186 178 193 234 223 187 176 181 182 187 196 198 200 204 194 192 184 183 184 192 159 89 52 54 57 57 57 58 58 57 58 58 59 59 60 61 60 61 61 60 60 59 59 61 61 60 60 61 61 62 62 61 62 62 61 61 61 61 60 62 63 63 62 63 64 63 55 103 208 239 189 154 156 161 165 165 164 170 175 177 181 184 191 189 185 184 182 179 180 181 181 175 169 172 174 176 177 176 176 177 178 182 187 198 210 207 182 158 160 174 176 170 164 161 163 170 166 121 66 46 54 59 58 58 60 63 64 62 63 61 62 61 62 62 61 61 62 63 62 62 64 65 71 94 130 159 179 198 219 229 227 216 196 177 172 184 199 198 179 163 150 171 183 184 188 191 191 189 187 186 187 193 197 196 194 193 196 205 204 197 188 181 179 180 179 182 194 173 107 65 60 61 61 61 62 62 63 64 64 64 62 63 65 65 63 64 64 63 64 62 62 62 61 61 62 63 62 62 62 63 62 63 63 63 63 62 62 63 63 64 65 64 63 63 62 62 62 62 64 63 63 62 61 62 62 62 63 63 63 63 64 65 65 64 63 
53 54 53 52 53 52 53 52 53 54 54 53 54 53 54 55 53 53 53 55 55 55 56 56 56 57 58 58 58 58 57 59 105 166 182 190 197 187 176 173 172 171 180 189 176 163 175 182 190 211 203 199 188 181 189 199 204 205 204 202 198 192 179 181 199 210 208 191 204 227 204 180 186 197 203 205 209 203 196 193 192 192 186 182 185 151 83 50 53 58 58 59 59 59 60 59 60 59 59 58 59 58 58 59 60 60 61 60 60 61 60 61 61 60 61 61 60 62 63 61 61 63 63 62 60 61 62 62 64 64 65 62 53 115 218 235 184 154 154 160 166 166 160 163 168 174 178 183 184 184 187 190 188 186 184 185 189 188 180 175 180 178 174 181 189 188 186 187 185 180 184 194 186 164 157 163 163 159 162 166 161 122 66 43 51 59 60 60 61 61 60 61 60 62 61 61 62 62 62 62 64 66 64 64 63 64 70 93 131 161 176 178 180 199 211 202 184 175 183 197 196 185 184 182 177 167 150 159 169 180 189 189 181 178 185 188 188 189 191 189 193 197 200 204 207 201 189 179 176 177 176 180 193 179 109 65 60 62 63 64 63 63 64 64 63 64 64 63 63 64 65 65 64 64 63 62 63 62 63 62 63 64 64 63 64 64 63 62 62 64 63 62 64 63 62 64 63 62 62 63 62 63 63 63 62 61 62 63 63 63 62 62 62 61 62 62 62 62 62 63 
53 55 54 53 52 53 54 53 52 53 54 54 53 53 53 54 53 55 55 54 55 55 55 55 57 58 58 57 57 59 59 57 95 162 180 175 174 172 168 167 173 179 180 183 190 174 156 150 163 209 219 191 185 189 196 207 214 221 224 219 205 194 184 179 197 207 199 190 185 204 210 202 202 207 206 195 187 183 181 185 184 186 183 181 182 142 76 50 55 57 57 58 60 60 61 60 61 60 58 58 60 59 59 58 61 62 62 62 61 59 58 59 60 59 60 61 61 61 61 60 61 62 62 63 62 62 63 64 64 63 63 64 61 61 123 215 234 183 153 154 162 163 158 162 165 167 174 178 178 181 186 187 185 186 185 183 184 190 187 177 175 177 178 177 182 183 182 182 180 176 168 173 197 194 168 156 154 161 167 158 117 64 43 49 56 59 59 61 63 62 61 62 62 62 61 63 63 63 62 63 65 65 65 65 64 71 93 128 159 176 180 184 170 161 169 175 179 190 201 203 191 176 174 186 189 191 176 157 162 176 182 183 178 178 185 189 186 186 186 183 185 190 193 195 198 201 196 185 176 175 178 173 176 194 180 105 63 60 62 62 63 63 62 62 63 63 63 62 62 64 65 63 62 62 63 62 62 62 64 64 63 64 64 64 63 64 65 64 63 64 64 64 65 65 64 62 63 64 62 61 63 63 62 62 61 63 64 64 64 64 64 62 61 62 63 61 61 61 61 64 
53 53 53 53 53 54 53 53 54 54 53 53 54 52 54 54 54 55 55 54 54 55 56 57 58 57 58 59 58 59 59 56 84 155 179 186 185 179 173 170 175 195 209 196 195 198 176 162 150 164 221 214 195 201 206 211 220 224 228 230 214 198 190 176 177 188 184 192 198 207 215 207 198 195 190 187 180 176 177 176 178 177 176 183 179 126 66 48 54 55 56 57 58 59 59 59 59 59 60 59 61 60 60 60 62 61 60 59 60 60 59 59 60 61 60 60 62 61 61 61 61 61 62 63 64 63 64 63 63 63 63 63 65 62 59 112 202 237 198 159 148 156 164 165 166 162 163 168 173 177 179 179 178 180 180 180 179 179 179 178 172 175 178 176 173 171 168 168 169 173 175 173 174 182 180 169 164 168 154 110 58 42 48 56 59 60 61 62 62 63 62 63 63 64 63 64 63 62 62 63 63 63 64 64 68 88 123 149 157 172 193 216 208 169 159 178 193 190 183 179 180 181 184 192 199 195 188 166 156 164 170 177 185 185 182 185 187 189 189 185 184 188 189 189 192 194 195 191 184 175 170 167 166 170 192 165 93 62 61 63 63 64 63 63 64 64 63 62 64 63 63 63 61 61 62 62 61 61 64 64 63 62 62 63 62 64 64 63 64 65 64 63 64 64 62 61 62 63 63 63 64 64 62 62 62 64 63 62 62 63 64 63 63 63 62 62 63 63 64 64 
53 52 52 53 53 53 53 54 54 54 54 55 55 55 55 54 55 54 55 55 56 56 57 57 57 57 58 58 58 58 59 56 74 148 181 189 198 191 176 169 166 178 208 224 205 198 194 181 172 163 193 211 193 204 213 214 219 216 217 238 239 208 191 180 180 193 199 201 208 210 216 205 182 176 185 188 186 182 176 169 172 171 171 182 172 107 56 49 56 57 57 58 58 59 59 57 58 59 60 61 60 60 60 59 59 59 59 60 61 60 61 60 61 62 62 62 62 62 62 63 63 62 62 61 62 62 62 63 63 63 63 63 64 65 63 58 96 175 226 207 165 150 159 162 158 154 154 164 169 166 166 169 174 178 177 176 176 175 177 176 171 170 172 173 169 166 161 157 160 167 169 172 170 162 165 170 169 148 98 51 39 48 56 59 61 62 62 63 62 63 63 63 63 63 64 63 63 62 63 64 64 64 65 66 82 119 152 164 162 176 193 218 239 212 174 167 174 174 171 172 179 188 191 194 199 197 187 179 160 152 155 165 180 182 172 177 191 191 188 188 187 182 183 187 187 189 190 189 182 175 170 164 164 166 173 191 149 80 62 63 63 63 62 63 64 63 63 63 62 62 61 62 63 62 62 62 63 63 63 61 62 62 63 62 62 64 63 62 63 64 63 62 62 62 62 62 63 62 63 64 63 63 63 63 62 63 62 61 61 62 63 64 64 63 63 63 64 64 65 65 
54 53 52 53 54 54 54 54 55 54 55 56 55 56 55 54 54 55 56 56 57 57 56 57 57 57 58 57 58 59 60 58 63 123 176 180 187 181 168 161 161 165 176 197 206 192 190 187 185 184 187 201 186 189 205 207 201 194 189 211 243 224 197 188 197 208 206 203 198 198 211 217 196 178 185 189 192 195 193 186 177 175 176 182 154 85 50 53 58 58 59 58 59 59 59 59 59 60 59 60 59 59 60 58 58 59 60 60 61 60 62 61 60 60 61 62 61 62 63 62 61 61 61 60 61 63 63 63 64 64 63 64 63 64 67 66 58 72 133 198 210 190 166 151 149 151 154 164 165 157 157 165 172 171 169 170 171 168 172 170 163 161 167 169 168 168 167 163 161 157 152 158 169 175 172 158 125 77 42 38 49 57 60 62 62 63 62 63 62 63 64 63 63 62 63 63 63 64 65 65 65 64 65 77 112 151 171 178 184 193 195 192 223 240 204 166 165 179 185 183 179 192 201 194 186 191 193 194 179 161 162 163 168 178 181 182 192 190 186 186 187 181 180 181 183 184 185 188 186 182 182 176 168 168 171 182 185 122 71 61 62 62 62 62 63 65 65 64 63 64 62 62 64 63 63 62 63 62 62 62 61 62 63 63 61 63 63 62 62 63 63 63 64 64 64 64 63 63 63 64 62 62 64 64 63 61 61 61 59 60 62 63 62 62 63 64 64 64 65 64 
53 55 55 55 54 53 55 55 54 54 55 56 55 55 56 55 55 56 56 55 57 57 57 58 58 57 57 58 58 58 60 61 57 93 162 177 183 191 182 170 167 172 176 172 173 179 185 186 181 176 182 209 209 183 179 185 181 178 177 181 212 234 211 192 188 200 196 192 187 186 201 221 213 191 184 180 181 189 198 199 192 180 182 182 129 64 48 55 58 59 60 60 60 61 60 61 61 60 60 58 59 58 58 59 59 60 60 59 60 59 61 62 61 61 61 61 62 62 63 63 63 62 61 63 62 62 63 62 63 63 64 62 63 64 64 66 66 61 58 85 152 201 199 173 159 156 153 152 155 157 160 163 164 160 155 155 161 159 159 163 160 163 165 168 169 168 162 163 173 171 163 170 175 162 137 94 49 31 39 50 57 60 61 62 63 63 63 63 63 61 64 65 64 63 63 63 64 65 64 65 65 63 70 97 141 169 176 177 183 189 196 195 199 233 240 206 183 189 197 191 182 190 197 190 187 194 201 199 194 181 174 173 165 164 182 191 191 191 189 187 188 186 184 182 181 184 187 190 190 186 185 185 174 164 166 165 179 168 101 65 62 63 63 63 64 65 65 64 65 65 63 63 64 63 62 60 60 61 63 64 62 61 62 62 61 62 62 63 63 64 63 64 66 64 64 64 62 62 63 63 62 63 64 64 63 62 63 60 60 61 63 64 64 63 64 66 65 62 64 63 
55 57 58 56 55 54 54 55 56 55 55 56 55 54 55 55 56 56 55 57 59 57 58 57 57 59 58 58 59 58 60 61 57 71 144 177 178 185 178 166 165 171 178 178 173 172 178 184 191 183 174 195 224 197 169 168 171 180 197 200 202 237 229 197 174 170 186 190 189 188 190 198 201 193 192 192 184 178 175 174 177 176 183 172 103 52 49 57 58 57 59 60 60 60 60 59 59 61 61 61 61 60 59 60 60 60 60 61 61 61 62 63 63 62 63 62 63 63 63 62 64 63 63 63 62 61 62 63 62 63 62 63 64 65 64 65 64 64 62 54 62 100 154 185 188 182 175 165 160 160 159 153 148 152 156 153 154 163 156 157 159 161 159 156 162 169 168 169 175 180 176 164 139 99 59 34 31 42 54 60 62 63 63 64 64 63 63 63 62 62 63 62 63 62 63 63 64 64 64 64 64 65 83 122 158 168 172 178 184 187 192 199 195 208 241 235 203 194 199 195 189 190 194 192 195 198 200 197 194 189 178 175 176 169 170 184 183 186 191 190 192 189 186 184 185 187 189 191 189 186 181 177 173 164 163 163 169 181 137 80 61 61 63 64 64 64 64 63 64 63 62 62 62 61 63 63 62 62 62 64 64 63 63 62 63 62 63 64 64 66 65 63 63 63 63 63 63 63 64 63 62 63 63 63 63 64 64 62 63 64 65 65 65 65 64 63 63 63 62 64 
56 56 55 56 56 56 55 55 56 56 55 55 55 55 55 55 56 57 56 58 59 58 58 57 57 59 59 59 58 59 59 60 59 58 112 176 177 178 180 174 169 168 171 181 184 183 181 179 191 196 185 177 199 214 190 179 185 192 205 208 201 222 242 207 184 170 178 188 192 193 191 190 189 186 189 202 202 195 194 187 169 171 177 140 70 49 54 57 59 60 59 59 60 61 59 58 58 60 60 61 61 61 61 61 60 59 60 61 61 62 61 62 61 59 60 59 59 61 60 60 61 60 62 63 63 62 61 63 62 62 62 64 65 64 64 65 64 64 64 64 59 52 63 96 136 169 187 186 178 176 168 156 150 157 166 162 152 159 158 153 156 161 165 163 167 173 179 178 167 149 125 92 59 36 28 38 51 56 61 63 63 63 64 64 64 64 64 64 64 63 64 62 63 63 63 65 65 65 65 65 64 72 103 145 166 168 171 175 189 196 198 201 198 188 215 244 228 198 191 189 191 198 199 198 195 195 195 195 196 197 188 176 173 171 158 158 160 163 176 182 189 192 185 183 185 189 191 193 192 188 184 178 175 170 161 159 160 170 160 103 65 59 62 64 65 64 63 63 62 63 61 63 62 62 62 64 65 63 63 64 64 64 64 63 64 63 63 63 63 65 64 63 62 63 63 63 64 64 63 63 63 64 64 64 61 64 64 64 64 65 65 64 62 63 64 63 62 64 62 65 
56 55 53 54 56 56 55 55 55 56 57 56 57 56 55 55 57 57 56 57 57 57 57 57 57 57 57 58 58 58 58 60 61 56 75 156 183 176 187 196 188 178 169 169 176 178 177 176 175 175 174 177 183 211 208 194 196 198 194 191 186 193 229 230 205 181 165 175 187 192 191 191 193 186 175 181 192 187 187 192 179 172 156 91 49 52 57 57 58 60 60 60 60 61 60 59 59 59 59 60 59 60 60 61 62 61 61 60 59 58 57 57 58 58 60 62 64 64 62 61 58 56 55 56 58 60 62 62 64 63 63 63 64 63 62 65 65 65 65 65 65 63 57 50 54 78 111 138 156 171 175 171 168 170 177 181 175 169 167 164 168 175 177 169 162 155 142 124 100 72 46 29 26 35 47 57 62 61 62 63 62 62 62 62 62 62 62 63 64 62 64 64 64 66 64 64 63 64 64 64 64 85 127 159 167 178 191 186 185 194 200 201 198 185 183 222 240 206 185 192 194 199 199 196 198 196 194 196 198 198 194 178 162 155 148 145 154 151 153 156 159 178 183 178 179 188 193 194 193 189 186 182 180 174 163 163 163 158 161 125 75 59 60 62 63 62 61 63 63 64 62 64 64 64 63 63 65 64 63 63 63 63 64 64 64 64 64 64 63 64 64 65 63 62 63 63 63 62 62 62 62 62 63 63 62 63 64 64 63 63 63 63 62 63 63 64 63 63 63 64 
56 54 56 55 55 56 56 56 56 57 57 56 57 56 57 57 56 56 58 58 57 57 58 58 58 57 56 57 58 59 59 58 59 58 54 105 182 186 183 196 196 183 174 169 172 175 168 169 182 176 178 185 189 200 212 197 182 184 185 183 180 180 198 221 210 189 170 171 181 187 188 182 190 208 204 184 190 193 180 172 173 170 115 52 46 56 57 59 60 59 59 61 61 60 59 61 61 61 61 60 60 60 60 61 62 62 59 59 62 67 74 84 96 105 113 117 115 115 116 115 108 101 93 82 69 59 57 57 61 63 63 64 64 64 63 63 64 65 65 66 66 66 67 64 55 48 47 56 72 89 106 119 127 133 139 146 149 145 142 140 138 133 124 110 94 79 62 45 32 26 29 37 46 54 61 64 66 62 63 63 63 64 63 63 62 62 62 62 63 64 65 63 63 65 64 62 61 62 63 62 70 105 149 168 172 182 193 194 192 196 201 202 195 184 170 185 227 232 200 194 195 197 199 199 201 203 200 199 199 194 188 182 177 174 167 164 175 175 163 156 145 147 164 179 183 190 196 194 191 188 185 182 180 176 172 174 176 168 170 153 97 64 59 60 61 61 61 62 62 63 64 64 63 63 62 62 63 64 64 64 64 63 64 64 63 63 63 63 63 64 64 64 62 63 64 65 64 63 63 63 62 62 63 63 64 65 65 64 64 64 64 64 64 65 64 65 65 65 64 62 
54 55 57 56 56 55 55 55 56 56 55 55 56 56 56 57 56 56 58 58 57 58 59 60 60 59 58 59 60 59 58 59 59 60 56 63 138 189 176 176 191 186 178 179 179 181 181 167 188 200 195 192 189 189 206 200 177 175 185 186 186 184 184 204 220 219 208 190 184 185 195 193 182 198 226 211 185 187 181 172 173 147 71 44 53 58 59 60 61 60 59 60 60 60 61 61 61 62 61 60 62 61 61 59 58 61 68 82 102 118 129 134 136 141 146 147 144 144 147 151 150 150 151 151 144 124 99 73 57 54 59 62 63 64 64 64 63 63 63 64 66 65 67 66 66 62 57 49 43 40 41 44 48 53 58 62 64 64 64 61 57 51 42 35 29 26 25 29 35 43 53 59 61 62 63 63 64 63 62 62 64 64 65 66 65 64 63 62 62 64 65 63 63 63 63 62 62 62 63 62 82 127 163 170 179 192 189 188 195 200 199 199 196 186 174 168 202 245 229 193 192 196 196 193 191 198 198 193 190 190 186 188 193 196 191 178 175 183 180 173 170 157 147 163 183 187 187 191 192 187 183 182 181 179 177 175 177 180 187 180 124 74 59 61 61 61 62 63 64 63 65 65 62 63 63 63 63 64 64 65 65 64 63 63 64 64 62 64 64 63 63 63 63 63 63 64 65 65 65 64 64 63 63 64 64 65 64 65 66 66 66 65 65 65 63 64 64 63 63 64 
55 56 55 56 56 55 55 56 56 57 55 55 57 58 55 55 57 57 57 57 58 58 59 59 58 58 59 60 59 59 59 60 60 62 62 55 74 155 191 174 177 196 192 181 175 179 198 190 181 198 193 187 182 180 191 201 190 176 179 185 186 186 184 197 217 221 208 189 178 171 181 211 210 181 191 219 191 165 171 174 153 86 45 52 59 60 60 59 59 60 61 61 61 62 62 61 61 60 59 60 61 60 59 61 72 93 116 132 137 138 139 129 120 119 120 122 124 126 127 128 128 128 132 143 158 166 163 150 121 84 59 55 59 61 61 62 64 63 63 63 63 64 66 64 63 63 64 64 60 56 51 46 40 36 33 31 30 31 31 29 30 28 30 32 35 40 46 52 57 60 63 64 64 64 64 64 64 65 62 62 64 65 66 65 65 65 63 63 62 62 64 65 64 63 63 64 65 64 63 65 95 144 168 165 168 182 191 191 197 197 194 195 196 192 185 177 184 222 245 211 190 189 184 182 183 183 182 178 181 193 204 197 185 183 187 185 174 173 183 185 183 183 166 151 169 180 180 186 192 188 184 185 184 180 176 172 172 172 176 184 147 85 60 61 63 63 64 65 65 64 63 66 64 66 65 65 65 63 62 65 65 62 62 63 63 64 63 64 64 64 64 65 66 64 63 63 65 65 65 64 65 64 63 63 63 65 63 64 64 64 64 63 63 64 63 64 64 63 64 65 
57 56 56 57 54 56 57 58 57 56 56 57 57 58 57 57 58 58 56 56 57 56 57 57 56 57 59 58 57 58 58 60 59 60 60 59 52 93 169 190 170 174 185 176 166 163 181 195 181 176 170 165 172 176 181 196 204 193 180 179 183 183 182 184 188 193 189 173 175 186 180 188 218 215 181 183 188 169 171 159 94 43 48 58 59 60 60 60 60 61 61 60 60 60 61 61 61 60 61 62 59 61 73 96 121 138 141 135 122 118 120 114 109 106 105 106 107 109 110 108 107 108 111 111 114 123 139 162 180 170 129 84 59 57 61 62 63 64 64 64 64 64 64 63 62 64 65 65 65 64 63 61 59 57 55 52 50 50 50 50 51 51 53 55 58 60 62 63 64 64 64 64 65 64 64 65 65 66 64 64 64 65 64 63 64 65 64 64 63 64 64 63 65 64 64 64 65 65 62 70 111 159 172 165 170 177 182 192 199 197 194 194 192 188 185 181 172 185 231 243 201 183 181 179 177 175 175 178 182 190 202 205 190 176 175 182 183 174 176 183 184 185 186 170 164 177 186 188 188 187 187 188 186 184 178 169 164 155 154 175 165 103 63 59 63 62 63 65 65 65 63 64 65 65 65 64 63 63 63 63 63 62 62 64 64 65 64 65 65 64 65 64 65 65 65 65 65 64 63 63 63 64 65 64 64 63 65 63 63 63 63 63 63 65 65 65 65 65 65 64 
56 55 57 56 56 57 57 57 56 57 57 56 57 57 57 57 57 57 58 58 56 56 57 58 58 59 59 58 58 58 58 59 58 59 59 61 60 57 94 162 185 160 150 164 174 170 170 179 174 165 165 162 162 167 168 173 184 188 180 172 170 171 169 173 177 182 206 201 180 200 211 186 187 214 201 166 165 172 152 93 43 47 58 61 60 60 59 60 60 60 59 58 59 59 59 62 62 63 62 62 65 87 119 139 139 128 121 121 119 115 111 105 100 95 87 86 88 90 91 90 89 92 101 112 116 115 115 121 138 168 187 170 115 69 57 61 63 64 64 65 64 63 63 64 64 65 65 65 65 66 65 65 64 63 63 62 61 61 63 62 62 63 65 64 64 64 65 64 64 65 66 66 65 64 65 64 64 64 64 64 64 64 64 64 65 65 64 63 63 65 64 63 65 67 65 64 64 63 61 76 126 173 176 168 179 190 188 191 195 195 193 191 189 183 181 181 173 169 193 226 207 174 171 172 173 179 188 188 184 180 181 191 192 182 176 183 189 188 183 178 183 184 190 189 172 178 189 190 186 185 186 186 184 182 179 170 159 152 149 168 172 117 67 58 63 62 62 63 64 65 63 64 64 64 64 63 62 63 62 62 63 64 64 63 63 64 65 65 65 63 64 62 61 64 66 66 64 64 64 64 65 66 67 66 65 63 64 64 64 65 64 64 65 64 65 65 65 64 64 65 
57 55 56 57 57 56 57 56 56 57 58 57 57 57 57 58 57 57 60 60 59 59 59 59 59 59 58 59 59 60 60 59 59 59 61 61 63 59 53 88 154 186 162 146 166 179 175 170 162 168 184 185 166 161 154 150 156 162 163 164 159 158 166 172 175 175 197 225 194 170 181 184 175 177 179 169 160 138 83 36 42 57 59 60 61 59 59 59 60 61 59 58 59 61 60 61 63 61 59 73 102 130 139 127 113 111 116 116 111 103 99 98 97 95 88 86 93 98 99 100 97 90 88 95 109 118 118 113 113 125 144 179 192 138 76 55 59 63 64 64 63 63 64 65 65 64 64 65 65 65 65 64 64 63 61 61 63 62 63 65 64 66 65 64 62 63 63 63 64 65 66 66 65 66 65 64 64 63 63 63 64 65 66 66 65 64 63 63 64 66 64 64 65 65 66 66 66 64 62 85 139 176 172 163 172 179 182 189 194 192 188 182 182 183 187 189 182 173 181 202 200 181 175 177 186 190 187 180 176 175 175 179 186 189 186 188 191 197 195 187 184 189 191 200 190 183 187 187 185 186 186 185 184 181 179 178 162 153 152 163 170 123 71 57 63 64 64 63 64 65 66 66 65 66 65 65 64 64 63 64 65 65 64 63 62 63 64 64 63 64 65 64 63 63 64 64 64 64 64 65 67 67 65 65 64 64 65 65 63 64 64 65 65 64 64 64 65 65 64 65 
57 57 57 57 57 56 56 57 57 58 57 57 58 58 56 58 59 60 60 59 59 59 59 60 60 59 58 58 60 60 61 61 61 60 60 60 62 62 58 56 78 136 186 184 152 149 166 173 171 165 173 171 163 162 166 159 150 152 161 170 168 161 166 170 172 168 170 197 204 173 158 167 170 165 166 161 120 64 38 43 55 59 58 58 59 59 60 59 60 62 61 60 61 62 61 62 61 60 83 117 142 137 118 107 108 110 108 104 103 104 109 109 103 106 105 104 115 126 125 119 114 108 98 91 91 99 112 115 116 119 117 129 167 195 162 95 58 59 62 63 64 64 64 65 64 65 63 64 64 65 65 65 63 64 64 63 64 64 63 64 65 66 64 65 64 64 63 63 64 66 66 67 66 65 64 64 65 65 64 65 65 65 65 66 65 63 63 64 66 66 67 67 66 64 65 66 66 65 64 94 149 178 173 170 171 173 178 188 191 190 187 179 176 179 185 189 187 176 181 218 237 210 189 187 189 184 179 173 172 176 184 193 202 203 195 188 185 185 190 190 192 199 204 212 208 194 188 188 188 189 185 181 183 183 178 174 168 159 158 167 174 129 74 58 63 63 63 64 63 64 66 65 65 66 65 65 65 64 64 65 66 66 65 65 65 66 65 63 62 63 64 66 67 65 64 64 65 65 64 64 66 65 64 65 65 64 65 65 63 64 65 66 66 65 65 65 66 66 66 64 
56 58 59 58 58 57 56 58 58 57 56 57 58 58 58 59 59 59 59 58 57 58 59 60 60 60 59 58 59 58 59 60 60 60 61 61 62 62 62 61 56 65 109 163 183 167 146 156 189 182 160 158 165 162 174 191 173 146 155 170 168 162 167 169 167 164 162 165 185 184 170 163 167 167 146 98 49 35 50 58 60 59 60 59 58 59 59 60 61 61 61 62 61 61 61 61 63 88 131 150 136 120 116 116 113 108 101 101 111 117 114 114 107 109 120 130 136 138 136 131 124 115 107 100 96 94 96 109 118 117 117 116 120 155 204 184 106 58 58 63 63 63 64 65 64 65 64 64 65 64 64 64 64 64 65 63 64 65 64 64 64 64 63 64 66 65 64 64 64 65 65 66 66 65 64 65 65 65 64 65 65 66 65 65 65 64 65 67 65 64 66 66 66 65 65 67 66 64 65 104 159 182 178 184 189 188 185 184 184 185 185 185 184 185 187 189 188 179 175 207 254 242 199 186 178 176 174 174 177 189 201 201 200 206 206 194 186 182 186 187 193 205 215 218 211 198 190 188 187 187 185 182 181 183 178 166 161 162 163 169 181 140 78 58 62 62 63 64 64 65 65 66 65 63 65 64 64 65 64 64 65 65 65 66 66 66 65 65 63 62 64 65 66 65 65 65 65 65 65 66 65 66 65 64 65 65 66 66 64 64 64 65 65 65 65 66 66 65 65 65 
55 56 58 59 59 58 57 57 58 57 57 58 57 58 58 59 59 58 59 59 58 58 59 60 59 59 60 60 60 59 59 60 60 59 60 62 61 61 61 62 61 56 54 75 125 168 172 160 163 171 163 164 170 170 168 190 197 167 151 163 164 155 151 151 151 152 150 148 153 164 168 162 142 106 65 37 37 52 61 61 62 60 62 61 60 60 60 60 61 61 60 60 60 61 60 61 90 132 150 134 119 118 120 115 108 104 108 115 125 125 114 112 108 109 119 130 128 125 125 129 126 118 113 109 103 103 97 95 112 118 118 117 115 116 153 212 194 108 58 58 61 62 64 64 64 64 64 64 65 64 62 62 63 63 62 63 63 63 64 64 64 63 64 64 65 64 63 62 62 64 64 64 66 66 66 67 67 66 65 65 66 65 64 64 64 65 65 66 66 64 64 66 66 66 67 67 67 64 66 110 168 185 180 188 196 194 190 184 185 185 181 177 180 185 188 190 191 188 182 188 226 255 226 193 183 173 176 184 192 198 199 193 186 191 197 195 186 185 189 191 186 198 213 213 205 197 191 189 187 186 187 189 187 186 183 174 162 158 162 167 181 146 82 57 62 63 63 63 65 65 68 66 64 64 65 65 63 63 64 65 66 66 66 66 64 64 65 66 66 65 65 65 65 65 65 66 66 66 67 66 65 66 67 64 64 66 65 65 64 65 65 65 65 64 63 65 65 65 65 67 
56 56 56 56 58 57 57 57 59 59 59 58 58 59 58 59 59 58 59 58 58 59 60 61 61 60 61 61 60 61 60 61 59 58 60 61 60 60 61 60 59 60 58 55 57 77 117 149 165 168 161 148 144 153 155 158 175 183 165 156 161 160 150 142 140 141 147 156 164 164 141 103 64 38 35 45 55 60 60 59 60 61 63 63 61 61 61 62 62 62 62 61 61 62 61 84 133 156 136 117 116 114 108 101 102 108 115 122 135 140 136 128 120 119 133 138 129 121 123 124 122 121 120 115 109 111 111 95 97 117 125 121 116 113 115 161 222 196 98 54 59 61 63 64 64 63 63 64 65 64 63 63 63 62 63 64 65 65 66 65 64 64 65 65 65 64 64 65 65 65 65 65 65 66 68 66 66 64 65 65 66 65 65 66 65 65 65 66 65 63 65 65 65 66 65 65 66 64 66 113 171 184 172 178 183 178 181 185 186 185 185 178 175 179 184 185 188 191 186 175 185 233 252 215 193 190 194 198 195 187 186 189 186 179 181 191 189 185 186 191 186 182 202 203 191 188 187 189 190 190 191 193 191 189 187 180 170 167 170 174 182 146 84 58 63 65 65 64 65 65 66 65 64 66 66 66 65 64 66 66 66 66 66 65 65 65 66 65 66 64 65 66 65 66 66 68 68 67 66 66 64 65 66 66 64 64 65 66 65 66 67 67 67 66 64 65 65 64 65 67 
57 58 57 56 56 57 57 56 57 58 59 60 59 59 60 60 60 58 57 58 58 59 60 59 59 60 60 59 60 61 60 61 61 61 61 60 61 62 63 62 61 62 62 62 59 52 52 66 95 128 149 154 152 153 153 147 147 152 150 146 151 157 161 162 168 170 169 157 131 94 57 34 33 42 52 60 61 61 59 60 60 59 62 62 62 61 59 61 61 61 62 62 62 62 73 121 153 141 121 120 117 108 101 101 107 118 121 119 129 147 156 154 150 141 145 151 142 127 119 116 114 116 120 119 119 124 125 113 96 106 122 121 113 111 114 122 176 226 177 82 56 60 61 62 63 64 64 64 64 65 66 66 64 63 64 65 66 66 65 67 66 66 66 67 67 66 66 67 67 66 66 65 65 66 66 65 66 65 66 67 65 65 66 66 66 67 67 65 64 64 65 66 63 65 66 65 67 65 66 114 175 185 164 165 169 167 172 180 181 182 182 176 173 175 180 183 185 187 185 175 168 201 252 242 201 197 198 194 187 184 184 185 185 187 194 204 203 187 183 182 187 178 177 189 184 181 185 189 192 192 193 195 192 192 190 187 183 176 175 178 185 149 86 59 62 63 64 65 65 65 65 65 66 67 67 66 66 66 65 65 66 66 67 66 67 67 67 66 66 65 64 64 66 66 67 68 67 65 65 67 65 64 64 65 65 65 67 67 65 66 66 66 65 65 66 66 67 66 67 66 
59 58 57 57 57 58 59 58 57 58 59 59 58 59 60 58 59 58 57 58 58 59 59 59 59 59 60 60 60 60 61 61 61 62 61 60 61 62 62 61 62 63 62 62 63 61 58 51 49 53 64 82 101 121 134 142 147 145 139 141 150 154 152 146 138 122 92 64 42 32 35 44 54 60 61 60 60 62 60 61 62 60 60 60 60 59 59 59 62 63 62 61 61 66 103 147 148 118 114 118 117 111 110 115 124 133 136 131 129 139 146 148 148 141 136 140 137 127 118 115 119 127 131 132 127 126 129 129 114 99 113 120 115 110 113 115 131 189 220 147 67 57 60 63 63 65 64 64 64 64 65 65 64 65 65 66 65 64 66 66 66 67 69 66 67 66 65 65 65 64 64 65 65 65 64 67 67 67 65 67 67 66 64 65 66 66 66 66 65 65 66 66 65 65 66 67 66 63 65 112 179 192 168 166 172 175 176 178 180 180 180 173 169 171 177 184 188 189 189 188 181 184 219 255 225 192 187 185 184 181 181 186 197 205 207 204 208 198 181 178 178 178 165 177 192 188 185 188 192 195 196 196 195 194 192 180 166 162 165 175 186 150 87 59 62 63 63 63 65 66 65 66 66 67 66 64 63 64 66 66 66 64 65 66 67 67 66 65 65 65 65 65 67 67 66 66 66 65 65 66 65 66 65 64 65 66 65 66 65 66 67 66 65 66 65 66 66 66 65 63 
59 57 58 60 59 58 57 58 59 59 59 58 57 59 59 57 58 60 60 60 59 60 61 62 61 60 61 62 61 60 61 61 62 61 62 62 61 61 61 62 62 61 61 60 59 61 63 61 57 54 52 49 47 48 50 56 61 62 61 61 63 62 56 49 44 40 37 39 43 50 55 58 60 61 61 60 59 60 60 61 62 63 62 62 62 61 61 60 60 61 61 61 62 84 133 148 125 115 115 115 114 111 114 126 138 146 152 152 146 142 146 144 131 122 121 126 131 134 133 137 147 153 153 146 132 124 128 127 113 104 116 125 121 115 113 116 119 142 191 193 103 55 60 63 62 64 65 65 64 63 62 62 63 64 65 66 66 64 66 65 65 66 66 64 65 65 66 65 65 66 65 66 64 64 65 65 65 66 65 67 68 67 65 66 65 64 64 65 65 64 66 66 63 63 66 66 67 64 61 106 175 192 168 172 181 180 176 175 179 181 180 176 175 176 178 185 192 195 194 191 184 173 180 236 252 212 193 181 175 180 189 198 205 209 207 200 200 200 190 189 181 172 178 178 178 181 184 189 195 198 199 198 195 191 190 174 142 147 165 177 185 145 81 58 63 64 63 64 66 67 67 67 67 68 65 65 66 66 66 65 65 65 65 64 66 68 66 67 67 67 68 68 67 67 67 65 64 66 67 66 65 65 67 67 67 66 65 66 66 66 65 67 68 67 66 65 65 67 66 65 
56 57 57 58 58 58 58 59 59 58 59 60 60 60 59 60 59 59 59 61 62 61 60 61 61 61 61 61 62 62 59 58 60 62 61 61 61 60 60 62 62 61 61 62 60 59 59 61 61 60 61 60 58 54 50 46 43 41 41 41 40 39 40 43 47 51 53 57 61 61 60 59 59 60 60 59 60 61 60 61 61 62 61 61 61 61 60 61 60 61 62 61 70 110 142 127 107 113 115 116 116 118 121 128 144 157 160 154 146 136 131 133 122 117 120 125 129 135 145 153 158 160 154 142 134 126 128 130 114 100 116 130 129 121 115 116 119 123 158 203 153 68 56 62 63 62 63 63 64 63 61 62 64 65 65 64 64 65 66 67 67 68 66 65 64 65 64 64 64 66 68 68 67 66 65 65 65 66 66 65 65 66 68 68 67 66 66 67 67 66 64 64 62 65 67 67 69 69 61 98 176 203 169 162 175 175 172 173 179 181 184 185 184 183 185 188 191 190 190 189 187 181 174 199 249 240 200 191 190 197 201 202 205 209 205 196 194 199 202 202 199 179 174 177 175 179 185 189 194 196 199 198 195 192 190 183 169 168 175 185 185 133 73 57 63 63 64 64 66 66 67 66 66 67 66 68 68 67 67 67 68 69 68 66 66 68 69 68 66 67 67 67 65 65 65 66 65 66 68 68 66 66 65 66 67 66 66 66 66 66 66 66 66 65 64 64 66 68 68 65 
57 58 57 57 58 59 59 59 59 59 59 60 60 60 60 60 61 60 59 60 61 60 60 59 60 61 61 61 62 61 60 60 60 62 61 62 63 63 63 63 63 63 62 62 62 61 59 61 61 60 61 61 61 60 61 61 60 59 58 58 57 59 58 60 59 60 61 62 62 61 60 60 61 61 59 58 60 61 61 61 61 63 63 62 61 61 60 61 63 63 62 63 88 136 142 112 108 112 114 120 128 134 130 126 142 168 173 158 152 145 136 135 131 126 121 121 133 145 147 148 147 144 143 143 140 136 135 147 147 120 108 122 128 124 118 116 118 119 136 184 192 105 58 61 62 62 62 62 65 66 64 64 66 66 65 64 65 66 65 66 67 67 67 66 65 66 66 65 65 65 66 67 67 66 66 66 66 66 67 66 65 66 67 66 66 66 66 67 67 68 66 62 62 65 65 67 67 67 60 84 164 213 180 159 172 177 176 177 179 181 183 184 181 179 179 181 186 186 185 185 187 187 177 174 216 254 218 199 202 208 207 202 196 194 195 199 205 208 206 202 195 190 174 166 158 169 183 189 190 194 198 199 196 193 192 186 179 179 173 181 178 121 68 58 64 65 66 67 67 66 67 65 66 67 67 67 69 69 70 70 70 68 68 69 69 68 69 67 67 68 67 66 67 67 68 70 69 68 68 67 67 67 65 64 67 66 66 65 66 66 66 65 65 66 66 66 66 64 65 64 
59 60 60 59 58 59 60 59 59 60 59 60 61 61 60 59 60 62 62 62 60 61 62 61 60 60 60 62 63 62 62 62 61 60 60 61 60 58 57 57 59 58 57 58 59 59 58 60 60 60 61 61 59 59 60 61 61 61 60 60 59 60 60 61 60 61 62 61 62 61 61 61 60 60 61 61 62 62 61 61 62 62 63 63 61 61 62 62 61 61 61 71 115 154 140 107 111 116 117 128 134 129 123 122 133 150 154 150 152 148 142 148 152 154 148 136 139 151 149 148 157 155 141 137 143 144 144 145 145 144 122 114 126 129 124 124 122 116 118 152 200 148 69 59 62 63 64 64 65 66 65 65 64 64 65 64 65 65 65 65 64 64 65 65 66 68 68 66 65 65 66 67 65 66 68 67 67 66 66 67 68 67 65 65 66 67 67 67 67 66 66 65 64 64 64 67 66 66 60 74 152 218 193 156 156 158 163 170 178 179 181 182 180 178 178 180 183 184 185 186 186 184 179 173 190 245 248 213 199 202 202 197 191 192 202 209 202 193 189 193 192 192 182 178 175 165 172 185 188 190 194 197 195 192 191 194 190 187 187 187 167 108 66 61 66 66 66 67 66 68 69 68 69 69 68 68 69 68 69 69 67 66 66 67 69 68 66 66 67 69 67 68 69 68 69 69 67 67 67 66 68 67 67 67 65 67 67 65 65 66 67 68 67 66 67 68 67 65 64 65 
59 59 58 57 59 58 59 58 58 59 59 59 60 60 61 61 60 61 62 62 60 61 62 63 62 60 61 62 61 61 60 59 59 59 60 65 68 79 91 90 82 79 78 72 66 61 57 56 55 56 57 59 60 60 59 59 61 61 60 60 61 60 59 60 59 60 61 61 59 60 60 60 60 61 61 61 62 61 60 62 61 60 61 61 61 61 61 62 62 61 62 86 139 154 132 116 105 109 113 121 123 118 119 127 131 134 139 147 155 146 133 132 130 125 129 129 127 135 155 167 173 178 164 138 138 145 151 156 142 144 150 126 127 137 134 135 134 123 116 133 188 179 88 57 62 63 64 65 64 65 65 63 63 65 65 64 65 67 67 67 66 66 66 66 68 67 67 66 66 66 66 67 66 66 66 66 68 67 67 66 67 66 66 67 67 66 66 65 65 65 66 64 62 64 65 66 67 69 64 68 141 230 217 160 152 158 164 168 175 179 179 182 182 178 176 180 185 187 189 189 185 185 190 190 183 211 253 236 204 193 188 188 196 202 202 194 184 180 183 188 196 194 185 177 186 184 179 184 188 186 188 191 192 192 190 192 194 191 189 187 156 94 62 64 66 65 65 66 67 68 69 68 68 68 69 67 65 64 64 65 65 67 66 67 65 63 61 61 62 65 67 67 66 66 65 64 64 66 67 66 66 66 67 66 66 66 65 65 65 66 68 68 66 66 67 66 66 65 65 64 
58 56 57 58 58 58 59 60 60 59 58 59 60 59 60 62 62 60 60 60 60 61 63 64 64 63 62 62 62 64 72 86 106 121 123 127 129 135 161 184 175 159 159 159 150 139 120 96 77 63 57 55 57 58 59 60 60 59 59 58 59 60 61 60 60 61 62 61 59 60 60 59 59 60 60 59 60 60 60 61 61 61 62 61 61 63 62 61 63 61 68 108 154 141 109 113 103 109 113 113 119 117 117 127 139 142 144 150 155 149 141 145 151 136 126 129 127 134 162 170 161 175 191 164 134 135 142 146 146 143 162 160 133 126 133 143 143 131 120 124 164 187 111 59 58 61 63 64 65 66 66 64 65 67 67 67 65 64 65 66 67 67 65 66 68 67 66 67 67 66 66 66 67 66 66 64 65 66 66 65 65 66 67 67 67 67 66 66 65 65 64 64 63 64 65 66 68 70 68 61 116 219 240 174 150 159 161 162 169 179 182 182 181 177 173 172 177 181 184 184 183 185 187 190 179 177 225 253 220 196 194 195 194 192 188 189 191 189 187 188 192 198 199 188 174 181 191 192 190 188 186 189 192 193 194 192 188 185 185 179 131 76 59 62 65 65 65 66 67 69 69 67 67 67 68 72 80 94 111 126 139 148 153 154 150 141 126 109 91 75 67 63 63 66 67 67 67 67 68 66 65 64 65 66 67 67 65 65 66 68 68 66 65 66 66 66 64 63 65 65 
57 56 57 58 59 59 60 60 59 59 59 58 60 60 59 60 61 61 61 62 62 61 60 60 61 62 65 76 98 121 141 157 170 183 182 156 135 136 150 168 177 177 178 181 185 193 196 186 173 151 118 82 61 54 56 58 58 58 58 57 57 58 59 60 60 62 62 62 62 63 62 62 61 60 60 60 60 62 62 62 61 62 62 62 60 61 63 63 61 59 75 124 161 132 99 105 110 120 125 119 123 124 117 118 132 143 143 147 154 144 130 136 146 157 165 175 169 145 144 156 145 142 177 191 156 133 142 145 146 149 157 172 164 134 127 149 157 141 124 122 152 190 138 66 57 60 63 63 65 65 65 65 65 66 67 68 67 65 65 66 65 65 66 67 65 66 66 66 65 66 67 66 66 66 67 67 65 66 67 66 66 67 67 67 67 67 67 67 67 66 65 65 67 66 67 67 67 68 70 61 88 185 255 206 150 153 162 167 165 171 183 184 182 180 179 179 180 183 185 184 181 183 184 187 185 180 204 249 243 205 190 190 189 191 196 199 197 192 187 186 189 193 195 195 175 167 178 189 192 190 187 187 189 190 191 190 186 181 186 173 112 67 61 64 66 69 69 70 70 69 68 66 73 87 115 147 176 197 208 211 212 214 215 216 218 220 221 220 210 190 158 116 83 65 63 67 68 67 67 66 67 66 67 67 68 66 66 66 67 67 66 66 67 66 65 66 64 64 64 65 
59 59 59 58 58 59 59 59 60 60 60 61 60 59 60 60 61 60 60 61 63 62 61 61 66 83 112 145 168 186 193 186 176 167 158 148 144 154 166 172 175 177 173 170 171 170 175 176 174 179 191 179 142 101 70 55 55 58 59 59 59 59 60 59 59 61 60 62 62 62 61 62 62 61 62 61 60 60 60 61 62 62 64 64 63 63 63 64 62 60 83 137 156 117 98 109 111 109 112 114 123 131 131 127 130 137 136 132 132 130 127 132 134 140 158 182 190 152 121 130 140 134 144 171 169 142 141 149 155 148 148 159 173 168 156 165 174 157 127 115 140 187 157 72 57 61 63 64 66 66 66 65 64 65 65 65 67 67 65 66 65 66 66 66 65 66 67 68 67 66 67 66 67 66 67 66 65 66 66 66 65 66 67 67 67 66 66 67 66 67 68 69 68 66 67 68 69 68 70 66 69 141 244 236 161 139 153 159 168 176 183 186 184 183 180 177 175 176 181 185 185 187 188 191 201 200 189 211 249 237 204 194 199 202 199 190 183 184 183 184 187 192 196 196 194 173 167 181 192 193 191 189 189 191 191 191 186 183 183 151 89 61 63 67 68 69 69 70 69 69 78 102 148 188 207 210 202 189 179 175 172 170 172 171 167 163 163 168 183 209 227 227 203 158 106 70 62 65 67 67 68 68 67 66 67 67 67 68 67 65 65 66 67 66 65 65 65 65 64 64 
60 59 60 59 59 59 60 61 60 60 61 61 60 59 61 61 61 61 61 61 61 62 70 89 118 147 168 183 194 197 192 177 165 164 168 175 183 186 186 192 196 189 178 173 172 165 156 158 158 162 180 196 197 191 163 115 73 56 56 58 57 59 60 60 59 59 60 60 60 60 61 62 62 61 62 62 62 60 59 61 62 62 63 64 64 63 63 63 61 62 95 154 159 109 95 102 106 108 109 114 125 133 138 140 141 140 137 129 123 116 117 124 129 137 148 152 158 144 128 130 143 148 144 145 145 141 148 151 153 146 143 158 166 177 187 189 181 159 129 114 129 176 166 81 54 60 63 64 65 65 65 66 67 66 65 64 64 65 65 65 66 67 67 65 65 67 68 67 66 66 67 67 67 68 68 66 65 67 67 66 66 65 65 65 65 66 66 67 66 66 67 67 66 66 68 69 70 69 69 69 62 104 207 253 201 144 150 159 167 176 180 184 183 182 181 178 177 177 176 179 183 184 186 190 191 189 184 181 202 230 234 214 196 188 184 183 185 184 181 188 195 206 216 212 201 183 168 175 189 194 195 193 192 193 192 188 182 184 173 117 68 62 66 68 69 69 69 68 77 105 149 190 210 210 196 190 192 197 206 217 222 222 221 221 216 207 197 188 178 169 166 179 207 232 224 177 113 69 61 67 68 65 66 66 67 67 66 66 67 66 65 65 65 66 66 65 65 66 65 64 
60 59 59 60 61 60 60 59 59 60 60 61 61 61 62 62 63 62 63 61 65 84 115 146 168 180 188 192 190 184 170 161 169 177 184 191 196 198 203 208 203 193 185 176 167 164 170 180 193 191 191 191 184 193 205 197 157 102 62 51 56 57 57 58 59 59 59 60 60 59 59 61 62 62 62 61 62 62 61 60 63 63 63 63 61 62 62 62 60 64 105 170 169 116 101 110 118 117 115 116 122 133 139 143 149 144 129 123 127 124 123 128 128 136 145 136 130 132 133 132 143 160 167 154 136 139 159 164 153 141 131 150 166 176 189 189 174 154 131 116 123 170 171 86 52 60 63 63 63 63 64 64 66 67 66 65 66 65 66 65 67 67 66 66 65 66 66 67 67 67 67 66 65 66 67 68 67 65 65 66 67 67 67 66 67 68 68 67 67 67 66 66 68 68 69 70 68 69 69 70 64 74 150 251 240 172 142 158 162 161 170 179 182 181 182 183 182 180 175 174 181 187 188 188 187 186 184 186 179 196 239 243 208 187 184 185 185 188 194 199 205 206 204 197 187 180 164 169 189 198 198 195 192 191 189 184 183 186 153 82 59 64 68 68 68 67 72 94 140 183 205 206 201 203 212 224 239 246 247 246 246 246 246 246 243 238 229 216 212 217 205 186 173 181 212 240 224 161 96 63 63 67 67 67 67 65 65 65 67 67 66 65 65 67 66 65 65 65 65 63 
59 59 59 61 60 60 59 59 59 61 61 60 61 61 61 62 63 62 62 75 105 145 173 180 178 177 179 176 166 163 174 182 188 189 187 195 203 209 212 208 193 182 180 177 181 192 208 212 212 207 203 203 199 197 195 195 201 191 146 87 59 55 58 58 58 59 60 61 62 61 61 60 60 61 61 62 62 62 63 62 62 63 64 64 62 63 64 64 61 65 106 170 165 112 103 120 131 127 116 113 115 126 134 140 157 169 153 133 126 123 123 128 136 143 144 137 130 133 134 129 130 148 175 176 144 133 151 164 159 144 131 135 143 162 186 186 169 151 127 111 121 166 172 90 54 60 64 64 63 64 66 65 65 66 65 65 67 68 67 67 67 67 65 66 67 66 65 64 65 65 66 65 67 66 68 67 67 66 66 67 68 68 68 68 68 68 68 68 69 69 67 67 69 69 68 68 68 69 69 69 68 62 94 192 255 216 145 144 156 160 171 179 181 182 184 185 184 181 179 177 176 181 185 190 190 191 194 194 188 178 206 246 237 199 187 189 195 206 212 211 197 186 181 182 184 193 184 172 184 200 201 197 192 188 186 182 186 173 112 63 61 67 69 69 69 81 118 171 202 205 202 210 223 238 249 242 225 233 244 247 246 245 245 246 246 240 228 212 210 228 228 219 213 200 188 200 229 242 208 135 76 62 67 66 65 64 64 64 64 65 67 66 66 67 66 64 64 64 63 65 
59 59 58 59 58 59 60 61 61 61 60 61 61 60 60 62 62 65 85 119 158 183 186 181 180 174 164 160 169 183 188 190 184 178 192 207 212 216 213 195 174 168 172 185 208 219 217 218 215 199 183 193 211 217 208 195 181 183 201 184 115 66 58 59 59 57 58 60 61 62 61 60 60 61 62 63 61 62 62 64 63 61 63 62 63 63 63 64 61 64 108 170 159 104 98 110 114 111 110 111 115 126 141 151 165 182 184 169 149 130 123 130 137 146 142 128 122 139 155 149 134 130 136 145 142 139 144 156 160 149 142 152 150 155 173 173 156 140 122 105 118 164 170 90 52 59 63 64 64 65 66 67 67 66 66 66 66 66 66 66 66 66 66 66 67 68 67 65 65 65 66 66 68 67 67 66 66 67 67 68 68 67 66 66 67 67 66 65 66 66 66 66 67 67 67 67 67 68 70 72 71 66 64 114 227 253 197 146 152 163 173 181 182 183 184 185 185 187 188 183 182 183 181 183 188 190 191 188 180 175 183 224 252 227 198 203 214 216 208 199 194 193 195 204 215 215 202 183 183 197 198 194 192 187 183 184 182 135 71 60 66 69 68 70 92 140 185 205 208 219 239 247 230 212 228 228 213 227 244 249 247 246 246 247 248 241 224 223 238 240 226 205 200 212 217 207 206 227 253 240 169 88 63 67 67 67 66 65 63 65 67 67 66 66 66 66 65 64 62 63 
60 60 60 61 61 61 62 62 61 59 60 62 63 62 63 62 68 99 138 165 175 177 172 164 162 166 173 184 193 190 183 185 190 186 196 211 212 207 195 177 172 183 194 205 218 220 214 210 207 192 173 187 203 205 198 194 189 182 185 204 192 125 70 56 57 58 59 60 60 61 61 62 62 62 62 63 62 63 63 62 61 61 62 63 65 64 64 64 60 63 107 170 158 109 107 116 125 123 110 110 115 127 148 158 152 144 146 158 155 135 121 125 140 140 133 127 129 142 156 155 142 137 139 137 136 142 147 149 147 145 138 153 175 169 164 158 136 115 107 104 119 167 170 88 53 60 62 63 64 66 67 66 65 65 66 65 66 65 66 67 66 65 67 67 67 66 65 65 67 67 67 67 67 67 67 67 66 66 68 68 67 66 66 68 68 67 67 66 65 66 68 69 67 67 67 66 67 68 69 70 71 71 65 75 154 251 247 184 160 169 172 168 166 173 180 183 183 186 190 190 186 186 192 186 180 186 188 192 194 192 187 191 221 241 222 205 199 192 184 184 204 227 234 227 222 217 205 190 184 192 196 190 189 186 184 184 153 84 60 64 68 69 68 91 145 192 205 211 231 250 251 243 241 238 239 228 227 243 252 248 245 247 247 246 244 239 223 224 236 234 218 211 217 211 198 201 208 213 229 252 248 192 98 65 65 66 67 66 66 67 67 67 65 64 65 66 65 65 65 64 
60 61 61 61 59 60 60 59 59 60 59 61 62 62 61 70 106 147 183 201 198 187 180 180 183 185 190 191 191 194 192 192 205 217 217 203 193 190 187 192 199 206 212 214 216 214 206 192 189 189 184 192 198 196 193 191 190 192 187 179 200 202 140 73 55 58 58 59 60 61 60 61 61 60 61 61 60 61 62 62 62 62 62 63 63 63 63 65 63 64 106 169 162 113 115 130 125 114 111 108 109 116 131 142 137 127 131 151 160 140 129 129 127 128 127 128 130 135 142 143 143 149 151 140 129 130 142 149 146 141 132 136 169 181 161 138 122 120 124 116 126 173 166 84 53 60 63 63 65 65 65 65 65 65 66 67 67 67 69 68 67 66 67 67 68 67 67 67 66 66 67 68 68 69 69 69 68 68 67 67 67 68 69 68 68 68 68 68 68 67 68 69 68 68 68 66 67 68 69 67 67 69 69 66 85 180 253 228 160 157 164 162 165 166 172 181 188 190 189 190 195 193 190 201 201 196 195 197 207 200 187 175 196 237 234 196 182 187 200 220 230 230 224 210 207 217 215 198 186 188 191 189 185 184 184 158 97 59 62 66 68 68 93 142 185 204 220 242 255 254 249 234 230 244 232 230 245 251 248 246 245 245 245 245 244 241 229 220 217 207 207 215 220 210 198 192 199 212 222 235 250 254 201 98 62 66 66 66 66 65 65 66 66 66 66 66 66 64 64 65 
58 60 60 60 58 59 60 59 60 60 59 61 63 62 73 110 156 184 207 225 228 211 201 203 196 182 180 190 192 196 202 203 206 205 198 188 190 199 202 202 204 212 220 221 217 209 192 180 191 196 187 187 194 193 189 189 188 185 183 177 181 205 210 140 70 57 57 57 58 60 61 60 59 60 61 62 61 62 61 61 63 63 62 61 62 63 64 64 62 63 103 171 169 117 103 117 117 112 113 112 112 113 113 121 129 127 126 143 157 144 135 152 149 137 129 120 115 122 134 140 144 150 150 141 131 128 137 154 154 143 139 136 148 165 156 135 125 137 155 149 148 183 161 74 53 61 63 63 64 65 65 66 66 66 66 67 67 67 67 69 69 67 67 67 66 67 67 67 67 67 67 66 67 67 67 68 68 70 70 68 69 68 68 67 67 68 68 67 69 70 67 68 68 68 68 67 68 68 67 67 69 69 69 67 64 95 202 254 215 163 158 166 170 166 159 164 176 186 190 190 193 194 193 191 196 196 197 196 196 191 184 179 186 221 248 213 190 216 232 231 222 207 203 204 204 208 210 198 187 187 186 184 184 183 162 102 59 60 67 70 68 90 143 186 205 220 240 254 254 249 237 232 236 232 225 234 250 253 248 249 249 246 245 245 246 245 240 230 224 219 219 223 215 212 215 207 204 213 216 216 238 254 252 196 94 63 64 65 64 64 64 66 67 66 67 67 65 64 65 65 
58 58 60 61 61 60 60 62 62 62 62 62 61 72 114 166 188 201 213 220 227 224 217 213 206 191 183 191 198 195 193 198 200 191 181 187 204 211 199 191 205 222 225 224 218 202 190 194 212 208 191 191 194 198 196 196 201 200 191 187 188 183 200 205 132 68 57 58 58 59 60 59 60 62 62 61 60 62 62 62 63 64 62 61 64 66 65 65 63 61 94 167 182 130 112 110 110 112 108 109 114 113 108 113 124 126 119 117 123 131 152 171 162 143 137 127 120 129 138 137 140 148 146 137 134 138 143 148 147 145 144 148 154 150 139 144 149 137 125 130 161 192 149 63 54 61 64 66 66 66 67 67 67 66 65 64 65 65 66 66 66 66 66 64 64 65 65 65 67 67 67 66 67 67 67 68 68 69 70 70 69 66 68 69 68 68 67 67 68 70 68 68 69 70 69 68 69 68 67 69 70 70 70 71 68 63 94 204 254 226 170 154 156 158 159 161 171 182 188 190 193 193 194 198 193 191 193 195 193 197 196 189 180 191 231 243 200 197 221 214 204 194 198 200 197 191 193 192 187 182 179 181 182 161 107 58 56 64 68 68 79 129 184 210 228 244 251 252 252 243 217 216 236 225 228 247 253 247 232 214 213 234 251 250 244 241 243 242 236 234 232 226 225 220 215 215 218 211 197 194 217 243 251 254 183 85 61 63 64 64 64 64 64 64 64 65 66 65 65 66 
59 60 60 60 61 62 62 60 60 61 62 62 65 93 144 186 197 201 213 212 215 226 229 224 218 213 208 204 200 193 186 185 184 187 195 200 201 200 203 207 216 222 222 216 205 195 197 212 223 211 186 187 191 195 199 200 202 202 197 192 188 177 182 221 205 118 67 57 59 59 58 58 60 60 60 61 61 60 61 63 64 63 64 64 64 65 66 66 65 60 82 151 188 136 115 115 103 96 98 106 114 116 114 118 128 130 122 114 113 131 172 189 155 130 134 136 130 130 133 133 140 149 145 134 130 134 137 140 144 151 144 142 153 149 134 141 155 150 127 121 158 181 117 55 57 63 64 66 65 65 66 65 65 66 66 66 66 65 66 66 66 67 67 66 67 67 67 67 66 66 67 68 67 68 68 68 67 66 67 67 68 67 66 65 64 65 67 66 65 66 66 66 67 67 67 68 67 68 69 69 70 71 71 71 70 70 62 95 194 250 227 174 153 157 166 172 179 184 181 179 185 189 192 194 194 193 192 193 191 192 195 192 184 176 195 240 230 181 181 194 193 189 188 187 182 180 183 185 180 176 176 175 152 102 56 54 63 68 66 73 116 170 206 229 246 254 251 252 244 228 223 233 230 224 235 250 244 217 187 175 184 205 229 247 247 242 239 229 220 225 234 233 234 226 213 212 213 205 196 195 202 221 250 255 249 157 77 64 65 64 64 64 65 65 64 64 64 63 65 64 
60 60 61 61 60 61 62 62 62 61 60 62 85 123 151 174 200 214 216 219 218 224 229 230 232 231 219 205 196 187 176 178 185 183 189 193 195 202 215 224 226 222 215 202 196 205 217 230 231 210 188 187 190 192 194 195 194 191 191 190 181 170 181 214 231 190 103 59 56 59 58 58 61 62 61 62 62 63 62 61 62 63 64 65 64 63 64 64 65 61 69 125 186 149 107 111 106 108 111 112 120 122 119 121 131 134 127 121 117 126 162 183 161 131 124 130 129 126 131 138 142 142 137 127 119 120 124 127 134 145 136 132 141 150 154 165 161 138 120 132 167 159 80 50 59 65 65 64 65 66 67 67 66 66 68 69 69 68 67 67 67 67 68 68 68 69 69 67 67 67 67 68 69 69 68 67 67 67 69 70 73 76 80 81 82 86 93 94 85 78 75 71 68 68 65 65 67 68 69 68 68 70 70 69 70 71 70 60 77 165 240 241 191 163 163 172 175 171 167 166 171 175 181 185 184 187 189 188 187 185 183 182 180 172 167 196 246 222 174 177 184 185 181 177 175 174 173 170 172 176 168 137 86 50 52 62 68 70 68 102 161 201 226 246 254 252 251 250 233 215 235 248 236 224 234 230 198 172 170 188 212 213 189 187 214 227 221 201 184 191 213 224 224 224 222 216 211 215 221 218 209 203 227 254 255 225 122 66 62 64 65 66 66 65 65 63 62 62 64 64 
60 61 61 60 61 62 63 63 63 62 62 78 119 158 173 182 210 223 220 212 205 212 223 220 219 221 208 188 181 177 177 180 188 184 182 188 199 211 218 219 217 209 199 195 207 223 228 235 236 209 182 180 182 189 193 196 195 194 192 194 193 176 163 176 193 210 158 82 56 57 59 59 59 61 61 62 62 63 64 62 62 62 63 63 64 63 62 62 65 63 63 102 182 178 120 112 115 115 123 120 120 123 118 116 124 132 130 128 130 125 132 163 182 163 138 126 127 133 140 145 141 133 133 131 121 116 120 123 128 133 126 134 146 155 165 177 173 140 111 136 173 136 58 52 61 63 64 65 66 67 67 68 67 66 67 69 68 66 66 66 67 68 68 67 66 67 68 66 66 68 68 67 67 68 68 69 74 83 96 111 124 137 147 153 155 155 157 159 153 144 134 118 108 105 94 81 70 66 65 65 67 68 69 70 69 69 70 70 61 58 131 220 245 209 170 157 160 163 163 166 169 168 167 169 166 169 175 177 176 175 174 171 172 171 157 155 207 241 194 167 167 168 167 167 166 166 166 168 171 161 122 71 46 52 63 68 70 70 83 144 194 219 240 253 253 252 253 242 221 227 251 255 253 236 213 188 170 174 188 191 185 184 185 174 168 172 174 175 179 181 197 214 220 228 230 237 238 228 221 218 207 198 204 241 255 252 175 85 64 65 65 66 66 66 66 64 64 64 65 65 
60 59 61 62 61 61 61 61 60 61 70 105 146 160 175 192 199 212 224 214 201 203 215 213 208 213 211 199 187 185 188 187 188 190 189 193 206 216 219 215 203 189 187 201 219 229 231 230 228 204 175 173 180 186 190 193 194 195 194 199 210 198 174 166 166 193 195 120 64 55 58 58 58 59 59 60 60 60 62 62 62 63 63 63 63 62 62 63 65 65 60 84 171 211 144 121 126 124 120 118 113 114 117 117 120 129 132 127 130 138 131 130 151 156 151 133 122 127 140 148 146 137 132 130 125 123 125 125 131 139 134 137 140 142 154 152 135 117 116 156 172 106 45 57 62 62 65 67 66 65 66 68 68 68 67 66 68 67 65 67 67 68 66 66 67 69 68 66 67 68 67 67 68 74 86 102 123 150 165 177 188 192 188 179 175 179 181 176 174 174 177 176 173 168 163 149 125 98 78 67 65 66 67 68 68 70 70 71 70 61 53 86 162 223 228 193 165 160 163 162 161 163 160 162 162 163 170 170 165 163 161 156 158 165 165 157 168 216 227 179 150 152 158 158 158 159 167 167 142 94 54 42 51 63 68 71 71 70 110 178 210 231 249 253 250 249 247 236 222 239 255 252 240 219 193 186 190 193 197 199 193 192 212 215 179 156 161 192 228 234 214 218 227 233 235 238 242 233 215 205 195 187 193 219 251 255 223 127 70 63 64 64 65 65 65 66 66 66 65 65 
59 59 61 63 62 61 62 61 59 63 89 137 169 175 185 193 181 189 212 218 210 209 212 217 223 226 221 214 208 200 197 192 186 188 193 204 214 216 210 201 191 187 197 214 228 232 228 216 199 186 186 185 187 188 189 189 191 192 193 192 191 194 188 185 175 173 205 170 90 55 55 59 60 60 60 61 62 61 61 62 62 62 64 64 63 64 64 64 66 66 61 68 135 232 185 115 114 120 119 123 121 115 116 117 118 127 130 122 121 135 144 140 136 138 148 147 135 131 141 151 147 135 131 130 127 124 122 125 130 136 137 138 141 132 129 124 110 105 133 171 145 69 47 60 64 66 68 68 68 67 67 67 67 67 66 65 67 67 67 68 67 67 68 68 67 68 68 68 67 67 71 80 96 120 147 161 169 177 185 173 179 189 189 183 171 170 185 184 175 173 166 168 173 178 181 187 191 177 142 108 85 71 66 65 66 69 71 71 70 73 66 48 56 110 177 214 211 186 166 162 157 156 156 156 158 161 162 159 156 154 151 150 150 155 161 166 171 174 205 193 160 152 154 160 164 163 149 116 74 44 42 53 64 68 69 72 72 80 140 198 221 238 251 254 244 222 212 220 224 233 239 227 207 188 189 197 200 203 208 215 219 206 189 179 173 177 202 236 252 255 247 234 239 241 240 239 234 224 213 202 200 203 200 201 233 255 248 171 83 62 64 65 65 65 65 65 66 66 66 65 
58 60 60 60 59 61 63 63 63 82 123 156 165 173 188 188 182 179 188 205 212 202 193 198 217 231 224 215 218 212 200 198 196 202 209 214 214 206 195 191 197 207 214 220 228 227 214 198 181 181 189 192 191 190 191 193 193 191 192 190 188 187 192 190 188 180 196 205 134 68 54 59 60 59 60 62 63 63 63 62 63 64 64 64 63 63 63 64 65 66 64 61 86 191 236 141 98 103 105 116 131 124 112 111 114 117 119 120 127 135 139 143 141 137 148 158 153 151 155 153 142 131 128 127 127 128 123 122 123 123 123 130 151 152 130 110 105 122 160 162 94 44 56 64 66 67 67 67 67 67 67 67 67 67 66 67 67 67 68 67 67 68 69 69 67 67 68 66 68 79 102 127 149 169 180 173 162 160 187 188 179 192 194 196 187 175 186 186 179 190 181 172 176 184 182 181 185 190 184 170 154 125 89 68 62 65 69 69 67 69 70 68 56 46 62 108 163 196 197 189 179 165 160 157 155 156 156 151 152 150 144 152 162 156 148 155 168 164 155 166 163 162 162 156 138 112 77 48 39 48 59 68 69 69 68 71 70 102 168 209 228 243 252 253 240 214 202 203 196 194 195 191 185 189 192 194 200 209 214 218 230 239 228 207 192 181 187 218 245 253 251 233 231 237 239 238 232 224 219 215 214 213 209 202 212 247 252 202 110 66 64 66 66 65 65 64 65 66 64 65 
59 61 60 59 60 61 62 60 69 113 163 175 161 163 174 176 176 175 178 188 207 201 181 180 201 226 233 223 223 222 211 205 207 213 214 207 198 191 191 200 213 223 224 222 222 217 207 195 178 168 165 166 171 177 181 186 189 188 190 191 191 190 194 188 182 181 180 199 169 93 55 56 60 59 60 61 60 61 62 63 63 63 63 64 64 64 64 65 65 65 66 64 63 111 224 200 119 106 98 101 115 120 114 111 114 113 111 114 123 128 131 141 149 144 147 156 159 154 147 138 129 124 119 112 113 121 126 124 120 120 129 132 139 143 127 109 115 149 170 125 52 44 61 65 65 66 65 65 66 66 66 67 67 67 67 68 68 68 67 67 66 68 68 69 68 68 70 78 91 114 149 170 172 176 184 177 171 167 190 207 187 193 193 189 186 184 190 187 174 187 193 179 181 195 191 186 180 173 173 176 181 179 154 117 82 65 66 68 67 66 67 69 70 64 51 43 56 92 132 163 184 184 175 174 175 170 165 161 160 162 157 158 171 174 162 162 166 171 166 159 159 154 135 100 66 43 36 42 54 63 68 70 70 70 70 69 73 130 193 214 227 243 251 245 229 219 223 220 201 189 187 189 192 195 195 194 197 201 209 212 208 213 226 229 218 199 183 199 227 238 232 215 205 216 228 229 225 221 215 213 216 220 214 201 196 228 243 220 140 76 61 65 66 66 66 65 65 65 64 64 
60 61 62 61 63 62 61 58 78 135 185 195 187 178 179 183 185 183 179 183 190 195 187 177 181 208 235 236 225 226 220 211 205 201 198 193 191 192 195 203 214 220 219 214 204 189 170 153 139 132 129 130 135 143 148 155 168 181 187 192 195 192 187 188 184 178 175 192 196 126 63 52 59 60 60 61 61 61 62 62 63 63 62 63 65 65 64 63 64 65 66 66 62 68 150 234 178 125 106 100 105 113 116 113 111 113 114 112 116 121 127 135 150 143 144 157 162 148 129 118 118 117 112 106 104 109 119 118 119 129 144 143 122 108 103 111 143 171 144 72 40 55 64 66 64 65 66 65 66 67 67 67 67 67 67 67 68 70 68 69 69 68 69 69 67 71 89 121 145 158 174 181 170 171 184 196 200 186 184 200 189 183 188 184 180 183 185 182 179 185 185 175 178 197 199 190 177 174 179 176 172 178 187 182 151 103 70 65 68 68 67 69 68 69 68 60 48 39 42 60 89 112 130 147 162 167 166 164 159 157 163 165 162 163 164 159 151 147 143 123 98 79 60 41 35 41 52 62 67 69 70 70 70 72 73 70 82 153 206 217 227 245 253 240 221 215 213 208 203 200 197 193 195 197 201 201 200 200 204 212 210 200 192 191 193 199 209 208 200 200 203 199 183 179 197 218 224 219 213 215 220 214 202 192 188 209 228 222 162 85 58 62 65 66 67 66 66 65 65 65 
59 59 61 61 62 62 61 64 98 150 178 185 192 186 181 192 195 196 193 190 185 187 193 192 185 189 216 237 228 229 225 219 213 205 201 204 209 208 202 204 211 208 194 179 165 148 134 131 131 135 137 139 146 156 164 162 165 178 189 193 195 193 191 197 197 184 181 189 203 149 74 50 58 59 58 60 62 60 62 63 64 64 63 64 65 64 63 63 63 65 66 66 65 62 85 197 241 160 109 97 103 110 114 115 115 115 113 112 113 116 119 127 146 150 149 155 148 129 117 111 108 110 113 114 113 113 116 115 116 128 134 132 113 98 102 135 168 154 90 42 50 64 67 68 67 66 67 66 68 68 68 68 67 67 68 67 67 68 67 68 69 69 69 66 72 97 134 167 181 177 180 193 179 167 172 185 200 198 185 181 176 171 175 182 183 180 177 174 174 175 175 172 172 181 194 191 181 186 186 174 173 178 175 179 186 170 119 74 65 68 68 68 67 68 69 70 67 60 50 39 36 39 44 55 68 84 93 98 102 105 110 115 112 105 98 91 80 68 58 45 36 33 36 44 55 62 66 68 69 71 71 70 71 73 73 69 91 167 209 218 227 243 254 247 232 218 206 199 198 199 199 194 195 196 201 207 211 212 208 207 215 220 210 195 194 216 237 222 190 174 172 169 159 148 157 193 221 222 215 214 211 197 190 195 193 199 217 219 178 100 62 62 65 66 66 65 65 66 64 64 
59 59 61 61 62 64 61 72 120 170 176 165 171 178 182 188 191 203 218 212 201 201 211 212 205 198 213 237 239 234 228 222 221 219 214 218 223 219 210 208 201 184 165 154 150 153 157 163 170 177 176 176 182 195 213 217 200 184 187 194 196 194 193 202 213 197 182 186 200 166 92 53 56 59 59 60 61 62 63 63 64 64 63 63 64 63 63 63 63 65 66 66 67 65 60 105 217 232 147 97 94 106 117 125 129 125 114 106 105 110 114 118 126 134 134 132 120 110 109 113 116 117 115 112 112 114 116 118 107 114 117 109 99 104 134 169 158 97 46 46 60 65 67 68 67 67 66 67 68 67 67 68 66 67 68 68 67 68 69 67 68 67 66 74 106 149 180 187 184 176 170 182 188 172 174 186 194 190 181 178 178 178 179 181 183 181 176 175 175 174 173 176 177 174 174 177 183 194 192 181 179 181 179 177 180 189 187 131 78 64 66 68 68 68 68 68 68 67 65 62 56 48 41 35 30 29 30 31 33 37 39 39 37 33 30 30 31 30 32 37 44 51 59 66 69 70 70 69 69 70 70 69 70 72 72 71 103 176 207 215 224 233 240 244 242 227 208 198 198 196 197 194 195 199 201 202 208 213 211 209 213 222 225 217 210 227 242 222 204 202 179 161 162 172 166 169 198 221 218 214 212 210 209 210 201 190 205 218 193 118 68 62 66 65 65 64 64 65 64 65 
60 60 61 63 63 63 62 81 134 180 188 175 177 180 178 178 181 187 206 216 214 214 218 214 206 200 207 230 245 235 229 227 226 225 222 219 219 212 201 190 179 166 161 165 169 175 181 185 190 194 191 189 196 206 218 223 207 186 186 193 195 197 194 191 200 201 196 192 197 180 114 61 54 60 60 60 62 63 64 64 63 63 63 63 64 64 64 65 65 65 67 66 65 67 64 59 110 215 227 154 105 107 132 137 127 121 117 112 109 108 111 111 110 110 114 115 114 117 117 118 126 129 122 109 109 115 110 110 105 106 108 102 105 136 168 157 99 48 42 57 63 64 67 66 67 66 67 67 68 68 67 67 67 67 69 69 68 68 68 68 68 68 76 111 152 175 186 192 189 180 173 174 185 179 176 182 187 186 183 178 175 175 177 179 180 175 169 168 169 170 173 174 176 176 174 177 179 181 189 193 189 184 184 184 186 183 191 193 136 78 65 67 69 68 67 68 68 67 67 69 69 66 63 57 51 47 45 42 38 37 36 34 36 38 39 41 46 51 55 60 66 67 70 70 70 71 71 69 70 71 71 71 71 73 73 73 117 185 208 216 228 231 224 219 223 224 214 200 196 197 197 193 196 216 220 210 209 217 222 223 221 223 229 238 237 237 243 227 214 231 234 228 226 225 207 175 168 194 214 214 210 206 202 198 193 183 193 209 198 130 73 60 65 65 65 65 65 64 64 66 
59 62 62 63 62 61 63 93 145 178 182 181 187 192 187 179 178 178 181 189 196 208 218 212 193 181 186 204 228 230 229 229 227 221 215 209 203 192 178 166 163 169 176 181 180 180 188 200 203 194 185 182 193 210 214 200 183 180 187 194 195 196 195 189 187 191 194 192 196 190 134 69 50 59 60 60 61 60 62 63 63 63 63 63 65 65 65 66 66 66 66 66 66 67 66 62 57 106 204 231 175 122 117 123 117 111 110 112 116 112 104 104 105 106 108 111 111 111 115 119 122 120 115 111 114 118 111 101 102 102 100 114 146 168 146 87 44 42 56 64 65 65 67 65 66 67 68 68 69 69 69 67 68 68 68 69 70 69 69 68 68 88 122 159 177 174 171 183 190 179 169 172 176 178 177 177 177 180 180 175 167 168 175 179 178 180 178 171 170 167 172 171 168 172 174 177 181 183 186 187 185 186 187 184 183 175 168 189 194 141 80 63 64 67 66 66 67 69 69 69 69 70 70 68 68 68 67 65 64 64 63 62 62 64 64 65 66 68 68 67 70 68 69 68 69 69 69 69 69 70 70 72 72 72 71 74 125 192 212 219 226 228 222 215 212 215 215 206 197 199 202 198 197 225 245 239 232 237 241 236 233 232 231 238 249 246 246 247 246 254 255 255 248 234 220 199 172 166 189 204 196 182 177 177 185 187 193 206 200 137 75 59 64 64 65 64 65 65 64 67 
60 63 63 62 62 59 65 107 159 174 166 170 179 188 187 179 176 176 174 174 180 195 209 205 188 176 175 185 204 216 219 218 210 205 199 198 190 176 167 168 176 183 185 187 190 194 197 210 216 200 186 184 190 206 213 197 179 179 188 194 196 197 198 193 187 186 184 180 188 189 138 71 49 57 59 58 59 59 61 62 62 65 64 64 65 64 63 64 64 64 64 66 67 66 66 68 64 56 96 175 221 192 137 105 100 106 112 111 112 113 105 102 106 107 105 104 107 110 114 118 115 106 108 115 119 115 108 100 97 105 123 155 173 136 72 37 41 57 64 66 66 67 67 66 66 67 66 66 68 69 69 69 68 68 67 68 70 71 71 68 75 122 177 191 181 169 167 176 187 182 167 170 174 176 174 172 167 168 174 180 176 172 175 180 185 194 195 183 181 184 185 176 176 180 176 175 178 182 187 187 183 183 188 193 188 173 169 172 195 200 130 73 62 65 65 65 68 69 69 69 69 69 71 70 70 72 70 69 70 71 71 69 70 70 70 70 70 70 68 67 69 70 71 69 69 69 69 70 70 69 69 70 71 70 70 76 130 196 213 220 223 218 214 215 219 220 216 208 205 207 207 210 210 218 246 255 251 251 251 244 240 238 232 233 249 252 251 255 255 251 243 242 236 217 201 196 185 166 168 193 202 195 189 192 191 191 195 207 202 140 76 60 65 65 66 65 65 66 65 66 
60 62 62 62 61 58 69 117 169 174 158 167 182 182 174 171 176 176 175 176 176 180 190 195 191 183 177 180 193 204 201 197 196 200 198 194 183 174 176 184 192 195 197 200 205 207 210 212 211 199 188 190 193 191 197 196 182 175 183 192 195 195 195 194 187 189 189 178 178 182 136 72 49 55 58 59 60 61 62 63 62 65 64 65 66 65 64 63 65 65 64 65 67 67 64 67 68 63 55 70 137 207 216 174 124 102 106 111 107 109 108 105 110 110 108 106 110 117 116 112 107 104 109 115 113 105 101 104 116 141 164 157 117 63 37 44 59 65 66 65 65 65 66 67 67 67 66 67 68 68 68 68 69 70 69 68 69 70 69 74 111 159 188 196 191 173 165 172 180 180 176 176 175 172 168 173 181 173 169 181 185 181 180 184 191 198 193 180 179 190 194 190 194 189 177 176 176 174 175 182 186 185 188 193 188 170 167 170 175 199 182 111 71 64 66 66 66 67 67 69 67 67 68 69 69 69 68 70 70 71 70 69 70 70 69 69 70 69 70 70 70 71 72 71 69 70 71 72 71 71 71 72 70 72 72 77 136 201 215 219 219 212 210 217 228 231 220 210 218 220 218 229 239 231 235 247 253 253 254 252 247 241 234 230 234 232 231 230 222 215 206 203 211 214 203 198 196 181 169 184 209 219 218 221 211 193 192 202 195 136 76 61 66 66 65 65 64 65 66 65 
60 61 61 60 61 58 73 125 173 178 165 170 185 185 172 170 177 178 178 178 178 179 182 188 190 186 179 173 173 190 199 187 189 198 197 187 176 174 183 194 204 211 216 219 219 215 218 216 204 196 197 196 200 197 202 207 193 176 178 187 191 190 190 191 189 191 192 182 180 182 143 78 49 56 59 60 61 63 62 62 64 63 63 65 66 64 63 63 66 67 66 65 65 66 65 65 65 67 65 56 59 105 173 208 197 167 140 115 97 94 97 99 104 109 111 111 108 106 106 102 99 99 99 99 101 107 124 150 169 159 129 87 49 40 50 61 65 66 66 66 65 64 66 68 68 67 67 68 70 69 69 68 68 69 68 69 68 69 68 96 157 197 190 178 181 181 175 174 175 176 177 178 172 167 165 169 191 195 182 180 186 189 188 187 190 189 184 179 178 182 186 190 193 184 176 175 172 165 160 164 174 183 186 186 182 176 169 161 162 172 192 158 98 67 64 66 66 66 67 67 68 68 66 67 68 69 69 70 70 71 70 68 68 68 68 69 70 70 71 71 70 70 69 69 69 70 71 70 70 70 70 71 70 73 72 75 133 202 216 218 212 203 213 234 245 238 223 216 225 232 235 245 255 252 236 230 233 231 232 240 247 243 229 217 207 201 201 200 194 193 190 183 189 207 219 225 228 213 185 174 191 206 210 213 219 203 191 197 189 131 73 59 65 64 65 66 64 65 66 66 
60 60 61 62 64 60 77 137 182 183 171 169 176 180 178 176 178 179 180 180 181 182 183 187 187 178 163 150 144 156 180 175 170 174 174 172 166 165 174 190 206 217 221 223 224 223 218 205 191 191 208 213 209 216 221 217 193 167 168 183 190 191 190 191 190 187 188 187 191 192 152 83 51 56 58 59 62 63 64 63 65 64 64 64 64 65 64 64 66 67 67 66 64 65 67 66 66 67 66 66 59 54 71 110 156 189 198 185 154 123 106 97 94 98 103 105 99 94 96 97 99 105 114 123 136 154 166 164 142 92 53 40 43 56 64 66 65 65 66 67 66 67 67 67 67 69 68 67 69 70 70 70 69 68 69 70 70 70 81 129 175 195 191 173 169 172 175 176 176 173 169 170 182 186 184 179 184 191 184 182 189 193 190 187 187 186 184 184 183 183 180 178 176 174 172 172 173 172 169 165 165 174 177 174 169 168 162 152 161 166 179 183 135 82 63 64 67 67 67 67 67 67 66 67 69 71 70 69 69 69 69 69 67 67 68 68 68 69 70 70 68 69 69 70 71 71 70 70 69 69 69 70 71 72 72 70 119 193 211 215 210 208 226 249 255 244 228 222 230 235 240 248 249 245 230 216 222 227 222 220 229 236 230 219 205 202 205 202 199 198 196 196 197 205 225 247 253 246 222 184 171 182 192 197 200 198 190 196 186 124 69 58 64 65 66 67 66 66 66 67 
61 61 62 63 65 61 82 144 187 184 175 178 183 187 184 180 178 177 180 182 183 181 181 182 177 168 154 144 140 140 146 148 148 152 154 156 160 159 159 170 192 209 214 215 216 212 201 185 180 182 193 207 216 221 216 193 164 150 157 175 188 193 193 193 189 181 176 179 191 200 162 90 51 54 58 60 62 62 64 65 66 65 64 63 63 64 66 65 66 68 68 67 66 66 67 67 66 65 64 67 67 63 57 54 66 94 132 170 191 184 167 153 143 137 135 136 133 133 141 146 150 156 160 160 153 140 114 80 55 38 40 51 61 65 66 65 65 66 67 67 67 69 69 69 68 69 69 67 67 68 69 69 69 69 68 69 69 74 109 159 177 177 179 175 175 174 173 173 173 174 172 166 175 192 187 183 180 180 182 183 188 191 189 186 182 182 184 185 183 177 176 170 168 168 166 167 175 183 181 170 161 158 154 149 149 156 163 169 178 173 169 181 168 116 73 63 65 65 66 66 66 68 68 68 70 70 68 68 68 68 70 70 69 69 69 69 69 69 69 70 70 70 72 72 71 71 71 70 70 72 72 72 73 73 73 69 107 184 209 216 216 222 233 236 238 237 228 225 236 241 240 243 243 234 218 208 222 238 231 218 213 206 202 206 206 206 217 217 206 200 198 204 209 208 214 233 251 255 247 211 190 193 191 194 193 190 188 196 178 111 65 62 68 67 66 67 66 65 66 65 
61 61 61 62 62 59 83 139 173 171 171 181 187 189 186 181 181 178 178 181 183 183 180 174 166 170 185 187 171 156 142 143 150 155 168 169 169 169 162 163 181 200 206 197 191 188 182 179 181 183 180 185 202 211 213 207 197 189 184 183 187 193 194 194 189 185 182 184 186 184 145 81 50 56 60 61 61 62 62 64 66 65 65 64 64 64 64 64 65 66 67 67 66 66 65 67 67 65 65 66 67 67 68 64 58 54 57 71 95 116 132 144 152 158 160 163 162 158 155 150 139 126 110 95 77 57 42 37 41 51 60 64 66 66 66 66 66 65 65 66 67 68 68 68 68 68 68 69 68 68 69 68 69 69 69 68 68 91 143 173 177 181 181 168 169 176 179 176 171 170 177 184 179 178 178 176 179 182 182 184 187 188 188 185 181 178 178 178 177 171 165 165 172 173 166 164 164 165 159 149 143 142 146 153 169 181 183 182 167 157 163 176 187 157 98 64 62 65 65 66 66 67 67 68 68 69 69 69 69 70 70 70 71 71 69 68 70 70 69 71 70 71 72 71 69 69 71 71 72 72 71 71 71 72 74 68 101 187 209 222 231 239 237 213 194 203 217 224 237 246 242 238 233 227 213 202 210 213 198 193 203 199 184 186 204 211 215 217 206 192 190 203 212 214 207 206 219 234 237 227 218 209 194 192 192 188 188 194 164 95 61 64 69 68 68 68 67 66 66 66 
60 61 61 62 62 58 81 136 170 169 169 168 168 172 177 178 173 178 180 181 180 180 178 174 171 172 190 218 218 196 171 162 169 169 173 184 190 188 187 187 181 178 179 170 158 166 178 184 189 191 190 193 206 208 200 205 220 220 204 188 189 195 193 192 191 189 189 189 184 172 126 69 49 56 58 59 61 63 63 62 64 64 65 65 65 65 63 64 65 66 67 66 67 66 64 64 66 67 67 67 67 67 67 69 68 65 60 53 49 48 55 63 70 80 85 87 86 80 73 65 55 45 39 37 40 42 49 55 63 66 66 66 65 66 67 67 66 65 66 67 67 66 67 67 68 69 69 68 69 69 69 70 70 69 70 69 77 119 170 183 179 177 184 183 174 177 183 180 175 169 172 188 194 181 181 181 181 182 180 183 187 188 185 181 177 172 166 164 170 172 160 152 162 166 159 151 144 142 141 144 151 158 165 174 183 183 170 166 151 151 163 170 180 179 135 81 61 64 66 67 69 66 66 68 69 68 70 70 70 69 69 71 71 71 69 68 69 70 69 68 68 70 68 68 69 70 71 72 71 70 69 69 70 72 74 68 91 187 212 217 232 240 236 219 200 197 207 217 228 239 243 238 225 215 205 194 206 220 200 180 186 196 195 193 205 215 217 214 205 203 212 219 217 215 214 211 208 208 215 226 222 205 193 193 192 185 188 188 144 81 60 65 67 67 68 68 67 67 67 67 
60 60 61 61 62 57 76 136 178 179 175 172 165 168 176 179 175 182 192 187 182 175 164 162 175 188 189 194 207 211 201 187 186 185 177 178 184 189 189 184 172 160 156 153 148 161 178 187 190 188 198 214 219 216 208 211 220 214 194 184 191 196 193 189 189 184 183 182 180 169 117 62 49 57 59 61 63 62 63 63 63 63 65 64 65 64 65 64 65 65 66 67 68 66 65 66 65 65 67 67 67 67 67 67 67 68 67 66 62 58 55 51 48 46 44 43 41 40 40 39 40 43 48 53 57 61 65 67 68 68 66 66 66 67 68 67 66 67 68 69 68 68 69 69 68 69 70 68 68 68 69 70 70 70 68 71 92 145 176 175 181 188 192 186 179 181 184 187 190 186 185 187 189 184 182 182 182 180 178 179 179 180 178 173 167 165 162 156 155 158 149 135 132 137 137 136 144 156 166 169 172 176 179 179 176 164 156 164 155 156 165 169 174 178 155 104 69 64 67 68 68 69 70 69 68 68 67 69 70 69 68 70 70 69 68 69 69 69 70 69 70 69 69 69 70 70 70 70 71 71 70 71 71 72 72 70 77 170 229 215 221 227 224 222 220 213 207 208 213 218 222 222 218 211 203 196 196 222 232 212 201 208 206 199 202 216 226 222 212 218 225 224 214 209 214 225 230 226 221 221 214 200 191 193 190 181 190 184 125 71 62 68 68 68 68 67 68 68 67 68 
60 59 59 61 61 55 73 140 187 177 165 174 173 170 176 180 182 186 188 185 181 175 164 161 166 170 164 153 153 165 177 186 193 198 197 185 174 175 181 181 176 172 171 172 173 183 197 205 201 187 179 195 203 209 223 232 226 206 187 184 190 191 190 189 183 175 172 178 188 163 95 50 50 58 60 61 61 60 62 63 63 64 64 65 66 65 66 65 65 66 66 66 67 65 66 67 67 67 66 66 65 66 66 66 66 65 66 66 67 66 67 65 63 63 62 60 60 60 60 60 63 64 66 68 67 66 65 68 69 66 65 65 67 66 66 65 67 67 67 68 67 68 70 68 67 68 69 69 69 69 70 69 69 71 69 75 109 163 181 162 158 167 179 178 181 188 187 186 193 199 197 191 187 184 181 178 174 173 174 180 180 171 170 171 162 153 151 144 136 139 145 149 149 152 155 154 162 176 181 179 175 178 184 186 181 167 158 171 167 155 165 170 167 175 175 130 78 62 65 66 65 68 70 69 68 69 68 69 69 68 68 70 70 69 69 68 70 70 71 70 70 71 72 70 70 71 71 71 72 72 71 71 71 71 72 72 66 129 231 223 216 221 217 211 209 206 205 214 219 215 206 198 202 205 199 192 186 193 212 217 204 194 194 194 199 222 237 235 225 232 237 225 223 227 228 231 242 249 241 230 220 200 188 190 186 180 189 169 100 63 63 67 68 68 67 68 68 68 66 68 
59 60 61 62 61 56 69 141 200 184 153 159 166 168 173 177 179 182 179 177 176 176 187 189 178 164 154 151 156 157 154 160 177 187 199 198 186 178 181 187 189 186 183 190 199 204 211 217 214 195 167 162 169 182 206 219 210 194 186 187 188 189 187 188 185 175 166 170 195 168 87 44 50 59 61 61 61 60 63 64 64 63 64 65 65 65 65 66 66 66 66 66 67 66 67 66 67 67 66 67 66 67 66 65 66 66 66 67 68 67 68 66 66 69 68 66 67 67 67 66 67 67 67 66 67 68 67 67 67 66 66 67 67 65 65 66 68 66 66 67 68 68 67 68 68 68 69 70 70 69 69 69 70 71 69 83 130 171 180 173 166 166 166 174 187 193 190 184 188 195 194 184 176 173 172 170 165 160 163 171 174 162 152 151 145 137 139 147 154 160 169 177 180 185 185 179 175 180 185 186 181 174 176 186 189 177 161 168 178 157 154 149 133 146 174 150 92 62 64 64 65 67 68 68 69 70 69 69 70 69 69 70 70 69 68 69 71 71 70 69 69 70 71 69 69 70 71 72 72 73 72 70 71 71 73 74 67 87 202 236 215 216 217 208 200 196 203 223 241 240 233 218 206 198 197 203 201 193 190 195 193 182 180 191 207 229 242 242 225 220 228 221 222 226 218 218 236 248 241 225 213 196 186 188 182 181 180 136 74 60 65 67 67 67 66 67 67 67 66 68 
62 63 63 62 63 58 63 130 209 210 165 158 171 179 180 177 178 180 179 176 176 174 186 193 179 167 167 169 178 180 171 154 164 184 182 184 183 183 182 184 192 193 186 188 207 209 194 188 194 190 176 165 158 157 178 198 197 189 189 190 189 188 187 182 181 181 176 179 197 165 82 43 51 59 60 62 63 63 63 63 65 65 66 66 64 64 64 66 67 66 65 67 67 67 68 66 66 65 66 68 67 66 66 67 67 67 67 66 67 66 66 66 67 67 66 65 66 67 67 66 65 66 67 66 67 67 66 67 68 68 68 68 68 66 66 66 68 68 68 67 67 69 68 68 68 69 69 70 69 70 70 68 69 70 70 97 154 180 175 178 183 188 179 177 186 190 187 183 181 179 175 175 172 158 155 161 168 161 149 143 141 137 131 132 139 150 165 173 172 182 192 195 182 181 184 178 183 186 184 186 185 173 165 176 186 183 169 166 183 169 145 130 119 141 173 162 106 65 63 65 66 66 66 67 69 70 70 70 72 71 70 69 69 69 69 71 72 72 71 70 70 69 68 70 70 72 72 72 72 72 72 71 70 71 73 74 71 68 150 241 220 207 213 209 202 200 200 204 217 224 231 244 242 221 209 213 214 203 193 192 195 194 198 215 230 229 221 212 202 206 213 214 215 216 217 228 246 249 233 213 202 192 184 183 176 179 159 97 61 63 69 69 68 68 67 68 68 68 65 67 
63 61 61 61 63 60 58 109 193 215 176 166 178 180 174 171 177 180 180 177 179 184 187 198 198 182 176 181 189 195 190 169 157 178 193 185 178 183 188 184 180 181 188 192 191 190 180 172 175 184 180 170 163 151 146 165 183 187 188 192 191 185 183 181 172 166 164 173 189 149 73 43 53 59 60 61 63 65 64 63 63 65 64 64 65 66 66 67 67 67 66 66 66 67 67 67 68 67 67 66 67 66 66 67 67 67 67 68 69 67 67 68 67 68 66 66 68 67 67 66 66 66 66 67 66 65 67 68 67 67 68 68 68 70 68 66 66 67 67 69 69 69 68 69 69 68 70 69 69 70 71 70 68 67 75 117 173 187 172 174 184 178 177 182 184 179 173 173 177 173 165 169 184 174 150 149 150 145 133 128 133 140 149 159 169 178 189 192 174 177 190 194 181 175 181 177 182 190 188 182 181 178 175 180 188 189 178 165 179 177 145 132 137 156 177 174 126 71 61 67 67 67 67 68 68 69 69 69 70 70 69 69 70 71 71 71 70 70 69 70 71 71 69 71 72 71 71 72 70 70 71 72 72 72 72 73 74 69 91 208 240 210 206 210 206 203 200 197 199 202 207 225 251 252 239 223 224 223 209 198 201 211 221 230 233 212 194 185 190 208 221 223 225 230 237 242 247 243 226 205 196 190 184 177 174 171 121 67 61 66 67 68 69 69 69 69 68 66 65 65 
61 62 62 62 63 64 57 84 168 220 188 160 167 168 163 164 172 177 179 175 181 209 208 204 215 211 193 191 200 209 202 180 172 169 182 194 188 179 181 185 183 180 180 181 180 179 178 173 167 172 181 185 183 180 162 153 167 184 186 187 187 182 177 173 170 162 161 175 170 115 60 48 57 60 61 63 65 64 65 65 65 64 64 65 65 66 66 66 66 65 65 66 67 67 66 67 67 67 68 67 67 68 67 67 68 68 67 67 67 67 67 66 66 68 68 68 67 66 66 65 65 67 67 66 65 67 67 65 66 67 67 66 67 68 67 67 67 68 68 67 69 68 67 69 69 70 70 69 71 70 70 69 69 67 83 133 180 186 183 184 184 174 175 183 182 176 170 166 174 184 175 159 166 166 146 135 134 140 150 158 162 167 175 184 190 191 196 201 192 174 181 190 187 176 180 179 176 184 192 191 186 182 181 183 187 191 182 162 167 177 157 144 156 170 174 172 136 81 60 66 67 68 68 68 68 69 69 69 68 68 68 71 72 71 71 70 69 69 70 71 71 71 71 72 72 70 69 71 71 70 70 71 71 71 70 72 75 74 66 133 234 228 203 206 209 205 202 201 199 197 198 198 212 245 254 252 251 233 215 208 213 228 238 237 228 206 192 198 208 226 240 238 233 237 247 249 241 231 217 201 193 188 180 174 169 142 81 58 64 68 68 68 68 68 68 67 66 67 67 67 
58 61 62 62 62 62 59 67 135 206 197 161 159 162 163 166 171 175 179 176 175 213 240 218 203 216 219 221 218 206 193 188 194 189 184 192 197 186 177 186 196 196 191 184 182 182 180 176 170 166 165 178 201 214 204 181 173 182 188 187 185 183 179 175 175 176 175 182 161 92 50 52 60 60 62 64 63 63 64 64 63 63 66 66 65 66 67 67 66 66 67 67 67 67 67 66 66 65 66 65 63 63 63 64 64 64 64 64 64 65 67 66 65 66 66 66 67 68 68 67 67 68 67 65 67 68 68 66 66 67 67 68 67 68 67 68 68 67 67 66 66 68 67 68 69 68 68 69 71 71 72 72 70 68 88 143 182 175 178 192 184 171 174 179 179 179 181 173 163 166 167 152 143 143 146 150 162 173 183 188 184 180 184 189 187 183 185 195 203 184 177 191 190 179 177 180 179 184 190 187 182 177 172 171 179 185 183 176 177 190 192 174 174 179 176 179 156 96 59 63 64 65 65 67 68 68 68 68 68 69 70 71 70 68 68 68 68 69 72 72 72 73 73 72 71 71 70 70 72 72 71 70 69 70 71 72 72 75 69 73 171 240 216 197 207 207 204 200 196 195 196 194 192 214 243 238 217 196 194 209 227 241 238 223 204 194 197 216 225 229 231 228 229 235 242 244 238 225 209 195 190 183 174 169 151 96 60 63 68 70 70 68 68 68 69 68 67 69 69 68 
59 62 61 60 59 60 60 58 111 200 215 164 155 166 165 163 169 173 177 177 174 183 223 245 232 221 218 212 211 201 187 188 191 200 203 193 188 189 185 179 181 190 197 198 189 178 175 179 178 175 169 174 197 216 215 195 180 182 186 185 182 181 181 174 169 176 185 170 122 66 48 56 60 61 62 64 64 65 65 65 65 66 65 66 66 67 67 65 66 68 68 67 65 65 64 64 66 66 69 74 78 80 80 79 77 74 68 64 60 60 61 62 65 66 66 65 65 66 67 67 67 67 66 66 67 68 67 68 68 69 70 68 68 68 68 68 68 67 67 68 69 70 68 68 67 68 70 70 69 69 71 74 72 70 92 143 175 164 162 178 187 171 172 174 173 174 173 165 154 144 140 136 133 141 162 180 185 187 192 195 194 191 186 182 180 175 177 192 210 203 178 184 188 182 179 185 189 191 187 181 179 179 174 167 173 185 197 209 212 210 204 184 179 183 177 179 165 109 62 62 64 65 66 68 69 68 69 69 70 71 71 70 70 70 69 70 71 71 70 70 69 71 70 69 69 70 71 71 71 71 71 71 70 72 73 73 73 73 73 67 89 190 242 211 195 209 207 201 197 194 193 195 194 194 225 239 219 206 199 200 212 222 216 202 190 190 197 210 222 222 225 226 226 234 237 233 226 214 199 193 187 175 165 149 101 59 60 67 69 68 68 68 68 67 67 68 68 67 69 68 
61 61 61 61 60 61 62 56 83 178 246 198 148 156 162 163 162 163 170 174 175 173 194 227 239 230 224 213 199 194 196 194 187 188 190 187 180 182 188 189 188 185 186 190 189 183 179 182 183 181 175 180 206 211 193 180 180 182 182 183 180 178 183 181 174 180 186 153 83 48 50 58 60 61 62 63 64 64 65 64 65 67 67 67 66 67 67 65 66 67 66 66 68 75 83 99 118 134 142 150 161 172 174 172 164 156 150 139 122 106 92 77 66 60 63 67 66 66 67 67 67 66 66 67 67 68 67 67 67 68 67 67 68 67 68 68 68 68 68 67 69 69 70 68 68 70 71 71 70 69 69 71 69 70 100 155 172 156 154 158 172 171 166 166 160 154 147 142 141 141 144 151 159 168 177 187 194 188 180 185 194 198 190 180 177 178 179 186 198 199 178 175 185 182 177 179 184 185 183 183 188 192 187 183 193 212 224 218 194 169 163 164 173 180 176 178 165 114 66 63 66 66 67 68 68 68 68 69 71 71 71 70 70 71 70 69 70 71 70 70 69 69 71 70 69 70 70 70 69 69 71 72 72 73 72 72 74 73 74 75 63 99 197 237 208 196 209 206 199 198 195 193 194 192 204 240 252 251 239 224 217 218 224 230 224 218 218 215 219 229 237 236 230 227 226 223 213 202 194 186 177 166 147 101 57 54 65 67 68 68 68 69 69 69 68 68 68 70 70 68 
62 61 64 64 63 64 64 60 61 121 225 243 177 158 163 165 164 162 167 171 174 174 190 219 226 218 216 219 214 201 189 186 199 208 205 203 203 197 194 195 193 189 187 192 195 192 185 185 185 187 188 191 205 200 181 175 182 184 181 179 175 172 173 173 171 187 194 131 61 46 55 60 61 62 64 65 65 66 66 65 65 67 68 67 67 68 68 66 65 68 78 95 117 139 159 175 187 192 189 184 188 195 198 199 193 187 191 199 197 189 178 158 133 106 81 67 62 64 66 67 67 65 65 66 67 67 67 67 66 66 67 68 68 69 69 69 69 67 67 68 67 67 68 69 68 70 69 70 71 71 70 72 70 71 105 165 181 161 154 151 151 151 149 146 139 135 140 150 160 168 173 172 171 177 184 180 183 189 176 178 188 196 196 185 179 179 180 181 185 183 178 176 180 179 169 170 177 181 182 180 183 191 202 215 220 208 191 169 149 152 166 175 178 177 171 178 170 117 64 62 67 66 66 67 66 67 68 69 70 69 69 69 70 72 71 69 70 71 71 71 71 71 72 70 69 71 72 71 71 71 72 73 73 73 71 72 74 74 74 75 74 64 95 186 232 206 194 209 206 199 195 191 191 191 188 201 232 247 253 250 238 224 219 224 229 231 237 237 238 242 240 232 224 214 209 205 197 191 185 176 167 149 103 53 53 62 66 66 66 68 70 70 70 69 69 69 70 71 70 68 
62 61 63 63 63 64 63 63 56 75 165 251 212 168 172 172 171 162 158 166 171 173 181 205 217 208 199 199 198 198 201 197 207 214 205 203 206 203 195 193 193 190 188 192 201 204 194 193 198 189 190 201 198 186 180 183 185 184 184 178 172 170 176 177 186 187 161 85 47 51 60 62 64 64 65 66 65 66 65 67 68 65 65 66 68 67 65 69 85 113 146 170 181 180 175 172 169 164 165 168 168 169 169 169 170 171 173 178 180 183 193 200 193 182 160 128 93 71 63 64 66 68 68 67 68 67 68 69 69 68 69 70 69 68 67 68 69 69 68 67 67 67 67 69 69 70 70 70 70 70 71 72 69 72 111 170 179 161 157 153 143 138 138 142 151 163 172 176 179 179 174 168 169 169 180 182 178 187 178 172 179 184 191 188 177 169 168 176 186 183 174 171 170 172 164 160 171 183 193 199 207 211 201 184 164 140 130 140 154 163 171 175 178 174 166 177 173 119 65 60 65 66 67 68 66 67 69 69 71 70 70 71 71 71 71 71 71 73 71 70 70 71 71 72 70 71 73 72 71 71 71 71 72 72 73 73 72 72 71 72 73 71 63 84 156 212 202 193 204 203 195 192 191 193 191 186 194 208 218 230 238 232 223 228 234 236 248 253 248 233 218 213 213 207 197 191 189 182 173 164 145 100 54 54 65 69 69 69 69 67 68 70 70 69 69 69 69 70 70 68 
61 62 62 63 64 63 63 63 61 57 105 214 249 192 161 165 162 159 154 160 170 173 175 192 217 229 219 206 202 197 199 207 207 209 200 183 186 190 193 198 198 195 196 199 208 216 211 207 215 206 198 210 205 187 184 186 183 179 178 182 183 175 171 168 179 176 112 50 45 55 60 62 64 64 64 65 65 66 65 66 68 67 66 66 65 71 91 121 152 176 185 179 170 164 161 162 164 166 164 163 158 147 140 141 144 151 161 171 174 170 171 183 190 191 183 176 166 140 99 69 62 65 67 66 68 68 66 67 68 69 69 68 68 68 68 67 68 69 69 68 69 67 66 69 69 68 69 69 69 69 70 70 66 70 111 172 175 153 146 152 162 177 184 179 174 173 173 173 178 184 181 174 178 175 175 177 172 180 180 176 179 180 183 184 174 163 162 168 178 180 171 168 171 178 180 170 182 205 219 222 214 186 147 133 140 146 154 162 167 171 175 176 173 168 167 170 151 100 63 63 66 66 67 68 68 69 69 69 70 70 71 72 72 71 71 71 73 74 71 70 71 71 72 73 72 71 72 73 71 69 70 72 72 70 70 73 73 71 71 72 72 73 72 63 71 117 173 193 192 198 201 197 193 193 192 190 189 189 190 196 203 209 214 225 232 231 224 218 213 203 200 200 198 191 186 182 176 171 163 136 85 48 54 66 70 70 69 70 69 68 68 67 67 68 68 69 69 68 68 68 
60 63 62 61 61 62 62 63 64 61 68 137 246 237 165 156 163 162 160 162 170 173 173 177 201 230 241 222 193 187 186 195 200 197 202 192 183 192 197 195 197 204 211 211 209 217 220 215 218 224 223 209 189 184 190 188 181 176 169 168 178 177 172 183 172 124 59 41 49 59 62 62 64 67 66 65 65 65 67 68 69 69 67 69 87 121 157 176 176 167 164 165 171 177 177 169 157 146 137 137 141 143 139 131 126 128 129 133 151 170 174 169 169 174 175 175 179 184 173 136 90 64 62 65 64 65 65 66 65 66 68 68 68 69 69 68 67 68 67 68 69 70 68 69 68 70 71 70 69 70 71 71 67 68 108 172 178 162 175 184 190 192 196 197 193 176 163 167 179 186 187 189 196 187 178 181 172 174 182 181 178 177 178 180 174 164 163 167 173 180 181 182 186 191 201 197 196 205 204 195 185 165 147 149 161 169 177 181 182 183 182 179 180 179 174 171 145 92 60 63 65 64 66 67 68 69 70 70 68 68 69 70 70 70 71 71 72 72 69 70 71 73 72 71 70 71 73 71 70 71 72 72 72 71 72 73 73 70 71 72 72 73 73 73 66 61 84 138 182 192 191 197 198 194 192 191 191 192 190 188 188 191 195 196 196 194 195 194 192 187 187 188 185 180 172 169 168 159 123 72 49 56 69 69 69 70 69 69 69 68 68 68 69 69 68 67 69 69 69 67 
62 61 63 61 61 62 63 64 64 64 60 76 161 251 223 165 160 165 161 156 159 166 172 173 178 200 219 214 201 191 186 178 181 193 199 205 203 200 198 196 201 210 217 222 218 208 208 214 216 220 224 212 188 186 187 183 180 180 181 175 159 160 174 178 143 69 40 48 56 62 63 62 63 65 67 68 66 66 68 68 67 65 81 118 156 175 174 166 162 164 170 177 181 177 160 143 137 139 145 152 158 161 161 157 150 144 140 134 128 134 155 171 171 170 169 172 181 191 201 197 168 119 77 61 64 66 68 67 65 65 66 66 67 67 68 69 69 68 67 68 67 68 68 67 69 71 69 68 69 70 70 70 67 67 101 167 183 162 165 168 173 166 161 188 206 194 175 168 175 184 188 195 200 190 184 196 185 171 175 175 168 164 167 173 175 173 171 174 179 180 181 186 189 196 215 216 183 165 165 167 167 161 159 167 175 181 185 187 186 184 183 180 180 181 175 175 153 97 59 63 65 66 68 68 67 67 67 69 70 69 68 68 68 69 70 70 69 69 70 71 70 71 71 70 70 71 71 71 70 70 71 71 71 72 72 73 73 73 73 73 71 71 71 72 74 70 61 65 98 142 168 182 191 191 192 192 193 194 193 192 189 186 186 185 187 186 184 184 182 180 177 177 175 172 167 153 123 85 56 48 62 71 71 69 69 68 69 70 71 70 71 71 71 70 69 68 67 67 66 68 
63 62 61 61 63 63 63 64 63 63 63 60 81 178 253 198 151 153 158 160 158 157 162 168 171 185 209 213 201 202 195 185 185 199 198 190 188 189 188 187 194 203 201 197 198 193 188 188 193 199 204 202 193 184 181 178 176 176 179 186 180 166 166 141 76 37 45 57 62 64 64 64 65 66 67 68 68 67 68 67 67 89 136 180 189 172 158 162 171 176 181 181 170 151 141 149 161 164 163 159 157 157 158 160 158 154 155 158 151 131 124 146 166 175 174 169 170 177 192 202 201 185 145 92 65 65 67 66 67 67 67 67 66 67 68 68 68 69 69 70 68 68 68 69 69 69 68 69 70 71 71 71 69 67 95 159 182 151 139 150 172 175 160 177 204 203 186 170 168 181 191 189 184 183 186 191 188 170 169 172 169 170 171 173 181 190 190 175 169 180 182 186 191 203 222 214 171 154 154 149 143 149 163 177 186 190 190 184 183 182 182 184 180 166 161 168 144 88 58 65 66 67 69 68 67 66 67 69 70 69 69 68 69 70 70 69 70 70 71 71 70 71 72 71 72 71 71 72 72 72 72 71 72 72 70 70 70 72 72 73 73 72 71 71 73 73 72 64 54 59 88 120 152 166 176 182 185 187 188 188 187 185 183 181 180 179 176 175 174 173 171 169 162 145 117 83 52 44 54 65 69 69 69 68 68 70 69 69 71 70 69 69 70 70 70 69 68 69 67 69 
61 62 60 61 63 63 64 63 61 61 63 62 60 88 195 248 201 158 154 157 159 157 152 154 161 168 178 186 179 184 195 192 184 183 187 187 187 183 178 178 185 188 181 171 167 168 172 177 191 206 205 185 176 177 178 177 176 174 168 171 188 188 150 78 35 41 53 62 65 65 66 66 66 66 67 67 68 69 67 71 100 147 178 178 166 160 166 175 182 183 178 165 149 148 162 172 171 169 167 162 158 160 164 167 168 167 166 165 164 155 134 124 141 160 173 174 167 163 170 182 191 195 190 161 103 65 63 64 65 68 69 69 68 68 67 68 69 68 67 69 70 70 69 70 69 68 70 72 71 72 71 72 71 67 89 151 185 159 147 142 165 186 170 164 192 205 190 177 179 187 192 188 185 184 182 180 175 165 166 175 176 179 181 183 184 189 192 178 164 179 187 185 194 204 204 171 137 146 159 159 163 172 180 185 187 188 190 185 181 178 177 183 182 164 160 170 138 78 57 65 65 65 65 65 67 69 70 69 69 70 70 69 69 71 72 72 72 72 72 71 71 72 72 72 72 71 71 72 73 72 72 71 71 71 70 69 69 69 70 72 73 73 72 71 71 73 73 72 70 63 53 52 66 86 115 141 154 162 170 176 179 175 173 173 170 169 171 168 165 158 147 127 97 64 45 43 54 64 70 69 67 68 68 68 69 71 71 70 69 69 70 71 71 70 69 68 69 69 69 71 
61 62 62 63 63 62 61 62 63 62 61 63 62 61 93 200 253 218 167 155 162 164 164 159 154 157 173 196 210 190 178 185 191 188 190 191 185 178 174 181 187 185 180 178 182 188 188 182 195 208 198 178 172 174 174 174 174 170 165 169 180 162 89 37 40 53 60 64 65 65 65 65 66 68 68 67 68 68 73 106 157 179 167 155 161 171 176 179 181 177 161 146 149 164 169 171 171 178 178 174 170 171 177 182 182 177 172 170 174 181 173 145 134 146 162 179 175 164 164 170 175 182 189 192 172 110 68 63 66 66 66 68 68 69 69 70 70 68 67 68 69 69 67 68 69 69 69 71 72 71 71 70 69 66 81 136 185 174 175 155 157 186 183 165 189 211 203 187 180 180 187 191 189 185 182 181 178 171 176 180 178 183 186 187 187 186 181 178 184 189 185 183 181 183 180 152 130 152 176 180 175 175 180 185 184 183 183 183 182 177 176 179 180 170 172 175 132 73 57 65 67 67 65 67 69 70 69 70 70 70 69 69 71 73 73 73 72 73 73 72 71 72 71 70 71 72 73 72 72 71 70 72 72 70 71 71 71 70 70 71 70 71 72 72 72 71 71 72 71 73 71 66 55 44 46 57 71 86 103 119 130 135 136 135 132 126 123 111 98 79 63 49 41 45 56 65 69 71 70 69 69 70 70 71 70 70 70 69 70 70 69 70 70 69 69 68 70 70 68 69 
61 61 60 60 60 60 60 62 63 63 63 64 64 63 59 85 184 246 209 167 156 159 160 161 160 161 173 200 219 212 192 191 190 190 189 186 179 175 179 185 186 182 183 191 198 202 210 203 187 187 177 172 176 175 171 168 165 168 172 165 134 79 36 37 51 59 64 64 63 64 65 66 67 67 67 68 67 74 111 164 185 170 156 164 171 173 177 180 177 164 152 153 161 165 177 188 191 191 192 193 185 175 170 169 174 178 179 177 169 164 178 174 140 140 157 168 173 173 172 174 177 178 178 190 200 177 110 66 65 67 66 68 68 67 67 68 68 68 68 69 68 69 69 70 71 70 70 70 71 72 73 71 71 68 74 124 184 167 151 149 153 176 187 172 178 209 215 200 187 179 181 188 188 185 183 188 198 198 202 200 186 184 190 193 193 193 191 190 195 198 190 182 178 187 195 172 151 165 180 181 177 176 180 186 186 184 182 181 183 179 177 180 180 174 181 171 116 64 61 67 66 66 68 70 68 68 70 70 70 69 68 69 72 72 72 72 73 72 72 73 74 73 72 71 71 72 72 71 69 69 71 72 73 72 71 72 74 73 72 73 71 72 72 72 72 71 72 73 73 72 72 73 74 69 60 51 44 41 40 42 45 49 51 50 49 47 43 39 39 43 47 53 61 67 70 71 70 68 68 69 70 70 71 70 68 70 69 68 70 70 69 68 68 68 68 69 69 69 68 68 
60 59 61 61 60 61 63 62 62 63 63 63 64 64 63 58 72 147 221 226 183 155 153 155 156 156 159 180 214 222 210 207 207 205 207 203 197 191 181 173 176 182 184 185 190 202 215 218 191 171 173 173 169 166 165 164 170 177 167 126 64 31 37 50 60 63 66 65 65 66 67 67 68 69 69 68 73 105 158 184 168 152 165 173 175 175 176 180 175 165 164 172 177 183 194 194 189 181 186 194 190 178 175 174 173 174 175 177 176 173 161 157 143 136 152 170 174 171 177 181 178 176 180 187 199 199 171 103 65 65 66 66 67 65 65 66 66 68 69 67 67 68 68 70 70 71 70 69 70 71 71 71 72 69 68 101 175 178 140 144 155 168 180 176 163 183 207 206 194 189 193 197 196 194 198 203 218 214 191 192 210 210 198 192 193 196 195 193 195 195 186 186 193 196 186 159 159 174 181 181 179 178 179 183 185 183 180 180 178 178 178 179 176 172 181 160 99 59 63 68 66 66 69 69 68 69 71 72 71 70 68 68 70 72 72 72 72 71 70 72 74 73 72 72 73 72 70 71 71 70 70 70 70 71 70 71 73 72 72 73 72 72 71 70 70 70 71 72 73 71 71 71 73 73 74 74 71 68 62 57 54 53 52 51 53 54 55 59 64 69 72 73 72 71 71 71 71 70 69 68 70 71 69 67 68 70 70 70 70 70 69 69 68 67 68 69 69 71 71 69 
61 60 62 64 63 62 63 63 62 61 61 62 63 64 64 63 61 60 113 189 218 202 170 150 145 148 152 160 181 210 222 218 216 214 208 208 206 203 195 186 187 192 194 193 193 195 189 180 178 176 172 161 157 161 168 172 168 147 98 46 28 40 52 60 64 66 67 68 67 68 68 69 70 70 67 69 101 151 179 175 155 152 167 173 174 177 180 178 174 173 179 184 187 187 178 170 164 164 171 180 184 179 174 170 169 168 171 178 184 190 181 164 150 134 138 162 178 178 172 169 169 172 181 186 191 201 202 167 96 63 66 67 67 66 67 69 69 68 69 68 69 69 69 70 68 68 69 70 71 70 69 70 72 71 67 80 145 196 157 147 153 160 177 193 191 190 202 211 211 214 217 211 197 179 179 187 189 180 153 154 182 191 181 174 180 187 184 182 193 193 189 208 223 207 173 146 159 176 180 181 182 182 182 182 180 180 179 177 173 172 175 176 174 176 178 136 77 58 66 66 66 67 67 67 68 69 69 70 68 69 71 70 70 71 72 72 72 72 73 72 71 70 69 71 73 72 73 73 73 73 72 72 73 72 72 71 71 70 70 71 71 71 70 71 70 71 72 72 72 72 73 73 72 71 72 74 75 74 73 73 74 75 75 75 74 72 73 73 72 71 70 71 70 70 70 70 70 69 69 69 71 70 67 68 69 70 70 70 71 69 68 70 71 71 72 71 71 72 72 70 
60 60 61 62 62 62 62 63 63 62 63 63 63 63 64 64 65 61 55 78 133 190 212 193 164 147 145 150 156 169 193 210 215 222 220 219 219 215 210 210 215 211 194 180 175 173 170 166 170 165 160 155 158 171 178 158 107 55 30 29 44 55 61 65 66 67 66 68 70 68 67 68 68 67 68 89 140 181 176 164 174 167 158 163 171 176 178 178 177 175 171 170 175 171 160 156 155 156 164 173 173 168 162 159 160 166 176 186 189 194 194 186 166 142 128 147 172 180 173 163 172 189 188 178 177 184 197 202 151 81 66 67 67 68 69 69 69 67 66 68 69 70 70 69 69 69 70 72 71 70 70 71 72 72 69 75 130 215 183 147 152 158 188 222 234 223 220 224 223 209 185 153 135 137 149 161 156 143 141 134 131 149 183 207 215 212 203 188 194 205 202 205 213 188 153 149 165 175 179 180 180 182 183 181 179 177 175 176 169 164 164 166 174 185 172 112 64 62 67 68 69 70 69 68 68 69 67 67 67 68 70 71 71 71 72 71 71 71 73 73 72 71 71 72 73 72 72 73 73 71 71 72 72 73 73 73 73 70 70 71 72 71 72 71 71 72 72 72 72 72 73 73 73 71 71 71 72 72 72 72 73 73 72 72 71 71 71 70 71 71 71 70 70 69 69 69 69 69 70 70 70 71 71 71 71 69 69 69 69 68 68 70 71 71 71 70 70 69 70 71 
61 61 62 61 60 61 62 63 64 64 63 62 64 62 63 66 67 66 64 59 59 91 148 195 205 188 169 154 145 145 155 171 193 208 214 218 224 224 215 204 194 183 168 161 168 175 176 165 150 150 157 163 158 143 114 70 34 25 35 50 59 64 64 67 67 66 66 65 66 67 67 67 67 67 81 128 175 182 160 149 160 178 164 158 168 173 171 168 165 161 159 162 164 166 163 158 164 168 174 177 171 165 162 162 163 164 171 181 183 181 185 184 167 162 145 137 156 171 172 169 175 192 192 168 166 178 192 205 195 125 72 65 67 66 66 68 69 67 66 67 67 68 70 68 68 70 70 70 71 72 72 72 72 70 69 67 104 206 224 153 149 157 179 217 232 210 183 177 171 149 122 110 119 138 153 148 134 132 138 128 122 140 169 200 221 229 230 216 198 199 206 190 167 142 135 158 173 177 179 180 182 182 181 178 177 175 173 177 176 174 166 159 167 181 146 84 59 65 67 68 69 69 68 71 71 70 69 69 70 70 70 72 73 72 72 72 71 73 72 72 72 71 72 73 73 73 73 74 73 71 71 72 72 72 71 71 72 73 72 72 73 72 72 74 74 73 72 71 72 72 71 70 71 72 73 71 72 71 71 73 74 74 73 72 71 72 74 73 72 71 72 72 72 71 69 69 69 69 69 70 69 69 71 70 69 68 69 69 68 68 68 68 68 70 71 70 69 69 68 68 
62 63 61 62 61 62 63 62 61 62 62 63 65 63 64 65 66 67 65 65 62 54 59 90 136 174 193 196 183 166 154 148 153 163 171 182 189 187 179 170 162 158 164 168 166 165 163 168 166 160 147 125 92 58 33 23 31 46 58 63 65 65 65 67 66 68 68 66 65 68 70 70 67 75 113 165 181 169 157 150 152 163 174 166 167 171 167 157 150 155 166 172 171 169 171 171 177 181 184 182 176 171 169 168 166 165 164 169 181 182 174 171 168 171 172 154 145 161 173 177 180 182 182 179 171 179 188 193 203 178 100 66 65 66 65 66 68 69 69 68 68 67 69 69 69 69 69 70 70 69 71 71 70 68 68 65 70 142 241 182 141 153 159 169 167 153 143 141 143 145 141 141 149 151 149 137 132 141 145 143 145 140 136 151 172 181 181 185 186 178 163 145 132 140 155 166 174 177 176 176 180 183 183 180 175 173 171 173 174 176 175 167 161 147 104 67 61 66 67 68 68 67 68 70 72 69 70 69 70 71 71 71 70 70 70 71 72 74 72 72 71 73 73 72 72 73 73 73 73 72 72 73 74 72 72 71 70 72 71 72 73 72 72 73 73 72 72 73 72 72 72 71 72 72 72 72 72 70 71 73 74 74 73 72 73 72 72 74 74 73 70 72 71 70 69 70 71 71 70 70 69 68 68 69 69 69 71 70 69 69 69 69 69 70 70 69 69 68 69 69 
61 60 60 59 60 62 61 61 61 63 64 64 63 63 65 64 65 67 66 66 66 65 60 55 56 75 108 146 171 187 186 173 162 164 164 161 160 161 161 160 161 161 162 165 166 162 157 158 136 93 65 41 27 24 30 42 54 62 65 65 66 66 67 67 67 66 67 68 67 69 71 69 69 94 149 184 175 162 161 156 161 159 161 166 170 172 165 158 158 169 176 173 168 171 175 180 187 188 190 193 186 177 173 168 162 163 171 181 185 185 179 174 171 167 166 155 139 148 165 175 185 190 188 189 182 173 177 181 192 197 141 78 63 66 67 66 66 67 68 69 69 68 68 69 71 71 71 71 70 68 70 71 69 69 70 69 63 89 196 223 149 146 155 155 149 150 155 159 159 159 153 151 157 158 159 165 165 162 160 161 161 156 150 149 155 156 148 139 137 133 126 133 148 159 172 178 180 178 177 178 178 182 185 183 178 171 165 164 164 161 161 170 164 117 69 57 64 66 67 67 69 69 69 68 70 71 70 70 70 70 71 69 69 69 70 70 72 72 72 72 72 73 72 72 71 71 72 73 72 71 72 73 71 71 71 72 72 72 72 71 72 73 72 73 73 71 72 73 72 72 73 73 73 72 72 73 72 71 71 73 73 72 72 73 73 72 70 72 71 70 71 71 70 70 71 71 71 70 70 70 71 69 70 71 71 70 71 70 69 69 70 70 69 69 68 68 69 68 71 71 
59 59 60 60 61 62 63 63 62 61 63 64 63 64 64 66 66 65 66 66 66 65 66 66 61 54 51 58 72 95 120 136 147 159 169 166 164 166 162 155 156 153 147 143 131 109 86 64 41 27 29 31 36 44 54 60 64 66 64 63 66 66 66 68 68 68 68 68 68 67 69 67 77 123 174 183 162 153 155 154 156 160 164 169 171 170 166 167 172 179 182 176 173 176 178 184 188 188 192 198 191 176 169 169 169 173 185 192 184 177 180 181 178 173 165 158 142 137 153 171 180 186 187 185 184 176 167 175 188 195 175 107 67 64 67 67 66 67 69 68 67 69 70 71 72 70 72 71 71 70 71 71 70 70 71 71 69 67 112 219 193 141 149 155 154 154 156 161 162 161 158 159 166 170 172 176 176 172 171 171 170 166 161 156 157 162 167 166 158 151 146 159 167 170 175 176 177 176 176 179 179 180 182 181 175 171 166 160 157 151 162 178 148 84 55 60 66 66 67 68 68 68 69 70 69 70 71 72 72 71 69 70 71 71 71 72 73 72 71 71 72 71 71 71 71 70 71 72 71 71 71 71 71 72 72 73 72 74 73 72 73 72 72 73 72 73 74 72 71 73 74 73 74 74 73 72 73 72 72 73 72 72 71 72 71 70 70 71 71 69 71 72 70 71 72 71 69 69 69 69 71 71 71 71 70 71 71 69 68 69 70 69 68 70 70 70 69 70 72 72 
62 64 63 61 62 64 65 64 62 62 63 64 65 65 64 65 65 64 63 63 64 64 66 67 68 67 63 57 53 50 50 53 61 65 72 78 83 87 79 71 72 71 60 49 41 32 26 27 31 40 50 57 60 63 65 66 67 66 66 67 68 68 68 68 67 67 67 68 68 69 67 67 99 156 186 173 154 152 153 156 159 164 172 174 174 169 159 161 173 184 184 181 184 190 190 194 199 190 186 190 187 175 169 172 176 177 179 177 170 175 188 185 173 172 168 165 165 144 142 161 173 176 182 186 185 182 172 175 182 189 192 144 82 63 65 66 67 67 67 67 69 69 71 69 69 68 70 70 71 71 70 69 69 70 71 72 71 69 69 155 233 170 142 152 158 161 162 163 164 165 167 170 173 174 176 177 177 177 175 173 170 166 163 163 163 167 174 179 175 169 171 175 176 174 172 173 175 175 175 177 179 180 176 172 165 161 171 172 158 157 177 173 106 57 56 64 65 68 70 70 70 69 69 71 69 70 70 70 71 70 70 70 71 72 72 73 72 71 71 72 72 72 73 72 73 72 71 71 72 71 71 71 72 71 71 73 74 73 72 71 71 71 72 73 72 73 72 73 73 71 73 74 72 72 71 71 73 72 72 71 73 72 71 71 72 72 72 72 71 71 72 71 70 71 71 72 71 69 70 71 70 71 69 69 69 70 69 70 70 70 69 69 69 69 70 72 71 71 70 70 
63 63 62 62 61 63 64 62 63 63 64 65 64 63 63 64 65 65 63 63 62 63 65 65 66 66 67 69 67 64 57 51 46 41 38 38 36 34 32 32 32 32 31 31 35 38 43 50 57 62 66 66 67 69 68 67 67 66 67 68 67 68 68 67 67 67 67 68 69 70 66 73 119 173 184 165 155 155 161 163 162 171 177 177 173 167 157 153 162 172 177 183 194 204 204 200 198 192 184 185 193 194 187 179 173 174 180 185 180 174 177 182 180 177 174 165 171 170 151 152 166 171 175 179 183 184 176 170 171 184 200 176 105 67 64 68 68 68 67 69 70 70 68 68 67 68 70 68 69 70 71 69 69 70 71 71 71 72 66 86 195 222 155 141 154 166 171 168 165 165 170 174 175 175 176 176 177 175 172 168 165 162 162 164 169 174 176 175 177 178 178 179 178 177 176 176 176 177 178 179 179 177 173 172 174 165 161 168 167 178 176 122 61 53 63 66 67 69 71 70 70 70 69 69 70 71 70 69 70 71 71 72 72 72 71 71 71 71 72 71 72 73 72 72 72 71 70 72 73 72 71 72 73 72 72 72 73 72 71 73 73 73 72 72 72 73 75 75 74 73 73 73 72 71 72 72 72 71 72 72 74 73 72 72 72 73 72 72 71 72 71 71 70 70 70 70 71 71 70 71 71 70 68 68 68 70 69 69 69 69 68 68 69 69 69 71 70 70 68 70 
62 61 61 62 63 62 63 63 64 64 64 64 63 62 63 64 65 66 66 65 64 65 64 64 65 67 67 66 67 68 68 67 66 64 61 60 58 55 53 53 54 57 58 59 62 63 65 68 68 67 67 67 67 68 69 67 66 67 67 68 66 67 67 67 68 68 68 67 67 68 67 89 139 174 171 159 160 164 164 162 166 172 177 176 168 167 170 172 172 174 173 177 191 201 201 193 191 197 199 196 198 200 200 193 182 177 187 204 207 186 168 171 180 188 195 189 172 176 169 160 165 173 174 175 177 179 172 171 175 179 196 196 133 74 61 66 66 66 68 68 68 68 67 69 70 69 70 70 69 69 69 70 70 70 70 71 71 71 69 61 101 202 202 154 144 158 169 172 167 164 166 170 173 175 177 177 176 171 165 163 165 165 168 172 176 179 178 174 176 180 179 179 176 175 174 175 176 179 181 180 178 175 171 170 175 178 168 164 168 170 130 67 52 60 65 67 68 69 69 69 71 70 69 70 71 70 70 70 70 72 72 73 73 73 71 70 70 71 73 71 73 74 72 71 71 72 72 73 73 72 72 73 72 73 73 72 72 71 74 74 73 72 71 72 72 73 74 74 72 73 72 72 74 74 73 73 71 71 72 73 72 71 71 72 72 72 72 71 69 69 70 71 70 70 70 69 70 72 71 71 71 71 69 69 70 72 69 68 69 69 70 70 70 72 71 71 69 70 69 71 
60 61 62 63 64 63 64 64 64 63 63 62 63 63 64 65 65 65 65 64 63 64 64 65 66 66 66 65 67 68 68 67 68 69 68 69 69 68 67 67 67 66 66 66 66 66 66 66 66 66 66 67 67 67 68 66 66 66 67 68 67 68 69 69 69 68 67 68 69 68 71 107 160 179 169 164 163 162 161 161 170 173 174 174 169 186 207 206 196 196 192 182 176 182 191 190 187 188 193 194 193 193 188 187 193 195 189 184 189 193 188 188 193 204 215 219 204 184 175 169 169 175 174 171 173 181 184 181 185 187 193 203 158 88 60 64 65 65 68 68 67 68 69 68 69 70 72 70 68 69 69 71 72 71 71 70 70 71 70 68 62 107 203 209 159 143 155 166 170 168 164 166 170 173 175 175 173 168 162 162 168 174 177 178 181 182 181 178 173 174 176 173 171 171 166 165 169 175 178 177 173 170 172 173 162 161 174 173 158 120 65 49 60 66 67 68 68 68 69 69 70 69 68 70 71 71 71 71 69 70 71 71 71 70 71 71 71 70 71 72 72 71 71 73 73 73 72 72 73 73 72 72 71 73 73 73 73 72 73 73 72 73 74 74 72 70 69 71 71 72 72 72 72 73 72 73 73 73 73 73 71 72 73 71 71 71 72 72 70 68 71 72 71 70 70 70 70 71 71 72 71 70 70 72 72 71 71 69 69 71 72 70 70 71 72 71 70 71 72 72 
61 61 63 62 61 62 62 63 62 62 62 62 62 62 64 65 65 63 63 63 63 64 65 66 67 66 65 65 66 67 66 66 67 67 68 67 69 68 67 67 67 66 66 67 68 67 67 65 66 69 67 66 67 66 66 65 67 67 67 68 68 68 68 69 68 68 69 69 69 66 75 123 174 183 172 173 175 170 164 166 175 177 175 175 176 195 222 220 204 202 207 204 183 172 181 185 174 173 181 189 186 188 192 188 186 192 196 190 179 191 210 214 212 208 211 212 211 194 170 165 173 176 173 172 176 186 192 184 176 180 193 204 179 106 63 62 68 68 68 67 69 70 70 70 69 70 71 71 71 69 68 70 70 69 71 71 70 71 71 71 68 61 113 198 206 164 144 151 163 167 165 165 164 162 163 168 171 166 160 161 168 178 181 179 180 181 176 173 174 175 174 169 169 172 167 163 163 166 168 170 169 166 166 171 170 161 170 171 123 64 47 58 66 69 70 70 70 69 70 69 70 70 70 70 70 69 72 70 71 71 70 69 70 71 71 72 72 71 72 72 71 70 72 74 74 73 74 72 72 72 72 71 72 72 73 73 73 72 71 71 72 73 73 73 72 71 72 72 72 72 71 72 72 71 71 72 74 73 73 72 72 72 72 72 71 72 73 72 71 71 70 72 70 70 70 71 71 71 71 71 70 71 71 71 69 69 70 70 68 68 69 69 69 70 71 71 72 71 71 71 
62 63 62 63 61 61 62 62 61 62 63 63 62 63 63 64 64 63 63 64 65 64 64 65 66 66 65 65 66 65 65 66 66 65 66 67 68 68 67 66 66 66 67 69 69 69 70 68 68 68 68 68 68 67 66 68 70 68 67 69 69 67 66 67 68 69 70 70 70 65 84 140 180 177 165 165 167 166 165 167 172 178 179 178 178 177 180 196 212 206 192 198 191 167 160 167 172 175 178 191 196 192 191 189 186 181 178 179 171 163 184 202 199 187 185 190 201 200 176 166 175 177 172 175 180 186 187 181 181 179 180 193 188 122 68 60 68 68 67 68 70 69 69 70 69 69 70 71 70 70 70 69 69 70 70 70 70 70 72 72 72 69 63 96 177 208 176 143 140 152 161 160 153 149 149 152 161 161 156 156 165 176 181 183 183 179 171 171 177 181 180 177 174 170 170 169 165 163 165 169 169 165 159 160 176 188 166 118 66 46 58 66 69 69 69 69 69 70 70 71 71 71 71 72 70 70 70 71 72 72 71 71 72 72 72 72 73 73 73 72 71 72 74 72 73 73 73 73 71 71 72 72 72 72 72 72 72 73 72 71 71 71 71 72 73 73 74 74 72 72 73 72 73 72 72 72 73 72 73 72 72 71 71 72 72 71 71 71 72 73 72 72 71 69 70 71 70 69 70 69 69 70 70 69 69 69 69 70 70 69 69 70 70 70 70 70 71 70 70 70 
62 62 60 61 61 62 63 64 63 61 62 62 64 65 65 64 65 64 63 64 65 63 63 63 65 65 64 63 64 65 65 67 66 65 67 66 66 67 67 67 67 67 68 68 68 68 69 69 69 67 68 69 68 67 67 69 70 69 68 68 69 67 68 68 68 67 68 69 69 66 96 153 184 178 168 163 161 162 167 170 169 172 178 177 171 162 153 162 190 201 184 178 181 170 157 163 185 201 197 194 204 209 201 192 191 194 188 175 164 152 148 155 152 155 169 182 197 188 169 166 175 177 175 178 183 182 177 173 183 189 181 187 192 135 72 58 66 67 66 67 69 68 68 68 69 71 71 69 68 68 69 70 70 71 71 70 70 70 71 71 72 72 70 59 82 150 194 179 148 137 143 149 147 148 154 153 152 155 152 151 154 161 167 172 177 177 173 172 175 178 176 174 170 165 166 166 165 163 164 165 165 162 158 165 179 169 114 54 42 55 65 68 69 68 68 68 68 70 71 72 71 70 70 72 72 72 71 70 71 71 71 71 71 71 71 70 72 73 73 73 73 74 73 71 72 72 72 72 73 74 74 74 73 75 73 73 72 74 74 73 71 72 72 74 74 73 73 74 73 73 75 73 73 74 74 73 72 73 74 73 72 73 73 71 74 72 71 71 70 72 73 73 72 71 71 70 69 69 70 69 71 70 71 70 71 70 69 69 71 70 70 70 70 69 68 69 70 71 71 70 
61 62 61 62 61 62 63 63 64 63 62 63 63 64 65 62 63 62 62 63 65 64 63 63 64 64 64 64 63 64 66 66 66 67 68 67 65 66 66 67 68 67 66 66 66 66 67 68 68 68 67 69 68 68 68 67 68 68 68 66 67 68 69 69 69 68 68 68 68 67 106 165 185 174 170 170 167 166 170 175 173 171 173 170 163 159 160 157 164 179 183 180 181 181 177 182 200 205 199 195 197 197 198 192 182 188 205 201 189 184 180 168 158 153 168 194 207 185 165 168 177 180 180 182 185 183 177 169 169 174 173 180 192 144 77 58 65 66 67 68 68 69 70 69 70 71 70 68 69 69 68 68 69 69 70 71 70 71 72 70 71 71 71 69 60 68 113 167 182 162 141 135 141 147 158 165 159 154 156 156 150 145 150 158 164 167 170 170 168 166 167 168 166 166 164 163 160 159 160 156 160 174 174 152 125 82 48 45 59 65 66 68 69 69 69 69 70 71 70 70 69 69 69 71 72 72 72 72 72 71 70 71 71 70 70 69 70 71 73 72 74 72 71 71 74 73 72 74 76 75 74 72 72 74 74 72 72 74 73 72 71 73 73 73 73 73 74 72 74 74 74 74 74 74 74 72 72 72 72 73 72 72 72 72 74 74 71 70 70 71 71 72 72 71 70 71 71 71 71 70 70 71 70 72 72 69 71 71 71 70 70 70 70 69 70 72 72 72 72 71 
60 60 63 63 63 63 61 61 62 62 61 61 61 62 62 61 60 61 62 64 65 65 64 63 62 62 64 65 64 65 65 67 67 67 67 66 66 68 66 66 67 68 67 66 66 68 68 66 67 68 68 69 70 69 68 67 66 67 68 67 67 69 70 69 68 70 70 69 66 69 115 172 179 159 158 166 168 170 171 175 176 173 169 162 159 161 167 166 163 171 184 190 192 192 195 193 190 186 180 179 177 179 187 193 184 182 199 207 208 206 202 204 210 196 176 186 201 181 163 167 177 180 179 179 185 188 183 179 171 166 167 175 193 154 83 59 66 68 68 68 67 69 70 71 70 68 69 70 71 70 69 68 68 69 70 70 69 70 72 71 70 70 70 70 71 64 61 84 130 167 174 163 155 149 143 157 162 151 157 165 168 163 159 160 163 164 162 160 162 165 166 167 161 163 165 164 155 152 162 173 179 178 153 97 50 36 47 61 67 69 68 69 70 71 71 71 72 72 70 69 70 69 70 72 70 70 72 72 73 72 71 72 72 72 71 70 71 71 74 73 73 72 72 72 73 74 72 74 75 74 73 73 72 72 73 74 74 73 73 73 72 72 72 71 70 71 74 72 73 73 73 74 72 71 73 73 74 72 72 74 74 72 72 72 74 75 72 69 71 71 71 71 70 70 70 72 72 71 71 71 71 70 70 73 73 70 71 71 72 71 70 70 72 72 72 72 72 70 70 70 
63 60 61 61 63 63 62 62 62 61 61 61 62 62 61 63 62 63 64 65 64 63 63 65 64 63 63 64 63 64 64 66 66 66 65 65 66 68 68 68 68 69 68 67 68 68 69 68 67 67 69 67 68 69 69 68 67 68 69 70 69 68 69 68 69 69 68 69 66 72 120 168 168 150 151 159 164 164 166 173 174 174 169 159 155 157 159 160 163 169 187 205 209 203 199 191 177 170 168 167 163 174 196 207 202 199 202 200 195 187 179 194 218 216 189 178 186 180 167 168 174 177 178 178 185 191 186 185 179 172 169 173 195 164 90 58 65 69 69 68 69 70 68 71 71 69 69 70 70 70 68 69 70 68 69 70 69 69 71 71 69 70 71 71 72 71 68 58 62 91 131 166 192 194 170 159 157 147 150 157 165 176 172 162 159 163 161 154 158 167 170 163 152 148 158 164 170 172 177 182 158 111 70 47 41 55 65 69 69 70 71 71 71 71 71 70 71 71 71 71 72 71 72 71 70 70 70 70 72 71 70 70 72 73 72 73 74 72 74 73 72 74 75 74 72 73 74 73 73 72 74 75 74 74 73 73 74 73 74 74 74 73 72 72 71 72 73 74 72 72 71 72 72 71 73 75 73 73 73 74 74 74 74 74 74 77 76 72 72 73 71 70 70 71 72 71 70 70 72 73 73 72 72 72 73 73 71 70 71 70 71 71 71 72 71 70 70 70 70 68 
64 62 61 61 61 61 61 61 61 63 63 63 63 63 62 64 63 63 63 64 64 64 64 66 66 64 63 64 64 64 64 65 67 66 66 66 66 67 67 68 69 69 68 68 68 67 69 67 67 68 68 68 67 67 68 67 67 67 69 69 70 68 66 67 68 67 68 69 66 74 124 167 164 145 146 152 158 161 166 174 176 173 172 179 180 179 174 167 165 168 177 194 203 198 188 182 171 164 162 166 165 167 185 199 195 189 187 180 169 167 176 190 191 174 165 172 181 183 175 172 174 177 182 184 185 186 186 182 174 167 169 174 193 163 90 59 65 68 68 69 69 70 68 69 71 70 71 70 70 70 69 70 70 70 70 70 71 70 72 71 70 71 72 71 72 73 73 70 64 57 62 86 130 169 187 188 187 181 171 161 156 165 171 161 154 156 156 148 151 160 169 168 163 168 178 177 178 163 130 95 64 41 36 49 61 68 71 71 70 71 72 71 71 72 72 70 68 69 70 71 72 70 72 72 71 70 69 70 71 72 71 71 72 71 71 72 72 72 72 72 72 74 75 74 73 74 75 74 73 72 73 74 73 73 74 72 72 74 73 73 73 73 73 75 74 74 73 74 73 74 73 73 73 73 72 73 74 73 72 72 74 74 74 74 73 75 74 73 73 72 72 70 71 71 71 72 71 71 72 72 71 72 73 71 71 72 70 70 71 70 70 71 71 71 71 70 69 71 71 70 
62 61 61 62 62 60 60 61 61 61 62 62 62 63 63 62 62 63 64 64 64 64 63 64 64 64 64 65 65 65 66 66 67 65 66 66 65 66 66 66 68 69 68 68 67 67 67 66 68 68 69 69 69 68 67 67 68 68 67 68 69 67 68 68 68 69 69 70 67 75 129 176 174 152 147 152 161 165 168 174 176 173 174 189 192 181 177 176 171 171 170 169 175 181 176 171 166 162 162 168 169 170 183 195 191 181 173 168 167 180 194 191 175 162 168 179 185 186 178 175 178 180 183 184 181 180 183 187 188 175 171 175 190 157 88 58 65 68 68 69 68 69 69 68 69 69 71 71 71 71 70 70 70 72 72 71 71 72 71 70 71 71 73 72 71 73 74 74 73 71 63 56 56 70 94 123 150 169 177 175 172 176 183 183 177 176 175 173 177 181 181 178 167 162 154 132 102 70 44 33 36 48 60 67 70 70 70 70 69 70 70 70 71 72 72 71 70 69 69 70 70 70 71 72 71 70 71 71 71 71 72 72 71 70 72 73 72 73 72 73 73 73 72 73 73 73 73 75 76 75 74 74 73 74 74 74 74 73 73 73 73 74 75 75 75 74 75 75 75 76 74 74 74 74 73 74 74 72 72 71 72 72 72 73 72 73 72 72 72 71 72 71 71 72 71 71 71 72 71 70 69 71 73 72 72 71 70 72 72 71 71 72 72 71 70 70 69 71 72 72 
61 60 60 61 61 62 61 62 61 60 62 63 62 61 61 61 63 63 64 63 63 62 62 63 64 65 64 64 64 64 65 64 65 64 65 64 65 66 67 66 66 67 67 68 68 68 68 68 68 69 68 68 68 68 69 69 68 68 68 68 67 67 69 69 69 70 71 71 67 74 129 175 175 156 148 150 162 167 169 172 173 177 178 178 172 164 168 174 177 181 185 184 178 171 166 165 167 168 167 171 176 180 187 193 191 184 176 167 164 173 189 192 178 179 191 194 195 195 180 171 177 182 181 182 182 180 181 182 187 184 175 174 185 149 84 58 66 69 68 67 67 68 68 68 68 68 70 71 71 70 71 70 70 72 72 70 71 72 71 71 71 70 71 72 71 71 72 72 73 73 71 68 62 53 46 48 58 73 88 101 113 125 138 149 153 152 153 155 152 140 123 106 87 70 55 46 36 33 41 54 63 67 70 72 72 70 69 70 70 71 71 71 71 70 70 71 73 73 71 71 72 72 70 69 71 72 73 71 72 71 70 70 71 72 73 74 74 74 74 74 74 73 73 73 73 73 72 72 72 72 72 70 71 71 70 72 73 73 75 75 74 75 75 73 73 73 74 74 76 76 74 74 74 75 75 74 72 71 71 73 73 72 73 73 72 72 73 71 72 72 72 71 72 73 73 72 72 71 70 69 69 71 72 72 73 72 72 72 72 72 71 72 72 70 70 71 71 71 71 71 
60 59 60 61 61 61 62 63 62 61 61 62 62 61 60 61 62 63 63 64 64 63 63 65 64 64 63 64 65 64 64 63 64 66 65 64 65 67 68 67 66 66 67 69 68 69 69 69 69 68 67 67 68 68 68 68 68 70 72 71 67 68 70 70 69 69 70 71 68 74 127 172 168 154 155 152 156 163 170 173 176 180 181 176 169 169 180 186 188 189 189 193 192 175 164 168 174 175 175 181 189 194 191 185 181 176 171 163 157 152 158 179 182 175 191 203 208 199 179 162 165 176 180 184 184 182 179 172 169 170 166 170 189 147 79 57 65 68 67 67 67 67 68 68 69 70 71 72 71 71 72 71 70 70 70 70 70 72 70 72 70 70 70 70 70 70 71 72 74 73 73 72 71 70 65 58 49 44 40 40 43 46 52 56 60 60 59 59 56 48 40 33 30 30 32 41 49 59 66 70 71 70 70 71 73 72 72 71 70 71 71 71 70 71 71 72 71 71 71 72 73 71 71 71 72 73 73 72 73 73 71 71 73 74 74 73 73 74 73 73 74 73 72 73 72 74 75 77 80 83 83 83 82 79 74 72 70 69 70 72 73 74 74 74 74 73 73 73 73 74 74 74 74 75 73 72 72 73 73 74 72 72 73 73 71 71 71 70 71 72 72 71 71 72 72 71 72 72 71 70 71 72 73 71 71 72 71 70 71 72 72 71 71 71 72 73 71 70 71 71 
61 59 60 60 62 62 62 62 62 62 62 61 63 62 62 63 62 62 63 64 63 63 64 65 64 63 63 64 64 64 65 65 65 66 65 64 64 65 66 67 66 65 66 69 69 68 67 68 68 67 67 68 68 69 69 68 68 70 72 71 68 67 69 69 68 69 68 70 67 72 122 170 168 153 158 161 160 163 172 179 183 188 185 177 172 169 179 185 180 180 184 186 190 176 167 176 184 185 188 198 206 205 195 185 179 173 167 158 152 150 153 164 167 159 181 206 212 199 179 166 163 166 173 181 182 181 183 180 172 171 171 176 192 144 74 55 64 66 67 68 68 69 69 70 71 70 71 71 70 70 70 70 69 69 69 70 69 69 68 70 70 71 71 71 70 71 72 73 73 72 72 71 72 70 71 72 69 67 61 56 52 46 43 41 40 39 38 38 38 40 43 47 52 58 64 68 70 71 70 70 70 69 70 72 73 73 71 71 69 70 72 72 71 72 71 72 74 74 72 71 72 70 73 73 72 72 72 72 72 73 73 73 75 75 74 72 73 75 74 73 71 72 79 90 102 114 123 131 137 141 141 142 144 143 135 128 115 102 84 71 68 67 70 72 73 74 74 74 73 74 75 73 73 73 72 73 75 76 75 74 72 72 72 72 70 71 72 71 70 71 72 72 71 71 71 70 73 73 72 72 72 74 74 72 71 71 70 69 70 71 72 71 71 72 73 72 71 71 72 72 
61 61 61 61 61 62 62 62 61 61 62 63 64 62 62 64 63 63 64 63 63 64 64 64 64 64 64 64 64 64 64 64 63 65 65 65 65 64 64 64 66 67 67 68 69 68 67 67 67 67 68 68 69 69 69 69 67 67 68 68 69 68 67 67 69 71 69 68 67 67 113 169 174 155 155 159 164 165 171 183 188 190 191 184 175 172 186 194 183 177 190 199 193 176 170 180 191 197 205 210 212 200 185 176 171 165 159 157 158 162 166 168 163 151 159 181 187 184 177 173 174 178 176 170 172 180 183 188 181 179 177 182 186 129 69 57 65 68 68 69 68 69 69 71 70 70 71 70 70 69 69 69 70 70 71 72 71 69 70 71 70 71 70 71 72 71 71 70 70 70 69 71 73 71 71 71 73 74 72 72 69 69 68 66 65 65 65 66 66 66 68 70 72 74 74 73 72 71 71 71 71 71 71 71 72 70 70 71 71 71 72 71 72 72 71 72 77 78 73 69 72 71 72 72 71 71 70 71 71 72 73 73 74 73 73 74 74 73 72 77 90 110 129 140 147 151 151 150 149 148 148 148 150 152 152 154 161 167 160 138 110 82 65 64 71 75 75 75 74 75 75 74 74 73 73 73 74 75 73 72 73 73 72 71 72 72 73 72 72 71 72 73 72 72 71 72 73 73 73 72 71 73 72 71 72 73 71 71 72 72 71 72 72 71 72 72 72 72 73 72 
61 62 62 62 62 63 62 62 61 60 61 63 64 64 64 64 64 65 65 63 63 63 62 62 62 64 64 63 65 65 63 64 65 66 66 65 66 66 65 65 67 68 68 67 66 67 68 68 68 68 68 68 69 68 68 68 68 68 68 69 68 67 67 67 68 70 70 70 70 64 103 172 189 160 153 158 162 168 172 179 187 187 191 192 181 169 176 189 191 187 190 188 183 178 180 192 203 212 215 208 196 182 168 161 158 159 163 167 171 172 174 173 170 158 142 158 179 186 185 178 176 184 187 179 174 175 173 174 171 167 169 182 178 114 63 59 67 69 68 68 68 69 67 68 69 68 69 70 69 69 70 71 71 70 71 72 71 72 71 72 71 71 71 72 72 72 71 70 70 70 70 72 72 72 72 71 72 73 72 74 72 73 74 73 71 71 72 73 74 73 73 72 73 72 71 71 70 71 72 73 73 73 72 72 74 72 72 72 71 71 71 70 72 71 71 71 72 73 71 70 73 73 71 72 73 73 71 70 71 71 72 72 72 72 73 72 72 81 101 124 146 154 154 158 166 175 183 188 190 193 196 197 192 185 179 173 171 174 177 174 173 163 136 98 71 66 72 73 73 74 73 75 75 73 74 74 74 74 72 72 74 74 74 73 73 72 72 73 74 73 71 72 73 72 71 70 71 72 74 74 72 71 70 70 70 72 72 73 74 73 71 72 73 72 71 71 72 71 71 71 
62 62 62 62 63 62 62 62 62 63 64 64 63 65 63 64 63 64 64 63 62 63 63 63 63 64 63 63 65 65 65 66 66 67 65 64 64 65 66 67 68 67 67 66 67 67 67 69 70 70 69 69 67 67 68 69 69 69 69 68 68 69 68 68 69 68 69 70 69 63 92 169 200 165 149 160 165 168 174 180 186 191 195 194 187 171 154 153 170 190 193 183 186 194 203 212 208 200 190 180 174 168 160 158 163 167 171 174 178 179 179 178 174 167 145 150 192 204 197 188 175 172 178 185 185 184 180 172 168 163 167 188 169 96 57 60 66 66 67 68 69 69 68 69 70 69 70 69 69 70 70 70 70 71 71 71 70 70 70 70 70 70 70 71 72 72 71 70 70 71 71 71 72 71 71 74 72 70 71 72 72 71 72 72 71 71 72 73 73 73 72 72 71 71 70 71 71 72 72 71 71 71 72 73 73 72 71 72 74 73 72 71 71 71 71 71 71 71 72 72 71 72 73 71 72 72 72 71 72 72 72 72 73 73 72 76 95 128 155 160 167 175 194 216 229 238 242 245 247 247 242 240 241 242 238 231 223 218 205 187 181 190 201 187 142 93 68 67 72 73 73 73 75 74 73 74 75 75 73 73 73 73 73 74 73 73 72 74 73 73 72 71 72 72 72 71 70 70 72 73 72 72 71 72 71 71 72 72 73 72 72 73 74 73 72 72 73 72 72 73 
62 63 62 61 61 62 62 61 61 63 65 65 63 63 63 62 61 61 62 63 63 64 64 64 65 65 64 64 65 64 65 65 65 64 65 66 66 66 65 65 66 67 68 68 69 69 68 68 68 70 71 69 68 69 68 69 69 67 68 69 70 70 71 69 69 69 68 69 70 64 79 148 192 168 143 151 156 155 162 175 188 192 193 188 181 177 177 174 180 201 218 213 202 195 191 181 165 155 157 158 159 161 163 167 172 175 176 175 175 178 181 182 178 173 158 143 169 196 193 180 168 160 167 179 184 187 195 188 177 167 170 180 141 76 56 65 68 67 68 68 67 69 69 69 70 70 69 69 69 70 70 71 71 71 71 70 72 72 70 71 70 69 70 71 71 70 71 71 71 71 71 70 71 70 72 74 72 70 70 72 73 72 71 70 71 71 71 71 72 74 73 72 73 72 71 72 73 73 73 72 71 72 72 73 71 70 70 71 75 73 71 72 71 72 71 71 71 73 75 74 73 71 72 72 70 73 74 73 74 73 74 74 73 74 87 117 149 167 174 187 211 233 245 253 255 255 255 255 239 214 196 189 189 196 203 207 213 224 237 231 213 201 199 209 214 185 125 79 67 71 74 74 74 74 73 73 74 75 74 74 73 71 72 74 74 73 73 73 73 73 73 71 70 70 71 72 72 72 72 72 73 73 73 73 73 72 71 71 71 71 71 73 74 73 73 73 73 73 71 72 
62 61 61 61 63 62 62 63 63 62 62 63 63 63 63 62 63 63 63 64 65 64 63 64 64 64 65 65 63 63 63 64 66 66 67 66 66 66 66 65 66 68 68 67 67 67 67 67 69 69 69 67 68 69 69 70 70 68 68 70 69 68 71 70 69 68 70 71 71 67 68 125 190 182 138 138 150 155 160 163 178 185 182 181 182 183 202 215 209 198 190 178 158 145 141 139 138 147 158 160 159 163 170 174 178 181 178 173 171 176 182 182 176 175 167 146 137 171 202 204 188 166 160 174 178 175 177 179 176 168 173 165 107 60 58 67 68 68 67 68 69 68 69 69 68 68 68 70 71 70 70 70 70 71 71 71 72 71 72 70 70 71 72 71 70 71 72 72 70 70 70 72 73 72 71 72 72 71 71 72 72 74 73 72 73 72 72 72 73 73 73 71 73 74 73 71 71 72 73 73 73 73 72 72 71 70 70 70 72 70 70 71 72 72 71 70 70 71 72 71 71 70 70 73 72 73 72 72 72 72 74 73 76 98 135 165 179 192 215 240 251 255 255 255 250 237 219 196 177 168 163 154 147 145 145 144 144 153 182 213 229 231 219 205 213 227 214 159 94 68 71 73 74 73 72 72 72 73 74 75 74 73 74 73 72 72 72 74 74 72 73 72 72 71 72 72 73 74 74 73 74 73 73 74 72 71 72 71 70 70 73 74 74 74 73 72 73 73 71 72 
63 62 64 63 62 62 63 63 62 62 64 65 65 66 64 63 64 64 64 63 63 63 63 65 66 66 66 65 62 61 63 65 65 67 66 66 66 66 66 66 65 65 66 67 68 69 68 68 68 66 66 68 70 69 67 68 68 69 70 70 70 69 69 69 69 68 69 69 69 70 64 106 186 200 149 140 153 159 164 163 165 174 174 173 182 185 183 184 175 159 147 142 136 134 140 154 164 161 161 164 170 173 173 176 177 174 169 170 176 182 184 181 177 175 170 158 138 143 182 208 205 185 162 161 174 175 164 163 165 165 172 146 81 55 61 65 66 67 69 70 69 69 68 70 70 69 69 69 71 71 71 71 71 70 69 69 70 70 71 71 69 72 72 70 70 71 72 70 70 69 70 72 72 73 72 72 71 70 72 73 71 72 73 73 73 74 74 73 73 72 71 71 72 73 72 72 72 72 72 72 72 72 72 71 72 72 71 71 71 72 70 70 71 72 72 72 72 71 70 70 72 72 72 73 72 73 73 73 72 73 72 78 105 144 171 182 205 235 251 254 254 255 246 213 180 165 163 160 157 159 160 159 159 163 170 168 158 149 143 149 169 207 235 234 219 216 233 234 186 110 67 70 74 73 72 71 72 73 74 75 74 73 74 74 73 72 73 73 74 71 71 72 74 73 72 71 71 73 73 72 73 75 73 73 72 71 73 73 71 72 74 74 73 73 74 73 72 71 71 72 
62 61 63 63 63 62 62 63 63 63 64 65 65 64 64 63 63 64 64 64 63 63 64 65 65 64 64 65 64 63 65 65 65 65 66 66 68 67 65 65 66 67 68 68 67 67 69 68 67 68 70 70 70 69 68 67 67 69 70 70 69 68 68 69 69 69 70 69 70 72 64 82 171 230 183 151 163 158 156 155 158 166 172 173 182 187 183 178 175 169 166 165 164 167 172 172 165 163 166 171 180 185 184 182 180 173 170 175 181 186 184 181 179 178 173 164 160 150 155 177 191 188 173 155 160 173 168 161 161 168 164 110 62 57 63 66 66 66 67 68 68 69 69 71 72 72 71 71 70 70 70 71 71 71 72 72 72 71 70 70 70 71 72 70 71 71 70 69 69 70 71 72 73 73 72 72 71 71 72 72 73 73 73 72 73 75 75 74 74 72 72 73 74 74 72 71 72 73 73 73 71 70 71 71 73 72 72 71 72 73 71 70 70 71 72 75 75 72 71 71 72 74 74 73 71 71 73 73 73 73 82 112 147 169 185 214 244 252 253 253 255 237 197 177 176 170 164 161 162 169 175 179 187 194 198 195 186 180 173 162 151 155 179 215 230 221 217 235 250 208 124 74 71 73 74 73 74 74 74 73 73 74 76 75 73 73 72 72 72 72 70 72 73 72 72 71 71 71 72 72 74 74 73 74 74 75 75 74 73 74 73 71 71 71 72 73 72 72 73 71 
62 60 60 60 62 62 61 61 62 63 64 65 64 63 64 63 63 64 65 66 66 63 62 63 64 64 63 63 64 66 67 64 64 64 66 67 67 66 65 65 65 65 66 66 66 66 68 68 69 70 71 70 70 69 70 70 69 67 67 68 68 68 68 69 69 70 68 68 69 71 69 66 123 209 210 150 151 155 152 158 168 166 173 181 186 185 184 183 180 175 174 176 178 178 172 167 164 169 177 183 188 191 186 180 177 175 174 179 186 189 186 189 193 190 187 182 180 170 150 152 174 182 170 159 153 160 166 162 167 176 146 73 52 61 67 67 66 66 67 67 68 69 71 70 69 69 69 71 72 71 70 70 71 72 71 72 71 71 70 72 72 69 70 71 72 71 70 70 71 71 71 71 71 71 71 71 71 73 72 73 72 71 71 73 74 74 73 74 74 74 74 74 74 72 71 72 72 71 71 70 71 73 74 73 73 73 73 72 73 71 71 70 71 72 74 74 73 71 70 70 72 72 73 72 71 71 72 74 72 79 111 151 177 192 207 231 250 250 249 240 214 180 169 178 181 172 170 186 196 187 177 177 188 199 202 199 199 195 195 195 187 173 157 163 200 230 226 216 229 250 221 134 73 71 74 74 76 75 75 74 74 75 74 73 72 73 72 72 72 70 71 74 74 75 74 73 73 73 73 73 72 71 72 72 72 73 72 73 75 75 73 72 73 73 72 71 71 72 71 73 
60 60 61 61 61 60 60 62 63 62 61 61 61 63 62 63 64 63 65 66 66 65 63 64 66 66 65 64 65 64 65 64 64 66 66 65 65 66 67 67 65 65 66 68 69 69 69 70 70 71 70 69 69 70 71 71 69 68 68 68 69 69 70 71 71 69 69 69 70 72 73 65 80 163 230 181 138 151 156 161 166 164 169 181 186 186 188 186 180 174 174 179 183 177 164 161 170 178 184 189 190 184 174 168 170 176 178 179 191 199 199 206 212 208 198 189 176 165 157 149 155 172 175 165 159 153 159 162 175 171 105 53 56 66 67 67 67 68 68 67 69 70 71 70 69 68 68 68 70 72 71 71 70 69 70 70 69 70 72 71 71 70 70 72 73 72 71 71 69 69 69 69 71 71 72 70 72 73 73 73 71 71 72 73 74 74 73 73 73 74 74 74 75 74 74 72 73 72 71 71 71 71 72 73 72 72 71 72 72 71 73 72 71 72 73 72 71 72 73 73 72 71 71 72 72 73 74 73 75 105 147 174 195 221 233 234 247 252 250 230 200 199 205 193 173 169 172 181 201 215 207 191 187 189 189 191 200 206 203 198 196 197 190 173 178 210 232 222 210 226 255 225 124 72 72 74 73 73 73 75 76 75 73 72 72 73 73 73 73 71 73 74 74 73 72 72 74 74 73 72 73 72 73 73 72 73 73 74 75 74 72 72 73 73 72 72 72 71 72 72 
60 61 63 64 63 62 62 62 63 63 62 61 62 63 64 63 64 63 63 64 66 66 64 64 65 65 65 65 65 66 66 64 64 65 65 64 65 66 67 68 68 66 67 68 69 69 70 70 69 69 70 69 68 69 70 69 70 71 71 70 70 70 71 70 69 69 70 71 72 72 72 69 65 111 207 225 151 144 151 148 156 158 154 161 176 185 189 189 185 177 172 174 178 175 173 174 172 178 186 185 177 168 164 166 173 180 180 176 180 192 203 205 203 193 181 172 167 161 161 159 151 151 163 165 159 153 149 163 171 133 61 51 62 67 67 68 69 69 68 69 70 69 68 70 71 72 71 70 70 71 72 70 70 70 71 70 71 71 72 72 71 72 72 72 71 70 70 71 71 70 70 69 70 70 72 71 71 73 71 71 71 72 73 72 72 74 74 73 73 72 73 74 73 75 73 73 74 74 74 72 71 71 71 72 72 73 73 72 72 73 75 73 72 71 71 70 70 71 72 74 75 72 72 73 73 73 74 73 94 142 177 184 190 205 214 223 242 251 250 250 238 228 214 189 176 181 192 189 180 186 208 212 205 200 195 193 194 205 212 207 206 215 219 207 189 192 217 229 221 213 231 255 209 111 71 72 73 74 74 74 75 75 74 74 73 73 73 73 73 72 74 74 73 72 71 71 73 74 73 72 73 74 74 75 73 74 75 75 73 74 74 72 71 71 72 73 73 72 72 74 
61 63 62 62 63 64 64 64 64 64 65 64 63 64 65 65 65 64 63 64 63 64 65 64 64 66 66 64 63 65 65 67 67 65 65 67 67 66 65 67 68 67 68 67 68 69 71 71 71 69 70 69 69 68 67 67 68 69 70 70 71 71 71 69 69 68 71 72 72 71 72 74 68 72 140 227 194 138 146 147 157 172 171 160 167 180 186 189 186 176 169 166 167 169 171 178 180 188 189 179 169 164 165 172 179 180 176 170 168 176 186 189 186 180 174 173 171 166 165 162 156 150 156 166 160 153 152 168 152 80 49 58 65 66 67 68 68 68 69 70 69 69 69 71 72 72 71 70 71 72 71 70 72 72 71 70 72 72 71 70 71 73 71 70 69 71 71 71 72 72 71 71 72 71 69 69 71 70 70 72 73 72 73 74 73 72 72 73 73 74 75 73 74 75 73 73 74 73 72 72 73 74 73 73 73 74 73 71 71 73 72 72 73 73 72 71 71 72 72 73 74 71 72 74 73 74 72 83 126 168 185 197 207 208 212 217 220 242 248 231 203 182 174 171 188 203 202 206 208 198 198 214 222 220 213 208 209 216 223 224 220 222 226 224 208 191 200 226 227 220 214 242 253 189 94 69 72 74 73 73 73 73 73 74 73 74 74 74 73 73 74 74 72 73 73 71 71 72 72 72 74 75 74 73 74 73 74 74 72 73 75 75 75 74 73 72 73 73 72 74 
63 64 63 62 61 62 63 64 64 64 64 64 64 63 64 65 64 66 65 64 65 65 66 65 62 63 64 64 63 64 65 68 68 67 67 68 68 66 67 68 68 67 67 68 69 69 71 70 69 68 69 71 71 70 69 69 70 70 69 70 71 70 69 69 69 69 69 70 71 72 71 72 72 65 85 170 235 174 128 140 147 156 166 171 167 171 178 184 183 177 169 164 166 172 174 180 189 195 191 179 170 170 173 177 178 173 170 176 181 181 177 177 180 182 180 175 171 172 172 168 164 159 159 166 167 161 175 167 102 47 55 64 67 68 69 69 69 69 69 70 70 70 70 69 69 71 70 69 70 69 70 72 72 71 71 71 71 71 70 71 72 73 72 70 71 72 72 72 72 72 71 72 72 71 70 71 72 71 72 72 72 72 72 73 73 72 74 75 74 75 76 74 73 73 76 75 73 73 73 73 72 72 74 74 72 71 72 73 72 73 73 72 72 73 74 73 72 72 73 73 72 71 71 73 74 73 75 109 157 181 187 197 222 244 247 238 227 229 227 188 167 175 178 185 199 219 220 206 204 214 216 218 228 242 241 238 239 245 246 243 235 228 220 216 211 194 186 210 226 223 218 217 248 247 146 76 71 74 74 75 75 74 75 74 72 72 73 74 73 72 72 73 73 72 72 72 74 74 73 74 74 73 71 71 73 73 73 73 73 73 73 74 74 73 72 71 72 72 72 72 
64 65 65 64 63 62 61 61 62 62 62 63 63 63 63 63 64 64 64 65 65 64 65 64 62 62 63 64 65 64 65 67 68 66 65 66 66 66 67 68 67 67 67 68 68 70 69 70 69 70 69 69 70 71 72 71 70 72 72 71 71 70 69 70 70 68 70 71 70 71 70 70 72 71 65 97 200 238 158 132 146 144 149 156 161 163 163 166 167 165 166 166 164 169 179 188 193 191 182 173 171 175 179 178 175 174 177 184 185 176 172 177 179 181 181 178 175 175 176 175 171 166 162 157 161 177 182 121 48 49 61 66 68 69 69 69 70 71 71 70 70 70 70 69 69 71 71 72 71 70 71 73 73 72 72 72 71 71 71 71 71 72 73 72 72 72 72 72 72 72 71 72 73 71 70 72 72 73 73 73 72 73 72 71 73 75 74 73 74 75 76 75 73 73 74 73 72 72 73 74 73 72 72 72 73 72 71 73 72 72 72 71 72 72 73 73 71 72 73 74 73 73 72 74 75 73 88 141 176 185 196 205 214 233 246 247 245 238 211 174 175 182 186 197 208 206 202 200 195 193 204 213 213 215 222 223 225 224 219 221 230 236 233 221 213 205 192 196 220 223 217 210 227 255 209 108 71 71 74 74 74 75 77 75 74 74 75 74 73 71 72 73 73 73 72 73 74 74 74 74 74 74 72 72 74 74 73 73 73 73 72 73 73 72 73 73 73 73 73 73 
61 62 63 63 63 63 62 62 63 63 64 65 63 62 63 63 63 65 65 66 66 65 66 66 66 64 64 66 68 67 67 64 63 64 63 64 65 67 67 68 68 68 68 67 67 66 67 70 71 70 69 69 68 69 70 70 70 70 71 71 70 70 70 70 71 70 69 69 70 70 71 73 73 73 69 68 111 217 234 153 135 147 151 153 156 156 154 153 156 161 164 165 164 166 175 189 199 192 181 175 174 176 178 177 175 176 178 177 170 165 172 180 175 174 178 176 176 176 177 177 172 163 154 151 163 168 127 55 43 60 66 68 69 69 68 69 71 71 70 69 69 69 70 70 70 72 72 72 70 71 71 70 70 70 70 71 70 69 70 70 69 70 71 71 71 71 70 71 72 71 71 70 71 72 70 71 71 70 71 73 72 73 74 73 73 74 72 71 72 72 73 74 73 73 74 73 71 72 73 73 74 74 73 73 74 74 72 71 71 71 71 73 73 73 73 72 73 72 71 72 73 73 75 76 74 75 116 164 186 192 202 212 213 212 225 241 242 230 200 181 186 190 203 220 218 205 197 206 212 199 189 195 196 187 185 192 199 198 199 199 206 219 229 229 222 218 208 196 209 223 221 213 213 250 247 154 81 69 73 72 72 73 74 73 72 74 75 73 72 71 74 73 74 74 73 72 72 74 74 73 72 74 75 73 72 72 74 75 74 74 73 73 73 73 73 73 74 74 73 73 
62 62 62 62 63 63 63 63 65 65 64 63 62 63 63 65 64 63 64 66 66 65 65 65 65 65 66 68 68 66 65 63 63 65 66 67 67 66 64 65 67 69 70 68 68 67 67 68 69 69 68 69 70 70 69 69 69 68 68 69 68 69 69 68 68 70 70 70 71 70 71 71 71 71 73 71 67 114 220 229 153 128 138 145 146 150 154 153 152 154 158 160 162 168 179 188 188 185 182 181 179 179 182 183 181 178 176 174 169 169 175 175 172 172 176 176 175 173 170 170 164 151 151 166 166 120 48 40 59 67 69 69 68 68 69 69 69 71 71 70 70 70 72 72 71 69 70 70 71 70 69 69 70 70 71 72 71 72 72 70 70 72 72 72 70 71 71 70 70 70 71 72 71 72 72 71 72 70 71 72 70 70 72 74 73 72 72 72 73 73 74 74 74 76 76 75 75 75 75 75 74 74 75 75 74 76 74 73 72 74 73 73 74 73 73 73 73 73 71 70 72 72 75 76 74 88 144 178 192 206 219 230 231 224 224 237 240 227 201 190 194 198 219 235 229 220 216 215 220 227 219 204 200 202 197 195 198 198 195 200 207 210 215 224 229 228 220 208 208 218 221 216 211 237 255 201 108 71 70 73 74 74 74 74 73 73 75 74 72 72 72 72 72 73 73 74 74 74 75 73 72 73 74 73 72 73 73 73 73 73 73 73 72 71 71 72 73 72 72 73 
63 64 62 63 64 63 64 64 64 64 63 62 63 63 64 66 65 63 65 66 64 65 66 65 65 65 66 66 65 65 64 65 66 67 66 66 68 68 67 66 66 68 67 66 66 68 68 68 69 69 70 70 71 70 69 69 71 71 70 69 70 71 69 69 69 69 71 72 71 69 70 70 70 70 72 73 70 65 110 213 228 162 128 134 143 147 147 148 152 153 153 157 161 170 183 186 178 174 179 183 185 186 185 182 180 179 176 172 172 173 175 175 175 175 172 168 169 167 163 158 151 152 166 166 118 48 35 55 65 67 69 69 69 70 70 69 70 71 70 71 72 70 70 69 69 68 69 70 71 71 70 70 71 72 72 71 71 71 73 73 70 72 73 72 71 72 72 72 70 70 72 73 72 72 72 71 70 71 72 71 71 70 71 73 72 71 72 74 75 74 73 74 75 75 74 75 77 76 75 75 75 75 76 74 73 74 75 74 74 75 74 73 74 73 74 74 73 72 72 71 72 72 74 74 72 107 162 180 184 197 207 213 219 227 234 237 234 220 201 194 197 204 223 236 235 235 239 234 220 217 230 232 218 207 208 215 222 221 216 215 223 226 225 225 228 233 232 220 213 215 216 215 213 223 253 241 148 81 69 73 74 74 73 74 74 74 74 74 75 75 74 73 73 72 72 74 74 74 73 73 73 73 72 73 73 73 71 71 72 72 72 71 71 71 72 72 71 70 72 71 
64 64 65 64 65 66 66 64 63 64 64 65 65 66 64 65 66 66 66 65 64 65 67 67 66 64 65 65 65 64 66 66 66 67 67 67 68 69 70 70 68 66 66 66 68 68 69 69 69 70 68 70 68 68 70 71 71 71 70 69 70 72 71 71 71 69 71 72 71 70 70 70 72 72 72 71 73 70 64 97 194 225 177 139 138 148 150 148 151 156 156 155 159 167 181 175 170 173 175 179 183 180 176 176 176 173 169 171 175 178 177 176 178 173 165 162 172 176 161 149 159 174 158 99 40 35 53 62 66 67 68 69 70 70 70 70 72 72 72 72 71 70 68 69 71 71 71 71 70 70 71 71 71 70 70 70 71 71 72 76 74 70 71 71 73 72 73 73 71 71 71 72 71 72 70 72 70 72 73 73 72 71 72 72 71 71 73 74 75 74 74 73 73 73 72 72 72 73 73 74 74 73 73 73 72 72 74 74 73 72 72 74 73 73 74 75 75 74 73 73 73 73 73 72 77 125 172 180 181 198 212 206 204 223 240 237 229 213 192 190 197 207 223 233 237 237 233 230 228 222 216 216 219 221 223 225 226 231 239 238 238 240 238 226 224 235 237 221 211 213 214 216 209 206 242 255 187 97 68 74 75 74 74 75 75 75 75 72 72 75 75 73 72 73 74 74 72 72 73 73 74 74 72 71 70 71 70 72 74 74 71 70 70 71 73 73 71 71 71 70 
62 62 65 64 65 64 63 64 65 65 65 64 65 65 65 65 65 65 63 64 66 65 64 64 66 67 67 66 67 65 65 66 67 67 67 68 66 65 67 68 67 67 68 67 68 68 69 69 71 70 69 68 67 69 70 70 69 68 69 70 69 70 71 71 71 71 69 70 71 71 71 71 71 72 72 71 72 73 72 65 82 160 219 198 151 140 148 147 143 147 152 152 155 170 187 173 165 177 183 184 180 171 170 174 176 173 171 174 180 182 181 177 171 165 164 165 154 147 149 168 180 147 80 32 38 56 66 67 68 69 69 69 71 71 72 72 72 71 70 69 69 68 68 70 70 72 72 72 71 70 69 71 72 71 71 72 73 73 72 72 70 70 70 72 73 72 72 72 71 70 70 69 71 70 69 72 70 72 73 72 71 72 73 73 72 72 73 74 74 73 73 73 73 74 73 72 72 73 74 74 74 74 72 71 73 73 73 74 74 73 73 74 73 72 73 74 73 72 72 74 75 74 74 73 87 143 178 189 202 204 208 215 224 232 234 229 221 201 183 188 193 202 227 238 232 231 231 229 227 222 212 210 222 237 234 216 205 209 226 243 243 240 237 229 221 220 221 219 216 215 213 213 211 202 228 254 211 119 72 71 73 71 73 74 73 73 73 70 71 72 72 72 72 73 74 74 73 72 72 73 73 72 73 72 72 72 72 73 75 74 72 71 71 71 72 72 72 73 73 73 
63 64 64 64 63 63 63 64 65 65 65 66 67 66 66 65 64 63 64 66 66 66 65 65 67 67 66 66 66 66 66 67 66 67 66 67 66 67 67 67 67 68 68 69 67 66 67 68 69 69 71 70 68 69 69 68 67 68 69 70 69 70 70 70 70 72 72 72 73 74 74 72 71 72 72 72 72 72 73 72 66 68 129 208 214 174 145 137 134 131 136 143 149 164 185 183 176 186 187 180 179 178 174 172 172 174 173 176 181 177 171 169 166 163 153 144 143 157 171 163 115 55 29 43 59 67 71 70 70 71 70 70 70 71 72 72 72 72 71 71 71 71 72 70 70 71 72 72 70 70 70 72 73 72 71 71 73 73 73 70 70 71 72 73 72 71 71 71 71 70 70 72 74 72 70 72 71 72 71 72 71 74 75 73 73 73 74 75 73 73 75 75 76 76 76 75 74 74 73 73 74 74 73 72 73 73 73 74 74 75 74 74 74 73 74 74 72 71 72 71 73 74 73 72 97 159 183 194 214 221 214 214 225 232 227 221 219 216 215 217 215 208 220 233 221 207 217 233 238 235 229 226 228 223 215 207 208 212 217 231 240 235 233 234 223 210 209 213 217 217 214 212 212 208 220 247 223 140 79 68 73 73 73 73 75 75 74 75 73 74 72 71 72 73 73 73 72 71 73 74 72 71 71 72 73 74 74 73 72 71 71 73 74 73 72 71 72 72 71 72 
65 64 64 65 64 64 64 64 64 63 64 65 65 64 66 65 65 63 65 66 64 65 66 66 66 67 66 65 65 65 66 67 67 67 67 68 67 67 67 66 67 68 67 67 66 66 67 68 67 68 69 71 70 69 69 68 68 70 71 69 68 69 68 69 70 71 71 70 69 70 70 71 71 71 71 70 73 74 71 72 72 68 63 94 154 200 199 167 139 123 119 128 139 153 177 188 181 175 172 170 171 174 175 171 167 169 170 172 171 166 160 158 154 145 144 155 170 169 130 71 33 32 49 62 68 67 69 71 70 69 69 70 72 71 70 71 72 71 72 73 73 72 70 71 71 69 70 71 70 71 72 72 71 71 71 71 71 71 71 70 72 74 73 71 70 71 72 72 72 72 71 70 71 72 73 74 74 73 70 71 74 75 75 75 73 73 73 73 72 73 73 75 76 74 75 75 75 75 75 75 75 75 75 74 74 72 72 74 74 75 75 74 75 74 72 73 73 72 73 72 71 72 72 71 105 169 181 187 207 218 218 221 229 232 228 223 224 236 246 227 223 228 220 212 201 189 190 205 223 234 237 235 231 222 227 221 222 231 232 228 233 232 229 235 238 232 224 218 215 214 216 215 215 211 210 235 227 154 85 67 74 75 75 75 74 74 74 74 75 74 74 73 71 72 72 73 73 72 73 74 72 73 73 70 72 72 73 73 72 70 70 73 74 73 71 70 71 70 71 71 
64 64 65 65 64 65 64 65 64 63 64 65 64 64 65 65 64 66 65 65 65 66 68 68 67 65 65 65 65 67 65 65 66 66 68 68 67 66 65 65 66 68 68 67 67 68 68 68 69 71 70 70 70 70 70 70 72 72 71 68 68 70 69 70 70 70 70 70 70 69 69 71 72 72 71 72 74 74 73 72 73 73 70 61 64 103 153 188 193 170 140 126 120 121 137 156 158 153 154 158 161 163 165 166 169 171 168 164 154 144 141 142 147 160 174 163 126 78 36 26 41 57 66 69 69 69 70 71 71 71 71 71 72 71 72 72 70 69 70 71 72 71 71 70 70 72 70 69 71 72 72 71 72 73 72 71 71 71 71 70 71 73 71 70 69 70 70 70 70 71 71 71 70 71 72 72 73 73 73 74 75 74 73 73 74 75 74 72 73 75 75 74 74 73 74 73 74 76 75 75 74 72 72 73 73 74 73 73 73 74 73 72 72 73 73 73 73 74 75 74 74 73 74 73 113 176 183 177 186 200 204 211 223 229 226 226 225 225 235 225 219 232 231 225 208 194 188 192 205 223 234 240 236 228 238 237 219 236 240 229 233 240 239 234 239 245 238 222 215 214 213 212 212 211 206 225 226 161 90 66 71 73 74 75 74 73 73 73 73 73 73 73 74 73 73 72 72 73 72 73 72 74 72 72 72 71 71 72 73 72 71 72 74 73 72 73 72 72 71 72 
63 64 65 64 63 64 64 64 64 64 65 67 68 66 64 65 64 65 65 66 66 67 67 66 65 66 65 65 67 68 68 66 67 66 68 68 66 66 65 65 66 67 68 69 69 68 68 70 71 71 71 70 70 70 71 72 71 71 71 70 71 71 72 73 72 71 70 70 71 72 73 73 72 72 72 73 74 73 74 74 73 74 73 75 68 58 60 90 137 172 180 175 160 138 123 121 123 124 129 137 143 144 144 146 149 151 149 147 145 146 151 159 165 152 119 71 32 23 35 52 63 68 72 71 70 71 71 70 71 72 71 70 71 70 69 70 71 71 71 70 71 71 71 70 70 72 71 69 70 70 70 71 71 72 71 70 69 70 72 71 72 72 70 71 71 71 70 69 69 69 70 71 72 72 71 71 70 72 74 73 72 73 72 72 73 73 73 74 73 74 74 75 75 75 74 73 73 74 74 73 73 74 74 75 75 74 74 73 71 73 73 73 73 73 74 74 75 75 74 75 75 75 74 72 120 186 192 195 194 200 206 213 222 225 223 226 224 214 211 224 236 238 221 218 216 202 194 202 217 226 229 233 236 236 233 234 232 231 232 229 238 248 249 244 241 241 234 219 214 216 214 210 208 207 203 219 226 169 96 67 71 73 73 74 73 73 74 75 73 71 73 72 73 73 72 71 71 71 72 71 72 72 72 73 72 73 71 71 72 72 72 71 71 72 72 72 73 73 73 72 
62 63 63 63 63 64 65 65 65 64 64 66 67 66 66 64 63 63 65 66 65 65 65 64 64 66 66 65 66 68 67 68 67 66 69 70 69 68 67 66 65 65 66 69 70 70 69 71 71 69 70 70 69 70 70 69 69 70 70 72 74 73 71 71 73 72 70 70 72 73 72 71 71 71 71 72 73 74 72 73 72 73 74 74 73 72 67 58 55 69 98 133 162 167 165 160 153 150 146 142 144 145 145 147 150 151 154 155 158 156 142 120 88 50 26 23 36 52 61 67 70 71 72 73 72 71 71 72 72 73 72 69 70 69 69 71 73 73 72 72 71 70 70 72 72 70 70 70 69 68 68 70 70 70 71 72 72 72 70 72 73 74 72 72 72 72 72 72 71 71 70 72 74 74 72 72 71 71 72 72 73 72 73 74 74 74 75 74 73 73 72 74 74 74 73 73 74 74 73 72 73 75 76 76 75 73 74 75 74 74 75 75 75 74 74 74 75 75 74 73 74 76 73 72 127 195 200 211 214 208 206 213 222 223 221 224 222 209 201 207 218 239 224 199 188 189 195 208 225 234 231 227 230 238 232 215 211 217 219 228 242 247 246 245 242 237 228 216 215 216 216 212 209 208 204 214 221 174 101 68 70 73 73 74 73 72 73 74 73 73 73 73 71 72 72 71 71 72 73 73 73 71 71 71 71 72 71 71 71 73 73 72 71 71 72 72 72 73 73 73 
64 64 62 63 64 63 63 65 65 65 65 66 67 65 65 66 66 64 65 65 66 67 68 66 66 68 68 67 67 68 67 67 67 67 67 68 68 68 67 67 68 68 68 69 70 69 68 68 70 70 69 68 70 70 71 70 70 71 71 71 71 71 70 71 72 72 71 72 70 71 71 72 72 71 71 71 72 74 73 74 72 71 74 74 73 72 73 73 70 61 53 51 58 71 89 109 122 135 144 145 152 159 158 155 152 143 125 103 80 59 39 29 25 30 45 57 65 69 70 71 70 71 71 71 72 72 72 71 71 70 71 70 71 71 71 72 72 71 72 71 71 71 72 72 72 70 71 71 69 69 70 71 71 71 72 73 73 72 70 69 70 71 70 70 72 72 72 71 72 73 72 71 72 71 73 74 72 70 70 71 72 74 74 75 75 73 72 72 76 83 80 74 74 74 73 74 74 75 75 75 75 74 74 75 74 73 73 74 73 73 74 74 73 74 75 76 75 75 74 73 73 74 75 73 126 199 203 205 211 209 206 212 221 225 226 226 219 201 193 191 179 188 198 191 188 196 209 223 235 238 231 224 229 236 234 220 213 218 217 224 234 240 240 237 233 233 228 213 205 213 217 214 210 206 204 211 215 171 100 68 70 72 72 72 73 73 73 73 73 74 73 73 72 71 71 70 70 70 71 73 72 72 72 72 71 70 71 70 69 70 71 71 71 71 71 72 73 72 71 73 
65 65 64 65 65 65 64 64 64 65 65 64 64 65 64 64 65 66 67 65 66 67 67 66 66 66 66 65 66 66 68 67 66 68 68 67 67 68 69 68 68 69 68 68 69 68 68 68 69 70 70 70 72 71 71 71 71 72 72 72 71 70 70 72 72 72 72 72 72 71 71 72 72 72 71 72 72 73 71 72 72 72 72 72 73 73 73 73 73 74 71 66 57 50 46 43 45 47 48 51 54 59 58 55 49 41 35 31 28 30 36 44 54 62 68 71 71 71 72 72 72 71 70 71 71 72 71 72 71 70 70 70 71 70 70 71 72 72 73 71 71 71 72 71 71 71 71 71 71 71 70 70 71 71 72 72 72 72 72 70 71 71 70 70 71 72 72 71 71 72 72 71 71 72 73 71 71 72 73 73 73 73 73 73 73 73 73 72 76 88 92 78 74 75 75 74 75 75 76 76 74 73 75 76 75 74 73 73 73 72 73 74 73 74 75 76 75 73 73 74 75 76 76 71 119 194 197 195 197 201 204 208 218 225 227 225 212 192 188 188 177 171 181 193 205 217 228 237 239 229 219 221 229 236 238 232 225 222 218 219 223 229 235 234 228 229 229 218 201 205 213 215 212 206 202 208 211 166 94 65 70 72 72 72 74 74 74 72 73 70 71 71 70 71 70 70 70 70 71 71 70 70 71 71 72 71 72 72 71 70 71 73 71 71 71 70 72 72 73 72 
63 63 64 64 63 63 63 64 65 64 63 62 62 64 64 64 64 65 65 67 68 67 66 66 66 65 65 66 66 67 67 67 68 67 66 68 69 70 69 69 69 68 68 67 68 68 68 70 71 72 71 71 71 72 72 73 71 70 71 73 72 71 71 72 72 71 71 73 73 72 71 73 71 70 71 71 72 73 71 72 71 72 71 71 72 72 72 73 73 73 73 73 71 71 68 63 60 55 50 47 44 41 39 39 39 41 46 51 56 62 67 69 72 73 72 71 71 71 71 72 72 71 72 73 72 70 69 71 71 72 72 72 72 71 70 70 71 72 72 71 72 72 71 70 71 73 72 71 70 71 71 71 72 72 71 70 71 71 72 71 71 73 74 74 73 72 71 70 70 71 72 72 71 71 71 70 72 73 74 73 72 72 73 73 72 74 75 75 73 75 77 75 73 73 74 72 73 74 75 76 76 75 75 75 74 74 75 74 75 74 73 73 74 73 73 73 73 72 72 74 75 75 74 70 113 195 197 191 196 205 209 211 216 222 225 220 206 192 197 200 201 205 215 223 229 237 243 246 239 224 219 228 234 234 237 233 212 205 215 219 220 223 226 227 227 226 225 220 209 204 209 211 209 206 200 203 205 156 88 63 70 73 73 72 73 73 72 72 71 70 72 72 72 72 72 70 70 71 72 72 71 71 71 73 72 72 70 71 72 72 72 73 73 73 72 72 71 72 71 73 
63 62 62 62 63 63 64 65 64 65 64 65 65 64 65 67 67 65 66 66 67 67 66 65 66 66 66 67 67 68 67 68 67 66 67 69 70 70 69 68 69 69 69 68 69 68 69 69 71 71 71 70 70 71 73 74 74 71 70 70 71 72 72 72 73 73 73 72 71 72 74 74 73 73 72 71 72 72 72 72 72 71 73 73 71 72 72 72 72 72 72 73 72 74 74 74 74 72 70 71 70 68 66 65 66 69 70 70 71 71 73 72 72 73 73 72 71 70 72 73 73 72 72 70 69 70 70 68 69 70 70 70 72 72 71 70 71 72 72 72 73 72 71 71 71 71 70 70 69 70 70 70 70 70 70 70 72 72 71 72 72 73 74 73 72 71 71 72 72 71 71 72 72 70 71 72 73 73 73 72 72 73 73 73 73 74 75 75 75 74 73 74 74 75 73 73 74 75 76 77 75 74 74 75 74 74 74 74 74 73 73 74 75 74 73 73 74 74 73 74 74 74 74 70 104 197 209 200 204 206 207 212 219 223 224 219 212 209 209 207 211 233 237 230 237 246 248 245 235 224 224 236 240 236 237 236 223 213 216 216 217 219 222 225 225 223 223 225 221 212 207 207 207 205 196 200 198 145 84 65 69 72 72 73 72 72 72 71 71 73 74 72 73 73 73 71 70 71 72 71 72 72 72 73 73 73 72 72 72 72 72 73 73 72 72 73 71 71 71 71 
64 64 64 64 65 64 65 66 67 67 65 64 64 65 66 66 66 65 65 65 67 66 65 67 67 66 67 67 68 68 67 67 66 67 68 69 70 69 68 69 69 69 69 68 70 69 69 70 72 71 72 71 72 72 72 73 73 73 71 71 71 71 72 71 71 73 74 73 72 73 73 72 72 72 73 74 72 72 72 72 73 73 72 73 73 72 72 73 72 72 73 75 75 74 75 74 74 74 71 71 72 72 72 71 72 73 72 71 72 71 72 74 73 72 73 73 72 72 72 71 71 70 69 69 69 72 72 71 73 71 69 68 68 69 69 68 70 71 72 72 71 71 70 70 71 70 71 71 71 70 70 70 71 71 70 71 71 71 70 71 71 71 71 71 73 71 70 71 72 72 71 72 73 72 71 73 72 71 72 73 72 73 72 73 74 74 74 73 75 75 76 76 75 76 75 74 74 75 75 74 74 74 74 75 75 74 74 74 73 72 73 73 73 73 74 74 75 76 74 73 74 74 75 71 90 187 219 207 211 211 211 213 216 222 222 220 220 213 204 214 220 229 243 237 233 237 240 238 233 228 233 242 243 239 240 239 235 225 217 214 213 216 221 225 225 223 224 225 220 213 209 206 205 203 195 200 191 130 78 67 71 72 72 73 72 72 72 72 72 71 73 73 72 72 72 71 71 72 72 71 71 71 72 71 71 72 73 72 72 72 72 73 72 70 71 72 72 72 72 71 
64 65 66 66 66 65 65 65 66 66 66 64 64 65 65 65 64 64 66 66 66 66 65 66 66 65 66 67 67 67 67 67 67 69 69 69 69 68 67 68 68 67 67 67 68 68 70 69 70 70 71 72 72 71 70 72 72 72 72 72 72 72 73 72 72 72 73 74 73 73 72 71 71 71 73 74 73 73 72 72 73 73 73 73 74 72 71 73 73 73 73 74 74 74 74 73 73 74 73 71 71 72 71 73 73 73 72 71 72 71 72 73 73 73 72 71 72 70 70 71 76 85 93 102 109 114 118 122 122 120 117 110 102 96 87 78 71 67 66 67 68 70 70 69 71 70 71 71 72 71 70 70 71 71 71 70 70 71 71 71 71 70 72 72 72 71 71 71 72 73 72 72 72 73 74 74 73 70 71 73 72 72 71 72 74 74 74 75 76 76 74 74 75 74 73 74 75 75 75 75 73 74 75 74 74 73 73 74 74 73 73 72 72 73 75 76 75 74 73 74 74 74 76 73 76 167 231 210 203 203 204 202 203 214 222 221 220 210 203 223 235 231 236 244 234 223 223 226 228 231 239 245 243 238 235 238 236 222 212 211 213 219 223 224 224 225 223 216 211 210 212 207 203 201 197 200 178 109 68 67 72 73 73 72 73 73 71 72 72 70 73 73 71 71 71 72 72 72 71 71 71 70 73 71 71 70 71 71 71 72 72 72 71 69 70 71 72 72 71 72 
65 64 65 64 65 64 65 64 63 63 64 66 66 65 62 64 65 64 65 67 67 67 67 66 66 67 67 68 67 68 69 68 68 69 67 68 68 69 69 69 69 69 69 69 69 69 70 71 71 72 70 72 71 72 72 71 71 72 72 71 71 72 73 75 74 73 72 74 73 73 72 74 74 72 73 75 74 72 73 73 71 72 72 72 73 74 75 74 72 72 72 73 72 73 74 72 73 73 74 73 72 71 71 73 73 72 72 71 73 73 73 72 74 74 71 70 73 81 93 109 128 148 162 172 180 186 190 194 196 193 188 184 183 174 161 145 124 105 87 74 67 65 68 70 70 69 69 69 70 71 71 70 70 70 70 72 72 72 72 72 72 71 73 74 72 71 72 72 72 72 72 71 72 74 74 73 73 71 72 72 72 72 74 73 72 74 75 76 75 73 73 74 74 72 72 74 74 76 77 76 74 74 75 75 74 74 73 75 75 74 73 73 73 74 75 75 74 72 73 74 74 73 75 75 68 139 239 222 202 201 204 206 205 207 219 223 224 227 225 226 228 229 227 229 227 222 220 224 229 233 239 244 244 236 230 237 233 213 207 210 217 223 222 218 218 219 217 208 199 201 206 205 200 197 195 195 157 89 63 68 72 72 72 72 73 74 71 72 74 73 73 72 72 72 72 73 72 71 71 71 72 71 72 71 72 71 70 72 71 71 72 72 72 72 71 72 72 71 71 72 
65 64 63 63 63 63 64 64 64 63 63 63 64 65 63 64 65 65 66 67 67 66 66 66 67 68 68 67 67 69 70 68 67 67 68 69 69 70 70 69 69 70 70 71 70 71 70 72 71 71 70 70 71 72 72 71 71 71 72 73 72 72 74 74 72 73 72 73 73 74 73 74 74 72 72 74 74 74 74 72 72 71 72 73 72 73 74 74 72 72 73 74 72 72 72 71 71 72 73 73 72 71 71 72 73 72 72 73 72 71 71 72 72 73 77 90 109 129 152 171 186 194 194 198 205 204 201 202 203 202 195 199 204 208 210 205 194 181 162 137 108 82 71 67 68 69 71 70 69 70 70 71 71 71 70 71 73 73 71 73 73 72 73 71 71 71 70 71 71 71 72 73 72 72 73 72 72 73 73 74 73 74 74 75 73 73 74 75 74 73 73 74 73 74 74 73 72 74 76 76 75 74 74 75 74 76 75 74 73 74 75 73 73 74 74 74 74 73 75 76 76 75 77 77 69 105 226 244 213 208 210 213 212 203 207 220 224 226 226 223 220 220 213 209 216 223 227 231 236 242 247 248 246 240 236 236 226 212 212 217 220 222 218 216 215 210 211 214 198 193 205 203 198 190 191 185 130 74 63 70 71 72 72 71 72 73 73 73 73 73 72 72 70 71 71 72 70 71 72 72 72 73 73 70 72 74 72 71 71 72 73 73 73 73 72 73 72 71 70 72 
64 65 64 65 64 64 64 65 67 67 65 64 65 64 65 64 64 67 67 67 68 67 66 67 69 69 67 67 66 68 68 69 68 68 69 68 69 69 68 69 70 70 70 70 70 69 68 71 70 70 71 71 70 70 72 71 71 72 73 72 73 72 72 72 71 72 73 73 73 74 73 73 73 71 72 72 72 74 73 73 74 73 73 73 73 71 71 73 74 73 73 74 73 74 73 73 73 74 73 74 74 73 71 73 73 72 72 73 73 71 70 71 79 95 120 145 164 168 172 185 198 201 198 205 215 209 199 200 200 204 200 204 198 200 209 204 196 200 203 200 186 159 124 90 70 65 69 71 69 70 71 70 70 71 72 70 71 73 72 72 72 72 72 71 70 70 71 72 73 72 73 74 73 71 71 72 73 72 73 74 74 74 74 74 74 73 73 74 75 74 74 75 73 73 73 73 74 75 76 76 76 74 75 76 75 75 76 75 76 75 75 73 72 73 74 72 73 74 74 75 73 75 76 76 74 77 178 251 226 208 208 207 206 204 202 214 223 223 223 223 228 234 230 216 214 221 226 233 241 247 248 249 248 249 247 241 226 214 215 221 220 217 217 217 213 205 203 211 209 201 201 197 190 185 187 168 102 67 66 70 70 71 72 72 73 74 74 72 72 72 73 72 71 71 72 71 71 71 71 71 71 73 74 72 73 75 73 72 71 72 73 72 71 72 71 71 70 71 71 71 
65 65 66 66 65 66 66 67 67 67 66 65 66 66 65 66 66 68 68 68 69 69 68 68 69 70 69 67 67 69 69 69 70 69 68 68 67 68 68 71 72 71 70 71 72 70 69 70 70 71 71 71 71 69 70 70 70 72 71 70 71 71 69 70 73 74 73 71 72 74 74 71 71 72 73 73 72 73 71 72 74 74 72 72 72 72 71 72 74 73 74 73 74 75 73 72 74 74 74 74 73 73 72 74 74 74 73 72 71 72 79 96 118 142 171 180 176 171 170 184 201 205 198 193 195 196 188 191 193 195 192 204 203 196 204 198 186 188 193 198 206 211 202 166 120 82 67 67 69 70 70 68 69 71 72 71 70 72 73 70 71 72 73 73 70 70 72 73 73 73 73 73 73 72 71 72 72 71 72 73 73 73 72 72 72 74 75 75 76 75 73 74 74 73 72 74 76 76 76 74 74 75 75 75 74 74 75 76 76 76 74 74 74 74 73 72 74 75 74 73 72 74 74 74 76 67 111 226 244 211 199 196 197 206 211 214 221 220 220 220 214 200 210 224 223 220 224 234 242 244 244 245 247 251 250 240 225 210 211 221 223 220 218 215 210 206 199 192 193 191 193 193 185 185 180 135 77 64 69 71 71 71 71 72 72 73 73 73 72 71 73 73 73 72 71 71 73 73 72 71 71 71 73 73 72 73 73 74 73 73 73 72 71 72 71 71 71 70 73 73 
66 63 64 64 64 66 66 66 66 65 64 64 65 66 65 66 67 67 68 67 66 67 69 68 68 70 70 70 69 70 69 69 69 69 68 68 68 70 70 70 70 69 69 71 71 71 71 71 72 72 69 69 70 70 70 71 71 71 71 71 71 72 70 72 73 74 72 71 70 72 72 71 71 72 73 72 71 72 72 74 72 71 72 73 73 73 73 74 73 72 73 74 73 74 74 73 73 73 72 72 71 71 72 74 74 73 72 71 74 92 121 152 165 161 170 187 182 175 181 189 191 184 180 181 176 179 182 184 185 186 185 195 198 189 191 188 179 181 190 196 193 192 204 205 186 157 109 74 67 69 70 68 68 70 69 70 70 71 71 71 73 73 73 73 73 72 73 72 71 71 72 71 71 72 73 72 73 72 72 71 71 71 72 73 73 74 75 74 74 75 74 75 76 75 75 74 75 75 75 74 73 74 74 75 75 75 76 75 74 76 76 76 76 73 73 75 76 76 76 75 75 75 74 75 76 72 72 161 244 227 201 204 210 214 216 215 215 215 217 216 215 211 217 235 239 236 235 238 241 244 245 245 245 245 243 234 219 209 212 218 221 219 216 210 204 196 189 187 186 187 193 192 183 187 162 94 64 66 71 72 72 72 72 72 71 71 73 72 71 72 73 72 71 72 71 70 72 73 73 72 73 71 71 73 72 73 73 73 73 72 72 72 72 72 73 73 72 70 72 72 
65 63 64 64 65 65 64 64 65 64 64 64 63 65 66 66 66 66 67 66 66 67 68 69 68 68 69 70 69 70 68 70 70 71 70 70 70 71 71 70 70 69 69 70 69 70 71 70 71 71 69 69 71 71 72 72 72 71 72 71 72 73 73 72 70 71 71 72 71 71 71 72 72 71 72 73 71 71 73 74 72 71 73 72 72 73 74 75 73 73 74 73 72 72 73 74 74 73 72 72 72 72 72 73 72 71 72 81 106 140 158 169 178 176 165 172 179 173 175 181 179 173 177 190 191 188 195 198 196 195 195 198 196 189 184 181 179 177 183 193 190 179 181 194 195 201 186 137 88 67 67 69 69 68 68 71 72 72 71 73 74 73 73 72 74 73 72 72 72 72 72 72 72 72 73 72 72 73 73 71 71 72 73 73 73 74 74 74 72 73 75 74 74 75 76 75 73 72 73 73 75 75 75 75 75 74 76 74 73 74 76 76 76 74 75 76 76 75 75 76 76 76 75 76 77 77 68 91 198 243 220 210 215 214 215 214 213 212 214 213 219 237 237 222 208 208 222 237 248 252 252 250 248 240 233 224 214 209 211 214 216 215 206 197 191 190 192 191 192 199 199 188 181 177 122 65 63 71 72 71 71 71 73 74 73 72 72 72 71 71 72 71 71 71 71 71 70 72 73 73 73 72 72 72 73 73 72 72 71 71 71 74 74 73 73 73 71 72 71 70 
64 65 66 66 66 66 64 63 65 66 66 65 65 65 67 68 67 67 68 68 68 69 70 70 70 68 68 68 69 70 70 71 71 71 70 70 70 70 69 69 69 70 70 70 70 69 71 71 70 70 70 71 71 71 71 72 72 71 70 70 71 72 72 71 70 70 70 72 71 71 72 73 73 72 71 72 73 72 73 72 73 73 73 72 72 73 74 75 74 73 72 74 74 74 72 73 74 75 75 74 72 73 74 74 71 72 88 118 151 172 171 165 167 192 190 160 150 157 168 175 182 190 194 197 201 201 204 208 210 206 200 200 198 196 189 185 182 179 179 184 190 183 182 193 184 181 204 206 160 101 69 67 70 70 70 70 71 71 72 72 73 72 71 72 73 72 72 72 73 73 72 73 74 74 74 72 72 72 74 73 73 74 74 74 74 74 75 76 74 73 74 73 73 73 75 75 73 72 74 73 74 75 74 74 73 74 74 75 74 73 73 73 74 73 75 74 74 74 74 75 75 74 75 76 77 77 75 66 118 217 240 213 205 211 213 213 213 212 211 211 212 219 214 196 178 175 188 207 223 230 232 235 240 241 233 216 203 202 208 214 215 217 211 204 196 198 204 203 200 203 198 187 177 141 78 60 68 72 72 71 71 71 73 74 73 73 72 72 72 72 72 71 70 70 71 70 71 73 72 71 71 70 70 72 73 72 72 73 71 72 73 74 74 75 74 72 72 72 72 72 
65 66 66 66 65 65 65 65 66 66 66 67 66 65 66 68 68 66 67 67 67 68 70 69 70 70 70 69 69 69 70 68 68 70 69 69 69 69 70 69 68 69 71 71 71 71 70 70 70 71 71 71 70 70 71 71 71 71 71 72 71 71 70 72 72 71 71 70 70 71 71 71 71 71 72 72 73 73 73 71 71 72 71 73 73 74 73 73 74 72 73 74 75 76 74 73 73 74 75 75 73 74 74 73 75 94 129 158 171 177 186 188 174 186 209 189 153 145 163 177 185 193 196 195 195 198 201 204 207 203 199 193 191 193 193 189 183 178 178 182 190 190 186 188 185 178 180 204 215 181 117 73 66 71 71 71 70 70 72 73 73 73 72 72 73 73 73 74 74 74 72 71 74 75 75 74 72 71 73 74 74 73 74 76 75 73 74 74 75 75 75 75 75 73 74 76 75 74 74 74 75 76 75 75 74 75 75 75 74 73 73 73 74 73 73 73 74 74 75 75 74 74 75 75 76 77 78 73 67 141 230 236 206 205 209 210 210 212 210 209 207 207 207 205 203 198 192 187 188 198 205 208 220 244 238 205 191 200 213 220 217 212 213 212 207 205 207 208 205 198 189 180 150 88 60 68 71 71 71 72 72 72 72 72 73 73 71 71 73 73 71 72 70 71 72 71 71 72 71 70 70 70 70 73 72 71 71 72 72 72 73 73 72 73 73 73 73 71 72 71 
65 65 66 65 65 66 66 66 66 66 67 67 66 66 65 66 67 67 66 67 67 67 68 69 70 69 69 70 68 69 69 68 68 71 71 71 69 69 70 71 72 70 69 70 70 70 70 70 70 71 70 69 69 71 72 70 70 70 71 73 72 72 72 71 72 72 72 71 73 73 72 71 72 72 71 71 71 71 71 71 70 73 73 74 75 74 73 72 73 72 73 73 74 74 74 74 74 73 74 75 75 75 73 77 101 141 171 176 175 182 188 189 180 179 201 207 182 152 148 166 178 181 181 179 182 190 198 199 199 193 185 180 182 183 185 186 184 183 190 198 198 193 187 185 187 186 181 186 200 208 183 122 74 66 70 71 70 70 72 72 71 72 72 71 72 72 72 73 74 73 73 72 72 73 73 73 73 71 72 73 75 74 73 74 75 74 74 73 74 76 74 75 76 76 75 76 75 75 74 74 76 76 74 74 75 74 74 73 73 74 76 77 76 75 74 74 75 76 76 75 75 76 76 75 76 77 78 78 69 77 153 231 234 207 204 206 207 209 209 208 206 204 202 202 200 194 192 189 185 189 195 194 193 219 243 209 192 211 225 221 207 197 198 205 210 210 209 203 196 188 180 155 93 58 65 73 73 72 72 72 71 72 73 73 72 73 71 72 72 72 72 72 72 71 71 71 72 73 72 71 71 71 73 74 73 71 71 71 72 71 72 72 71 71 71 72 71 70 73 72 
66 65 66 66 66 66 66 65 65 65 66 66 66 66 66 66 68 69 68 68 69 69 70 71 71 68 68 69 69 70 69 70 70 70 72 72 71 71 70 70 72 72 70 70 70 70 71 70 71 70 71 70 70 71 72 72 72 72 72 71 73 73 74 72 73 73 72 73 74 74 73 71 72 72 71 70 70 71 72 72 72 73 75 75 75 74 73 74 74 74 74 73 74 73 72 73 74 75 74 74 74 74 76 103 144 173 181 182 183 183 176 170 176 191 197 193 189 172 148 143 159 173 174 170 173 182 193 197 193 189 188 179 178 181 178 176 175 176 192 207 209 205 200 198 196 192 195 184 170 169 193 183 123 73 66 70 69 69 70 70 70 72 72 72 72 72 72 73 74 73 73 72 73 72 72 73 74 73 72 73 74 73 72 72 74 75 75 75 75 75 73 74 75 77 75 74 73 74 75 75 74 74 75 74 73 73 73 74 74 75 77 76 77 77 77 75 74 75 75 74 74 75 76 77 77 75 76 76 78 68 77 149 227 235 208 201 204 206 206 203 197 192 189 184 184 186 194 198 195 189 184 180 173 181 221 230 203 214 227 215 195 188 191 198 204 205 203 195 187 180 156 97 56 62 71 74 73 72 73 73 72 73 73 73 71 71 73 74 73 72 72 73 73 72 71 71 72 74 73 71 70 72 73 73 73 71 71 72 72 71 71 72 72 71 71 72 71 72 73 73 
65 65 65 65 65 65 64 64 66 65 63 63 65 67 67 66 69 69 69 69 69 70 71 72 71 71 70 70 71 72 70 69 69 71 71 70 72 71 69 69 70 71 71 71 71 70 71 71 70 70 70 70 71 71 71 71 72 73 72 71 71 72 72 73 73 72 73 74 73 72 71 72 71 72 74 73 72 71 72 73 72 72 75 75 74 73 72 74 74 73 73 74 73 74 74 74 75 75 74 75 73 74 99 142 168 172 178 193 186 171 169 179 196 203 193 180 178 181 175 153 140 158 180 177 171 175 181 189 192 194 201 198 192 194 185 174 170 167 176 198 208 211 210 206 205 202 191 177 165 164 181 208 188 116 68 66 70 70 69 71 72 73 73 73 72 73 72 72 73 72 73 73 75 74 73 74 73 75 73 74 74 72 72 72 73 73 74 75 75 75 74 74 74 76 75 74 75 75 74 75 74 74 76 76 74 74 76 76 75 75 75 74 75 76 76 74 73 73 74 75 75 75 77 78 77 74 75 75 77 75 67 75 130 204 232 213 203 205 204 198 192 185 187 188 190 197 199 198 191 181 175 178 182 179 187 219 225 214 215 208 200 196 193 194 198 197 191 186 176 146 91 57 61 70 71 71 72 71 72 73 73 73 72 72 72 72 74 75 73 73 73 73 72 72 72 72 73 73 72 70 70 70 71 73 74 72 72 73 72 72 72 71 71 72 71 71 71 72 72 72 
66 67 64 65 65 65 67 66 67 68 66 65 66 66 66 67 67 68 67 68 70 69 68 70 70 69 70 69 70 71 69 70 71 72 71 70 69 70 70 70 70 70 70 71 71 71 71 72 71 71 69 71 70 70 71 72 71 70 71 72 70 71 71 72 71 71 72 72 72 70 71 72 73 73 73 72 72 71 72 75 74 73 74 74 73 73 73 74 74 74 74 75 73 74 74 74 75 76 75 74 72 91 135 167 175 180 191 191 174 165 180 198 198 187 178 175 176 180 188 183 155 139 161 183 176 173 176 183 192 197 197 195 195 198 190 179 186 186 177 184 191 194 204 209 210 209 190 172 174 180 177 190 210 177 102 64 68 71 70 70 72 74 74 72 71 72 72 72 73 73 74 73 74 73 73 74 74 74 73 74 74 74 74 75 75 73 74 76 76 76 77 76 75 75 74 75 77 76 75 74 73 73 75 75 76 75 77 75 74 74 74 73 74 73 73 73 73 74 75 75 76 76 76 76 76 75 77 76 76 77 76 70 67 102 169 213 218 206 202 199 204 207 200 194 191 192 197 196 191 187 188 192 196 195 188 197 229 219 194 189 193 191 189 190 190 187 183 168 128 76 52 61 69 72 72 71 72 72 71 71 71 72 73 72 71 72 73 73 73 73 72 73 72 71 71 72 73 72 71 70 70 70 70 72 73 73 72 72 70 71 71 72 71 72 72 71 72 72 72 73 
66 68 67 67 66 65 67 67 66 67 67 67 67 66 66 67 67 66 67 68 69 69 70 70 68 68 68 69 69 70 69 72 72 71 72 72 71 71 70 71 71 71 71 72 72 72 70 71 71 72 70 71 71 70 71 71 70 69 72 73 73 73 72 72 71 72 71 71 70 71 72 71 72 72 71 70 71 72 73 74 75 73 73 72 72 73 74 74 73 73 75 76 74 76 74 74 75 77 76 74 84 123 158 168 177 192 191 171 163 179 193 195 183 174 176 181 181 183 186 189 181 156 140 159 182 179 174 176 185 193 192 189 188 190 187 183 190 196 187 179 181 183 191 205 216 216 207 197 187 179 171 170 195 212 165 89 65 70 70 71 72 73 73 73 72 72 71 72 75 75 74 73 73 72 72 72 73 74 73 74 72 73 74 74 73 74 75 75 75 75 76 77 76 74 75 77 76 75 74 73 73 74 75 75 74 73 74 74 72 73 74 74 75 74 74 74 74 75 74 74 76 75 75 74 74 75 76 75 76 76 76 77 71 63 76 125 187 213 209 207 209 209 198 188 188 190 195 203 207 209 212 206 194 189 184 183 201 200 181 179 180 179 177 177 178 173 152 109 65 50 62 70 71 71 72 73 75 73 72 71 71 72 73 73 72 72 72 73 74 73 72 72 72 71 70 70 72 73 72 71 71 70 70 71 71 73 72 71 69 69 71 72 73 73 73 72 74 74 75 73 
67 68 66 65 64 64 64 65 64 66 68 70 68 67 66 68 68 67 68 69 67 67 68 69 70 70 69 68 69 69 72 72 72 71 71 71 71 71 71 70 70 70 70 71 73 72 70 71 72 71 72 72 73 71 70 70 71 72 72 72 73 72 72 71 72 73 72 70 71 73 72 70 70 71 71 71 72 74 72 72 72 72 73 73 74 74 74 73 74 75 74 75 75 77 77 75 74 76 73 76 109 153 169 167 175 186 182 174 175 189 195 186 178 178 180 182 183 181 178 177 183 187 168 143 153 171 168 168 177 184 189 197 195 193 192 190 186 189 194 194 188 188 189 196 213 221 218 216 204 179 172 175 182 204 203 139 74 66 71 72 71 70 70 72 73 72 71 71 73 73 73 74 74 74 74 71 72 75 75 73 73 74 75 75 75 76 76 76 76 74 73 74 75 75 76 76 74 74 73 74 75 75 75 76 75 74 74 73 73 75 75 75 74 74 75 75 73 73 74 74 75 76 74 75 75 76 76 76 75 76 76 75 76 73 64 62 90 142 184 207 213 210 205 203 205 205 201 201 202 201 199 192 184 180 180 180 182 180 177 176 176 176 176 172 154 119 79 54 54 65 71 72 72 72 73 73 74 73 72 72 74 74 73 72 74 73 72 74 75 73 73 72 73 72 71 71 71 73 72 71 70 71 69 72 72 72 72 70 69 70 72 71 71 72 72 71 72 73 74 75 
66 67 65 64 65 65 66 65 66 66 66 67 67 66 67 67 67 68 68 69 68 67 67 69 70 70 70 69 70 70 71 70 70 71 70 70 69 69 70 70 71 71 70 70 72 72 71 71 71 71 72 72 72 72 71 71 72 72 72 71 71 71 72 72 72 73 73 72 72 73 73 71 71 72 73 73 72 73 73 72 72 74 74 73 73 73 72 73 75 74 72 72 74 75 76 75 75 75 70 91 139 169 170 170 178 186 194 199 191 176 174 176 179 190 195 174 159 165 173 176 183 191 189 164 137 146 160 166 175 178 180 192 196 197 199 198 193 190 197 206 197 186 187 195 210 220 219 219 221 205 183 179 177 179 201 191 110 64 69 72 71 71 71 72 72 72 72 73 73 72 72 73 73 74 73 73 73 74 74 74 75 75 75 75 75 75 75 75 74 75 74 75 76 76 75 74 74 75 74 74 74 74 75 75 75 75 76 75 75 75 74 74 75 75 75 75 75 74 75 76 76 76 74 75 75 75 76 75 74 75 76 76 78 79 76 71 62 64 91 130 165 188 205 215 217 211 204 197 193 190 188 185 184 183 183 182 181 181 179 177 175 167 149 119 82 56 51 59 69 73 72 73 72 74 75 74 73 73 72 73 73 73 72 72 73 72 71 73 74 72 72 72 73 72 71 71 71 72 72 71 71 71 71 71 71 70 70 71 71 71 71 73 73 73 73 72 72 72 73 74 
64 65 67 67 67 67 67 66 65 66 66 66 65 65 66 68 68 68 69 68 67 68 69 71 70 70 71 70 70 70 72 71 70 72 71 71 71 70 69 70 72 73 72 72 71 71 72 70 70 70 70 71 72 72 72 72 72 72 71 71 72 72 71 73 72 73 73 73 72 71 71 71 72 73 72 71 71 71 73 72 73 74 72 71 72 73 73 74 74 73 73 74 76 75 75 77 76 75 80 120 162 174 170 166 169 173 185 209 202 175 167 174 180 187 196 177 160 170 179 185 190 191 191 186 161 138 140 151 165 168 167 175 190 201 207 204 198 194 197 207 210 200 194 200 210 217 216 214 216 210 190 178 167 154 176 209 163 83 66 72 72 71 72 72 72 72 72 73 75 74 74 73 74 74 74 73 74 72 73 74 74 73 73 74 74 73 75 76 75 75 75 76 76 74 73 74 76 76 76 74 74 76 75 74 74 74 75 76 76 75 76 76 75 75 76 76 75 75 76 76 75 74 73 75 77 75 75 76 76 77 76 77 77 77 78 78 76 67 59 57 72 97 131 162 183 193 199 201 200 198 195 191 187 186 185 186 181 174 164 148 128 98 70 52 49 55 67 73 75 74 73 73 71 72 74 73 72 72 72 73 73 72 72 72 72 72 71 73 73 72 73 73 73 73 72 73 73 72 73 74 73 71 71 70 69 69 71 73 73 72 72 72 74 75 74 73 73 73 73 71 
65 66 68 67 68 67 68 68 67 66 66 66 67 66 67 69 68 69 69 67 68 69 70 70 70 68 68 69 70 71 72 71 70 72 71 72 71 70 71 73 73 73 73 73 71 70 73 72 71 71 70 71 73 73 73 72 71 71 70 71 73 73 72 72 72 73 71 71 71 71 70 70 71 73 73 73 73 74 74 71 71 72 73 72 73 74 75 75 74 74 75 75 76 76 75 75 76 74 107 158 177 176 175 172 169 164 159 171 195 188 180 177 178 181 182 181 184 194 194 194 195 192 188 190 188 165 143 130 136 154 164 169 178 190 200 202 198 194 196 209 217 217 214 214 215 217 220 218 211 201 186 173 159 145 159 199 199 121 68 71 71 70 71 72 72 73 74 73 73 74 75 75 74 73 72 74 73 72 74 75 75 75 75 76 76 74 75 77 77 76 75 77 76 76 76 75 74 74 75 74 73 74 74 75 75 75 73 74 75 75 76 77 76 74 75 74 74 75 75 75 75 75 75 75 77 77 78 77 77 77 76 76 77 77 76 76 78 78 74 68 60 54 55 64 76 95 116 131 142 150 153 152 148 144 137 127 112 95 78 64 53 49 52 59 67 71 74 75 75 73 74 72 71 72 71 73 73 71 72 74 74 74 73 72 73 73 74 75 74 71 72 72 73 75 75 74 72 71 72 72 71 71 72 69 68 68 71 71 71 71 73 72 72 74 73 72 74 73 72 71 
68 67 67 67 67 68 68 68 68 66 66 67 66 65 65 66 68 68 68 68 69 68 68 67 68 69 69 70 70 71 71 69 70 70 72 72 71 71 72 72 71 71 71 72 73 71 72 74 73 72 71 71 71 72 71 71 71 71 70 71 72 72 72 73 73 72 71 73 75 75 73 72 72 70 70 72 74 75 76 73 73 74 72 73 73 74 73 74 73 72 73 74 75 74 73 75 73 82 134 178 178 177 183 178 172 169 155 152 197 231 209 195 184 182 182 184 190 193 189 185 186 186 184 189 192 185 176 160 133 132 156 168 172 178 188 193 194 194 198 208 217 219 219 217 216 213 214 217 213 205 200 188 172 160 158 181 210 165 83 67 71 72 72 71 72 72 73 74 74 73 72 72 73 74 74 74 74 73 73 74 76 75 75 75 75 75 74 74 73 73 75 76 74 74 75 75 74 73 73 73 75 75 75 74 75 75 75 73 74 73 73 75 77 76 73 72 74 74 74 76 78 77 76 76 76 75 77 76 75 76 76 77 77 76 77 77 76 77 78 79 77 72 66 58 51 49 49 50 52 56 58 60 59 56 54 47 44 43 45 51 58 64 71 74 75 75 75 75 74 74 73 71 72 73 72 71 70 71 72 73 73 73 73 74 73 71 72 73 72 72 72 73 73 74 74 73 71 71 71 72 70 71 73 71 70 69 70 70 68 68 71 72 71 72 72 72 71 70 72 72 
67 65 66 67 68 68 67 66 67 68 68 67 66 66 67 68 68 68 69 69 70 69 68 70 70 69 70 71 71 70 69 69 71 72 72 72 72 71 71 71 70 69 69 71 73 73 72 72 72 71 72 72 71 69 69 71 72 72 72 72 71 72 71 73 74 72 73 74 73 71 70 71 71 70 70 70 71 72 74 73 73 72 73 74 74 73 73 74 74 74 74 74 73 72 75 75 73 100 162 180 173 187 198 189 175 174 171 158 163 206 225 207 190 182 185 190 190 187 185 176 176 188 198 204 202 197 202 196 172 137 135 152 163 174 178 179 184 191 196 205 214 218 219 212 205 198 195 202 211 213 211 202 182 166 164 177 208 198 114 66 69 72 72 72 72 73 73 73 75 75 73 72 72 74 74 73 73 73 74 74 72 72 72 74 74 73 73 74 73 73 74 74 74 73 74 76 75 74 74 75 75 75 74 74 75 75 76 74 75 75 74 74 76 76 76 74 74 75 74 73 76 76 76 75 77 77 76 77 78 76 76 76 75 75 76 77 78 77 75 76 78 78 78 76 73 70 65 59 55 53 50 51 51 50 50 54 59 65 68 72 75 75 75 74 74 75 75 74 75 75 73 73 73 73 73 71 70 71 72 73 73 73 73 72 72 70 71 72 72 73 72 72 73 73 73 73 73 71 71 72 71 70 73 73 72 70 71 71 70 69 70 72 72 71 72 73 72 70 71 73 
67 65 67 66 66 65 65 66 66 66 65 66 66 66 69 69 67 67 68 70 69 70 70 71 71 70 71 70 70 70 70 72 70 71 71 71 72 72 73 73 72 70 70 71 72 71 71 72 72 71 72 72 72 71 70 72 73 72 73 72 72 72 71 72 72 73 73 72 71 69 69 69 71 72 73 74 73 73 73 73 72 71 74 74 75 74 72 72 74 74 74 74 72 74 75 73 77 125 178 178 174 190 199 193 183 178 175 170 153 140 181 217 208 198 189 188 190 189 188 183 184 198 209 206 204 207 212 209 197 175 138 136 153 166 173 177 186 195 195 201 213 215 216 215 200 180 181 192 199 206 205 193 179 176 186 198 208 210 148 74 66 71 71 70 72 74 74 74 74 74 74 75 73 73 72 73 75 74 74 75 74 74 73 72 71 72 75 76 74 74 73 73 75 77 76 75 73 73 72 74 75 74 73 74 73 73 75 75 76 74 74 76 76 76 76 75 74 74 73 73 73 74 76 75 75 76 76 77 77 76 75 75 75 75 75 76 77 75 74 76 76 74 74 74 75 75 76 76 75 74 74 74 74 74 72 72 73 74 76 77 76 75 74 73 74 74 74 73 75 75 72 73 74 74 74 74 72 72 73 73 74 74 73 73 72 72 73 72 72 72 74 74 72 72 73 74 74 73 72 71 72 71 71 71 70 68 70 73 73 72 72 72 71 70 72 73 73 73 71 73 
68 68 67 67 67 67 67 67 67 66 66 66 67 68 68 69 70 69 69 70 70 70 70 70 70 69 70 72 71 71 71 71 70 71 71 70 71 72 72 73 74 74 72 70 70 71 72 73 73 71 71 71 72 73 74 73 72 72 72 72 72 74 73 72 72 72 71 72 72 72 73 73 73 72 72 72 73 75 73 72 74 74 72 73 74 74 73 72 73 75 76 74 74 75 74 71 89 153 187 176 179 193 198 193 184 177 173 171 163 139 132 185 219 208 196 185 189 188 180 182 193 202 206 203 203 202 195 199 206 196 174 142 139 156 166 163 165 175 185 197 210 214 212 213 212 198 187 190 199 204 203 194 187 188 193 196 203 212 176 89 65 70 72 71 72 72 73 73 72 73 74 75 76 74 73 74 75 73 74 73 72 72 73 73 73 73 74 74 74 72 73 74 75 76 77 75 74 74 75 75 74 74 75 73 72 73 75 75 75 74 75 76 75 74 74 74 73 73 75 76 74 74 73 74 74 75 77 77 77 76 76 77 77 76 77 76 76 75 75 76 77 76 77 75 74 76 77 76 76 76 76 75 74 75 76 75 74 74 75 76 75 75 75 74 73 73 73 73 73 72 72 73 74 73 74 73 71 71 72 73 73 72 73 74 73 72 72 73 73 73 74 74 72 71 72 73 73 72 72 72 71 71 72 71 70 69 71 73 72 72 71 71 73 73 73 72 72 72 73 72 
66 67 68 67 68 69 70 70 69 68 67 67 67 68 67 66 67 69 69 69 70 69 69 71 70 67 68 69 70 71 71 71 72 71 73 73 72 72 72 71 71 72 72 71 70 72 72 71 70 69 70 71 72 72 72 72 72 72 72 73 71 72 72 73 72 71 73 73 72 73 73 74 74 72 71 72 71 72 72 72 74 74 74 73 74 75 75 74 73 75 76 75 76 75 74 75 104 167 184 175 186 199 199 191 183 178 179 178 170 157 137 137 195 215 203 191 187 189 180 175 186 196 196 201 204 194 183 187 199 201 195 176 143 137 149 154 154 161 172 187 205 214 212 208 208 202 186 181 196 208 205 194 190 191 190 191 197 207 193 106 62 70 72 72 72 73 74 74 72 72 73 74 74 74 75 74 75 75 72 71 71 72 73 74 74 73 73 74 74 73 75 76 75 74 76 75 76 75 75 75 74 74 75 75 74 73 74 74 76 74 75 75 76 76 75 74 74 75 75 74 75 75 75 75 75 75 75 76 78 77 76 77 77 76 75 75 75 75 77 77 76 76 78 77 76 75 75 74 74 75 75 74 74 75 76 74 73 74 73 74 75 75 75 74 73 74 73 74 73 73 75 75 74 72 73 72 71 72 72 72 73 73 72 73 74 73 72 72 72 71 72 73 72 71 71 72 72 72 71 72 72 72 72 71 70 70 71 71 72 71 70 70 72 73 72 71 70 72 72 71 
66 66 68 67 67 66 66 68 69 69 67 66 66 66 67 67 67 67 68 68 69 71 71 72 72 71 70 69 71 72 73 73 73 71 70 72 73 73 73 72 73 72 71 72 72 73 72 71 71 71 73 74 73 71 70 71 73 74 73 74 73 71 72 74 73 72 72 72 71 71 72 72 72 72 73 74 74 74 73 73 73 72 74 73 72 72 72 74 75 74 73 75 76 76 76 79 122 172 173 175 192 201 197 188 183 178 175 177 175 165 157 151 173 218 215 203 196 186 174 162 166 186 197 197 195 190 185 188 204 213 209 196 174 143 136 152 158 154 161 177 198 211 211 207 206 204 193 188 190 199 195 187 186 190 187 187 196 205 205 129 64 67 71 71 72 72 71 71 72 74 73 72 73 74 74 74 74 74 72 73 75 75 74 73 73 74 75 75 76 76 77 77 74 73 75 75 76 75 75 75 75 75 74 73 75 75 76 77 75 77 76 74 75 76 76 76 76 75 73 73 75 75 75 77 77 78 76 76 76 75 76 77 76 74 75 75 75 75 76 77 74 75 76 77 77 76 75 75 75 75 74 75 73 76 77 75 75 75 75 75 76 75 73 74 75 75 75 74 73 73 73 73 72 72 74 72 71 71 72 74 74 73 71 71 72 72 71 72 73 73 73 72 72 72 71 71 73 72 71 71 72 72 73 72 71 70 71 70 71 72 71 71 72 72 72 73 71 70 72 72 
67 67 66 67 66 66 66 65 66 67 67 67 67 68 68 69 70 69 68 68 70 70 69 69 69 70 70 71 70 72 72 72 71 72 71 70 70 71 72 73 73 72 72 71 73 72 72 73 73 71 71 73 72 72 72 71 71 71 71 71 73 73 72 73 72 71 72 71 70 71 72 72 72 72 73 73 73 74 75 73 71 72 72 73 75 74 74 73 73 74 74 74 75 76 75 85 142 185 169 173 192 200 195 187 183 182 178 176 176 172 179 211 202 194 214 217 211 195 170 154 154 171 188 194 191 192 190 195 206 206 204 203 193 172 142 137 151 157 157 171 194 209 211 209 210 210 202 186 187 196 188 179 184 189 179 175 184 201 206 142 69 69 72 71 72 72 72 72 74 74 73 72 73 74 74 74 74 72 73 73 74 74 74 74 74 74 73 76 77 78 78 77 76 74 74 73 73 75 76 74 73 74 73 74 73 74 74 75 75 76 77 76 75 75 75 75 75 74 74 73 74 74 72 73 75 78 79 78 76 76 76 76 75 74 75 76 76 77 78 76 75 76 77 77 76 76 76 77 77 76 75 74 74 76 75 75 74 75 74 74 76 75 73 74 75 75 74 74 75 75 73 72 72 74 73 73 73 73 72 72 73 73 72 71 70 71 72 70 71 73 73 71 72 71 71 72 73 73 73 72 71 71 71 70 69 69 70 71 72 72 72 73 73 72 72 72 72 71 71 71 
67 66 65 66 67 68 70 69 66 66 66 67 67 68 68 69 69 70 71 71 70 70 70 70 69 69 70 71 70 70 70 70 70 71 71 72 72 72 72 72 72 72 72 71 72 72 73 73 72 72 71 71 70 71 73 73 72 70 70 71 72 72 72 71 72 71 71 72 73 73 73 73 73 72 72 73 72 72 73 73 73 73 74 74 74 75 76 76 75 73 73 74 74 75 73 88 155 194 178 172 186 197 194 186 181 180 178 176 178 180 180 201 212 198 201 220 215 195 180 175 167 159 167 187 196 196 200 203 200 192 195 205 208 197 172 142 138 155 162 165 180 197 209 213 212 206 197 181 181 193 190 180 182 184 180 178 182 193 209 152 73 68 71 71 72 72 72 72 72 73 74 75 74 72 73 74 73 73 73 73 73 73 72 73 74 73 73 74 75 74 74 75 76 75 74 72 73 74 74 73 73 73 75 76 74 72 73 72 73 74 74 74 76 75 75 75 74 73 74 74 73 74 74 74 74 74 76 75 75 76 76 75 74 75 75 76 76 77 77 76 77 78 77 76 77 76 76 76 76 75 75 74 75 75 74 73 74 75 74 74 75 76 76 74 75 76 75 76 75 74 74 74 74 76 74 72 72 73 74 72 71 72 73 72 71 72 72 71 71 70 71 70 70 71 72 73 72 74 74 72 71 71 71 70 68 68 69 70 72 71 70 70 71 73 72 71 72 72 71 71 
67 68 66 68 68 68 67 68 68 67 66 65 67 68 70 70 69 69 71 71 70 70 70 71 71 71 72 73 72 72 71 71 71 71 70 72 74 73 73 71 70 71 72 73 73 73 71 70 71 72 73 72 73 72 72 72 72 73 74 72 71 72 70 71 72 72 72 73 74 74 73 72 72 73 73 73 73 74 73 74 75 75 75 73 72 73 73 74 74 74 74 75 76 75 73 96 166 197 184 178 184 190 188 184 183 181 177 176 175 178 179 175 180 184 195 206 207 197 197 203 189 162 155 171 186 196 206 199 190 200 204 203 205 205 198 178 148 137 150 162 172 180 197 213 219 209 194 177 175 185 189 186 186 186 180 174 178 191 209 169 82 65 70 72 72 73 73 72 73 74 73 74 75 74 73 74 73 73 72 72 73 72 72 74 75 75 76 76 74 72 73 74 75 73 74 75 75 74 73 74 74 73 74 75 76 75 75 75 73 72 73 73 73 74 74 75 76 75 74 74 73 74 76 75 75 76 74 74 73 74 76 76 75 76 76 75 75 75 76 76 75 77 78 77 75 76 77 75 74 75 75 76 76 76 76 75 73 74 75 74 73 74 74 74 73 73 74 74 74 73 73 74 73 74 74 73 73 73 74 73 72 73 74 74 73 72 72 73 72 70 71 72 71 70 70 72 74 75 74 73 73 72 69 71 71 70 72 72 71 70 71 71 71 71 70 71 71 72 72 71 
68 69 68 68 68 67 66 67 68 67 67 68 69 68 69 69 70 71 71 69 70 69 69 69 71 72 72 71 72 72 73 71 72 72 71 71 72 71 72 71 71 72 72 71 71 71 71 71 71 71 71 71 72 73 73 73 71 72 73 73 72 71 71 72 71 73 73 72 72 72 73 74 74 74 74 74 75 73 73 73 73 73 75 74 73 73 74 74 74 75 75 75 76 75 72 98 166 192 178 170 174 181 180 176 177 179 179 180 177 174 176 180 178 183 197 197 187 198 214 217 204 181 162 165 182 194 194 192 197 203 201 196 201 209 211 204 181 147 131 150 174 182 184 203 217 217 208 196 191 190 189 188 186 182 180 180 184 195 207 174 89 66 71 72 72 73 73 73 73 73 74 73 73 73 72 73 73 75 75 74 74 74 74 75 75 75 75 74 76 75 74 74 74 74 75 75 74 75 75 73 73 74 74 74 75 76 77 77 75 75 74 75 74 74 74 75 76 75 75 76 75 73 73 74 74 75 74 74 74 74 75 76 74 75 76 76 76 76 76 74 76 75 77 76 76 75 76 76 76 75 75 75 75 75 76 75 74 74 73 73 74 73 72 72 73 73 73 74 74 74 74 73 72 71 72 72 72 73 74 74 73 72 73 73 72 71 70 72 71 71 72 72 70 71 71 71 72 73 74 74 73 73 71 71 71 70 71 72 72 71 71 73 73 72 69 70 72 71 72 71 
67 68 67 67 68 69 70 69 66 66 67 68 68 70 69 70 70 70 70 71 71 70 69 69 71 71 71 71 71 72 71 72 74 71 71 72 72 71 72 71 71 73 72 70 71 71 70 72 73 72 72 72 71 72 72 73 73 72 71 70 71 70 70 71 71 72 73 72 72 71 70 73 75 74 73 73 74 75 74 75 74 72 73 74 75 74 73 74 77 77 76 76 75 74 72 104 177 192 181 171 167 174 176 174 178 183 184 183 182 178 178 180 180 179 194 207 207 199 201 207 208 200 186 182 194 196 188 187 200 199 197 202 210 211 210 213 208 186 152 133 155 180 180 185 200 214 214 204 199 194 193 190 180 168 166 174 183 194 207 174 89 66 71 72 72 73 72 72 72 73 73 74 72 73 72 73 74 75 74 74 73 74 74 73 73 74 73 72 74 76 75 75 75 75 75 73 74 74 74 73 73 73 74 74 75 74 74 76 76 75 76 76 75 74 74 75 75 74 75 75 75 75 74 74 74 75 75 75 76 75 75 75 75 75 76 77 76 76 75 75 75 76 75 77 76 76 76 76 76 75 74 75 76 75 75 75 75 73 72 73 74 73 72 72 74 74 74 73 75 75 73 73 74 72 72 72 72 72 73 74 74 73 72 71 71 70 70 70 72 71 72 70 70 71 71 71 72 73 72 71 72 73 72 71 71 70 70 71 71 71 70 70 72 72 71 72 71 70 69 70 
67 66 66 67 69 69 69 68 66 65 66 66 68 70 70 72 71 72 70 69 70 69 68 68 70 71 71 72 73 73 72 73 73 72 74 74 74 73 74 74 73 73 74 73 72 72 72 71 72 71 72 73 72 71 71 73 74 72 71 72 70 71 72 73 74 71 73 73 74 73 73 74 74 73 72 72 73 75 75 74 75 74 72 73 74 73 72 72 74 75 74 75 77 76 73 113 195 199 170 171 178 172 169 172 178 184 185 181 179 177 174 174 175 174 168 188 223 225 202 192 198 205 201 192 183 182 190 191 190 193 199 207 208 198 189 195 211 212 192 159 138 165 188 178 180 200 213 215 213 202 194 186 180 177 174 173 178 189 206 174 89 66 71 71 71 72 73 74 73 72 72 74 75 73 75 73 73 76 75 75 75 74 73 73 74 76 76 76 76 75 76 75 76 75 74 74 75 76 75 75 76 76 75 76 76 76 73 73 74 76 76 75 76 75 74 76 76 75 74 73 75 75 74 74 75 77 76 75 75 74 74 74 74 74 74 74 75 75 74 75 75 74 74 76 77 76 77 77 77 75 75 76 76 76 75 73 73 75 75 75 74 73 72 73 75 75 74 73 75 76 73 73 76 76 72 72 72 73 74 75 74 71 71 71 72 73 73 72 71 72 72 72 70 71 73 73 73 72 71 70 71 72 73 71 71 72 69 70 71 70 70 70 72 72 72 73 71 70 70 70 
67 67 68 68 68 68 68 68 67 66 67 68 68 68 71 71 70 69 70 71 70 70 69 69 71 72 72 72 71 73 73 71 72 73 76 76 74 72 72 74 74 73 73 73 72 71 70 69 71 73 73 73 72 72 73 72 71 71 71 71 73 73 73 72 73 73 72 71 72 73 73 73 75 75 74 73 74 72 72 72 73 75 74 74 75 75 74 73 75 75 75 75 76 76 72 106 184 195 168 167 182 179 172 174 180 183 186 184 176 172 174 176 175 175 170 169 187 216 217 194 187 197 196 188 188 178 180 185 191 199 200 196 191 184 181 189 203 215 216 193 147 146 187 187 180 184 199 209 211 205 192 182 180 180 178 179 183 193 205 170 86 64 68 70 71 72 73 74 74 73 73 74 75 75 74 74 75 75 75 75 75 74 74 73 74 76 78 78 76 76 75 76 76 75 76 77 75 76 76 75 74 74 75 76 76 75 74 74 74 76 74 73 74 75 75 75 75 75 75 75 74 73 74 75 75 77 76 76 76 75 75 74 73 73 72 74 76 76 75 74 75 73 75 76 75 75 76 76 74 74 75 75 74 75 77 74 74 75 75 74 73 73 73 72 72 73 74 74 74 74 75 74 75 76 75 73 72 73 72 73 74 73 73 72 71 72 71 71 72 73 72 72 73 72 71 71 71 70 71 72 71 71 72 70 70 72 70 70 71 70 70 72 72 71 70 70 71 71 72 71 
67 66 68 69 69 69 70 69 67 67 68 69 69 68 69 69 68 70 72 72 72 72 71 70 71 73 73 72 71 72 72 70 72 74 73 73 73 73 72 71 71 72 72 73 73 72 71 71 72 73 75 74 73 73 73 73 72 70 69 71 73 73 72 70 71 74 71 71 71 72 72 72 73 75 75 74 75 75 74 72 73 74 74 73 74 75 75 75 75 75 74 73 75 75 74 99 172 191 175 165 170 180 178 176 177 181 184 182 177 172 171 174 175 174 187 189 173 179 207 208 195 200 210 207 198 191 181 189 200 198 192 186 181 179 186 194 197 199 204 198 162 132 158 188 187 181 177 182 191 195 190 182 180 177 173 173 177 188 204 164 81 64 70 73 73 74 74 74 75 75 74 75 74 74 74 74 74 74 75 75 74 74 75 75 75 74 74 75 75 74 74 73 75 75 76 76 76 75 74 74 74 75 75 74 74 73 74 76 76 75 75 75 74 75 74 74 74 76 75 74 74 74 76 76 75 75 76 76 75 76 76 74 73 74 74 73 75 76 74 75 75 75 74 75 74 73 73 75 74 73 74 74 74 74 75 74 75 76 74 74 74 73 71 72 73 73 74 74 72 72 74 74 74 73 73 73 73 72 72 72 73 75 75 72 71 70 69 71 73 73 73 72 72 71 70 69 70 71 72 72 71 71 70 70 70 70 70 71 71 70 69 71 71 70 71 70 69 70 72 72 
67 68 67 66 67 69 71 70 69 69 68 68 69 69 70 70 73 72 71 71 73 73 73 72 71 71 71 71 73 73 73 72 72 72 72 73 75 75 72 71 71 71 72 73 74 73 74 73 73 71 74 73 72 72 71 71 73 73 72 73 73 74 73 71 73 74 73 71 71 73 74 73 73 74 75 74 74 76 75 75 75 74 72 73 74 75 76 75 73 73 73 73 74 75 74 95 172 199 170 155 163 178 180 174 173 176 180 181 177 173 172 175 173 174 195 206 188 175 188 204 203 194 197 207 205 201 199 198 195 188 184 182 182 188 191 191 193 201 205 200 188 157 130 155 184 186 174 162 168 180 184 180 180 180 181 182 185 190 199 150 72 68 72 74 74 73 72 73 74 74 75 74 75 74 76 75 74 75 74 75 75 74 73 75 74 73 73 74 73 72 75 74 75 76 75 74 76 75 73 73 74 76 76 74 73 73 74 73 74 73 74 75 74 73 73 75 76 76 75 74 73 74 77 77 76 75 74 75 74 75 75 75 75 75 75 75 75 75 75 75 74 74 74 74 74 73 73 73 75 75 75 76 75 73 74 75 74 76 75 75 73 74 75 73 73 75 75 75 75 73 75 74 72 71 71 73 73 73 72 71 72 74 75 73 71 70 72 72 72 73 71 69 70 71 72 73 73 71 71 72 72 71 70 69 70 69 70 70 72 71 70 71 72 71 71 70 69 69 70 72 
69 68 67 68 70 70 70 70 70 69 67 67 68 68 70 72 74 71 69 69 71 71 70 70 70 72 73 73 74 73 72 73 73 71 73 74 74 73 73 73 73 73 72 72 71 72 72 71 72 71 72 72 73 73 72 71 71 72 73 74 74 73 72 73 73 72 73 74 74 74 74 74 74 74 73 74 75 75 74 73 75 75 75 75 74 75 75 74 74 74 74 75 75 75 72 89 171 207 174 163 168 181 186 179 173 172 177 181 180 177 175 180 175 171 196 217 213 195 186 196 206 194 181 189 207 205 201 192 175 175 180 185 192 198 194 184 185 196 200 197 198 193 161 133 153 176 179 170 169 173 174 175 180 181 181 183 187 198 201 133 62 68 71 72 74 73 72 72 72 74 75 75 75 75 77 76 75 74 75 74 73 74 75 74 74 75 77 76 75 75 72 73 74 75 75 75 75 76 76 76 75 73 74 76 76 75 76 74 74 75 74 74 74 75 76 77 76 75 76 76 75 75 76 75 74 75 74 74 74 74 76 77 76 76 75 75 77 75 74 75 75 74 74 73 74 75 75 74 74 75 75 76 74 74 74 75 75 75 74 75 74 75 75 75 73 74 75 74 76 75 73 72 71 71 72 74 73 73 73 74 74 73 73 74 72 72 72 73 72 71 71 71 71 72 72 73 73 72 71 71 72 72 71 71 71 70 70 71 72 71 71 72 72 71 70 70 70 69 72 73 
66 66 68 68 69 68 68 70 69 68 69 70 67 66 69 70 71 69 69 70 71 72 71 72 73 73 73 74 73 71 71 73 73 74 73 74 72 73 73 72 73 75 72 71 71 71 72 71 70 70 72 72 72 72 72 73 73 72 72 72 72 71 73 74 74 73 73 76 75 74 74 74 74 72 73 74 74 74 74 74 75 74 74 75 75 75 74 73 74 74 75 76 76 75 73 83 166 215 183 166 168 178 183 178 172 171 174 178 178 178 174 179 178 173 203 226 225 210 192 193 208 215 209 207 210 204 202 200 185 166 174 185 190 195 196 190 186 186 189 190 198 203 198 166 133 148 170 170 167 169 170 173 178 182 182 180 180 196 193 113 58 68 72 72 72 73 74 73 73 72 72 73 74 75 74 74 74 74 74 75 74 76 77 75 74 75 76 76 76 76 75 75 76 74 74 76 75 74 75 77 77 76 75 74 75 77 76 75 75 76 76 76 76 77 77 76 76 75 75 76 75 76 74 72 72 73 76 76 75 76 76 76 75 74 74 74 76 77 74 73 73 73 75 75 75 75 76 75 75 76 75 75 75 75 74 73 74 73 73 74 75 74 74 74 74 73 73 73 75 75 73 72 74 73 74 73 71 72 73 74 75 73 73 74 73 72 71 72 72 71 72 71 71 72 72 72 71 71 71 70 72 73 72 71 71 71 70 71 71 72 72 71 70 70 70 71 71 71 73 73 
66 67 69 68 67 68 69 69 67 68 71 71 71 71 71 70 71 70 70 71 71 70 70 72 73 71 72 72 72 73 73 74 75 75 75 73 72 72 73 73 72 72 73 74 73 73 72 72 71 71 70 72 73 73 72 73 73 72 71 71 71 72 74 72 73 74 74 73 73 72 72 74 74 73 74 75 74 74 74 74 73 73 73 74 75 74 74 75 75 75 75 76 78 77 75 75 156 233 194 157 156 172 182 178 172 173 177 181 182 180 177 177 178 173 208 241 233 220 211 194 189 204 219 220 210 198 197 204 203 190 179 179 176 177 186 187 182 180 185 193 195 199 202 196 167 133 143 159 165 167 169 173 176 176 178 179 184 200 177 90 59 68 72 74 75 74 73 73 75 75 73 72 73 72 73 72 72 74 75 76 75 74 74 73 73 74 74 75 76 76 76 76 76 75 75 76 75 74 75 77 77 77 77 76 75 75 76 76 76 78 77 77 75 74 74 74 74 72 71 73 75 75 75 73 74 75 75 75 74 75 75 74 74 74 74 75 75 74 72 74 75 73 74 74 76 75 75 74 74 74 75 76 76 74 73 74 75 76 72 72 74 73 73 73 74 74 73 72 73 75 73 73 73 73 73 74 72 73 73 73 73 73 73 74 74 74 71 72 73 73 71 70 71 70 71 71 71 71 71 70 71 73 74 73 72 72 71 70 71 73 73 73 71 70 71 72 73 73 74 73 
68 69 70 70 70 70 71 71 71 70 71 72 72 71 71 71 72 72 72 71 71 71 71 71 73 74 74 74 73 76 75 74 74 73 74 74 74 73 72 73 73 72 74 75 73 71 70 71 71 72 71 72 71 72 73 75 75 73 72 72 72 71 72 73 74 73 72 72 73 74 75 74 73 73 74 75 76 75 77 76 74 73 74 73 75 74 74 74 75 75 75 74 75 76 75 70 130 236 216 175 164 169 173 173 173 174 178 182 181 178 176 177 177 169 182 234 246 229 218 208 188 175 185 206 217 211 201 199 204 206 192 171 161 162 174 186 184 180 186 190 192 198 203 197 194 167 133 137 158 169 168 170 177 180 177 178 186 193 153 73 63 71 73 73 74 73 72 72 74 75 75 74 76 74 72 74 75 75 77 75 75 75 73 73 74 75 76 77 75 75 74 75 75 74 76 77 76 75 76 76 76 76 76 77 76 75 76 78 77 76 75 76 75 74 73 74 75 73 72 72 73 74 75 74 75 76 75 76 75 76 75 75 75 75 75 74 75 74 75 76 76 75 74 75 77 76 75 74 74 75 75 74 74 75 76 75 75 73 74 74 73 73 74 74 74 74 75 74 72 73 73 72 71 72 72 74 74 73 73 72 72 72 73 72 72 74 74 73 72 71 73 71 71 72 73 73 71 70 71 72 72 72 72 73 72 72 71 70 71 72 73 73 71 69 70 72 73 74 74 72 
66 68 68 68 70 71 71 71 70 70 70 70 69 68 70 72 73 73 73 72 71 72 72 73 74 74 73 73 74 73 73 73 73 72 73 74 74 73 72 73 74 74 73 75 74 73 71 73 73 72 73 73 71 71 71 72 73 74 73 73 74 73 74 73 72 72 73 73 73 75 76 75 75 74 73 74 74 76 77 75 73 72 74 74 73 74 73 72 73 74 75 74 72 74 75 71 101 214 233 190 167 164 167 170 171 174 177 178 178 174 173 175 177 172 168 210 245 236 218 212 208 197 187 190 204 218 219 208 207 205 186 163 156 157 166 185 199 198 191 188 189 194 195 192 191 197 167 135 138 154 162 164 169 172 170 172 188 183 116 59 67 74 73 72 73 73 72 72 73 74 74 75 81 81 74 74 76 74 74 74 75 76 75 73 74 75 76 76 74 74 75 75 75 76 75 75 76 75 76 77 76 75 75 75 75 76 76 76 76 77 76 75 75 75 74 73 73 74 75 75 75 76 76 76 76 76 76 76 74 75 75 75 74 75 75 74 75 76 76 75 74 74 76 76 76 74 74 74 74 74 74 74 74 76 76 74 73 73 73 75 74 73 72 74 73 73 75 75 73 73 73 73 73 72 73 73 75 74 73 73 73 73 72 71 71 73 75 74 72 71 72 71 70 72 73 73 71 70 71 71 71 72 72 72 72 70 71 72 70 71 73 72 70 71 71 73 73 72 72 71 
68 68 68 67 67 68 69 69 68 68 69 70 68 69 71 73 72 72 73 72 72 72 73 74 74 75 74 74 73 72 72 74 74 73 73 72 72 74 74 74 75 73 72 72 73 74 73 74 73 72 74 75 73 73 72 71 71 74 74 73 75 75 75 73 71 72 73 74 74 75 74 74 75 75 74 75 73 74 75 74 74 75 75 75 74 75 75 75 75 75 76 76 75 76 76 73 78 173 241 198 163 161 171 177 173 171 175 176 177 176 174 174 174 177 175 181 199 201 204 204 203 204 203 198 190 191 198 191 191 204 200 188 175 175 177 181 191 199 197 196 193 186 182 186 188 189 192 174 144 139 149 155 155 155 159 170 185 159 80 57 70 73 73 74 74 73 73 72 72 73 75 76 78 79 75 75 75 74 73 75 74 73 74 75 73 74 76 75 75 75 76 74 74 75 74 74 75 75 76 76 77 76 76 76 76 77 77 74 73 77 77 75 74 75 75 74 73 73 74 75 75 76 76 77 77 75 74 75 74 75 76 76 75 75 75 74 75 75 76 74 75 75 75 75 75 73 74 74 75 75 75 74 73 73 74 74 73 75 73 73 73 73 75 74 73 72 73 73 73 72 72 72 74 74 73 72 72 74 74 73 72 72 72 72 72 74 74 72 72 72 71 71 70 71 72 72 72 71 71 70 72 72 73 73 73 70 71 72 72 71 72 72 72 72 72 73 73 71 71 71 
68 69 69 69 68 69 71 71 70 70 70 71 70 71 72 70 70 71 72 73 72 72 74 74 74 74 74 75 75 74 73 73 74 74 73 71 72 74 76 74 73 73 73 73 73 75 74 74 73 73 74 76 75 74 73 73 73 75 75 74 74 74 73 72 72 73 74 74 74 74 73 73 74 74 74 74 72 72 74 73 74 76 75 75 75 76 76 75 75 75 76 77 77 77 77 75 69 125 237 222 172 161 170 178 176 169 170 172 173 174 173 172 172 175 177 167 158 158 163 167 169 170 173 177 170 152 148 156 172 205 222 217 203 192 186 180 180 190 198 197 191 183 180 185 191 188 188 200 189 152 138 150 153 151 165 188 184 123 58 64 74 72 71 72 74 73 71 71 73 75 76 75 75 75 74 76 75 74 75 76 75 74 75 76 75 76 77 77 76 76 75 74 75 75 74 75 75 75 75 75 76 76 75 73 75 76 75 75 74 76 75 74 75 75 76 75 75 75 74 75 75 75 76 76 76 75 73 73 76 75 75 74 74 74 74 73 74 74 75 75 76 76 75 73 74 74 73 73 75 75 75 75 74 74 75 76 74 74 74 76 75 74 74 74 72 72 72 72 73 74 73 74 74 75 72 72 73 73 73 74 74 72 73 73 74 72 72 73 72 73 72 71 71 72 73 73 72 71 71 71 72 72 73 74 72 72 71 71 72 72 73 73 72 73 73 74 74 72 70 71 
68 69 69 70 72 72 73 74 73 72 71 70 71 71 72 71 72 72 74 74 73 74 76 74 72 72 73 74 74 74 74 74 73 74 73 73 73 74 74 74 73 74 74 74 73 74 74 74 75 75 73 73 74 73 73 74 74 73 74 75 74 73 71 71 72 73 73 73 73 73 74 74 74 74 74 74 73 73 74 73 73 75 74 73 73 74 75 74 74 75 75 74 74 76 78 77 72 87 201 246 197 162 163 174 175 167 165 168 169 171 172 171 171 172 175 177 174 168 162 157 152 147 143 139 138 134 144 174 184 192 212 225 221 206 191 187 190 195 201 201 195 187 187 192 196 183 160 163 197 190 152 145 156 165 181 195 161 82 53 68 73 72 70 71 73 73 72 73 75 74 75 75 75 75 74 75 75 76 75 75 76 75 76 77 75 75 76 76 75 75 75 75 76 76 75 75 76 77 76 76 75 75 74 74 75 75 75 76 77 76 76 76 78 76 75 76 77 77 76 75 75 76 77 78 77 77 75 76 77 75 74 74 73 73 73 74 74 75 76 75 77 77 74 74 75 74 74 74 75 75 76 75 76 75 75 74 74 73 75 75 75 74 73 73 73 73 73 72 73 74 74 75 73 73 73 73 74 73 73 73 73 73 74 73 74 73 71 73 72 73 73 72 72 72 71 72 72 72 72 71 73 72 72 73 72 72 71 72 73 74 75 73 71 71 72 72 72 71 72 70 
69 69 68 70 71 71 71 72 71 71 71 70 70 70 71 73 73 73 73 72 73 73 73 72 73 73 73 73 73 73 73 74 74 73 75 74 72 73 72 73 74 74 73 73 72 73 75 73 73 74 74 73 73 74 74 75 75 73 74 74 73 74 73 74 73 72 73 73 73 74 75 73 73 74 74 74 74 74 73 74 74 74 74 74 74 75 76 77 77 76 75 74 75 74 76 77 75 71 139 241 220 164 154 170 176 167 162 165 168 169 172 176 174 172 173 176 177 176 175 174 170 166 165 163 165 167 167 183 190 194 197 207 221 225 216 207 204 198 197 203 203 200 197 194 184 165 149 140 158 189 187 163 153 166 185 175 111 53 61 71 71 72 72 73 73 74 74 75 73 72 73 74 74 74 75 75 75 75 74 75 75 74 75 76 76 76 76 75 75 74 75 74 77 77 75 74 75 76 76 76 75 74 75 76 76 75 75 77 78 76 77 78 78 77 76 78 78 78 78 78 77 77 77 77 76 77 76 76 75 75 74 74 73 74 74 74 75 75 74 74 76 75 74 75 74 75 75 75 75 76 75 75 75 74 73 73 75 74 74 73 73 73 73 72 73 74 74 73 74 73 73 74 74 72 74 74 73 74 74 72 71 73 73 72 73 74 72 72 73 74 73 71 73 73 72 71 72 72 71 71 72 71 70 71 71 71 72 73 73 73 74 71 69 69 70 71 71 72 73 71 
69 70 68 69 69 69 70 70 69 69 70 69 71 71 72 73 72 72 71 71 72 72 72 72 74 75 74 74 73 72 74 74 73 73 75 75 73 72 73 74 74 73 73 73 74 75 75 73 72 72 75 75 74 73 73 74 74 74 75 74 72 73 73 74 75 72 73 72 73 73 73 71 71 72 75 75 74 74 74 74 74 73 75 76 76 76 76 77 77 76 76 76 76 75 75 76 77 72 84 193 243 190 152 163 176 173 165 157 161 169 173 176 174 169 171 173 173 175 177 178 179 179 177 178 180 184 182 180 181 191 206 193 181 202 224 220 205 192 189 197 201 201 197 184 168 162 161 147 124 128 169 182 168 177 187 141 66 51 70 71 71 72 74 74 73 74 74 72 72 73 73 73 74 75 77 77 75 74 75 75 74 75 76 76 77 76 75 75 74 74 74 74 76 76 76 75 76 75 75 74 74 74 74 76 75 74 75 76 76 74 75 76 76 77 76 75 76 77 76 77 75 75 76 75 75 76 75 75 74 75 75 76 76 76 76 75 75 74 73 73 75 74 75 75 74 74 74 74 74 75 74 73 73 74 74 74 75 76 74 74 74 73 73 74 73 73 74 73 73 74 73 73 75 73 73 74 75 74 74 73 72 73 73 73 73 74 72 72 73 73 73 72 73 74 74 72 72 73 72 72 73 72 71 72 74 72 71 72 72 74 73 72 70 69 69 70 71 71 72 70 
68 69 69 68 68 70 70 69 69 69 70 71 70 69 72 73 71 72 72 71 72 73 74 73 73 75 75 74 74 74 74 72 72 74 76 76 75 74 75 74 73 74 73 73 74 74 73 74 72 72 74 74 74 74 74 73 73 74 74 75 74 73 74 74 75 74 74 73 74 74 72 71 72 73 74 75 73 75 74 74 76 74 74 75 75 74 74 75 76 76 76 75 75 76 76 76 76 77 67 123 229 228 170 158 174 176 168 157 152 162 168 170 169 166 168 170 172 175 176 177 176 173 171 172 172 174 178 178 179 179 188 184 150 143 179 206 207 199 192 191 192 192 183 171 169 170 161 141 116 97 120 159 182 190 163 91 45 62 72 73 72 73 74 73 72 73 73 73 74 74 74 74 75 75 75 76 76 76 75 75 76 76 76 76 76 75 74 75 76 76 75 76 76 74 75 76 77 76 75 75 75 75 75 75 76 76 76 76 75 73 74 74 75 75 76 75 75 75 74 73 73 72 75 76 76 76 75 75 74 74 75 76 76 76 75 74 75 75 73 75 75 75 75 76 75 75 75 74 74 76 75 73 73 75 76 76 75 75 75 75 75 74 73 74 74 74 74 73 73 74 74 74 73 74 75 74 75 74 75 74 73 74 73 72 71 73 72 72 72 72 73 73 72 73 73 72 72 74 73 72 72 71 72 73 74 75 72 70 70 73 73 73 73 71 70 70 71 72 72 71 
69 68 68 69 69 71 70 70 70 71 71 71 69 69 71 71 70 73 72 72 71 72 74 74 74 74 75 75 74 76 75 73 74 76 75 75 75 75 74 72 72 74 75 75 73 72 73 74 73 73 73 72 73 74 75 74 74 73 73 74 74 72 73 75 77 76 75 76 74 73 72 72 74 75 75 75 74 74 73 75 76 75 75 73 73 74 74 74 74 75 75 75 75 75 77 76 76 78 73 74 159 238 215 167 159 166 168 169 160 154 159 163 163 163 166 170 174 176 175 174 175 173 170 171 170 167 170 174 180 182 177 173 162 144 138 168 206 215 204 194 184 175 167 170 173 163 149 143 135 124 123 149 183 177 111 49 54 70 71 72 73 73 72 73 72 74 75 75 75 74 73 73 74 75 75 74 74 75 73 73 75 75 75 74 74 74 74 75 75 75 76 77 77 75 74 76 76 77 76 76 77 76 76 75 74 76 76 75 75 75 75 74 75 75 75 76 76 75 75 74 73 73 74 74 75 77 75 74 75 74 74 75 75 75 74 74 75 76 75 74 75 74 75 75 75 74 74 75 76 76 75 74 74 74 74 75 73 73 74 74 73 74 74 74 73 74 74 74 74 72 73 73 72 74 75 73 73 75 75 74 73 73 72 72 72 72 73 73 73 71 72 73 72 72 72 71 73 74 73 72 71 70 71 73 73 74 73 71 71 71 71 71 72 72 72 70 70 71 71 72 
68 68 69 71 69 69 70 71 72 71 70 70 69 70 72 72 71 74 72 71 73 72 73 74 74 73 74 75 74 74 73 75 76 75 73 73 73 73 72 72 74 75 75 74 74 73 75 74 73 72 73 73 75 74 75 76 75 73 74 75 73 73 73 74 75 75 74 75 73 73 74 74 75 75 75 74 75 75 74 75 74 76 74 74 74 74 74 73 74 75 77 78 77 75 75 74 76 76 77 69 88 188 245 203 153 149 162 174 173 158 149 153 159 162 166 170 173 175 176 175 173 172 171 172 170 165 166 172 181 185 186 179 178 176 156 149 176 202 202 200 192 168 158 169 159 145 147 155 158 158 155 164 164 118 57 46 67 71 71 73 75 75 73 73 73 74 74 74 75 75 73 73 74 74 76 76 74 73 74 74 74 73 74 74 75 76 76 76 74 74 75 76 76 77 75 75 74 75 75 75 75 77 76 74 74 75 75 75 74 76 75 74 76 76 76 74 74 76 77 76 76 75 75 73 73 74 73 73 75 76 75 75 76 76 75 76 76 76 75 75 76 75 75 73 74 73 73 76 76 75 75 76 75 74 74 74 74 73 72 73 72 73 75 75 73 73 73 74 72 71 73 73 73 75 75 74 73 73 73 73 73 73 72 72 72 71 72 73 73 72 73 72 71 72 74 73 73 73 73 73 71 70 70 73 73 73 72 73 73 71 72 71 70 72 72 72 71 71 72 73 
69 67 68 70 71 69 69 71 71 70 71 72 71 72 72 73 73 74 73 73 73 74 74 72 72 74 74 73 73 74 73 74 74 72 73 74 74 73 72 73 75 74 73 73 75 75 74 74 74 74 74 75 74 74 73 74 74 75 75 74 75 75 75 74 73 73 73 73 73 75 74 75 75 75 74 73 75 76 76 74 75 75 75 75 76 76 75 74 75 76 76 76 75 76 76 74 74 75 77 77 67 108 203 240 190 149 155 167 169 162 155 149 151 158 164 168 171 174 174 174 171 169 170 170 167 165 167 174 181 183 182 179 175 175 172 156 150 160 173 190 207 192 165 153 146 146 153 156 161 174 181 170 121 60 44 62 71 71 72 75 75 74 74 75 73 73 73 72 73 74 74 75 75 73 74 76 76 75 76 76 75 73 73 75 76 74 74 76 76 76 74 75 74 76 77 76 74 76 75 75 76 76 76 75 74 76 76 77 75 74 76 76 78 77 76 74 75 77 77 76 76 74 73 74 74 71 70 70 72 76 77 77 76 74 73 75 76 75 74 76 75 75 74 75 73 74 75 74 75 76 76 77 76 75 76 75 74 73 72 73 73 74 75 75 75 73 73 73 73 72 74 73 72 73 74 75 74 74 73 73 75 75 73 72 71 72 70 70 71 71 71 71 72 73 74 73 73 72 72 72 73 72 72 71 72 72 72 72 73 72 73 72 70 70 71 72 73 72 71 73 
68 69 69 69 70 70 70 72 72 71 72 72 71 71 70 72 72 71 72 72 73 74 74 72 73 73 73 73 72 73 74 74 73 73 75 74 74 74 75 75 74 74 73 73 74 76 75 75 76 76 75 75 73 75 74 74 75 75 74 74 74 75 76 75 73 72 74 75 75 75 73 72 73 73 74 75 73 76 75 75 75 74 74 74 76 75 75 76 76 75 74 74 74 76 75 75 75 76 76 77 74 68 115 207 240 193 155 155 157 159 165 162 153 154 160 165 168 170 169 170 169 166 167 168 165 164 168 174 178 178 177 176 171 170 170 165 155 146 145 164 198 203 174 143 149 156 155 159 167 187 187 137 69 44 59 71 71 71 72 74 74 73 72 75 75 74 73 72 72 73 74 74 75 74 75 75 75 76 74 74 75 74 73 73 74 73 73 74 76 77 76 74 74 74 77 77 76 76 74 74 75 75 77 76 76 76 76 76 77 76 75 75 77 77 75 75 76 77 76 74 74 75 74 75 76 75 73 71 72 74 77 77 74 73 72 73 75 74 75 75 74 75 75 75 74 73 74 74 76 76 76 77 76 75 76 74 73 73 75 75 75 75 74 75 75 74 74 74 74 75 74 73 72 72 71 73 73 74 74 74 75 75 73 73 72 71 70 69 70 71 70 72 72 74 73 71 73 73 73 73 72 72 72 71 70 71 72 73 72 71 71 71 71 70 71 72 73 71 71 71 
68 70 71 71 70 71 72 72 71 72 70 69 70 71 71 71 72 73 72 72 72 73 74 73 72 73 74 75 73 72 73 73 73 74 74 73 73 74 76 76 75 74 74 74 74 76 77 75 75 76 74 74 73 74 75 77 77 76 75 76 75 75 75 74 73 72 74 75 75 74 72 71 71 72 73 74 74 74 73 74 74 75 75 74 74 74 74 75 75 74 75 75 75 74 73 74 74 76 77 76 77 72 71 117 205 241 196 152 148 159 170 174 162 156 157 158 160 162 163 167 167 166 166 168 167 164 168 175 177 175 177 177 174 173 171 169 164 155 149 152 167 170 156 147 151 149 151 165 180 180 137 73 44 57 71 73 73 73 74 73 74 74 73 74 75 76 75 73 72 73 74 74 74 74 76 73 73 75 74 75 76 76 75 73 74 75 75 75 75 76 76 76 75 74 76 76 76 75 75 75 75 76 77 77 75 74 75 75 79 77 76 75 75 75 75 76 76 76 75 75 76 76 75 77 77 76 75 75 77 77 75 74 73 73 73 73 75 74 74 74 75 74 75 75 73 74 74 76 76 74 75 76 75 74 75 74 74 74 76 76 75 74 75 74 74 74 75 75 73 74 74 73 73 73 71 72 72 73 75 76 75 73 73 72 71 71 73 71 72 73 72 71 72 73 73 72 72 73 73 72 73 73 71 72 70 72 72 72 72 71 70 72 72 71 71 71 72 71 72 72 
70 69 72 73 72 71 72 70 70 71 71 71 71 72 73 72 74 75 73 73 72 72 73 73 73 75 75 74 74 74 75 73 73 74 73 74 74 75 75 75 74 73 74 74 73 75 77 75 73 74 74 75 74 74 74 76 76 75 76 76 75 74 75 75 74 72 72 73 74 75 74 73 73 73 73 72 74 75 74 73 75 76 74 75 74 75 75 75 74 74 75 75 74 74 75 73 74 76 75 76 78 78 73 70 111 192 234 201 160 157 170 170 162 158 156 152 152 152 154 160 164 163 163 167 167 167 166 173 177 174 175 176 175 175 170 168 166 165 163 158 156 154 151 150 144 143 160 181 172 121 63 41 54 69 73 72 73 73 74 75 75 74 75 75 75 75 75 74 73 74 75 76 75 75 74 73 73 73 76 76 76 77 76 75 76 76 77 76 74 75 76 76 76 75 74 74 75 75 75 76 76 76 76 77 75 76 76 77 79 76 76 77 76 76 77 76 76 77 76 75 75 75 75 75 75 75 76 78 78 77 75 73 73 75 75 75 74 74 72 73 75 75 74 75 73 74 75 76 74 73 75 76 74 73 74 73 75 75 74 74 73 73 74 74 74 73 73 73 72 72 74 74 73 72 73 73 73 74 75 75 75 74 73 72 72 73 74 73 73 73 73 72 73 72 72 72 72 72 73 72 73 74 72 74 72 70 72 73 71 72 71 70 71 71 72 72 71 72 72 72 
69 70 71 71 71 70 70 69 69 71 71 71 72 71 72 73 73 73 72 72 72 72 72 73 74 75 74 74 73 74 76 75 76 74 74 75 75 75 74 74 75 75 75 75 73 73 74 73 73 73 74 74 74 73 73 75 75 74 74 74 74 75 76 75 75 74 74 73 72 74 74 73 73 74 73 73 74 75 76 74 76 75 75 75 75 74 74 74 75 75 74 73 75 75 76 75 74 75 76 77 77 77 78 73 70 95 159 217 214 174 153 152 156 158 153 151 154 155 154 155 159 158 156 161 163 164 164 167 174 174 174 174 173 173 169 166 165 165 163 158 156 156 152 145 146 163 185 169 105 50 40 55 68 72 73 72 74 74 74 76 74 75 75 74 74 73 73 73 75 76 76 77 76 74 74 75 75 74 75 75 74 75 75 76 75 74 75 75 75 73 74 74 75 74 73 74 74 74 74 75 75 75 75 75 76 77 75 77 77 78 77 76 77 75 76 75 74 76 76 76 76 76 76 74 74 75 76 79 79 78 77 77 75 76 77 75 74 74 74 74 74 75 75 74 75 75 75 74 74 74 75 76 74 74 75 74 75 76 74 73 74 73 73 73 73 74 74 73 73 73 73 73 74 74 74 72 74 74 73 72 73 75 74 73 72 73 72 71 71 72 72 71 72 71 71 70 71 72 72 71 73 73 72 73 71 71 72 73 72 71 71 71 71 72 71 71 72 71 71 72 
69 71 71 71 71 70 70 70 69 70 71 71 72 72 72 72 73 73 71 72 73 72 72 74 73 73 73 74 73 74 75 76 76 74 74 74 73 74 73 74 76 76 75 74 75 75 74 72 74 76 75 73 75 74 74 74 74 74 73 74 75 76 77 75 74 73 73 72 72 71 72 73 74 73 72 74 74 74 76 75 75 74 74 74 75 74 73 74 75 74 73 74 75 75 75 76 75 76 77 76 75 76 77 77 74 69 79 127 193 218 186 158 149 146 148 154 157 159 162 162 162 160 154 156 158 156 156 161 168 170 169 167 166 165 164 163 161 159 158 157 154 147 145 155 174 184 151 87 43 40 58 69 72 72 73 73 74 75 75 74 73 74 73 73 74 74 73 74 76 75 74 74 74 74 74 74 75 75 74 73 74 74 74 75 75 74 74 74 75 74 74 73 75 75 72 75 75 73 73 75 76 75 75 74 76 76 75 75 75 77 76 76 75 75 76 76 74 75 75 76 76 75 76 75 76 77 77 77 76 76 76 77 77 77 77 76 75 74 75 76 75 75 75 75 76 76 75 74 74 75 74 74 74 73 74 76 76 74 75 74 73 74 74 73 72 74 74 73 73 72 72 73 74 75 74 73 74 73 72 71 71 72 73 72 72 71 71 70 71 70 71 70 71 71 72 71 70 72 72 72 73 72 73 73 72 71 72 72 73 72 71 72 72 71 71 71 72 71 72 72 
70 70 70 71 71 71 70 69 70 71 70 71 72 71 71 71 72 73 72 72 72 72 73 74 73 71 72 73 73 73 75 74 74 74 75 74 74 74 74 73 74 74 75 75 74 75 76 74 74 75 76 76 74 75 74 73 75 75 75 75 75 74 75 74 74 74 73 73 73 72 72 72 74 74 73 75 73 73 75 74 74 74 73 73 75 75 74 76 76 75 74 74 75 75 75 76 76 76 77 75 75 75 74 75 76 75 70 70 99 161 209 212 179 144 140 149 152 156 158 157 161 166 159 154 158 161 160 156 162 167 163 161 159 157 158 160 160 156 151 145 147 155 168 179 165 116 60 36 45 62 71 73 73 73 74 75 74 74 75 75 74 74 73 73 75 75 75 74 74 75 74 73 75 75 75 74 75 74 73 73 75 75 75 74 74 76 76 75 76 77 76 75 75 75 73 73 74 74 75 77 76 75 75 76 75 75 75 75 75 75 75 75 74 76 77 77 77 76 76 76 76 77 77 78 77 78 76 75 75 75 74 75 78 78 77 76 76 75 75 75 75 76 75 75 75 75 75 74 75 75 74 74 74 73 73 74 75 75 76 75 74 73 74 74 74 71 72 73 72 73 72 73 74 73 73 74 74 74 73 73 72 71 72 73 73 72 72 73 72 71 71 72 73 72 72 72 72 73 73 73 73 73 72 72 72 72 72 70 72 73 72 72 71 70 72 73 73 72 73 71 
71 70 69 70 70 72 71 70 72 73 71 70 71 71 69 69 69 72 72 73 73 73 74 74 74 72 72 74 75 73 73 72 73 73 75 74 74 74 74 74 74 75 76 76 75 76 75 74 75 74 75 74 74 74 73 73 74 74 74 75 74 74 73 73 73 75 74 73 73 72 72 72 73 74 74 74 74 73 74 73 73 73 74 74 74 74 74 74 75 77 75 75 76 77 75 74 76 75 76 76 74 75 75 75 75 76 76 73 68 79 116 167 199 200 177 149 136 141 148 151 157 165 165 160 163 165 163 159 161 164 160 158 157 153 152 155 156 150 143 148 170 187 171 123 72 39 36 52 66 72 74 73 73 74 75 75 76 76 75 75 74 73 73 74 75 74 74 74 74 74 74 75 75 75 74 73 73 73 74 74 76 76 75 75 75 75 75 74 75 78 78 76 75 74 72 73 73 74 76 76 75 75 76 76 75 76 77 76 76 73 75 76 77 76 76 75 76 76 77 77 76 77 77 77 76 75 76 76 77 77 75 76 76 76 76 76 75 76 77 75 75 76 74 74 75 75 75 74 74 75 74 75 75 74 74 73 74 74 75 74 75 74 74 74 74 72 73 74 73 73 74 73 73 73 74 74 74 74 74 73 73 72 73 73 73 73 73 73 73 71 72 73 74 74 73 73 74 74 72 72 72 72 71 72 73 72 71 71 71 72 74 73 71 71 72 72 72 72 72 70 
70 71 70 71 71 71 71 72 72 72 71 70 70 72 71 70 71 71 72 72 73 74 73 73 74 74 73 73 75 74 74 73 73 74 75 74 75 75 75 75 75 74 74 73 73 74 74 74 73 74 74 73 73 74 75 74 75 73 73 76 77 76 74 73 73 74 73 73 73 73 73 73 74 73 73 74 75 74 74 74 74 73 73 73 74 74 75 75 76 76 76 76 77 76 75 75 74 74 76 77 75 75 75 75 76 77 77 78 76 70 66 76 110 157 189 188 179 170 160 154 151 149 151 153 156 161 162 157 154 150 149 146 143 141 142 151 164 175 181 180 163 126 77 40 33 44 60 69 74 75 75 73 73 74 75 76 76 76 76 76 75 73 74 75 74 75 75 76 75 73 73 74 74 74 75 74 74 74 75 74 75 75 75 76 76 76 75 74 75 76 77 75 73 73 74 74 74 74 75 76 76 76 75 75 75 76 76 76 75 74 76 76 76 76 77 76 76 76 77 78 77 77 75 75 76 76 77 77 77 76 75 75 75 74 75 77 76 75 76 75 74 75 74 74 75 76 76 75 75 75 76 75 74 73 73 74 73 74 74 73 74 74 73 73 72 72 73 73 75 74 73 73 73 74 72 73 73 74 73 73 75 75 74 74 73 72 72 72 73 72 73 73 74 74 74 74 74 73 72 71 72 72 71 73 73 71 71 72 71 72 73 73 71 71 72 72 71 71 72 71 
69 69 72 72 70 70 71 71 70 70 69 69 69 70 69 73 74 72 71 71 73 74 73 71 72 73 74 72 72 73 74 75 74 76 76 76 76 77 77 75 74 74 73 72 72 72 72 73 74 74 75 73 72 73 74 75 74 73 73 75 75 75 76 75 74 73 73 72 73 74 74 74 73 73 74 75 74 72 73 75 77 75 75 75 76 76 75 75 76 76 76 76 75 76 77 77 76 74 75 76 78 77 76 76 77 77 77 77 76 76 74 68 63 68 91 123 159 187 194 188 180 168 158 154 152 154 156 151 144 143 147 151 156 166 180 185 183 172 144 101 60 36 33 45 60 69 73 73 73 73 73 73 74 76 76 75 74 75 76 75 76 75 73 74 73 74 74 74 73 74 73 74 75 75 73 75 76 76 75 74 73 73 74 74 75 76 75 75 74 74 75 73 74 74 73 73 75 75 76 77 76 75 76 76 77 77 75 77 76 76 76 77 76 75 76 77 77 76 76 77 76 77 76 77 77 77 77 75 74 74 74 74 75 76 76 75 76 76 76 74 74 73 75 73 74 75 76 77 76 75 75 73 73 73 74 74 73 73 72 72 71 72 72 72 73 73 72 72 74 75 74 74 72 74 73 72 72 73 74 74 73 74 74 74 72 72 72 72 73 73 72 72 73 72 73 73 73 72 72 72 72 72 70 71 73 71 71 73 72 71 71 72 72 72 70 70 70 70 73 73 
70 69 70 71 71 71 70 70 70 71 71 70 70 70 70 72 73 72 71 72 73 74 74 73 71 71 72 73 72 73 73 75 76 74 74 75 74 75 76 76 76 76 75 74 74 74 73 74 73 75 75 72 72 75 76 74 74 75 74 73 74 75 74 74 76 76 73 71 73 75 74 74 73 73 74 74 73 72 73 73 75 75 74 75 76 74 73 74 74 74 74 74 75 74 76 75 74 75 75 76 77 77 76 75 75 76 76 75 74 75 78 77 73 67 61 60 68 85 108 130 152 173 187 189 186 186 190 189 188 185 186 182 177 168 150 121 89 62 43 31 36 47 60 69 74 75 74 75 75 75 75 76 76 75 75 75 76 76 74 75 75 74 74 75 75 74 73 73 73 74 74 73 74 75 74 74 74 74 74 74 73 74 76 75 75 76 75 74 76 76 74 74 75 75 74 74 74 74 75 77 76 74 75 77 77 76 77 78 78 77 77 76 76 75 74 76 76 76 75 75 76 76 77 76 75 74 75 76 75 76 76 75 75 75 76 76 75 75 75 75 74 74 76 74 74 75 74 75 74 74 74 73 74 74 72 73 73 73 73 73 72 73 74 73 71 71 72 73 72 73 72 72 73 72 72 72 74 73 73 74 74 73 72 72 71 73 75 73 73 74 74 73 73 72 71 71 71 71 72 74 74 74 72 73 74 73 72 72 72 71 71 73 74 72 71 71 72 72 72 72 
70 71 70 70 71 71 70 70 71 71 70 71 71 71 72 71 72 73 73 73 71 72 72 73 73 73 73 74 75 73 73 74 76 76 74 73 73 74 75 76 76 76 75 74 73 74 75 74 72 73 74 73 73 73 74 74 74 73 73 73 74 75 73 74 76 74 74 73 73 74 74 75 74 73 73 73 74 74 73 73 73 73 74 74 74 74 74 76 75 74 73 74 76 75 74 75 75 75 75 77 76 74 74 75 76 76 76 77 76 75 76 77 76 76 73 68 62 55 52 53 60 70 82 91 98 105 112 115 113 105 94 83 71 59 47 37 33 35 43 54 66 73 74 74 75 74 75 76 76 75 75 74 74 75 76 76 76 76 75 73 74 74 74 74 74 74 75 75 75 74 74 73 74 73 74 74 74 74 75 75 73 74 75 74 73 74 74 74 74 74 74 75 75 74 75 75 75 74 73 74 74 74 75 76 76 76 76 77 79 79 76 73 74 75 75 76 76 75 76 75 76 74 75 76 76 74 75 76 77 76 75 75 74 73 74 75 75 74 75 73 75 74 75 75 75 74 73 75 75 74 74 74 74 75 73 73 74 73 75 76 76 75 73 72 72 74 73 72 72 73 73 73 73 72 72 73 72 72 72 72 72 72 72 73 72 73 73 74 73 74 74 74 72 72 71 71 72 72 72 73 73 73 72 73 73 72 73 73 72 72 73 74 74 73 72 71 71 72 72 70 
69 70 71 69 69 70 71 71 71 70 69 69 71 71 70 70 70 72 73 72 70 71 71 71 71 71 71 72 75 76 74 74 74 76 73 74 74 74 74 75 75 74 73 73 74 73 74 76 75 74 74 75 75 74 72 72 73 73 73 73 73 74 77 76 76 73 72 74 73 74 75 75 74 72 72 73 73 74 74 74 74 75 74 74 74 75 77 76 75 76 76 75 75 74 75 75 75 75 76 77 76 73 73 76 77 76 76 77 78 75 75 75 75 75 75 75 76 73 69 64 59 53 48 44 42 42 41 40 39 37 36 35 38 41 47 53 59 64 69 74 75 76 75 75 77 76 74 75 74 74 74 74 74 74 75 75 74 74 74 73 74 76 73 73 72 73 74 76 76 75 74 74 75 75 74 75 75 73 74 75 74 74 74 75 74 72 72 73 74 73 73 75 74 74 74 76 76 75 73 72 74 77 77 78 76 75 75 76 77 77 75 74 75 76 76 77 77 75 75 76 76 74 74 78 78 76 75 76 75 74 74 76 76 74 75 76 76 75 74 75 76 76 74 75 75 73 72 75 76 74 73 72 73 73 74 74 74 74 73 74 75 74 72 73 72 72 74 73 71 71 75 75 73 71 72 72 71 72 73 74 72 72 72 71 73 74 73 74 74 72 72 73 72 73 73 72 72 71 71 71 72 72 72 72 72 73 73 73 72 73 74 74 73 71 70 71 70 69 69 69 
70 69 71 70 70 69 70 70 70 71 72 71 72 71 70 71 71 71 73 73 71 72 72 72 71 71 72 72 73 75 74 76 74 76 75 73 73 73 73 74 73 72 73 74 75 74 73 75 75 73 74 74 75 75 74 74 74 74 74 75 74 75 75 75 75 75 73 74 73 74 74 73 73 74 75 75 74 73 72 73 75 76 75 75 75 75 75 74 73 74 75 75 76 74 75 74 74 74 74 75 77 77 76 76 76 75 75 76 75 76 76 76 77 76 75 76 78 78 79 79 78 75 71 67 65 64 63 61 60 62 62 63 67 69 72 73 74 75 74 75 75 74 74 76 75 75 75 75 75 75 74 75 76 74 72 73 74 75 76 75 76 76 75 75 74 74 73 73 74 74 73 73 72 71 73 74 75 75 74 74 75 74 74 75 76 76 74 73 73 75 74 73 75 76 75 75 76 75 74 74 76 76 77 78 77 75 75 77 77 76 77 78 77 76 74 74 76 76 75 74 73 75 76 78 76 76 76 75 76 75 75 75 75 75 76 77 75 75 75 75 76 76 75 74 74 74 73 73 73 75 75 74 74 73 74 73 73 72 71 72 74 74 73 72 72 72 73 74 73 72 73 74 73 73 73 73 72 73 73 74 74 73 72 72 72 73 75 74 74 72 72 73 74 73 72 71 72 72 72 73 72 71 71 73 73 71 72 73 73 73 73 72 71 71 70 69 71 70 69 70 
71 71 71 70 72 71 70 70 70 71 71 71 70 71 71 71 72 73 71 71 73 72 71 71 71 73 73 72 73 72 72 74 74 74 74 73 71 72 74 75 75 74 73 73 74 74 75 75 74 73 75 75 74 74 74 73 73 74 75 76 74 74 74 73 74 75 73 73 73 74 74 73 72 73 73 73 73 73 73 74 74 75 74 74 74 74 74 74 74 74 74 74 75 75 75 73 75 77 76 75 76 75 75 76 77 75 74 75 76 77 76 77 77 77 77 77 78 77 78 78 78 78 78 77 78 77 78 77 75 76 75 75 75 76 76 75 75 77 76 75 76 76 75 75 74 75 75 75 76 75 75 75 73 73 74 74 75 75 75 74 74 73 75 74 75 74 74 74 74 73 73 74 72 72 73 74 74 75 75 76 74 75 75 74 74 75 75 74 75 75 73 74 74 76 74 74 75 76 76 77 77 76 77 76 78 77 76 76 76 76 77 77 77 76 76 75 76 77 75 74 75 75 76 75 76 76 76 75 77 76 76 75 75 75 75 75 75 76 75 75 75 76 75 75 75 75 75 75 75 75 75 74 73 73 73 73 73 73 72 72 73 73 72 72 73 73 74 74 73 72 72 73 73 73 75 74 74 74 73 72 73 73 73 74 73 73 74 74 73 72 73 73 74 73 71 71 72 73 72 73 72 72 72 73 72 71 71 72 73 72 73 73 72 72 71 71 72 70 69 70 
70 71 72 71 69 70 70 70 71 71 71 72 71 72 71 70 71 72 72 72 73 73 72 73 73 72 72 72 74 73 73 73 73 72 73 73 72 73 75 76 76 76 75 74 73 75 76 74 73 74 74 75 75 73 74 75 74 74 73 73 73 73 74 73 74 73 73 73 73 72 72 73 73 72 73 72 71 73 73 74 73 72 74 73 73 73 73 74 74 73 74 75 75 75 76 73 74 79 78 75 75 73 74 76 77 76 76 76 76 76 75 75 75 77 76 75 75 75 75 75 75 77 78 78 77 77 78 77 76 76 76 76 77 77 76 75 76 77 76 75 74 75 74 75 74 76 74 74 74 75 75 73 74 75 75 74 75 74 73 75 74 73 73 72 73 74 73 72 72 73 73 74 75 75 75 74 74 74 74 74 75 75 75 75 74 73 74 76 77 76 75 75 74 75 74 74 75 76 76 76 76 76 76 77 78 76 77 76 75 75 77 76 74 75 76 75 75 76 76 76 76 76 75 74 75 77 76 74 75 75 76 77 77 75 76 77 77 75 75 76 77 75 76 76 75 74 73 75 76 75 74 73 73 72 73 75 75 73 74 74 73 71 71 72 72 73 74 74 74 74 73 73 74 74 73 72 73 72 71 71 73 74 74 74 73 72 72 72 71 71 73 73 73 72 72 71 71 71 72 71 71 71 72 72 72 74 73 73 71 72 72 72 72 72 72 73 73 70 68 69 
70 70 70 70 69 70 69 69 69 70 71 71 70 70 70 70 71 71 71 71 70 71 71 73 74 73 72 72 72 72 73 74 73 73 74 74 74 74 75 75 75 75 75 75 74 75 75 73 75 75 75 74 75 75 75 74 74 75 73 72 74 75 75 74 75 74 74 75 73 72 72 72 72 73 74 74 73 74 75 73 73 72 73 73 74 75 74 73 74 74 75 74 74 73 73 74 74 77 76 74 75 76 77 77 76 75 75 76 77 77 76 75 74 75 74 73 74 75 76 77 77 77 76 76 76 74 76 77 76 76 76 75 75 76 76 75 75 76 75 73 74 75 76 74 75 76 75 76 76 76 75 74 74 75 74 74 75 75 77 79 78 73 73 75 74 72 72 73 75 75 74 73 74 75 75 76 76 75 75 75 74 75 74 74 75 75 75 75 76 75 74 74 74 74 75 75 76 75 76 76 76 76 76 76 76 77 77 76 76 77 76 77 77 76 76 76 75 73 74 75 75 73 75 76 77 77 75 76 75 76 75 75 76 76 76 77 75 76 77 75 78 77 76 75 74 74 74 75 75 74 73 73 72 72 71 74 74 74 74 73 72 72 73 73 73 74 73 71 72 73 72 72 73 73 72 72 74 74 73 73 73 73 73 73 72 72 73 72 71 71 72 74 74 73 72 72 71 70 70 71 72 72 74 73 72 73 73 72 71 72 72 73 73 72 71 72 72 71 68 69 
71 70 70 70 70 70 69 69 71 71 69 68 68 69 68 68 70 71 72 71 72 72 71 71 73 73 72 72 71 71 71 71 73 76 76 75 74 74 74 73 73 74 74 74 73 74 75 72 75 75 74 74 75 75 74 73 73 74 74 73 73 73 74 73 73 73 72 73 73 73 73 72 72 72 73 72 72 73 75 74 75 76 75 74 73 74 73 73 73 74 75 75 75 73 74 75 75 76 75 74 75 76 78 77 74 74 74 73 75 76 75 74 75 75 74 73 75 76 76 77 77 77 77 76 77 75 76 75 75 76 75 74 74 74 74 74 74 74 75 74 74 74 76 75 76 75 73 73 74 76 75 74 74 74 73 74 73 75 75 75 76 74 75 75 74 73 73 74 76 75 73 74 74 74 76 76 75 74 73 73 74 74 74 73 73 74 74 75 74 73 74 74 73 74 75 75 76 75 74 75 77 78 77 77 77 76 76 77 75 75 74 76 78 77 76 77 76 75 74 73 73 74 77 76 75 76 76 76 76 76 75 75 75 74 74 75 75 76 75 75 76 75 73 75 75 74 74 76 75 74 74 75 74 74 72 72 73 75 75 73 74 73 72 72 73 73 72 71 71 71 72 73 75 73 73 72 72 74 75 74 74 73 73 71 70 71 73 72 72 73 72 73 71 72 73 73 73 71 71 72 72 73 74 74 74 74 72 72 72 71 72 71 71 72 71 70 72 70 69 70 
69 71 71 71 70 71 70 71 71 70 71 71 70 71 71 71 71 72 71 72 73 73 73 71 70 70 71 72 72 71 72 72 74 72 74 75 75 75 74 73 73 73 74 73 75 75 74 73 75 76 75 75 74 73 73 74 75 74 74 73 72 73 73 75 73 73 74 75 74 75 76 75 73 72 72 72 74 74 72 73 74 73 73 73 73 73 74 74 72 72 73 74 75 75 75 76 74 73 75 76 76 75 76 76 75 75 73 73 75 75 75 77 75 73 77 76 75 75 76 77 76 75 76 77 76 77 77 77 76 76 73 75 76 76 76 75 75 75 76 76 75 75 74 76 77 76 75 75 75 74 73 74 74 72 72 73 73 74 73 74 75 77 75 74 75 74 75 75 74 72 73 75 75 75 75 75 74 75 73 73 73 75 76 75 76 75 75 76 75 73 75 74 74 75 75 75 76 76 75 75 77 77 76 76 76 75 75 77 77 77 76 77 76 77 77 76 76 76 76 75 73 74 75 76 75 75 76 75 76 77 77 76 74 73 75 76 77 77 76 76 75 75 74 76 76 74 73 75 75 74 74 73 74 73 74 74 73 73 73 73 74 74 73 74 74 73 73 74 72 72 72 71 72 74 75 74 73 73 73 74 74 74 72 71 70 71 72 72 71 72 74 72 72 73 74 73 72 72 73 73 73 72 71 73 74 74 73 72 73 72 71 70 69 71 72 71 71 70 72 71 
69 68 69 70 69 68 68 70 71 71 70 71 70 70 71 71 70 72 71 72 72 71 71 70 70 71 71 72 72 72 74 73 72 72 73 74 73 74 75 76 75 73 74 74 74 74 75 75 74 75 74 74 74 75 75 74 74 75 74 73 74 74 73 74 74 74 73 74 73 74 74 74 74 74 74 75 74 73 73 74 74 73 73 74 74 74 75 76 74 73 74 74 75 74 75 74 73 73 75 75 76 77 77 75 74 74 73 75 76 76 76 75 74 75 77 77 77 76 75 75 75 75 74 73 75 77 76 76 73 74 75 76 75 75 75 76 76 75 75 74 74 74 73 74 74 75 74 74 74 72 73 75 74 73 73 74 74 74 75 75 76 76 74 74 75 75 74 74 74 74 73 74 73 74 73 75 75 73 74 75 76 75 75 75 76 76 75 75 74 74 75 74 75 74 73 74 74 75 76 77 76 76 76 77 76 75 74 76 77 77 76 76 76 74 75 76 76 74 74 75 74 74 74 76 76 75 76 77 77 76 75 76 76 73 70 72 77 77 75 77 77 77 76 74 74 75 75 76 76 74 73 74 75 75 74 74 74 73 73 72 73 74 75 73 72 72 72 74 75 73 71 72 72 74 74 73 73 74 74 74 74 73 72 72 71 72 72 72 72 72 73 74 74 73 73 73 72 71 72 72 72 71 73 74 71 72 72 71 71 71 70 69 69 71 73 73 71 71 72 71 
