P2
# Output
320 240
255
190
255
210
210
188
174
178
184
196
176
176
176
166
182
178
184
168
176
182
174
168
180
172
180
170
166
178
176
168
174
174
180
180
184
184
192
170
170
174
170
170
162
146
156
150
154
160
148
146
140
192
255
255
255
255
255
255
255
255
255
255
255
255
188
100
76
60
52
54
94
255
255
255
255
255
255
255
255
255
255
255
255
255
255
255
255
255
255
255
255
255
255
255
255
255
255
255
255
255
255
255
255
255
255
255
255
255
255
255
255
255
255
255
255
255
255
255
255
255
255
255
255
255
255
255
255
255
255
255
255
188
138
138
156
192
238
255
255
255
255
255
255
255
255
255
255
255
255
255
255
255
255
255
255
255
255
234
228
208
196
255
255
255
255
255
255
255
255
255
255
255
255
255
255
255
255
255
255
255
255
255
255
255
255
255
255
255
255
255
255
255
255
255
255
255
255
255
255
255
255
255
184
248
255
255
255
255
255
255
255
255
255
255
255
255
255
255
255
194
174
170
158
162
154
160
164
158
142
138
142
100
156
232
214
198
255
255
212
174
146
146
130
150
206
255
255
255
255
255
255
255
255
255
255
255
255
255
255
255
255
255
255
255
255
255
255
255
255
255
255
255
255
255
255
255
255
255
255
255
255
194
190
218
232
236
200
228
226
196
254
255
255
255
255
255
255
255
255
255
255
255
255
255
255
255
255
255
255
255
255
255
255
255
255
255
255
255
255
255
255
232
255
214
220
194
174
180
190
208
180
208
210
188
156
146
164
160
166
178
156
158
160
170
174
152
154
168
166
172
182
190
208
194
188
190
194
196
186
192
186
184
196
194
184
166
158
162
158
138
132
146
212
255
255
255
255
255
255
255
255
255
255
255
255
255
184
132
90
62
140
255
255
255
255
255
255
255
255
255
255
255
255
255
255
255
255
255
255
255
255
255
255
255
255
255
255
255
255
255
255
255
255
255
255
255
255
255
255
255
255
255
255
255
255
255
255
255
255
255
255
255
255
255
255
255
255
142
255
255
255
255
255
255
255
255
255
255
255
255
255
210
164
124
68
18
30
48
48
40
74
118
136
152
170
168
158
168
178
158
255
255
255
255
255
255
255
255
255
255
255
255
255
255
255
255
255
255
255
255
255
255
255
255
255
255
255
255
255
255
255
255
255
255
255
255
255
255
255
255
255
255
94
248
255
255
255
255
255
255
255
255
255
255
255
255
255
255
255
255
244
226
198
182
170
164
162
156
134
142
174
132
92
184
188
60
140
164
172
194
164
154
158
224
255
255
255
255
255
255
255
255
255
255
255
255
255
255
255
255
255
255
255
255
255
255
255
255
255
255
255
255
255
255
255
255
255
255
255
255
255
255
202
236
252
236
204
236
224
194
255
255
255
255
255
255
255
255
255
255
255
255
255
255
255
255
255
255
255
255
255
255
255
255
255
255
255
255
255
255
255
176
246
68
50
24
10
26
32
52
34
32
18
50
8
22
12
12
18
24
8
14
16
20
12
30
24
10
28
26
2
6
32
28
24
22
14
36
30
30
18
14
38
48
42
36
20
26
48
26
6
20
156
255
255
255
255
255
200
64
82
255
255
255
255
255
255
255
255
182
244
255
255
255
72
44
42
116
196
190
112
52
30
14
10
16
24
24
18
8
8
18
14
24
8
4
4
8
8
18
6
6
14
2
2
16
22
28
42
62
108
150
172
186
178
114
40
150
172
136
148
166
70
160
255
255
255
255
255
255
255
255
255
255
255
255
255
255
255
255
255
255
255
255
255
255
255
255
255
255
255
255
255
255
255
228
192
184
84
162
255
255
255
255
176
94
56
36
24
38
50
44
36
26
10
8
14
8
2
8
8
10
22
10
22
16
24
18
10
6
12
12
6
10
24
32
34
42
114
255
255
255
98
214
255
255
255
90
24
18
36
74
118
122
192
255
255
255
255
255
255
255
255
255
255
255
240
138
10
28
54
74
50
116
224
212
202
102
48
18
24
48
138
252
255
255
224
218
222
240
214
156
92
52
54
46
30
26
24
10
10
10
14
18
20
16
18
16
12
10
8
8
6
14
6
20
44
128
255
255
255
255
186
54
40
24
34
88
64
90
222
216
146
128
82
62
50
18
20
40
36
34
48
44
36
44
58
64
70
58
40
36
32
14
14
12
10
14
24
28
18
184
244
64
32
26
14
38
26
20
38
6
36
44
14
22
12
14
8
10
10
16
20
30
4
14
30
14
26
6
14
18
30
22
26
24
18
30
28
22
20
16
20
8
14
38
12
16
64
54
24
28
38
126
255
255
255
255
255
255
122
6
154
255
255
255
255
255
255
255
255
255
255
216
52
54
80
94
190
184
102
44
26
14
14
22
24
24
24
12
16
22
10
24
30
30
28
20
18
28
24
18
16
12
12
18
24
46
84
124
180
212
172
84
28
146
208
186
148
154
196
82
255
255
255
255
255
255
156
16
46
62
58
30
40
24
40
28
34
32
24
52
84
148
200
212
214
206
226
218
248
255
255
255
250
212
170
140
152
255
255
255
255
144
70
48
46
48
46
54
52
40
26
24
10
6
6
10
14
16
14
24
30
20
26
26
26
22
16
12
8
14
6
2
14
28
38
38
255
255
255
242
148
116
255
255
255
114
48
74
90
74
14
50
158
222
92
196
255
255
255
255
255
255
255
255
255
255
255
120
58
22
30
30
16
68
78
88
70
78
60
126
255
255
255
222
204
234
216
178
134
96
62
50
52
30
22
28
16
12
16
14
6
10
4
8
14
12
10
12
6
6
14
22
12
20
24
52
126
255
255
255
255
180
24
62
62
110
36
132
182
112
126
134
108
96
90
64
58
68
50
40
58
48
46
38
42
48
48
42
16
12
24
26
22
26
14
14
24
18
8
160
236
48
34
34
18
46
46
44
38
28
34
28
18
18
8
8
10
14
26
28
16
36
22
22
24
4
26
14
4
30
28
34
22
24
2
28
10
22
34
38
12
12
6
32
12
16
48
50
42
44
46
46
40
202
255
255
255
255
255
214
62
44
166
255
255
255
255
255
255
255
255
116
42
90
80
66
176
190
118
64
48
22
10
22
24
20
24
20
22
16
6
18
36
42
46
42
42
40
38
38
30
18
18
26
44
86
150
204
214
142
8
124
196
206
152
108
120
104
42
255
255
255
255
255
104
8
20
36
28
12
30
40
28
6
14
8
10
6
20
32
46
36
44
36
34
26
46
36
30
16
50
78
104
128
118
140
255
255
255
255
162
54
62
54
52
46
34
38
34
14
8
16
16
10
14
18
24
22
18
22
20
16
18
20
10
14
8
8
2
12
8
10
10
26
48
120
255
255
255
156
255
255
255
255
255
108
28
32
72
90
76
102
184
255
206
158
134
102
192
206
214
240
202
208
255
255
255
255
255
224
66
58
68
72
40
68
34
56
96
240
255
255
190
158
192
196
148
114
94
70
46
36
28
14
22
24
10
6
10
18
14
12
2
8
24
16
10
6
2
6
20
12
6
8
10
22
48
118
254
255
255
255
176
16
70
112
48
154
166
114
116
128
118
110
110
96
78
82
60
30
78
74
56
46
46
48
46
36
12
4
6
10
28
48
36
30
34
22
8
172
224
46
84
58
38
30
10
28
26
28
20
20
36
24
16
30
42
64
66
108
62
44
14
30
36
44
52
36
38
52
40
42
14
30
14
12
32
36
22
38
34
18
24
8
36
34
56
54
62
50
44
36
46
20
92
255
255
255
255
255
255
182
70
4
56
134
222
255
255
255
255
210
130
74
54
116
182
158
108
60
50
32
14
18
24
20
20
16
12
16
24
42
52
48
58
68
74
70
58
50
44
36
44
78
120
182
218
188
70
80
184
218
190
142
108
70
42
255
255
255
255
255
168
28
20
8
18
32
12
26
12
28
8
14
6
22
28
10
10
4
18
14
6
4
22
10
28
8
18
26
32
38
32
32
18
38
208
255
255
255
255
255
255
108
54
40
26
30
18
6
12
10
16
26
26
30
36
28
20
22
16
14
12
16
18
20
8
10
6
10
10
12
14
24
56
255
255
255
100
168
255
255
255
255
255
64
10
10
28
68
72
84
126
206
244
116
84
136
50
32
56
70
42
38
14
200
255
255
255
255
255
255
114
118
94
108
46
62
234
255
255
226
168
184
176
124
84
78
74
54
34
22
24
14
14
28
16
10
4
8
14
14
10
18
22
14
18
22
12
10
12
2
4
6
6
8
16
46
108
254
255
255
255
140
86
124
88
182
190
138
100
82
76
74
70
62
48
36
72
108
108
82
64
58
50
46
46
38
16
10
2
4
26
36
26
30
42
36
30
156
220
26
54
28
74
80
62
82
92
94
112
164
184
186
238
255
255
255
255
255
255
255
212
138
46
54
72
50
58
72
54
24
32
22
50
30
36
22
26
36
54
14
24
32
28
16
26
28
44
36
34
20
24
36
38
4
122
255
255
255
255
255
255
226
120
44
2
30
70
140
202
202
150
96
30
88
150
152
108
68
54
32
16
8
18
26
36
32
28
18
8
30
48
94
132
152
150
116
70
24
20
48
104
154
216
240
158
18
144
228
216
166
124
44
104
255
255
255
255
255
255
120
46
32
36
22
24
18
18
10
16
28
8
12
10
8
32
20
4
10
8
6
8
8
22
8
30
10
14
14
30
36
22
10
12
4
4
104
255
255
255
255
255
255
255
150
40
38
24
16
14
24
36
34
26
24
26
22
22
16
8
10
6
6
14
20
8
16
24
22
30
30
30
44
170
255
255
255
100
178
240
255
216
255
208
26
38
14
16
28
52
70
86
108
180
196
66
126
138
48
18
90
120
110
72
82
38
214
255
255
255
255
255
255
150
232
188
220
255
255
255
194
172
168
116
68
56
60
54
40
28
20
26
20
20
16
6
10
10
14
12
4
12
22
32
24
18
22
20
12
12
8
2
2
2
6
10
16
40
120
255
255
255
255
146
136
108
196
212
172
116
92
48
38
54
74
104
126
144
132
102
82
70
70
66
60
56
38
8
10
10
12
12
38
36
14
18
14
12
222
255
228
232
248
255
255
254
255
255
255
255
255
255
255
255
255
255
255
255
255
255
255
255
255
255
250
112
20
40
70
72
40
58
40
64
50
80
74
70
68
54
32
28
20
24
40
30
32
34
44
28
20
20
24
12
24
6
44
164
255
255
255
255
255
255
255
202
120
62
120
210
255
242
168
122
178
154
160
118
70
50
34
38
36
40
10
102
238
255
255
255
255
255
255
255
255
255
255
255
255
255
255
255
242
170
56
98
200
228
206
148
50
176
255
255
255
255
255
255
230
96
50
28
14
24
18
30
24
20
22
16
4
8
14
12
18
24
16
6
16
14
16
20
14
14
10
14
12
18
16
20
14
10
22
20
30
0
38
34
52
198
255
255
255
255
255
255
162
34
58
42
42
40
28
26
8
8
18
18
12
10
10
8
18
30
34
34
46
54
54
52
54
90
218
255
255
255
106
208
182
232
244
152
166
162
34
30
32
6
24
40
40
24
108
180
152
112
42
106
72
60
70
90
80
42
52
68
36
34
146
255
255
255
255
255
102
248
255
255
255
200
138
128
86
30
20
36
44
40
32
26
26
30
32
30
20
16
22
12
4
6
10
12
12
14
10
10
16
16
10
10
12
6
14
14
6
10
10
2
42
150
255
255
255
222
150
122
196
228
196
162
114
74
84
110
124
142
140
116
84
64
56
52
54
48
32
16
8
20
22
18
8
4
16
40
42
30
14
2
255
255
255
255
255
255
255
255
255
255
255
255
255
255
255
255
255
255
248
236
244
255
255
255
255
255
255
255
222
56
40
70
62
76
62
78
72
68
70
76
76
72
96
94
70
54
52
44
56
82
72
68
62
72
70
68
84
62
54
60
80
198
255
255
255
255
255
255
255
255
255
255
255
250
142
88
210
208
162
104
58
40
30
10
158
255
255
255
255
255
255
255
255
255
255
255
255
255
255
255
255
255
255
255
255
255
236
152
216
158
26
180
255
255
255
255
255
255
174
130
110
68
76
48
28
30
14
20
14
18
16
12
16
4
26
14
16
8
22
24
26
24
10
14
12
10
12
10
14
32
28
12
14
18
16
10
16
14
8
2
6
16
20
110
255
255
255
255
255
255
144
50
50
34
30
36
22
16
26
18
14
14
14
20
30
30
38
48
52
58
64
68
118
255
255
255
255
86
166
104
66
158
224
144
136
166
70
12
38
16
38
50
18
116
255
255
158
32
146
162
136
100
56
102
80
44
42
66
46
14
4
14
144
255
255
255
255
255
255
255
178
106
84
76
40
8
18
38
46
40
26
24
32
32
32
20
8
8
10
4
2
4
8
8
16
18
8
12
14
16
8
6
10
8
12
12
12
8
8
2
24
88
210
255
255
255
138
100
154
208
252
218
154
96
98
102
84
86
76
50
34
32
38
34
26
32
36
32
44
40
32
26
26
32
32
22
24
24
22
6
255
255
255
255
246
236
238
244
212
168
158
166
182
166
138
104
78
68
52
46
48
62
86
132
234
255
255
255
255
255
72
64
76
86
82
104
84
64
62
84
100
102
116
122
118
82
76
94
106
92
86
88
102
90
80
108
102
96
82
118
108
80
70
172
255
255
255
255
255
255
255
255
255
236
108
82
190
232
194
122
66
40
142
255
255
255
255
255
255
255
255
255
255
255
250
196
162
164
184
218
255
255
255
255
255
255
255
255
255
255
255
255
255
255
255
255
64
50
42
20
48
48
60
34
20
12
10
26
26
12
8
10
18
6
24
16
14
6
16
28
24
34
20
10
10
8
12
24
16
22
14
14
12
6
4
12
26
14
6
4
12
4
16
12
8
110
255
255
255
255
255
255
160
24
44
48
44
30
18
2
4
12
20
32
38
40
52
62
64
84
102
120
240
255
255
255
184
244
148
70
72
172
188
86
122
198
130
42
24
46
10
70
72
238
255
180
170
214
150
110
88
30
34
50
52
62
60
74
50
18
18
16
8
74
255
255
255
255
255
186
72
58
50
56
34
20
44
56
52
30
12
28
32
12
20
26
18
14
12
4
4
4
8
8
20
14
6
8
12
22
18
8
4
2
8
4
8
22
22
16
54
122
234
255
255
255
132
112
186
255
255
244
154
90
68
34
32
74
80
56
40
44
54
60
46
54
66
54
54
58
62
66
68
62
72
56
56
32
26
18
255
255
182
80
72
82
86
88
56
62
62
72
74
54
34
16
18
30
12
6
14
22
22
28
36
126
255
255
255
255
255
90
68
86
90
94
72
62
64
82
46
40
18
30
80
90
112
126
94
84
94
98
112
96
88
102
80
90
88
98
78
74
58
52
78
148
200
240
255
255
255
255
255
255
255
255
255
255
232
168
122
255
255
255
255
255
255
255
172
78
10
28
48
40
42
44
48
36
38
44
36
16
56
106
220
255
255
255
255
255
255
255
255
255
132
10
24
28
8
8
22
6
22
6
14
6
10
24
34
14
10
4
14
10
14
12
18
14
6
20
24
36
26
10
12
14
10
14
8
26
18
22
10
10
20
34
26
14
20
18
28
22
22
16
26
32
34
102
255
255
255
255
255
255
138
30
52
42
32
16
8
20
36
48
52
52
64
92
116
152
154
160
255
255
255
146
126
255
255
188
184
238
212
52
86
226
208
100
16
46
78
100
182
255
255
72
255
204
58
36
12
30
36
46
20
32
46
50
32
16
20
22
22
26
40
138
255
255
255
140
34
70
76
70
46
32
42
40
36
22
10
22
36
22
28
32
20
24
30
22
22
18
4
4
10
10
6
4
4
12
22
20
10
2
8
4
6
26
20
34
88
148
255
255
255
255
132
208
250
255
255
255
158
72
50
24
12
62
86
70
44
44
58
66
58
62
64
62
74
86
82
78
78
80
96
86
76
78
48
30
255
255
122
32
40
32
36
40
34
40
50
60
58
40
24
16
22
24
6
6
8
4
8
16
10
16
62
194
255
255
255
255
72
76
86
64
74
56
32
74
224
255
234
230
116
32
94
62
42
20
26
28
58
60
76
84
82
102
118
86
74
94
108
108
82
76
58
64
64
60
110
116
58
150
242
255
255
255
228
174
255
255
255
255
255
178
36
34
24
28
38
40
28
18
18
24
30
24
22
18
14
16
16
20
40
36
74
110
148
190
188
154
86
40
20
30
30
24
16
20
20
8
18
16
36
22
16
24
20
6
10
12
8
12
6
14
14
26
12
12
26
24
14
8
14
12
10
16
6
12
6
2
22
12
18
12
12
16
14
14
12
12
14
32
18
4
6
8
20
110
255
255
255
255
255
255
118
16
40
22
26
38
50
54
48
50
88
142
174
188
136
130
236
255
255
234
62
152
255
255
255
255
244
10
144
255
255
255
250
232
162
80
62
180
232
255
255
154
40
66
98
104
82
82
60
72
38
38
40
34
30
24
18
22
36
36
60
162
255
255
140
26
90
78
46
38
42
30
26
16
18
30
40
40
46
46
32
36
42
32
34
36
18
8
6
6
8
8
6
8
10
14
16
12
22
14
14
14
14
42
106
172
255
255
255
255
106
250
255
255
255
250
138
68
78
54
10
38
70
72
48
34
40
40
44
32
34
68
86
80
56
46
50
66
74
78
64
78
62
36
255
255
156
46
50
40
44
46
40
44
56
58
44
38
36
24
26
18
6
8
8
4
6
2
10
14
22
48
182
255
255
255
226
26
30
26
52
44
132
255
255
255
255
255
255
255
186
168
248
252
255
244
248
210
150
98
42
72
82
90
64
74
66
76
58
64
54
54
76
142
206
168
130
78
80
234
255
255
168
255
255
255
255
255
92
12
12
14
12
38
54
38
12
8
12
14
16
12
18
34
32
18
22
16
20
20
10
10
30
28
22
24
22
24
18
42
42
46
30
16
6
4
26
48
38
24
12
6
30
24
30
26
22
16
10
22
20
12
6
14
26
10
2
6
6
6
8
8
12
6
12
14
20
18
18
18
24
14
6
14
10
8
6
12
10
10
10
14
26
20
12
108
255
255
255
255
255
255
92
36
40
52
58
68
74
100
166
220
228
186
166
255
255
254
74
252
255
250
244
255
255
255
255
140
182
136
255
248
246
250
180
86
128
240
255
244
182
90
6
74
96
36
10
24
20
104
96
46
48
42
44
42
32
26
32
46
50
82
140
255
255
128
54
92
64
50
40
34
36
26
30
44
42
48
60
56
38
36
34
30
36
42
34
26
22
18
16
12
8
10
12
6
12
18
24
20
20
22
42
88
144
214
255
255
255
255
72
255
255
255
255
186
76
52
88
82
34
16
62
88
72
48
44
30
42
42
46
60
50
28
32
18
18
24
12
26
30
48
36
10
255
255
160
42
48
40
46
54
54
52
56
52
40
38
38
34
38
34
28
36
46
42
38
34
38
28
38
42
88
254
255
255
255
92
12
24
46
72
255
255
255
255
255
255
255
255
255
255
255
255
255
255
255
255
255
255
255
255
148
36
6
22
16
32
14
22
30
30
92
174
230
126
176
142
14
255
255
198
172
255
255
255
232
76
34
18
20
22
36
44
34
10
18
6
10
22
32
20
18
8
28
14
16
22
2
26
22
12
16
4
40
62
42
34
18
30
6
18
30
18
30
28
28
34
24
26
10
16
18
18
24
28
32
10
16
4
6
2
6
20
12
18
10
16
14
10
20
2
16
14
18
20
32
28
16
24
18
10
12
8
16
12
8
14
6
8
10
18
10
10
26
28
18
110
255
255
255
255
255
248
58
62
76
114
144
182
246
255
255
255
255
255
255
112
124
190
255
255
200
255
255
255
255
174
255
138
252
142
124
144
164
126
94
74
92
100
12
74
56
56
102
100
124
138
104
130
230
208
68
28
32
46
50
38
32
32
42
62
70
122
255
255
84
68
88
66
56
46
48
42
40
46
32
24
38
40
24
18
12
14
18
18
18
18
22
20
24
26
18
20
16
24
26
30
32
28
28
42
78
120
164
242
255
255
255
200
196
255
255
255
216
112
38
30
72
86
52
34
52
88
80
62
58
50
72
62
58
46
24
8
24
26
16
4
18
18
34
54
44
22
255
255
152
24
34
28
38
40
30
28
32
22
20
28
48
64
62
54
68
98
102
84
86
76
50
34
32
30
52
142
255
255
255
120
48
52
40
128
255
255
255
126
44
186
255
255
255
255
255
255
255
255
255
255
255
255
255
255
255
255
246
128
28
34
8
14
12
18
90
200
204
48
194
170
68
255
255
122
255
255
255
214
76
16
12
20
24
8
18
2
22
28
8
4
18
12
24
20
26
16
10
4
2
10
22
28
38
16
12
12
50
42
28
20
12
18
26
24
38
16
22
18
42
52
14
34
22
18
20
14
4
28
24
20
12
22
12
6
2
20
14
24
10
10
26
20
20
10
8
2
14
6
16
24
4
24
24
34
16
18
16
18
28
34
24
22
26
20
16
16
18
18
6
16
16
112
255
255
255
255
255
174
144
204
246
255
255
255
255
255
218
86
218
248
255
182
255
255
255
255
255
255
142
128
164
124
234
164
210
112
68
164
174
106
26
48
54
14
34
26
84
90
82
98
152
106
120
182
88
18
24
28
40
46
44
26
18
32
44
38
122
255
234
38
82
76
66
66
62
50
46
42
22
14
30
32
28
26
16
30
44
34
22
12
12
6
8
16
14
14
24
16
16
10
18
26
40
56
86
124
172
255
255
255
255
116
255
255
255
255
112
42
10
8
54
74
58
48
14
64
80
80
70
54
56
34
44
42
42
30
24
26
18
30
36
40
64
68
46
20
255
255
158
20
28
24
30
20
8
14
18
20
32
60
82
80
76
70
98
116
96
86
80
54
28
24
34
34
56
122
255
255
255
146
20
16
86
254
255
255
232
98
36
40
54
86
136
166
182
154
124
130
136
160
238
255
255
255
255
255
255
255
252
74
20
14
12
20
108
246
255
156
244
102
255
255
144
255
255
255
180
66
18
20
28
26
12
24
38
18
30
40
20
10
16
20
20
8
8
12
18
22
32
24
32
18
30
34
30
20
38
58
58
28
20
10
6
8
26
14
10
10
18
42
32
50
32
20
30
16
28
58
34
40
18
24
16
20
18
24
8
12
8
4
12
26
16
6
4
10
16
24
14
22
6
26
16
14
20
18
20
14
22
30
36
12
12
2
12
18
18
22
14
34
6
16
20
162
255
255
255
255
255
255
255
255
255
255
255
202
255
255
246
204
172
126
255
246
94
160
255
255
142
98
146
106
214
102
72
140
50
136
232
216
138
14
78
58
68
58
52
46
50
116
110
154
234
190
78
30
32
24
24
32
44
40
28
32
36
28
34
140
248
156
40
86
50
58
52
30
24
42
44
48
46
40
42
42
32
44
46
22
12
14
16
8
10
12
12
8
8
14
30
24
30
32
38
48
72
124
186
255
255
255
255
34
255
255
255
142
40
24
22
12
52
94
106
96
46
18
54
72
64
24
6
6
8
12
14
24
42
46
60
72
72
74
78
70
48
32
255
255
158
14
28
26
30
24
20
22
24
28
42
50
48
30
30
22
44
40
4
36
68
70
58
62
58
52
98
246
255
255
255
118
22
84
238
255
255
255
200
52
12
0
44
92
102
88
74
50
42
58
56
56
72
96
150
246
255
255
255
255
255
255
138
42
82
96
160
255
255
255
162
208
255
255
120
255
255
208
46
28
22
10
16
14
12
12
36
8
18
24
24
10
16
18
16
10
4
12
12
20
20
14
8
20
6
22
22
18
40
24
12
18
32
22
14
12
26
22
12
14
16
24
22
20
10
4
26
12
8
18
20
32
20
28
12
12
22
42
34
20
16
16
18
20
24
10
6
8
2
14
10
14
6
8
10
12
18
4
22
6
16
4
20
16
16
8
16
12
16
18
10
12
10
14
10
12
40
210
255
255
255
255
255
255
255
255
255
255
255
152
54
58
26
78
188
216
166
184
255
255
134
90
178
102
255
236
78
108
138
40
136
218
255
184
28
26
32
16
50
100
108
56
42
66
56
44
40
40
30
12
10
14
26
32
30
38
40
36
18
56
188
250
72
56
16
44
56
50
62
66
44
32
26
30
42
38
32
42
36
16
14
16
16
16
16
12
8
4
6
18
28
20
48
44
38
52
78
144
222
255
255
255
255
156
255
255
255
94
34
10
24
16
18
60
102
120
102
60
12
36
56
28
8
18
22
32
32
62
80
64
68
76
78
64
50
48
38
40
255
255
156
20
22
16
24
16
12
12
14
10
16
30
52
60
72
66
88
100
84
104
110
90
64
56
48
70
186
255
255
255
255
96
72
242
255
255
255
255
94
26
18
50
90
98
74
56
50
34
32
44
34
30
32
36
44
52
112
184
255
255
255
255
255
184
152
140
130
180
250
255
255
255
255
70
255
255
255
62
26
12
28
16
8
20
26
20
42
16
12
32
12
12
12
14
20
26
30
18
18
14
10
22
20
30
34
18
18
36
20
10
26
20
6
10
8
20
28
26
8
12
10
8
12
14
16
8
14
18
12
14
10
16
22
24
8
8
8
8
28
32
26
20
20
18
32
28
22
28
24
6
10
4
14
8
6
20
32
34
18
16
20
20
12
4
8
4
14
8
12
20
12
20
18
10
10
24
30
26
102
255
255
255
255
255
255
255
255
255
188
72
148
126
112
146
178
182
150
108
255
255
255
136
218
84
172
255
236
66
122
94
22
62
220
255
176
24
40
76
92
78
34
18
18
8
34
36
36
32
26
16
22
22
28
30
20
18
28
40
26
16
104
248
182
68
62
78
70
64
62
42
22
24
38
46
42
30
26
24
14
10
14
10
6
4
4
6
8
8
10
12
30
30
44
44
56
88
124
188
255
255
255
255
156
255
255
255
255
52
10
8
24
20
20
18
32
76
102
110
88
32
34
48
26
4
18
26
28
52
56
32
34
50
48
24
18
34
28
22
255
255
158
38
16
8
18
12
8
4
10
24
32
32
42
58
62
48
58
68
52
28
30
50
34
36
50
104
255
255
255
255
255
34
242
255
255
255
254
102
52
48
76
92
88
66
44
36
28
24
40
46
28
22
22
26
24
18
22
54
100
222
255
255
255
255
176
66
48
42
56
218
255
255
126
255
255
255
190
6
30
10
14
24
12
8
10
6
32
30
28
18
14
14
16
22
26
24
10
12
24
18
24
20
10
8
24
22
22
16
22
18
22
24
18
22
18
14
10
26
12
2
10
22
26
10
20
18
8
14
18
14
8
8
30
24
22
14
18
24
26
28
26
26
14
2
8
18
26
32
30
8
6
8
8
2
8
30
8
18
8
12
6
12
4
6
16
8
14
14
24
20
6
6
22
26
34
10
22
46
42
68
118
92
224
255
174
255
255
255
46
148
148
112
92
112
152
176
166
82
255
255
255
250
212
60
62
152
226
120
72
68
86
80
20
206
236
80
96
74
28
8
34
50
50
60
74
62
42
20
18
20
28
32
34
28
16
10
18
40
32
10
46
168
202
90
78
78
62
54
48
40
42
52
62
50
32
22
14
14
12
8
4
8
4
4
2
4
6
14
16
8
14
30
46
62
74
102
150
210
255
255
255
255
76
255
255
255
180
30
4
4
16
8
8
8
16
36
64
104
122
92
40
24
22
22
28
22
22
30
46
38
30
38
34
16
16
24
4
22
255
255
144
28
6
6
8
16
24
22
30
30
32
34
24
6
24
36
42
62
82
86
94
118
114
86
48
120
255
255
255
255
100
236
255
255
255
248
88
60
72
78
104
94
72
52
36
32
26
30
36
20
2
2
2
4
2
10
16
2
18
44
138
255
255
255
255
74
0
2
116
255
255
255
162
255
255
255
108
16
8
22
16
24
16
4
12
8
14
40
28
14
22
8
16
14
10
2
10
14
12
8
14
20
16
18
20
8
8
6
6
16
32
38
24
38
32
28
10
24
30
18
18
22
46
38
16
2
12
4
18
16
12
22
30
20
14
10
20
34
28
12
28
26
22
18
14
12
8
36
24
14
24
12
14
10
6
22
22
22
12
16
14
16
8
8
14
8
20
24
28
32
36
38
28
8
20
20
12
22
42
46
52
56
64
255
255
255
255
224
140
188
170
128
80
112
186
220
234
32
222
254
255
255
202
126
116
128
140
64
20
58
108
134
132
194
138
76
64
8
38
54
70
76
72
76
78
64
42
18
4
22
34
40
34
26
16
4
8
36
40
12
22
90
164
114
54
58
36
26
32
36
42
46
40
24
14
10
8
16
18
12
10
8
2
8
12
10
6
20
28
30
32
36
50
68
88
134
202
255
255
255
255
255
106
255
255
255
118
30
10
4
20
24
6
18
26
14
12
42
72
78
70
42
22
6
22
34
20
30
50
50
48
50
44
32
26
20
12
10
255
255
142
38
14
8
10
20
18
30
40
26
18
20
30
54
72
80
76
80
86
68
56
76
100
96
70
214
255
255
255
234
188
255
255
255
255
122
64
68
68
66
74
56
46
40
34
40
32
26
22
8
4
2
4
8
8
8
16
12
6
18
46
128
255
255
255
142
32
86
255
255
255
104
255
255
255
202
64
24
20
10
34
18
42
22
24
30
12
38
24
22
12
4
10
16
16
16
20
26
38
26
26
6
18
16
10
6
12
8
8
6
18
78
244
255
255
216
90
8
28
6
8
10
14
22
14
12
10
14
8
16
8
14
10
18
24
20
14
6
30
24
28
24
4
26
30
22
22
34
26
28
18
32
14
22
8
12
6
10
10
12
8
10
8
8
4
14
22
8
12
16
16
36
42
40
56
34
12
6
10
24
16
22
30
28
148
255
255
255
255
255
255
250
172
180
222
204
106
255
255
120
116
232
126
154
236
192
144
86
56
64
72
108
132
144
84
10
8
24
54
60
62
56
48
42
30
28
26
26
22
34
36
28
24
22
22
12
6
26
42
28
20
44
118
126
32
38
18
16
24
26
26
22
16
12
10
12
20
20
14
8
10
14
6
14
8
10
14
28
44
46
42
48
66
90
136
214
255
255
255
255
255
134
228
255
255
248
64
24
12
24
20
28
30
6
18
6
2
10
30
42
54
44
34
16
26
40
24
22
36
34
36
32
26
30
30
18
10
18
255
255
148
38
22
20
16
14
4
16
10
12
10
12
30
58
64
66
50
36
24
26
38
58
88
100
188
255
255
255
255
98
255
255
255
255
120
74
74
80
72
66
56
40
40
32
28
34
14
6
20
4
8
2
8
10
10
2
16
28
22
58
110
214
255
255
255
200
102
255
255
255
255
188
255
254
255
194
62
22
26
8
26
30
40
22
32
16
16
40
6
22
20
18
12
10
6
12
14
6
14
12
2
20
12
10
4
2
8
12
16
42
224
255
255
255
255
255
255
194
76
32
24
26
24
20
8
18
8
14
26
18
14
18
10
12
8
12
30
26
32
30
68
54
36
26
26
24
32
48
52
40
38
52
28
46
18
26
20
8
8
12
2
14
12
8
16
6
16
10
16
16
10
12
28
30
24
18
16
18
22
32
32
16
18
18
112
255
255
255
255
255
255
198
162
192
202
100
150
255
182
255
146
255
255
250
222
136
74
36
20
32
36
38
42
30
16
16
8
34
48
40
36
28
22
12
2
8
10
22
40
44
24
8
10
2
12
12
12
8
26
32
30
28
80
126
72
38
28
24
20
18
34
28
18
18
12
8
14
10
4
10
8
10
18
14
10
18
26
52
66
50
46
68
102
140
194
255
255
255
255
255
255
48
255
255
255
188
48
22
12
6
10
10
28
12
14
10
6
12
10
18
34
34
42
40
32
48
34
28
46
52
50
42
32
44
52
32
22
22
255
255
134
24
4
6
8
4
2
18
14
24
10
14
16
66
96
88
44
52
64
80
92
100
124
202
255
255
255
255
120
255
255
255
255
114
48
42
66
86
78
62
42
30
30
12
4
12
12
18
26
30
10
46
72
66
70
46
32
40
68
128
194
255
255
255
255
116
196
255
255
255
226
255
255
218
244
150
52
16
8
22
10
14
28
24
30
8
12
12
22
20
6
18
12
10
10
16
14
18
24
18
12
6
12
14
14
12
10
22
48
250
255
255
255
255
255
255
255
255
255
116
24
14
16
10
2
6
14
20
10
6
10
6
6
14
30
42
34
28
42
30
32
36
72
26
20
2
14
32
38
50
50
52
34
34
18
20
24
22
16
24
18
10
28
16
10
24
22
10
6
4
10
14
16
16
6
12
18
22
22
24
38
42
44
16
6
70
176
255
255
232
158
108
66
32
36
82
188
255
192
190
172
252
172
108
88
70
44
24
22
42
52
40
28
16
2
10
20
44
48
34
24
26
28
20
22
22
32
50
56
40
14
4
8
12
16
8
6
4
14
26
34
18
42
96
82
36
40
26
14
10
28
32
28
18
8
6
14
10
6
2
2
4
4
6
16
28
52
80
68
46
68
104
138
180
255
255
255
255
255
255
106
72
255
255
255
158
48
16
6
6
2
8
28
18
6
10
16
14
10
14
28
42
48
34
16
46
52
40
42
46
48
34
26
40
42
26
20
18
255
255
142
34
6
6
4
4
6
24
16
26
12
18
20
50
88
114
106
112
120
114
116
140
242
255
255
255
255
180
250
255
255
255
176
72
38
40
66
72
50
36
28
26
24
6
2
8
22
20
12
42
104
154
160
134
156
138
80
64
106
182
255
255
255
255
255
56
255
255
255
255
54
255
255
202
214
118
42
16
20
26
18
18
10
6
20
18
18
16
30
16
36
22
14
14
14
6
10
18
20
14
0
14
16
20
30
26
26
50
236
255
255
255
255
214
255
255
255
255
255
196
24
14
4
12
16
6
22
30
18
8
4
2
12
28
32
38
40
42
60
44
16
16
68
60
18
10
12
12
28
32
18
26
6
10
12
8
2
18
16
16
28
18
22
14
6
14
12
12
18
18
18
12
10
20
26
30
32
24
6
6
8
28
44
38
32
36
36
64
110
118
112
126
108
72
202
255
210
46
204
124
198
218
160
118
106
92
58
28
24
42
50
34
28
22
10
16
24
36
36
22
20
26
34
28
30
32
48
54
42
28
16
12
6
6
8
4
10
12
4
22
36
18
26
68
66
26
38
20
16
14
24
22
28
30
18
10
12
14
8
2
4
6
12
12
20
42
72
82
62
68
110
142
164
240
255
255
255
255
255
130
8
146
255
255
255
122
40
16
8
6
12
14
32
42
26
10
16
26
18
14
26
46
52
38
10
32
48
48
42
56
54
32
30
40
32
22
8
4
255
255
144
40
12
14
12
18
34
44
28
40
34
32
26
28
46
62
64
74
82
84
122
238
255
255
255
255
255
106
255
255
255
184
82
54
40
50
62
52
40
36
30
26
20
6
4
12
26
12
66
150
206
198
150
120
168
184
134
134
176
255
255
255
255
255
70
255
255
255
255
80
244
255
255
230
208
102
24
6
22
20
18
24
4
2
8
30
32
22
12
20
38
30
14
14
18
20
22
16
16
18
10
16
22
26
26
16
12
162
255
255
255
246
204
255
255
156
214
255
255
210
38
14
14
14
28
12
14
26
38
40
30
12
24
28
16
28
36
16
22
12
20
12
22
38
30
16
6
20
24
14
12
20
10
14
26
18
16
6
20
12
18
16
22
4
14
18
16
16
14
18
6
6
14
18
6
0
4
16
22
16
8
24
16
28
34
38
30
32
50
76
98
128
166
236
255
140
90
210
216
106
130
250
218
132
104
100
80
48
26
30
44
32
22
18
12
14
18
20
26
32
30
32
40
34
34
42
48
36
20
18
16
18
14
10
12
8
12
8
16
18
40
26
28
58
62
30
24
20
30
32
40
24
16
20
14
16
12
12
18
10
4
4
4
4
28
70
102
98
94
126
166
194
254
255
255
255
255
255
140
34
16
166
255
255
255
102
32
10
10
22
16
16
14
36
40
30
8
12
8
6
26
56
60
46
6
46
66
58
50
42
34
20
32
40
30
24
10
6
255
255
190
96
80
80
78
62
62
52
38
38
42
40
42
28
28
32
46
54
70
150
255
255
255
255
255
255
76
255
255
255
186
72
56
54
58
70
74
64
44
18
12
2
8
22
30
30
20
62
176
220
194
132
70
56
110
194
244
238
255
255
255
255
255
138
248
255
255
255
162
60
255
255
255
192
144
66
22
6
12
10
10
24
14
14
20
6
22
16
14
18
16
14
20
26
28
10
20
22
12
22
36
44
36
26
12
10
74
255
255
255
255
184
255
255
40
182
255
255
255
164
12
10
10
34
34
20
14
8
12
30
28
36
46
28
10
20
30
64
56
34
32
44
46
28
22
34
22
10
12
14
12
24
20
18
14
4
18
12
20
28
24
6
6
12
26
18
14
28
26
28
20
10
12
22
20
10
20
20
4
20
16
32
12
14
12
8
4
6
12
32
52
68
92
194
255
255
255
222
38
72
126
162
176
150
110
96
88
74
48
36
50
48
30
20
14
10
24
32
30
32
36
42
48
38
28
32
22
8
6
16
16
10
6
8
8
8
14
24
26
16
40
34
32
44
56
40
14
30
26
32
30
16
16
24
10
12
10
4
10
8
10
6
4
18
64
116
152
144
144
190
252
255
255
255
255
255
255
136
32
4
20
176
255
255
222
64
26
10
10
24
10
4
14
18
52
48
22
20
4
18
28
76
98
78
30
52
56
48
30
44
54
36
38
40
24
20
12
8
255
255
255
255
255
254
234
184
128
90
78
54
32
26
38
36
34
32
44
56
122
255
255
255
255
255
255
36
255
255
255
255
100
64
68
72
88
90
88
72
36
8
10
12
26
48
48
32
44
168
234
186
114
52
10
98
255
255
255
255
255
255
255
255
166
156
255
255
255
220
68
76
250
255
255
158
106
42
28
2
16
12
12
12
12
6
14
22
8
22
32
18
16
34
26
22
12
16
18
32
26
48
58
28
20
30
24
32
255
255
255
255
184
202
224
52
124
255
255
255
255
70
8
12
20
14
10
4
8
2
10
24
46
30
32
16
18
8
34
44
18
16
28
32
26
12
8
16
20
4
10
12
14
22
24
14
16
14
4
24
12
14
14
10
6
18
30
8
8
18
20
38
26
16
8
6
16
10
22
14
26
20
32
20
10
16
8
10
6
6
8
8
26
28
6
42
144
246
255
255
255
255
255
236
206
142
96
98
84
68
44
26
34
40
32
24
16
4
12
26
30
26
14
14
24
36
26
12
4
6
6
12
18
20
18
14
4
6
10
10
12
8
28
36
40
36
50
52
24
44
22
24
18
18
20
20
8
10
10
16
22
8
10
8
8
48
104
166
214
216
232
255
255
255
255
255
255
255
94
22
2
0
22
182
255
255
184
54
26
14
14
30
12
16
26
26
32
56
22
10
16
28
24
66
106
110
76
34
48
50
26
26
36
34
44
52
48
46
28
16
255
255
255
255
226
248
255
246
216
198
176
114
42
12
2
10
20
34
70
162
255
255
255
255
255
255
80
220
255
255
255
148
76
86
82
74
86
76
58
30
8
16
16
18
32
38
6
78
170
236
198
108
38
40
148
255
255
255
255
255
255
255
255
154
88
255
255
255
255
52
22
172
255
255
255
154
88
28
26
6
6
4
18
10
20
14
12
8
10
40
34
20
14
26
14
32
16
6
8
18
30
62
20
18
18
28
42
236
255
255
255
174
184
222
84
76
228
255
255
255
134
24
12
24
18
10
8
14
14
8
20
26
74
82
88
66
32
20
30
22
14
22
14
2
22
18
34
24
16
4
8
2
10
28
36
12
8
10
10
22
32
30
24
8
2
18
32
20
12
18
10
20
16
18
16
28
36
32
14
4
18
20
8
16
10
16
2
8
6
8
4
14
18
10
6
16
14
40
72
144
226
255
255
255
255
255
224
104
74
72
54
30
34
34
34
26
16
6
2
6
12
24
20
10
14
26
30
30
22
16
6
8
6
8
10
10
6
4
14
14
12
10
12
22
34
28
50
74
10
50
32
18
16
12
12
12
16
22
18
20
14
12
12
0
28
76
142
234
255
255
255
255
255
255
255
255
228
62
6
0
0
0
22
186
255
255
198
54
26
30
6
26
16
20
18
50
8
42
30
10
10
24
24
34
64
80
86
52
58
66
36
32
36
20
22
30
36
52
38
24
240
255
104
26
44
58
50
82
76
104
178
204
158
106
52
16
22
82
208
255
255
255
255
255
255
140
164
255
255
255
190
74
68
84
70
62
72
56
28
22
16
38
36
28
12
52
134
202
234
206
116
22
80
246
255
255
255
255
255
255
255
255
130
68
255
255
255
242
142
255
255
255
255
255
216
106
70
40
24
8
2
8
8
12
10
22
10
12
12
24
20
18
14
42
32
22
12
22
26
22
50
60
46
48
68
86
232
255
255
255
238
188
238
138
68
214
255
255
255
255
8
6
10
8
12
26
18
12
8
12
18
8
24
24
38
66
74
52
16
12
16
12
16
26
34
32
18
14
10
8
6
10
10
14
24
28
8
6
16
14
14
18
18
24
10
14
14
12
20
10
10
2
6
4
26
22
22
22
24
22
18
14
16
28
6
22
4
8
18
18
20
6
8
14
8
10
10
6
4
20
42
64
124
255
255
255
255
255
212
80
60
62
48
48
54
44
26
12
4
8
4
8
18
18
24
16
22
32
30
28
24
8
8
10
2
8
8
8
6
10
8
6
2
16
32
24
34
66
44
44
38
12
2
6
10
14
16
14
8
8
6
14
12
14
50
106
224
255
255
255
255
255
255
255
255
144
52
8
0
0
0
0
16
164
255
255
246
68
22
26
16
14
18
22
6
42
4
40
38
20
10
18
22
12
28
38
56
50
48
46
24
28
38
28
34
28
22
34
20
8
238
255
210
132
166
152
136
142
118
84
44
78
136
162
154
112
70
138
255
255
255
255
255
255
148
98
255
255
255
238
68
48
64
70
66
72
76
56
22
8
14
40
16
46
110
174
222
220
180
110
6
146
255
255
255
255
255
255
255
255
255
104
42
255
255
255
146
255
255
255
255
255
255
172
70
48
64
40
10
2
8
2
16
8
4
8
24
20
28
30
14
20
24
22
24
30
42
38
26
30
70
82
102
92
102
255
255
255
255
255
204
232
196
14
166
255
255
255
255
50
10
18
20
16
20
38
34
34
22
14
18
26
48
40
26
10
24
40
30
18
20
26
34
28
20
14
14
4
14
16
12
6
34
20
2
34
14
20
30
26
6
8
6
20
24
26
12
14
14
10
6
18
4
12
12
10
4
30
40
42
40
48
26
24
28
12
24
14
6
6
12
4
8
14
8
10
6
10
12
10
18
22
26
38
112
255
255
255
255
255
146
56
40
32
46
52
42
30
8
16
12
14
10
6
6
4
8
16
18
26
34
24
14
14
6
6
2
8
6
8
6
10
8
16
34
30
26
44
46
28
26
16
12
14
20
18
12
14
14
8
6
12
4
14
52
138
255
255
255
255
255
255
255
180
74
16
2
0
0
0
0
0
8
128
255
255
255
88
32
36
20
18
10
10
10
40
20
54
66
58
46
36
28
10
16
26
40
36
26
24
24
44
40
24
34
46
52
56
40
30
255
255
220
114
126
104
102
118
90
86
108
104
88
52
34
58
34
76
238
255
255
255
255
140
60
255
255
255
255
96
56
68
80
76
82
86
64
24
14
20
34
40
16
78
148
184
168
118
46
54
226
255
255
255
255
255
255
255
255
190
56
32
220
255
255
224
255
255
255
255
144
112
72
24
46
52
60
30
28
18
14
10
14
10
4
14
32
12
22
16
12
12
8
2
14
22
16
16
18
48
82
76
60
46
196
255
255
255
255
206
190
192
46
128
255
255
255
255
96
16
6
14
2
18
26
22
14
18
22
22
20
32
26
4
10
18
4
34
40
24
42
36
12
20
12
14
18
10
6
10
12
10
32
20
6
22
6
14
20
30
16
18
22
14
30
28
16
10
16
16
4
10
14
18
6
10
24
38
20
22
34
60
64
30
20
32
34
54
24
6
10
12
8
4
10
20
14
8
12
18
6
2
6
10
4
8
126
255
255
255
255
255
52
12
32
46
42
40
20
22
22
30
22
18
0
8
4
8
8
16
22
18
16
16
14
14
12
20
16
14
8
10
8
20
24
30
28
32
38
22
26
20
14
14
16
10
8
12
4
8
16
14
6
20
74
226
255
255
255
255
255
220
108
40
8
0
0
0
0
0
0
0
2
86
255
255
255
160
36
18
10
20
16
4
14
36
28
28
60
86
88
68
42
16
10
16
46
42
16
16
34
56
48
34
50
62
50
38
22
14
255
255
182
60
72
56
62
76
54
46
52
66
84
100
110
104
64
104
255
255
255
255
255
26
255
255
255
255
130
56
74
84
78
78
84
66
22
28
48
34
36
28
34
76
144
168
126
86
194
255
255
255
255
255
255
255
255
255
106
20
70
255
255
255
170
255
255
255
186
56
172
198
94
48
48
38
38
26
24
24
12
6
12
8
6
12
16
12
16
2
8
6
10
6
6
26
34
28
22
58
72
50
66
180
255
255
255
222
244
188
168
120
48
186
255
255
255
156
20
20
12
18
24
36
28
16
22
24
12
4
10
22
8
8
4
18
28
20
34
20
28
8
24
10
14
6
8
8
4
6
8
2
20
16
14
32
14
14
4
22
12
4
16
26
14
12
26
22
22
6
14
8
10
16
4
6
28
28
14
20
14
16
50
44
34
18
26
32
32
16
4
12
10
2
8
12
2
10
18
10
4
8
10
14
18
22
24
28
226
255
255
255
255
70
18
44
46
48
40
20
8
4
12
18
8
6
6
6
6
10
14
16
12
2
4
6
18
22
24
24
16
14
6
12
14
24
22
16
26
26
14
12
16
22
12
6
12
10
6
10
10
10
6
36
108
255
255
255
255
238
120
44
8
0
0
0
0
0
0
0
0
0
0
50
255
255
255
198
58
30
22
8
16
10
24
18
38
46
50
68
100
98
64
18
12
10
16
24
20
4
42
52
34
28
42
36
18
12
10
14
255
255
166
46
60
50
50
46
28
30
32
38
42
38
56
62
68
86
152
255
255
255
255
234
255
255
255
154
54
66
98
98
66
62
48
32
38
64
56
30
16
2
24
58
142
238
255
255
255
255
255
255
255
255
255
255
184
54
4
76
255
255
255
64
255
255
186
68
2
126
244
118
116
72
22
14
16
4
26
28
4
6
2
4
4
12
16
8
8
12
12
6
10
18
14
18
4
10
8
38
86
78
190
255
255
152
230
228
204
120
88
46
108
255
255
255
255
34
16
8
6
10
20
14
14
24
30
18
14
8
12
16
8
12
6
12
34
36
8
22
10
16
14
24
30
22
24
12
8
14
12
12
6
12
12
10
28
4
12
12
14
14
12
36
42
22
8
2
12
14
8
16
4
12
14
24
26
14
14
34
40
32
26
0
18
14
26
26
16
14
4
12
10
4
12
18
18
14
10
8
8
14
12
16
18
20
18
8
16
108
255
255
255
255
114
18
24
38
44
30
8
12
14
10
6
10
6
2
12
12
12
16
12
6
8
8
18
8
14
14
8
8
2
8
16
26
26
14
16
22
10
6
18
24
4
6
22
16
30
26
20
18
10
38
148
255
255
255
255
54
12
0
0
0
0
0
0
0
0
0
0
0
0
28
255
255
255
230
70
30
18
10
16
14
10
14
34
82
60
22
78
106
76
28
6
6
16
16
24
10
48
60
40
32
30
36
28
18
16
18
255
255
176
44
50
50
48
30
18
16
34
52
54
34
28
24
28
50
70
150
255
255
255
255
255
255
238
82
58
80
102
92
52
40
14
36
50
70
48
46
22
50
48
22
88
198
255
255
255
255
255
255
255
255
200
90
26
4
68
255
255
218
192
255
228
110
34
18
90
202
196
26
94
56
12
28
20
18
28
8
10
8
6
6
8
0
8
8
12
8
12
20
16
20
16
28
6
14
12
38
88
170
255
255
184
120
255
255
204
38
54
70
220
255
255
255
72
4
6
14
18
14
8
8
32
36
30
34
16
12
10
22
14
16
38
68
52
50
38
22
8
8
10
14
18
8
14
10
30
24
20
20
30
20
8
4
20
26
10
12
20
36
24
24
24
30
28
10
10
10
18
18
16
12
18
14
12
8
18
20
10
16
18
28
28
10
12
10
14
14
12
12
10
6
8
14
20
16
16
20
14
20
14
6
14
10
12
26
16
18
70
255
255
255
255
146
16
10
18
26
18
4
12
10
6
8
10
12
14
16
14
12
12
4
8
10
20
6
18
18
20
14
6
8
10
16
24
18
16
22
16
2
18
26
16
22
24
10
16
22
28
28
18
66
255
255
255
255
90
0
0
2
4
4
2
0
0
0
0
0
0
0
0
16
230
255
255
255
120
62
38
28
4
24
10
14
12
68
92
56
26
90
94
66
22
4
8
16
32
16
46
54
38
26
22
36
50
28
22
18
255
255
174
38
42
52
40
24
12
10
32
36
28
14
22
28
24
20
14
36
114
255
255
255
255
255
192
78
68
76
80
64
22
10
38
48
28
8
54
100
114
104
64
82
142
252
255
255
255
255
255
255
255
122
38
4
4
66
255
255
188
236
255
134
46
28
10
74
180
246
152
90
114
70
30
24
12
16
22
4
2
22
8
6
10
6
10
10
2
12
24
24
10
4
14
18
28
34
22
16
132
255
255
254
124
255
255
255
214
72
56
74
255
255
255
194
30
14
14
22
10
4
8
24
36
26
34
14
26
18
10
46
66
122
170
112
86
36
20
20
12
14
14
18
26
22
32
30
36
16
14
20
24
22
6
8
6
32
34
4
22
6
8
18
4
12
28
14
6
8
4
12
8
8
10
14
36
24
14
6
26
24
26
36
10
22
12
10
12
24
26
18
12
2
12
12
16
12
6
6
4
14
26
22
18
8
18
24
28
22
22
18
255
255
255
255
142
28
28
22
16
14
12
8
6
0
10
4
12
18
12
12
16
6
2
10
16
8
16
20
24
12
20
10
6
8
16
28
32
30
24
14
22
40
42
28
14
8
6
4
14
24
28
108
255
255
255
255
22
0
0
2
2
2
2
0
0
0
0
0
0
0
0
8
134
255
255
255
176
80
54
44
28
22
20
22
22
30
64
76
18
62
102
104
66
20
4
10
30
28
44
48
38
26
28
46
38
16
12
8
255
255
144
16
16
34
28
24
14
24
28
18
26
12
20
18
10
16
12
20
32
162
255
255
208
230
102
46
58
62
58
36
34
48
50
10
114
184
210
176
108
42
44
166
255
255
255
255
255
255
255
158
46
6
0
0
72
255
255
248
170
246
86
8
14
26
44
154
234
216
96
116
122
70
34
22
4
16
30
2
10
22
8
12
10
8
10
14
24
20
12
14
12
14
6
20
18
12
20
100
255
255
255
78
172
255
255
192
88
32
94
255
255
255
255
28
6
6
8
34
32
8
10
18
42
22
10
8
10
10
14
70
114
174
106
104
108
44
10
16
10
12
8
6
20
18
18
10
14
2
10
16
12
14
10
12
16
12
20
18
20
28
30
22
4
16
20
12
8
10
10
18
12
16
14
18
18
4
14
12
16
22
12
36
22
14
12
6
12
8
24
14
20
8
22
30
12
12
18
6
8
12
22
26
26
10
20
14
2
16
10
14
18
222
255
255
255
142
16
22
20
14
4
4
2
6
8
2
10
22
20
16
18
16
12
4
18
10
12
14
16
6
10
16
16
18
22
20
24
28
34
26
8
38
36
14
10
14
8
6
12
18
42
156
255
255
255
140
0
0
0
2
4
4
2
0
0
0
0
0
0
0
0
16
70
255
255
255
220
86
66
60
54
16
22
28
28
24
28
56
44
40
104
142
124
64
22
14
22
10
26
50
54
40
44
46
34
16
10
8
255
255
138
34
34
46
34
14
8
32
24
6
16
22
16
8
2
6
2
12
14
62
196
255
178
68
126
78
56
48
42
42
34
22
104
214
255
255
194
156
128
194
255
255
255
255
255
255
255
224
96
30
4
0
0
96
255
255
255
66
188
80
42
14
12
28
116
208
184
108
20
94
152
110
58
34
18
10
26
14
16
18
8
4
16
18
14
14
20
12
12
4
10
8
12
10
32
34
98
255
255
255
58
88
255
255
180
78
70
116
255
255
255
255
130
10
8
4
14
14
18
12
6
4
22
14
2
10
8
8
16
60
106
166
164
214
98
14
8
28
26
4
14
18
10
12
14
24
32
4
8
10
2
10
4
18
22
26
24
16
8
2
22
12
10
22
26
14
12
14
6
12
6
6
12
10
28
26
6
12
16
18
14
18
26
18
18
18
10
24
28
8
8
24
12
14
20
26
26
28
16
16
26
10
22
14
24
10
8
6
32
38
14
14
238
255
255
255
114
22
44
22
12
12
18
12
16
10
12
16
22
28
20
8
12
8
12
14
10
10
14
6
8
10
10
16
10
16
16
14
32
38
8
50
48
32
34
44
38
36
38
36
56
218
255
255
255
78
0
0
0
0
0
0
0
0
0
0
20
70
142
220
255
255
255
255
255
255
154
64
60
66
66
46
34
28
10
14
24
62
86
86
86
154
172
120
46
16
26
24
32
42
54
50
42
40
32
16
6
4
255
255
150
42
48
56
34
6
14
24
12
8
22
26
24
20
18
20
16
22
14
30
134
255
214
28
132
96
58
36
30
38
136
240
255
255
254
116
90
255
255
255
255
255
255
255
255
255
174
54
12
2
0
2
66
255
255
255
126
166
104
72
46
26
34
76
142
164
60
94
88
168
176
90
32
22
18
14
28
22
12
4
22
20
6
12
4
20
34
16
10
8
14
16
8
18
18
40
244
255
255
116
30
154
255
222
100
66
8
228
255
255
255
140
16
10
10
14
6
6
10
16
4
10
18
22
10
10
8
8
10
38
72
104
124
78
6
16
24
28
50
32
8
32
10
18
16
6
24
16
12
24
18
24
14
16
20
18
20
20
8
4
18
6
16
20
22
16
10
20
10
16
12
10
12
24
16
32
22
2
14
8
10
4
16
22
16
6
4
20
20
16
8
14
14
18
6
24
8
16
14
8
18
16
14
4
14
2
10
2
34
8
32
30
24
255
255
255
255
58
38
48
38
26
26
22
24
16
20
14
16
28
22
10
6
12
8
8
8
12
16
14
10
12
12
8
10
26
28
30
40
64
26
60
136
172
214
238
232
234
228
196
206
255
255
255
255
255
182
70
8
0
0
2
10
40
104
196
255
255
255
255
255
255
255
255
255
255
206
90
48
46
40
12
2
20
22
10
20
56
80
78
54
108
166
148
70
16
28
22
42
48
54
50
44
34
20
12
8
6
255
255
156
36
46
60
48
22
10
8
24
30
26
24
24
20
20
16
16
16
14
10
82
220
255
68
146
118
64
62
128
236
255
255
254
128
46
255
255
255
255
255
255
255
255
255
208
102
30
6
6
2
0
22
255
255
255
108
196
142
70
50
34
22
44
74
106
82
38
96
130
174
130
58
2
14
14
6
16
24
32
32
28
36
20
18
14
22
34
28
20
10
18
14
16
16
16
154
255
255
255
82
162
255
255
176
74
28
146
255
255
255
196
28
4
16
14
26
12
18
16
24
14
16
20
30
12
18
22
8
2
10
18
22
36
20
22
16
14
6
24
40
10
30
10
8
14
24
8
22
22
14
10
18
22
12
20
18
20
20
22
8
14
6
12
20
12
14
22
26
12
28
16
2
6
24
16
14
28
14
16
4
6
6
6
8
6
12
10
2
10
6
6
12
18
6
2
14
4
10
4
8
16
18
8
2
12
8
12
6
28
12
38
24
28
24
255
255
255
255
88
56
46
26
26
26
20
18
26
20
16
24
30
24
2
6
18
8
8
12
16
14
12
14
14
18
22
30
18
38
92
164
255
255
255
255
255
255
255
255
255
255
255
255
255
255
255
255
255
255
255
248
118
154
206
232
255
255
255
255
255
255
255
255
255
255
232
186
146
104
92
98
80
62
62
62
66
50
56
82
128
146
90
36
110
144
86
18
30
16
52
54
48
50
54
46
30
16
8
4
255
255
156
28
50
56
48
38
12
22
20
36
40
40
38
34
28
12
30
30
24
20
56
178
255
108
174
134
104
180
255
255
255
154
4
198
255
255
255
255
255
255
255
255
244
124
64
18
2
0
0
0
14
112
255
255
140
182
196
102
64
68
58
30
26
50
86
90
94
128
108
78
52
32
10
20
28
12
14
12
8
4
12
32
30
16
4
16
26
16
22
22
32
14
26
2
102
255
255
255
142
192
255
255
255
168
68
76
255
255
255
255
66
12
8
22
20
22
6
18
12
20
22
16
12
14
8
26
22
20
10
12
18
12
22
14
18
10
8
14
16
36
30
26
6
8
14
20
24
26
18
12
14
8
14
24
32
22
6
6
12
14
14
16
6
4
14
16
10
8
14
32
16
10
6
10
22
18
20
4
18
16
16
6
8
12
10
6
8
12
10
10
4
28
20
24
14
16
6
10
14
10
12
14
8
8
14
24
22
16
24
10
20
18
30
6
90
255
255
255
255
255
112
30
22
26
20
20
22
30
34
28
30
34
12
12
20
20
12
16
24
28
36
28
22
36
84
146
194
234
255
255
255
255
255
255
255
255
136
112
144
138
100
46
92
255
255
255
255
255
255
255
255
255
255
255
255
255
255
255
255
202
170
134
88
60
60
62
54
48
52
54
50
56
60
66
84
94
102
112
146
182
174
114
100
98
82
32
14
10
42
58
46
34
44
44
30
18
8
4
255
255
150
22
44
48
34
34
16
8
8
16
20
22
28
34
34
14
32
38
40
30
44
136
224
92
140
120
134
238
255
172
28
140
255
255
255
255
255
255
255
255
255
188
70
28
12
2
0
0
0
0
48
255
255
255
140
216
154
88
44
34
38
20
16
50
94
100
102
100
46
50
24
22
10
36
28
38
26
40
20
20
28
16
10
4
14
18
26
16
16
14
24
10
22
12
255
255
255
196
110
184
212
200
186
106
36
222
255
255
255
86
32
26
18
24
28
20
14
4
20
8
6
12
28
16
6
24
20
12
28
28
14
14
8
18
18
8
10
12
8
10
24
2
16
14
32
10
14
12
20
14
18
30
20
28
14
8
14
8
6
10
22
22
10
12
8
12
24
14
26
32
8
4
14
10
14
20
22
18
28
10
20
14
8
14
16
22
32
16
8
6
10
18
2
22
8
8
16
12
12
4
6
4
12
14
10
22
32
56
96
90
40
12
40
42
32
148
255
255
255
255
255
182
42
32
38
38
18
24
32
24
30
28
28
24
18
22
14
24
32
8
56
146
210
244
255
255
255
255
255
255
255
255
84
132
188
164
70
56
116
106
60
70
82
72
80
92
182
255
255
255
255
255
255
255
255
255
255
186
104
112
126
108
84
64
54
38
22
22
26
28
30
30
24
28
34
48
74
98
128
156
172
164
82
74
64
46
8
12
28
60
54
38
46
48
34
24
8
6
255
255
132
16
48
46
34
28
20
8
8
10
22
26
16
14
22
18
36
44
44
26
38
114
184
58
106
110
126
152
168
160
255
255
255
255
255
255
255
255
255
250
130
56
16
2
0
0
0
0
0
32
164
255
255
188
196
182
124
86
66
70
70
36
24
34
60
58
60
52
34
48
64
34
26
22
30
30
10
18
6
6
16
20
12
10
16
14
16
14
26
36
32
12
18
140
255
255
255
90
160
202
214
180
128
36
114
255
255
255
118
50
12
8
10
8
6
10
26
18
22
10
22
18
18
10
18
32
32
28
28
12
4
14
16
10
10
18
6
16
22
14
22
24
26
22
30
16
20
6
18
8
10
16
34
18
28
24
16
8
10
18
14
8
8
22
12
20
8
6
16
16
26
26
16
10
6
10
26
48
18
20
20
4
18
24
16
14
28
40
10
20
22
8
10
8
8
10
6
8
6
16
12
22
30
18
8
22
40
42
78
106
142
76
22
4
12
38
176
240
255
255
255
255
234
54
44
58
28
30
36
26
38
32
26
16
16
28
20
22
106
206
255
255
255
255
255
255
255
224
230
255
224
176
190
236
210
130
60
62
122
108
68
88
100
92
62
40
44
18
54
162
255
255
255
255
255
255
210
156
136
138
106
98
98
68
44
34
24
24
34
36
28
22
22
26
24
16
16
38
76
108
130
152
140
70
38
36
50
30
38
70
66
48
56
64
58
50
22
8
255
255
134
2
58
70
48
22
18
20
14
18
30
36
22
10
12
24
34
46
44
34
92
240
255
148
212
168
138
164
192
255
255
255
255
255
255
255
255
255
190
64
16
6
2
0
0
0
0
2
112
255
255
255
246
136
154
166
138
98
72
56
32
6
20
24
32
22
28
26
32
32
46
56
20
8
12
14
8
16
12
14
14
12
8
10
10
12
18
10
8
12
10
8
24
255
255
255
132
94
184
204
204
162
86
26
178
255
255
255
46
44
20
16
16
6
4
12
24
20
2
12
16
8
16
24
14
14
6
4
20
32
14
2
14
26
12
14
12
14
18
12
16
18
12
18
36
14
12
2
18
6
22
40
34
2
12
16
8
16
10
6
20
22
20
4
18
18
6
2
14
34
30
20
28
24
16
16
20
12
12
18
10
16
20
12
12
10
4
42
30
54
36
32
12
16
22
30
14
6
16
8
14
20
10
28
18
18
46
102
150
86
94
28
36
34
18
24
58
142
16
160
255
255
255
255
70
56
42
42
50
44
52
52
40
32
16
44
146
255
255
255
255
255
250
248
228
210
182
150
144
120
78
108
164
162
164
158
144
152
168
138
104
114
116
102
70
40
42
62
42
18
20
62
174
255
255
255
238
160
128
106
68
66
54
16
16
24
28
28
34
30
28
30
36
46
40
30
20
24
32
54
68
94
122
120
86
48
0
30
50
72
62
32
36
52
64
70
42
18
255
255
136
42
22
54
52
20
10
18
6
12
40
34
6
8
10
20
38
56
62
88
232
255
255
255
255
255
255
210
242
255
255
255
255
255
255
255
255
138
40
6
0
0
0
0
0
0
28
196
255
255
255
192
48
110
116
178
158
110
84
48
10
8
22
8
16
16
22
30
32
10
12
36
34
12
6
8
8
12
28
14
30
16
6
16
4
10
14
22
18
10
2
6
192
255
255
198
62
140
180
164
120
68
16
16
255
255
255
166
34
58
52
40
12
8
8
6
4
12
6
18
10
6
14
16
18
20
22
10
14
24
30
12
12
24
10
6
18
28
30
42
62
60
52
2
44
26
10
8
22
20
10
14
14
8
8
12
14
18
18
12
8
2
14
14
8
8
14
8
14
6
12
8
12
22
8
16
30
38
28
28
26
22
24
10
0
6
4
20
22
24
14
14
12
18
12
32
28
2
12
16
6
22
20
2
12
10
22
36
74
76
88
44
26
22
24
12
20
158
40
176
140
255
255
255
255
92
42
44
42
42
44
46
38
50
160
255
255
255
255
255
250
226
255
224
124
72
28
16
38
76
138
152
128
116
140
166
150
150
156
124
94
80
64
50
40
38
50
54
30
18
24
14
10
22
86
196
240
190
86
50
54
62
56
36
26
16
14
24
34
40
36
26
24
22
14
22
18
14
12
22
18
28
46
74
98
108
100
58
18
68
90
68
56
46
50
78
74
54
255
255
140
60
12
44
58
24
6
16
12
14
40
44
20
12
8
28
42
50
62
158
255
255
255
255
255
255
255
255
255
255
255
255
255
255
255
198
100
30
2
0
0
0
0
0
2
42
244
255
255
255
255
255
102
116
102
166
140
94
70
36
12
16
18
8
2
14
10
20
18
20
14
4
26
26
4
6
8
2
24
36
18
14
20
10
2
14
16
12
8
8
16
50
255
255
255
72
112
186
184
162
106
34
26
84
255
255
255
44
12
30
60
78
48
16
8
6
4
12
8
24
8
4
22
18
10
4
16
6
10
18
24
8
4
20
26
46
60
70
92
88
100
90
82
34
36
26
18
28
10
22
16
26
18
8
8
22
14
14
8
2
16
16
10
14
14
12
4
16
16
18
24
18
10
8
20
18
24
20
12
28
6
26
42
28
18
0
0
10
20
10
20
14
12
18
18
14
32
18
8
8
22
6
14
8
8
6
16
50
44
24
18
6
14
6
20
8
8
114
60
144
38
112
255
255
255
255
112
56
64
56
46
44
146
255
255
255
255
255
255
255
255
246
196
88
68
118
144
136
106
68
66
20
8
50
96
124
116
130
132
90
52
38
38
42
38
24
22
22
10
18
42
34
26
4
0
30
78
146
160
86
22
48
34
10
12
22
20
22
32
30
16
16
12
2
6
18
30
26
20
20
14
16
20
28
50
74
96
108
72
26
58
90
98
80
64
72
72
62
255
255
102
48
16
38
56
26
6
8
14
16
26
32
24
26
34
46
48
58
94
255
255
255
255
255
255
255
255
255
255
255
255
255
255
255
136
58
14
0
0
0
0
0
0
4
78
255
255
255
255
255
255
255
112
130
114
168
130
66
36
22
20
16
8
8
6
8
22
34
46
20
10
16
28
36
8
8
10
0
8
14
28
22
6
10
10
22
18
16
28
32
32
236
255
255
156
140
200
180
130
94
78
22
22
172
255
255
255
26
18
12
12
48
44
6
4
4
2
10
6
22
6
6
10
12
6
2
18
10
0
26
30
26
26
46
84
132
168
170
168
158
188
186
154
76
12
34
26
12
8
16
6
16
28
16
10
14
14
18
8
14
24
16
18
20
12
12
4
12
12
14
18
12
10
20
24
54
40
36
30
10
20
28
28
6
26
8
10
18
22
28
8
16
18
20
18
18
12
20
26
20
10
10
6
12
12
8
28
32
12
22
22
8
12
16
10
6
34
56
40
100
44
4
86
255
255
255
255
138
102
96
132
255
255
255
255
255
255
255
255
255
255
255
206
112
176
160
90
60
54
42
64
70
58
62
110
136
122
116
94
46
32
46
44
38
30
10
8
14
10
22
48
40
52
32
10
16
18
40
104
142
104
56
38
10
16
32
30
34
28
12
20
36
28
34
38
50
38
52
40
28
26
22
20
24
24
48
54
72
94
92
64
10
54
66
64
62
48
30
255
255
126
60
10
46
48
30
2
4
16
18
18
20
32
48
58
60
62
90
218
255
255
255
255
34
124
255
255
255
255
255
255
254
152
58
14
2
0
0
0
0
0
0
8
114
255
255
255
255
194
255
255
255
86
96
82
144
88
26
14
16
32
18
10
14
6
22
24
18
30
40
30
10
20
24
22
6
18
6
6
12
4
16
22
16
10
20
10
8
4
24
110
255
255
255
114
164
184
154
108
70
66
38
22
255
255
255
204
14
22
12
16
42
38
18
12
12
12
16
2
16
8
6
16
16
4
6
18
24
24
26
18
8
10
70
132
136
158
188
244
255
255
255
255
194
48
24
50
30
14
12
2
24
28
14
24
22
22
18
16
4
14
14
6
18
22
14
18
28
20
12
12
22
10
16
30
48
36
48
24
12
16
46
44
30
28
12
20
24
18
16
4
18
6
12
6
8
14
12
0
14
14
6
2
8
10
16
18
18
18
22
22
22
16
8
18
30
56
24
58
72
18
12
16
52
255
255
255
255
190
255
255
255
255
255
255
255
255
255
244
152
162
182
188
170
118
104
94
138
138
94
48
54
80
118
144
124
78
60
34
10
22
30
20
14
12
8
18
22
10
22
42
26
36
48
32
30
28
18
26
70
100
64
20
14
30
42
40
46
32
34
66
66
46
52
52
40
18
42
52
36
28
32
30
18
16
34
38
30
36
68
98
72
22
18
42
58
50
16
255
255
126
20
32
30
42
42
12
10
18
10
16
20
38
54
68
78
90
158
255
255
255
255
110
4
0
10
36
74
86
86
64
40
16
2
0
0
0
0
0
0
0
8
132
255
255
255
255
255
218
255
255
222
52
78
82
116
48
20
24
16
22
12
8
20
4
24
16
14
10
14
38
34
30
2
26
48
20
10
10
16
4
10
8
12
22
18
2
4
6
38
255
255
255
132
98
118
150
152
114
100
86
28
12
255
255
255
128
44
44
38
38
42
36
36
26
8
8
14
24
16
14
12
6
8
6
10
40
48
32
20
6
26
30
74
108
82
84
102
94
106
98
255
255
255
114
8
42
28
16
18
2
14
32
28
22
14
14
8
4
2
4
2
8
10
16
16
14
12
10
6
4
12
14
6
18
38
36
30
14
8
16
18
32
18
6
4
10
8
6
6
16
34
38
28
20
12
18
10
16
22
12
8
8
28
42
50
10
20
6
22
6
28
30
18
32
16
26
32
84
46
2
6
10
0
52
255
255
255
255
255
255
255
255
255
255
255
188
118
64
50
132
164
158
200
176
176
200
172
106
52
68
124
132
136
122
60
58
54
28
10
18
40
38
20
10
20
32
24
16
34
44
14
8
18
18
20
30
32
28
42
68
80
62
60
70
58
54
64
62
74
96
80
60
56
52
48
34
36
56
46
18
16
20
8
14
8
28
22
2
10
60
82
68
26
16
34
64
56
255
255
124
32
46
20
32
38
22
20
20
12
14
32
56
74
90
112
150
255
255
255
255
216
30
2
0
0
0
0
0
0
0
0
0
0
0
0
0
0
0
0
10
110
255
255
255
255
204
6
255
255
255
162
22
52
78
82
32
20
26
8
14
24
12
16
8
8
8
8
18
12
8
12
4
10
14
22
26
16
18
12
10
12
8
14
14
10
10
12
18
194
255
255
172
152
150
128
160
166
96
48
34
20
46
255
255
255
40
42
24
28
32
36
22
14
18
4
2
12
10
10
14
10
6
4
4
18
36
18
10
16
10
8
42
74
94
84
86
140
218
254
196
44
255
255
250
30
76
30
48
26
26
22
32
36
14
14
28
18
12
16
14
8
8
14
16
10
2
12
18
6
6
8
12
20
16
8
18
24
8
14
10
6
16
24
20
12
14
2
4
24
22
20
24
32
18
24
34
12
6
12
18
4
16
68
80
86
84
36
30
44
38
22
18
34
12
32
44
54
76
26
12
32
24
20
14
56
255
255
255
255
255
255
255
255
190
162
118
66
78
94
100
118
190
224
164
232
208
202
138
94
124
124
118
108
72
40
50
48
40
40
22
14
28
18
12
22
18
12
16
28
30
12
10
6
8
18
24
28
24
34
44
44
46
54
60
48
54
66
58
58
66
46
36
46
52
68
62
40
52
62
40
24
20
10
12
6
16
22
10
30
32
64
88
62
32
14
38
58
255
255
144
34
24
8
26
32
34
30
34
18
26
68
102
118
138
184
255
255
255
255
255
74
18
2
0
0
0
0
0
0
0
0
0
0
0
0
0
0
0
4
90
255
255
255
255
146
24
66
255
255
255
124
24
54
38
22
4
6
14
16
30
20
24
14
20
18
6
10
18
20
12
18
8
14
38
16
12
2
8
14
14
8
18
20
10
10
16
8
68
255
255
255
102
158
208
92
114
138
74
28
8
22
88
255
255
194
30
40
18
40
50
60
52
26
14
4
4
10
10
12
20
14
10
10
6
26
26
22
16
8
8
24
48
44
84
124
132
134
180
240
252
176
150
255
255
172
62
52
72
18
30
18
6
26
16
30
40
22
30
12
16
18
12
14
14
6
6
14
12
6
6
10
6
8
14
26
68
124
130
92
12
14
10
14
24
24
24
20
24
30
14
12
6
22
30
18
20
10
8
18
40
52
64
86
78
56
118
84
34
26
30
52
20
28
10
20
12
32
50
14
6
16
12
18
16
24
48
178
122
242
226
162
152
94
66
104
104
78
72
68
68
80
102
96
96
146
110
148
132
142
114
70
72
76
62
58
64
48
40
36
16
20
36
26
14
22
16
12
18
26
26
8
8
10
10
16
8
14
14
22
30
28
26
24
40
34
32
28
28
36
42
32
22
18
16
40
62
58
64
76
70
58
44
36
48
46
50
48
26
30
12
22
60
56
36
44
18
14
255
255
188
50
20
6
22
28
56
132
140
130
118
104
148
176
234
255
255
255
255
255
128
34
20
2
0
0
0
0
0
0
0
0
0
2
4
4
2
0
0
66
255
255
255
255
180
24
80
112
255
255
255
154
58
58
10
6
6
6
14
16
10
26
18
8
2
14
12
4
6
14
12
16
18
24
12
14
12
8
6
6
14
4
14
8
12
18
12
20
244
255
255
224
132
255
222
82
120
144
52
12
32
48
98
255
255
162
38
14
10
34
56
70
76
46
10
12
12
4
12
14
28
26
32
20
0
22
24
12
20
20
16
18
24
40
58
78
92
114
180
255
255
255
228
222
255
255
58
52
36
16
16
8
20
8
18
20
34
20
8
8
4
8
2
20
32
12
12
18
28
18
6
4
12
4
6
28
80
102
82
128
34
10
4
18
26
30
32
28
6
52
42
36
20
12
36
34
26
24
44
60
96
122
116
90
62
44
66
136
174
132
56
42
26
28
22
16
10
30
28
28
32
38
32
12
24
16
10
30
34
132
255
192
6
64
92
144
164
136
114
88
92
126
144
40
102
82
78
152
152
114
118
94
70
78
64
50
36
40
48
50
24
8
20
18
10
20
20
14
16
20
14
2
2
8
8
10
4
10
18
36
40
34
40
8
28
14
14
18
16
28
44
48
58
56
44
30
8
36
52
68
70
56
38
48
56
60
80
90
74
32
6
14
24
30
28
48
42
22
255
255
204
84
56
36
40
54
164
244
186
182
186
244
252
255
255
255
255
255
255
182
40
16
10
0
0
0
0
0
0
2
6
8
8
2
4
4
8
6
36
255
255
255
255
244
32
58
94
120
255
255
255
172
50
34
20
12
16
22
10
4
2
14
4
12
18
14
8
14
14
6
10
18
14
34
10
18
14
18
10
20
28
22
8
20
4
10
72
255
255
255
255
104
128
192
94
84
184
168
50
18
24
50
110
255
255
255
6
28
14
14
30
50
60
42
18
16
16
10
16
22
24
24
36
50
22
18
24
20
16
14
18
22
2
20
32
28
44
48
50
146
255
255
255
212
234
255
255
72
14
22
6
10
18
4
20
16
18
16
2
6
12
24
20
18
22
10
10
24
26
38
18
12
10
10
10
26
82
150
130
118
34
6
16
36
32
42
94
172
222
212
160
70
12
4
24
28
12
64
100
186
255
255
194
108
116
148
224
255
255
255
234
116
58
8
38
24
34
12
124
154
152
88
40
30
22
4
20
24
12
46
220
255
134
22
84
150
196
176
154
152
116
96
66
100
154
32
130
198
136
74
100
94
82
80
48
30
32
36
42
36
18
14
22
16
10
14
22
18
14
24
26
14
16
12
4
12
16
22
18
30
32
22
34
18
26
24
28
22
10
4
18
28
46
56
78
102
82
38
30
32
48
46
38
62
62
56
64
88
104
88
54
22
24
32
26
30
26
18
255
255
164
60
60
46
40
110
255
230
56
156
255
255
182
162
220
248
250
255
246
212
194
166
114
54
18
4
0
0
0
4
10
8
10
8
4
10
10
12
214
255
255
255
255
74
20
62
84
92
192
255
255
208
18
16
8
4
4
20
26
24
16
28
30
12
6
6
8
14
18
24
8
10
10
26
10
6
26
16
24
12
16
20
8
16
22
184
255
255
255
255
126
124
138
84
32
74
142
108
42
30
20
34
62
255
255
255
114
36
26
30
62
78
64
22
12
16
36
22
22
30
20
24
16
34
12
30
18
14
20
12
12
8
22
0
28
16
26
16
0
48
134
216
255
255
166
255
255
255
38
32
14
10
16
12
10
14
4
24
14
4
22
26
12
12
6
20
26
26
22
20
2
2
6
16
14
20
24
58
70
46
24
10
36
30
12
68
228
255
255
255
255
255
255
162
112
74
28
136
188
255
255
228
220
218
255
255
255
255
255
255
255
244
124
42
12
26
4
184
255
255
255
198
60
36
24
10
26
24
4
24
122
255
255
90
16
76
164
204
212
230
204
142
124
160
96
76
120
146
126
78
84
96
106
96
60
36
26
32
48
34
12
16
22
14
18
24
20
24
20
4
20
16
16
14
4
8
14
20
12
18
24
24
30
28
18
50
38
16
4
10
8
14
26
58
68
96
118
86
84
78
48
8
58
72
60
54
56
68
100
122
120
82
52
36
26
24
12
14
255
255
255
136
112
98
112
210
234
104
100
210
220
255
255
255
255
255
255
255
255
255
255
255
255
255
255
255
186
64
6
4
10
8
4
6
2
12
4
102
255
255
255
255
98
14
62
74
82
74
130
255
255
255
34
20
28
26
24
10
4
14
32
20
30
12
6
8
6
10
26
12
20
16
16
20
2
8
24
18
32
2
20
20
6
18
234
255
255
255
255
120
46
162
154
38
12
94
110
82
26
8
24
48
36
255
255
255
255
40
10
66
74
72
48
14
8
12
24
16
14
28
20
14
48
56
32
36
12
12
18
6
20
28
12
26
36
22
32
24
16
10
44
80
134
255
255
176
255
255
226
14
4
10
16
28
22
10
8
8
20
24
24
4
16
2
16
6
18
10
20
18
12
6
6
4
8
8
26
10
18
8
6
18
22
18
24
102
255
255
255
255
255
255
255
255
255
255
86
146
224
255
204
124
180
255
255
255
255
222
104
255
255
255
116
44
20
12
48
255
255
255
255
255
110
38
36
24
30
34
10
18
46
200
255
232
44
22
86
150
222
255
255
200
152
112
82
94
116
182
192
106
70
82
108
102
72
52
44
42
40
18
14
24
36
28
20
22
6
18
18
16
14
24
24
18
12
8
16
16
8
12
14
18
24
26
10
52
28
18
24
12
10
24
38
54
46
44
86
74
96
88
90
72
50
54
42
46
54
52
80
108
128
110
76
40
28
36
24
18
255
255
255
226
190
186
178
190
122
94
110
82
212
255
255
255
255
255
255
255
255
255
255
255
255
255
255
255
255
255
208
72
8
6
8
2
6
6
58
255
255
255
255
122
12
54
70
78
80
68
46
255
255
255
80
10
26
18
32
24
20
10
18
32
8
16
6
8
6
8
18
2
26
4
10
14
10
4
20
16
14
16
24
28
34
192
255
255
255
204
38
152
154
255
200
50
24
78
112
90
22
6
32
40
40
88
255
255
255
62
32
48
30
24
16
6
8
24
26
14
6
24
18
20
34
16
20
30
16
18
12
18
24
16
24
28
16
16
12
24
32
16
20
10
22
82
255
255
136
255
255
58
12
20
10
10
6
18
8
26
34
14
8
18
16
22
30
18
28
16
26
22
32
22
12
6
12
14
18
14
20
10
14
8
4
14
30
116
255
255
255
255
255
255
255
255
255
255
255
230
255
255
255
255
255
255
255
224
198
162
74
180
255
255
158
50
32
22
66
255
255
222
255
255
255
122
74
46
28
36
10
18
50
54
255
255
142
10
34
66
138
222
248
208
172
154
144
112
96
150
210
152
80
82
96
76
48
32
36
48
46
30
22
20
36
30
18
22
2
10
14
2
36
50
26
22
32
24
18
6
14
24
24
24
34
36
20
64
58
20
40
28
20
30
44
62
56
38
54
68
80
70
96
116
112
60
36
44
46
32
42
68
98
98
76
44
26
28
28
20
255
255
222
120
98
98
96
78
38
22
18
26
76
78
74
80
78
80
106
150
178
202
236
255
255
255
255
255
255
255
255
255
142
36
4
6
6
34
238
255
255
255
180
14
42
58
66
68
58
44
18
234
255
255
172
26
36
14
16
12
6
20
14
16
10
20
22
10
6
10
16
6
30
28
14
6
8
12
16
12
14
22
32
46
136
255
255
255
182
86
106
62
152
214
150
44
52
80
110
92
22
14
52
28
50
36
255
255
255
168
62
54
36
30
26
22
30
26
6
6
8
26
20
20
16
14
34
34
12
22
12
18
16
4
34
38
14
6
2
16
22
6
18
4
28
20
148
255
255
102
255
250
34
26
22
16
14
24
24
20
8
10
10
8
26
14
12
22
12
2
8
22
28
22
26
14
10
16
20
24
16
20
30
22
22
20
32
114
255
255
255
255
162
154
162
255
255
255
255
255
255
255
255
255
255
255
228
182
192
255
166
114
255
255
198
78
34
10
56
255
255
214
255
255
255
255
154
98
46
18
8
10
56
30
146
255
236
46
18
34
66
106
138
156
170
198
232
214
144
212
238
156
80
84
82
66
62
52
46
38
28
18
18
28
40
14
18
32
10
10
8
6
42
40
16
38
56
42
38
20
16
22
12
14
32
36
22
64
90
48
52
58
42
34
52
68
52
40
60
84
62
62
72
86
104
86
42
36
26
14
18
42
80
98
70
40
28
20
26
22
255
255
138
42
14
18
30
26
22
24
30
26
20
10
6
8
8
16
24
28
28
34
48
60
56
64
98
194
255
255
255
255
255
208
96
30
4
104
255
255
255
255
36
28
34
46
54
50
38
30
36
144
255
255
255
8
26
22
6
8
2
18
24
10
14
38
14
14
8
12
14
10
4
12
10
2
6
18
24
48
150
224
192
98
198
255
255
255
200
186
92
96
162
136
66
22
44
48
90
118
54
40
46
20
30
16
186
255
255
255
76
46
34
38
38
28
22
14
10
10
14
24
20
6
14
6
26
18
10
26
24
18
14
6
22
28
8
16
22
32
38
6
18
8
30
18
14
166
255
255
255
255
122
32
36
20
4
6
18
14
22
22
20
20
12
12
16
8
16
6
10
4
18
12
4
14
12
4
14
14
12
12
20
6
20
36
34
98
255
255
255
138
46
60
34
48
172
255
255
255
255
255
255
226
188
176
160
140
154
255
255
240
255
255
182
66
42
34
110
255
255
134
170
184
255
255
214
150
92
20
6
14
42
42
32
246
255
130
12
30
56
60
66
102
120
148
212
255
242
172
138
72
42
52
64
64
64
36
28
36
32
24
16
30
48
22
8
22
26
34
22
14
38
32
22
42
46
32
46
46
36
16
2
6
26
28
18
44
108
68
32
84
92
72
60
48
18
36
70
50
34
44
62
80
80
78
60
28
10
8
6
32
66
90
70
44
42
32
38
40
255
255
142
46
14
12
22
22
26
26
26
16
26
16
12
16
22
22
38
38
36
38
46
66
68
64
72
88
120
255
255
255
255
255
244
142
56
254
255
255
255
108
10
34
32
36
46
48
32
22
18
44
255
255
255
50
30
46
28
8
10
16
22
6
4
20
10
6
16
18
30
18
12
18
20
20
30
30
38
136
255
255
255
154
255
255
255
134
70
86
106
120
180
106
32
28
24
20
56
126
114
62
18
46
68
42
106
255
255
255
255
128
52
32
20
14
12
10
18
16
12
14
18
18
20
14
18
14
14
24
24
24
10
6
34
32
4
22
18
26
60
38
36
24
40
36
30
38
255
255
20
255
255
50
30
20
12
16
26
18
20
8
30
24
8
8
20
20
12
8
18
12
10
2
10
10
32
22
8
4
12
6
34
28
26
42
14
68
255
255
255
150
28
46
52
34
58
162
255
255
156
255
244
166
112
92
84
74
88
206
255
255
255
255
168
60
16
90
220
255
255
180
186
100
178
250
238
184
124
60
20
24
24
26
14
158
255
244
70
16
46
50
44
74
74
90
132
208
255
244
166
88
50
46
64
82
52
34
36
42
44
22
6
18
46
40
16
10
4
24
26
40
46
28
42
58
32
12
28
48
50
26
8
18
36
32
16
20
94
100
66
8
88
132
124
50
38
68
46
12
38
48
64
78
76
72
62
26
8
8
20
52
72
78
58
54
102
142
184
200
255
255
134
38
4
2
8
16
18
16
6
2
16
12
8
8
12
10
18
26
30
36
44
60
64
78
106
130
158
190
224
255
255
252
230
192
82
255
255
255
232
20
44
38
28
38
56
58
26
24
28
56
178
255
255
220
30
48
38
30
10
24
16
16
16
24
12
18
16
20
26
56
146
202
200
180
134
96
118
255
255
180
255
232
255
255
210
152
255
255
255
255
214
86
42
46
38
24
40
54
104
114
48
66
88
76
92
232
255
255
255
255
255
166
48
22
30
22
10
16
26
16
10
12
12
10
18
4
10
16
12
12
22
12
20
24
6
14
40
48
76
80
92
92
86
50
18
6
82
255
255
255
255
220
20
30
22
14
16
2
0
16
16
28
24
24
22
28
8
8
20
14
16
12
8
22
12
32
14
12
6
12
22
60
54
10
34
60
255
255
255
166
60
8
48
52
52
90
206
255
142
174
132
82
50
30
24
24
36
72
186
255
255
255
176
38
54
140
255
255
234
248
158
60
96
136
148
124
116
80
34
2
28
32
38
76
255
255
142
4
28
24
16
58
84
100
122
154
248
255
202
106
96
90
88
72
44
24
38
50
36
20
8
34
40
38
22
10
8
34
36
42
60
64
72
60
28
14
24
50
60
40
26
34
30
14
26
26
68
60
140
206
122
44
174
134
68
82
32
30
42
46
60
66
80
90
82
54
34
26
46
114
214
255
255
255
255
255
255
200
255
255
128
42
10
10
12
4
10
14
6
4
10
12
12
6
6
2
4
6
10
12
32
58
84
118
146
172
214
255
255
255
234
128
146
160
200
255
255
255
70
22
40
18
28
54
60
54
38
56
62
94
8
255
255
255
88
28
32
34
4
22
10
12
14
26
44
20
18
22
78
222
255
255
255
255
255
255
255
255
255
244
255
255
255
255
194
60
170
255
250
255
255
192
182
192
166
172
132
62
64
112
96
84
148
164
114
50
212
255
255
255
255
255
254
106
34
18
12
10
22
28
14
2
10
10
4
16
18
20
20
24
12
10
18
34
14
12
72
112
126
182
230
234
224
138
58
22
6
255
255
20
255
255
52
30
18
32
14
14
16
8
8
16
20
8
18
16
14
14
16
16
12
16
26
36
48
30
20
2
6
4
30
60
4
44
14
156
255
255
255
200
124
70
18
18
26
54
34
154
128
80
92
108
86
48
28
24
36
70
144
255
255
255
192
38
112
174
250
255
244
255
240
166
244
255
254
126
68
56
42
26
30
42
38
28
160
255
222
44
36
50
46
50
84
118
122
102
178
255
210
116
108
88
64
50
48
62
40
30
38
24
34
28
26
16
30
20
14
30
24
36
56
48
38
30
18
14
20
44
62
50
34
50
20
6
12
12
58
48
124
136
250
174
56
204
150
44
22
46
46
50
58
64
90
118
128
122
142
255
255
255
255
255
255
255
168
108
98
114
255
255
122
32
2
4
10
6
12
12
8
10
8
8
12
10
4
2
2
12
26
42
70
88
114
150
162
174
230
255
255
255
156
90
138
116
255
255
255
252
14
24
30
36
60
64
52
50
44
46
46
56
82
194
255
255
255
28
64
40
4
24
14
14
40
10
34
16
14
70
255
255
255
255
158
180
255
255
255
255
244
122
238
255
255
255
255
194
255
255
255
255
218
156
246
255
206
172
130
92
54
40
56
94
216
180
136
78
58
140
132
255
255
255
255
214
56
18
20
16
20
20
20
16
10
2
4
14
12
8
12
32
30
26
18
26
26
32
84
100
92
204
255
255
255
214
108
46
12
88
255
255
255
255
64
16
10
36
22
18
30
18
8
14
22
34
26
20
10
16
12
10
8
20
16
4
24
22
14
4
6
8
26
40
10
36
74
190
255
255
255
202
152
110
62
12
56
62
52
130
88
40
54
152
150
74
50
44
56
102
212
255
255
255
186
52
160
110
182
255
255
255
252
210
255
252
136
62
66
64
40
12
30
42
52
36
92
242
255
94
30
40
40
44
74
124
116
90
116
255
255
186
168
110
40
50
70
54
6
26
34
16
36
46
36
32
32
20
20
24
28
44
60
44
28
24
12
6
10
26
52
72
62
46
8
8
16
12
46
16
138
106
62
198
144
88
222
160
52
42
24
48
64
60
70
90
154
255
255
255
255
255
255
138
98
190
255
255
242
148
255
255
128
38
16
14
14
10
18
14
12
8
4
10
8
6
6
12
18
26
38
54
74
96
134
170
170
180
242
254
230
202
150
146
188
16
255
255
255
112
14
26
30
52
62
42
34
40
46
56
48
34
108
82
255
255
255
216
40
68
26
18
20
18
20
26
56
10
136
255
255
255
255
255
158
212
255
255
255
200
118
112
178
174
186
178
124
80
70
244
255
255
252
190
120
84
172
204
142
102
52
32
66
82
126
70
86
136
84
92
160
108
255
255
255
255
255
112
12
14
16
22
26
28
4
12
8
4
14
12
6
6
4
16
16
18
14
12
74
120
178
244
184
58
218
232
166
104
30
16
238
255
94
255
182
22
2
20
2
4
20
18
14
2
12
38
24
8
4
12
20
18
12
14
18
14
14
6
6
8
18
26
36
24
32
64
92
178
255
255
230
168
150
120
78
46
88
128
74
176
124
116
198
210
204
68
54
40
64
136
255
255
255
255
152
112
148
44
154
255
255
255
192
186
164
90
40
36
54
58
32
6
24
24
54
38
60
196
255
148
16
34
52
72
88
124
134
94
78
210
255
255
206
144
70
42
44
26
20
30
30
16
36
32
2
10
40
40
20
6
24
54
82
56
32
22
10
8
10
16
30
68
92
50
6
8
12
8
44
36
68
128
82
30
148
120
90
204
162
118
80
50
26
48
108
255
255
255
255
255
158
158
255
255
255
234
218
184
118
74
255
255
130
30
10
12
6
4
12
10
4
6
8
8
6
10
8
12
16
26
44
64
88
118
154
180
198
248
255
255
255
234
194
188
192
122
255
255
255
46
24
26
24
48
48
24
24
38
60
88
60
80
124
84
108
255
255
255
98
74
52
14
6
18
12
16
14
204
255
255
255
255
226
255
255
255
194
88
64
130
156
210
234
180
126
134
86
44
54
90
144
108
168
192
168
66
164
164
100
78
12
86
68
22
86
136
46
92
120
46
144
128
100
255
255
255
255
255
250
32
12
20
30
30
4
6
8
2
10
2
22
40
32
26
28
26
22
26
56
70
88
178
192
48
154
236
202
148
74
22
52
255
248
204
214
26
10
22
6
14
14
18
34
16
8
26
30
14
2
14
14
8
16
6
6
4
4
8
20
20
28
22
26
28
56
106
118
184
255
255
194
108
116
126
110
60
22
72
110
255
164
164
244
242
246
52
42
30
94
190
255
255
255
255
44
166
86
142
172
114
106
96
104
114
102
56
6
44
64
54
22
18
16
24
48
40
42
166
255
220
34
4
48
108
76
102
156
110
84
114
202
226
172
114
86
72
50
20
20
46
32
14
36
36
24
18
36
26
10
8
34
80
84
52
30
24
16
12
14
14
24
52
74
52
12
18
28
20
42
74
12
56
42
64
52
170
160
44
140
194
198
134
58
214
255
255
255
255
84
255
255
255
255
228
158
114
92
58
28
12
255
255
134
28
8
12
6
8
12
20
16
8
6
6
6
10
14
18
20
26
52
70
100
136
166
202
255
255
255
255
255
226
198
192
174
234
255
255
255
18
26
24
32
56
44
18
28
56
66
78
28
110
122
62
34
252
255
255
255
34
74
38
12
10
8
20
218
255
255
255
255
16
48
180
255
208
16
198
255
180
106
128
70
34
44
90
130
42
60
120
116
32
104
156
152
100
255
230
150
106
82
118
30
74
72
162
134
124
84
96
120
112
64
46
146
255
255
255
255
255
36
22
30
28
16
4
6
6
6
10
20
20
18
18
16
18
26
34
86
124
118
144
188
174
166
255
255
204
120
52
34
114
255
166
168
76
20
12
14
18
8
4
24
16
8
10
18
22
14
24
16
20
14
22
10
10
4
16
22
20
26
18
8
18
80
134
96
146
255
255
158
96
102
126
138
100
62
112
186
255
214
180
192
246
254
56
34
52
128
255
255
255
255
146
46
148
40
166
130
54
34
40
34
26
58
70
36
56
60
44
8
20
4
10
62
86
48
122
255
244
74
12
50
84
70
116
150
90
96
132
216
244
178
94
60
68
46
18
20
46
32
14
42
46
24
22
26
24
22
10
34
78
80
54
32
28
20
14
20
28
28
48
74
56
22
16
16
10
20
70
44
30
36
62
82
74
224
255
132
52
142
164
255
255
255
255
68
170
255
255
255
244
182
140
102
70
50
22
24
22
255
255
142
28
8
8
4
8
14
16
26
18
6
8
10
2
10
14
14
38
64
80
108
144
184
255
255
255
255
255
255
234
198
172
122
255
255
255
224
10
30
30
34
44
32
24
56
90
98
104
44
118
116
58
34
62
255
255
255
176
58
54
14
20
22
212
255
255
255
216
36
68
80
120
132
98
126
104
126
255
228
138
66
120
118
166
196
110
158
174
178
88
70
172
255
110
236
255
176
84
60
80
26
104
94
112
132
74
12
58
86
40
84
82
64
82
166
255
255
255
255
18
38
24
10
20
22
30
16
6
18
40
24
10
10
18
26
30
82
124
110
120
154
136
42
206
238
208
134
70
34
38
126
74
98
114
24
16
18
28
12
12
28
14
6
10
12
14
14
28
12
30
10
12
12
8
6
24
28
18
12
8
4
14
98
124
80
134
242
255
192
142
130
120
112
84
74
154
255
255
255
194
178
255
218
74
78
158
255
255
255
255
224
60
88
84
90
162
100
38
10
22
20
12
40
58
62
60
46
48
10
26
6
12
56
84
44
120
240
255
142
10
62
110
96
116
140
90
56
96
208
244
178
90
54
60
50
22
20
36
24
20
48
38
4
14
8
20
32
24
46
88
78
44
24
20
8
8
14
32
44
70
84
52
18
12
4
8
4
34
72
10
82
136
152
160
158
255
255
255
255
255
255
255
158
54
184
224
234
240
224
166
100
76
66
60
56
44
40
38
255
255
146
34
14
10
6
2
12
12
12
20
14
10
2
6
6
16
24
50
82
106
144
210
255
255
255
255
255
255
255
214
140
88
26
255
255
255
174
34
32
26
24
44
40
50
102
130
122
74
56
150
112
42
40
74
182
255
255
255
30
60
28
2
182
255
255
255
214
24
74
90
122
138
96
26
114
208
200
184
100
96
38
64
114
154
168
74
64
194
255
240
82
90
220
202
255
255
166
96
130
154
94
128
88
56
104
152
146
124
102
82
78
96
64
60
106
116
255
255
255
240
10
42
4
30
16
32
30
16
26
16
16
10
12
28
24
34
80
166
208
250
255
255
130
240
242
176
98
84
60
8
50
108
26
118
38
14
8
24
18
8
14
14
8
12
16
12
6
26
22
30
6
16
10
10
8
12
24
26
12
12
20
30
100
128
128
174
222
222
174
120
116
118
102
74
162
255
255
255
255
186
236
255
212
142
230
255
255
255
255
255
126
24
66
20
108
118
66
34
18
26
34
30
30
40
44
38
30
24
24
32
34
24
60
128
84
146
222
255
238
14
54
72
102
128
134
112
76
122
218
234
176
94
68
68
52
40
26
40
34
40
42
32
24
12
6
16
38
44
78
106
76
40
26
18
8
12
12
20
34
70
98
56
28
20
10
12
16
16
52
70
90
158
160
138
154
174
255
255
255
255
255
76
40
100
136
152
162
188
174
96
36
34
42
48
46
32
34
32
255
255
140
32
8
12
4
10
16
16
14
16
6
16
8
8
8
18
36
68
96
138
226
255
255
255
255
255
255
255
246
116
48
14
58
255
255
255
116
38
40
26
24
30
44
74
106
82
50
78
170
168
106
58
48
50
40
255
255
255
255
26
44
136
255
255
255
200
16
70
112
120
126
110
28
38
48
66
98
144
142
108
90
74
108
160
232
255
255
174
134
142
100
80
62
94
82
246
255
78
54
70
82
98
70
34
6
44
80
98
96
76
58
72
108
70
142
136
140
255
255
255
114
54
8
20
28
34
30
12
22
18
16
10
16
24
26
54
108
246
255
255
255
255
255
255
255
255
152
92
102
46
18
108
30
102
70
16
22
18
16
14
16
20
26
26
14
6
8
12
2
10
10
18
2
10
14
36
44
32
14
8
6
36
94
128
120
120
162
206
190
150
140
152
150
162
255
255
255
255
255
190
255
255
255
255
255
255
255
255
255
174
36
38
70
16
104
98
42
30
36
26
32
28
12
28
22
6
22
18
28
14
14
36
104
182
108
148
142
254
226
2
46
50
92
108
116
148
154
156
220
204
186
128
98
88
50
38
54
54
36
36
16
18
28
16
6
10
30
70
98
94
62
38
26
16
10
12
12
14
26
70
100
54
26
4
28
18
12
26
20
36
68
148
120
68
144
202
204
254
255
154
28
26
42
82
100
104
98
114
92
30
12
20
20
44
36
20
18
14
255
255
144
46
20
12
10
12
8
2
4
4
2
10
8
8
28
38
64
104
140
236
255
255
255
255
255
255
246
198
116
26
4
8
128
255
255
255
64
44
44
30
32
40
50
72
88
76
88
158
164
118
74
42
30
34
46
90
255
255
255
132
92
255
255
255
230
40
36
82
130
116
98
72
28
58
26
26
32
44
54
64
64
34
16
12
48
100
186
230
190
168
88
68
36
14
26
96
218
124
98
50
54
54
88
134
156
152
126
106
70
42
12
16
74
106
44
98
26
232
255
255
255
26
20
14
26
20
22
20
4
16
18
16
24
32
40
60
104
255
255
255
255
254
255
255
255
255
255
140
100
72
10
62
62
54
82
10
16
24
36
18
16
22
30
24
16
8
12
12
16
24
8
20
14
12
18
46
50
50
30
26
28
36
94
136
140
164
200
222
230
240
234
224
232
255
255
255
255
254
96
190
255
255
255
255
255
255
255
190
156
98
20
38
122
70
150
126
52
26
20
12
30
40
30
60
88
78
66
52
34
26
20
40
116
178
58
126
170
255
224
12
56
72
98
76
48
98
172
200
176
198
188
160
118
86
52
24
32
56
60
44
22
12
26
24
8
12
60
94
96
74
48
30
16
10
6
4
8
16
34
64
104
74
30
18
28
4
26
16
32
44
102
255
255
255
255
252
150
60
40
38
62
66
78
114
130
180
188
134
68
54
14
18
18
32
48
24
2
12
255
255
124
38
14
14
10
8
4
4
8
8
8
12
16
32
52
70
112
170
252
255
255
255
255
255
255
252
152
74
24
0
0
12
212
255
255
255
36
44
44
22
28
34
28
70
94
64
102
118
100
80
56
30
24
38
52
24
188
255
255
255
224
255
255
255
40
22
58
116
114
74
40
40
56
62
22
24
48
82
92
72
42
14
14
18
30
14
36
12
54
90
108
172
196
152
150
182
156
80
90
62
70
68
76
80
76
90
92
70
64
70
56
48
44
98
104
96
18
24
255
255
255
156
30
4
12
14
18
16
16
16
8
4
18
24
28
62
136
255
255
255
254
130
178
255
255
255
255
255
92
66
36
6
56
38
78
20
24
40
34
32
20
4
26
32
28
26
18
22
24
6
10
2
8
8
30
66
72
62
62
16
36
34
92
132
128
164
196
188
200
255
255
255
255
255
255
255
224
114
62
134
226
246
255
255
212
226
154
104
100
64
24
42
180
20
234
120
26
26
10
28
50
82
112
206
255
255
255
255
104
16
2
46
156
186
16
138
158
255
222
16
36
68
98
94
126
220
255
174
124
200
164
136
116
88
56
26
16
36
50
30
12
12
30
40
18
24
52
80
88
70
48
28
10
4
6
2
6
26
46
64
76
74
30
12
8
32
36
40
16
60
154
255
255
255
184
124
70
70
92
36
82
216
255
255
255
255
226
80
28
60
36
20
20
28
36
28
20
20
255
255
128
46
14
10
6
2
4
10
8
6
10
12
20
44
74
110
174
255
255
255
255
255
255
255
252
136
48
8
2
4
4
20
255
255
255
250
14
52
50
28
26
28
24
40
52
42
80
80
70
50
16
10
22
42
52
52
14
255
255
255
255
255
255
100
38
40
128
140
86
30
42
62
76
48
28
48
82
88
70
32
4
4
20
36
26
20
32
52
62
60
62
68
134
168
158
134
62
8
10
16
18
16
32
48
50
40
40
38
42
36
20
20
32
34
34
16
4
38
184
255
255
255
32
24
28
24
20
10
10
24
22
12
16
20
38
86
160
255
255
255
196
86
94
146
255
255
255
255
126
42
34
18
30
30
56
44
16
42
48
30
14
10
16
30
28
22
10
10
18
18
0
12
14
10
14
34
60
50
40
8
28
28
68
100
108
158
206
176
154
192
248
255
255
255
232
170
142
48
42
52
68
116
142
88
94
104
74
70
70
48
12
126
110
188
255
68
0
28
4
46
68
124
226
255
255
255
255
255
255
126
4
66
198
204
80
164
146
255
230
30
34
94
120
110
144
198
172
66
60
158
162
136
94
86
54
28
24
44
42
32
16
4
6
30
30
30
52
86
84
52
34
22
10
2
2
6
14
36
58
70
74
74
38
20
6
18
24
14
18
82
184
254
216
114
52
76
94
82
52
238
255
255
255
255
255
246
144
142
90
72
46
38
28
24
30
26
38
28
255
255
142
54
12
6
10
6
16
20
18
18
18
14
36
86
146
210
255
255
255
255
255
255
255
198
108
28
4
2
2
2
2
40
255
255
255
188
26
68
56
40
34
40
48
44
16
50
70
58
28
22
18
14
14
28
44
42
32
110
255
255
255
255
182
112
68
112
138
88
26
34
52
76
66
64
52
74
84
66
38
22
22
22
32
16
6
18
44
62
64
50
44
42
42
40
50
48
48
46
38
36
28
30
34
44
54
48
26
36
40
24
20
32
26
30
14
16
4
24
46
255
255
255
26
22
20
24
28
2
10
18
22
22
20
22
38
66
132
255
255
255
148
54
42
72
158
255
255
255
228
88
48
20
12
22
24
38
20
10
26
22
16
6
4
6
18
30
24
12
8
12
16
10
14
32
24
10
14
8
4
10
22
32
62
90
112
152
196
178
140
162
192
182
158
110
72
48
48
8
10
40
38
60
40
12
24
48
48
50
44
38
46
126
80
255
144
30
16
28
6
44
62
130
255
255
255
255
255
255
255
255
70
72
230
238
144
214
156
250
234
44
28
88
98
78
138
204
184
88
74
152
180
128
94
90
50
22
54
74
48
26
18
6
10
38
46
42
60
88
72
34
22
22
16
6
8
6
20
36
56
70
82
90
54
36
24
6
20
10
16
94
204
248
222
176
142
114
60
160
255
255
255
255
255
255
172
255
255
128
102
90
64
38
26
24
24
20
32
34
255
255
136
60
28
22
22
14
24
16
4
12
24
44
94
172
255
255
255
255
255
255
255
214
94
42
14
2
2
2
2
4
2
98
255
255
255
122
48
58
50
64
68
74
66
28
24
64
62
20
24
32
30
24
24
38
42
44
40
34
255
255
255
242
72
96
48
66
84
70
52
68
30
34
34
42
46
58
54
38
10
12
12
30
46
20
26
28
34
32
20
14
32
36
34
20
16
26
20
12
20
18
12
18
24
34
40
64
62
56
44
16
8
16
10
20
30
22
6
26
76
255
255
255
102
22
28
38
46
28
28
28
16
20
16
20
38
60
148
255
255
255
154
68
26
26
72
246
255
255
255
172
80
38
12
8
8
22
16
8
14
20
22
16
10
8
20
32
18
10
2
14
22
26
16
18
28
18
20
20
14
16
18
28
50
62
96
134
140
138
104
132
130
106
64
86
72
8
40
18
32
62
44
46
42
38
58
70
56
40
34
26
52
122
196
182
8
10
16
14
8
34
66
198
255
255
255
255
236
255
255
255
218
92
255
255
202
255
200
255
226
38
22
106
140
104
116
146
124
66
80
156
176
152
114
80
48
38
64
58
36
32
24
10
10
22
38
40
46
74
80
52
26
20
24
8
6
10
18
24
48
68
80
76
36
24
34
16
8
12
30
106
236
255
250
150
76
68
255
255
255
255
255
255
186
96
62
198
255
252
42
86
82
44
28
14
26
22
20
16
255
255
255
202
158
152
132
122
130
122
114
128
146
156
194
246
255
255
255
255
255
255
152
46
6
0
2
4
4
2
4
4
24
184
255
255
255
64
70
72
72
88
86
82
54
42
52
70
40
18
24
12
18
14
8
46
46
44
40
38
110
255
246
60
94
86
22
40
78
84
60
48
10
26
32
22
38
52
46
20
14
6
50
72
58
34
36
38
26
24
26
26
34
26
34
18
20
32
30
16
24
12
14
20
26
34
50
68
88
96
82
76
48
26
12
6
28
42
24
26
74
254
255
255
118
14
28
50
48
24
34
10
12
24
14
26
54
80
174
255
255
255
178
92
34
16
46
166
255
255
255
255
104
44
28
6
12
22
18
14
12
10
22
28
4
10
18
24
20
18
6
14
14
26
28
16
10
24
14
14
10
14
8
12
28
24
44
90
92
90
68
70
42
30
22
78
92
48
54
60
78
76
48
58
72
62
68
72
40
38
18
28
42
66
128
44
18
8
22
34
16
38
124
255
255
255
255
98
36
236
255
255
255
106
255
255
200
255
210
255
248
46
14
72
130
130
144
172
166
118
108
152
178
162
116
80
50
30
56
78
66
40
22
4
4
20
50
66
54
60
78
76
54
30
28
16
4
12
20
24
42
70
82
64
30
10
26
16
8
8
40
184
255
255
218
38
188
255
255
255
255
255
178
98
54
14
94
255
255
234
24
60
74
54
18
10
34
40
26
12
255
255
255
255
255
255
255
255
255
255
242
252
255
252
242
218
156
216
255
255
255
255
255
255
160
66
12
0
0
4
0
4
42
255
255
255
228
52
98
90
66
60
72
72
56
70
76
62
14
24
32
26
24
20
44
70
54
36
30
26
34
172
234
46
80
48
36
6
30
40
34
34
48
38
48
28
36
46
38
26
22
48
82
64
36
34
32
30
22
18
30
42
32
12
32
24
32
38
36
18
26
10
12
46
68
80
102
106
94
86
94
90
66
44
28
12
12
32
32
34
68
255
255
255
132
18
36
46
28
2
14
12
26
18
16
42
66
134
224
255
255
255
198
122
54
14
40
134
255
255
255
255
140
38
42
76
82
26
18
12
8
20
18
22
4
10
22
18
16
12
0
8
6
24
30
10
14
30
8
10
14
10
2
4
16
20
28
58
70
68
52
34
22
30
22
52
78
50
78
102
110
80
50
66
68
38
28
18
16
14
26
60
26
100
46
14
4
10
18
28
4
58
184
255
255
255
178
78
20
52
255
255
255
66
255
255
130
255
218
255
255
42
8
46
120
168
184
192
172
102
52
124
216
188
122
64
26
24
32
58
82
68
46
24
14
16
38
60
40
52
66
82
90
60
36
16
4
12
24
36
48
68
74
66
40
18
40
24
22
36
100
255
255
255
44
255
255
255
255
255
210
118
64
10
174
255
255
255
255
134
68
84
90
66
28
20
34
36
38
28
255
255
255
206
214
232
234
232
226
220
222
190
162
148
118
64
42
130
255
255
255
255
255
255
255
255
255
198
90
24
12
16
66
255
255
255
138
40
72
54
28
36
76
64
46
102
84
48
8
10
6
10
16
18
30
44
28
18
24
30
62
224
236
60
124
78
62
10
16
16
14
10
26
30
32
16
26
40
28
26
44
62
64
38
26
34
14
18
6
24
42
38
18
16
28
14
28
28
28
8
26
24
14
44
62
80
98
82
50
42
54
52
32
18
16
10
6
22
24
26
52
255
255
255
96
24
52
48
44
30
32
10
28
20
22
54
100
166
246
255
255
255
222
146
86
42
14
106
228
255
255
255
242
74
52
8
76
44
30
16
12
20
14
20
10
18
22
10
10
10
4
14
6
12
24
12
22
30
34
26
14
10
2
6
2
8
14
38
48
58
56
46
48
36
12
32
68
70
86
96
70
28
16
32
30
10
10
18
2
12
42
36
120
100
36
14
16
14
26
36
34
130
255
255
255
255
154
68
30
70
255
255
255
86
255
250
180
255
236
255
255
38
10
40
82
128
160
184
206
192
102
98
198
210
172
120
56
30
20
16
36
52
46
34
26
26
36
42
30
50
68
88
118
106
70
34
10
4
20
42
64
68
66
70
70
22
32
28
12
12
222
255
255
60
255
255
255
255
248
106
58
14
110
255
255
255
255
242
120
84
100
84
82
54
22
16
28
36
40
24
228
255
178
56
34
22
18
42
48
44
64
84
38
14
24
62
62
74
100
108
204
255
255
255
255
255
255
255
255
204
72
40
92
255
255
255
108
36
32
28
20
30
74
78
22
102
78
42
40
72
74
60
42
28
30
44
42
28
32
32
110
248
198
46
120
108
108
50
18
32
22
10
2
12
16
22
40
50
30
32
50
50
48
32
18
10
22
44
26
34
40
30
14
16
16
8
16
24
30
16
14
22
38
56
62
68
58
32
6
30
64
64
44
24
8
4
6
16
12
12
36
255
255
255
26
44
56
48
30
14
30
2
26
12
30
32
98
184
214
182
236
255
230
140
80
52
8
70
182
255
255
255
255
150
16
60
78
28
22
26
4
24
14
12
22
16
8
2
8
16
10
10
18
10
10
10
4
18
12
12
18
12
10
8
12
28
32
30
16
12
18
12
10
14
10
30
50
62
62
42
18
16
6
28
14
6
4
4
16
40
22
68
80
20
24
22
22
28
20
20
76
180
255
255
255
255
126
50
60
148
255
255
255
72
220
230
234
255
255
255
230
20
28
70
96
104
114
138
178
202
148
120
166
176
174
152
90
50
50
54
36
42
60
46
42
34
28
38
36
32
32
56
102
132
114
64
26
8
12
36
72
82
70
82
104
72
4
22
22
104
255
255
102
255
255
255
255
176
90
44
16
216
255
255
255
236
48
168
150
126
112
78
48
28
22
22
22
24
24
16
255
255
218
118
106
102
84
78
68
64
46
66
48
42
64
72
66
78
72
58
50
42
48
124
255
255
255
255
255
255
162
42
98
255
255
255
86
10
22
26
26
38
78
74
34
92
72
60
110
112
76
78
60
44
30
24
28
28
32
36
122
248
164
36
92
96
90
94
62
58
52
36
10
8
16
24
30
40
26
38
48
36
34
6
10
18
26
20
36
70
66
46
34
28
24
12
18
30
34
8
14
18
26
40
68
66
48
38
20
52
74
60
30
8
6
14
22
22
6
6
32
255
255
255
40
44
34
30
28
30
30
8
22
12
10
28
70
172
255
255
232
242
224
158
100
74
30
42
122
255
255
255
255
182
58
30
46
34
30
22
8
30
26
12
22
18
4
10
10
8
22
18
10
18
18
22
14
22
12
12
10
2
8
8
34
26
18
14
22
22
14
20
30
6
30
28
18
30
24
26
14
24
32
18
6
10
4
18
26
24
40
72
18
18
26
4
22
24
12
18
74
202
255
255
255
220
98
18
102
174
255
255
255
108
216
192
228
255
250
255
190
14
30
50
66
92
90
86
144
184
164
166
166
126
104
132
104
58
52
88
76
56
76
64
46
44
32
26
50
46
26
32
56
102
126
92
46
22
6
24
62
80
72
80
112
102
44
10
132
255
255
150
255
255
255
154
126
96
60
42
255
255
255
255
42
134
178
170
164
144
102
56
38
26
14
42
50
28
20
12
255
255
154
90
76
80
50
48
44
54
38
42
56
60
58
62
62
54
44
46
32
16
20
22
40
72
196
255
255
255
210
54
106
255
255
255
114
44
30
28
42
82
94
50
28
82
80
78
66
28
28
56
56
58
54
32
30
38
28
30
144
255
150
48
84
100
128
112
54
50
60
52
26
6
18
22
24
28
38
44
38
30
22
16
8
14
16
10
60
84
64
32
26
20
18
20
16
22
36
16
26
28
30
34
62
86
76
62
52
84
92
64
26
14
22
24
22
20
18
16
68
255
255
255
68
36
24
24
2
14
20
16
20
14
12
28
70
140
222
255
255
236
232
176
106
82
64
12
66
192
255
255
255
200
60
22
58
50
32
24
8
28
30
12
12
20
4
4
12
6
14
36
20
20
20
12
24
18
10
8
8
14
6
32
46
12
10
6
22
26
18
16
10
20
26
4
10
32
4
18
16
26
6
28
24
34
24
28
10
66
74
32
4
8
10
12
30
24
10
32
110
255
255
255
255
174
60
36
114
194
255
255
255
102
180
154
204
234
236
255
164
10
26
46
66
96
82
58
92
130
148
198
210
128
78
94
82
56
64
96
96
80
82
76
64
62
44
30
38
38
34
40
40
72
108
92
48
30
16
16
40
54
48
58
100
110
66
156
255
255
52
255
255
255
138
96
90
66
46
255
255
255
255
82
126
112
106
110
122
88
34
16
40
34
28
44
26
4
14
14
255
255
104
30
16
50
32
10
14
24
26
30
54
32
18
34
36
40
36
34
24
26
4
36
58
88
214
255
255
255
222
58
96
255
255
255
92
54
54
54
68
92
74
16
22
28
30
10
32
32
16
50
44
44
60
50
50
72
66
56
180
255
132
40
76
130
136
116
42
36
62
70
62
26
26
32
40
24
26
36
44
60
42
22
46
24
8
34
72
66
32
6
6
2
4
14
16
24
30
8
18
24
18
30
40
52
66
68
80
96
84
44
18
14
20
14
14
14
14
20
72
255
255
255
70
52
30
10
16
18
18
6
20
8
4
14
50
108
170
255
255
255
246
186
106
68
72
50
56
112
255
255
255
255
84
32
48
40
26
22
6
26
32
6
8
14
28
24
4
6
0
18
28
4
32
16
20
14
4
6
18
32
22
40
36
6
16
12
4
14
20
16
10
14
12
10
14
26
14
24
22
30
36
38
24
38
28
20
76
86
26
36
34
18
12
4
22
26
8
70
216
255
255
255
255
90
24
70
132
255
255
255
255
68
128
112
158
176
244
255
122
2
34
60
86
90
82
68
84
98
144
242
255
228
142
120
100
54
54
72
84
94
94
94
102
92
58
36
36
16
18
18
26
58
100
78
30
18
16
16
34
34
24
32
56
78
188
255
244
92
255
255
255
168
76
64
58
76
255
255
255
222
52
134
114
78
66
60
70
68
30
24
38
42
40
28
24
12
14
14
255
255
130
24
40
72
122
96
28
50
46
42
76
56
42
46
44
54
62
50
16
18
44
68
92
168
255
255
255
255
178
42
84
255
255
255
110
56
42
48
62
72
32
28
40
32
40
42
30
14
2
42
28
34
58
50
50
78
74
60
158
198
106
50
64
136
134
148
96
20
52
70
62
36
12
30
30
12
26
18
18
42
40
32
26
28
26
76
82
50
18
4
10
6
6
12
18
32
46
30
34
38
44
34
22
34
50
52
58
48
22
4
8
4
8
12
18
2
14
8
54
255
255
255
30
58
54
22
28
16
12
6
22
4
6
10
42
92
154
250
255
255
240
198
138
80
56
42
28
72
255
255
255
255
104
30
32
40
34
26
2
20
22
18
4
24
16
32
16
6
2
6
22
24
14
12
20
18
4
8
10
10
8
34
48
34
4
14
14
22
18
14
2
8
18
18
22
30
22
28
22
16
14
6
18
16
48
66
64
22
42
44
22
32
8
4
28
14
42
114
255
255
255
255
138
26
60
118
228
255
255
255
222
48
72
82
102
144
255
236
66
10
34
64
74
88
100
86
66
54
86
178
246
255
176
116
110
78
62
52
56
76
78
80
116
108
58
44
44
26
10
24
44
80
104
64
30
18
24
20
30
34
40
48
58
188
255
255
64
255
255
255
140
60
30
48
82
255
255
255
218
104
140
138
110
86
84
60
44
58
46
38
54
60
40
20
10
12
20
14
255
255
180
52
170
224
238
255
255
138
40
26
78
84
74
62
54
62
70
64
54
50
66
68
116
228
255
255
255
255
62
6
74
255
255
255
104
98
94
30
58
68
18
68
72
62
64
34
22
30
20
40
18
26
52
50
50
74
72
64
118
158
124
102
26
116
116
136
142
88
8
54
48
44
24
30
24
16
26
12
28
52
16
40
46
12
46
72
50
18
2
6
6
4
6
12
14
36
42
12
16
18
40
50
36
30
32
30
22
8
6
14
10
12
10
14
12
12
14
10
24
255
255
255
114
46
54
18
4
2
4
12
12
12
16
18
48
70
132
218
255
255
255
222
190
148
98
60
36
60
156
255
255
255
132
44
34
52
62
50
20
6
30
50
22
12
28
34
20
10
12
6
8
26
16
18
22
30
8
14
10
18
18
24
34
32
18
18
12
8
8
14
10
18
20
24
26
40
34
26
20
20
18
30
40
56
60
26
38
38
42
28
12
24
6
10
28
36
102
222
255
255
255
210
64
62
156
255
255
255
255
255
126
36
50
52
70
166
255
178
18
12
38
58
68
88
78
68
54
38
66
116
158
210
156
86
92
90
88
86
80
80
60
26
72
106
72
52
42
40
40
38
70
102
96
66
36
20
22
24
26
44
46
40
170
255
255
42
255
255
224
140
70
22
20
44
255
255
255
234
90
140
114
112
90
66
60
38
24
28
34
44
64
44
22
14
6
18
26
20
255
255
218
174
178
130
120
214
255
255
200
86
6
70
96
84
68
68
76
62
52
48
56
86
178
255
255
255
255
132
8
0
56
255
255
255
255
40
92
70
50
26
58
92
54
22
14
34
68
26
50
36
26
30
36
48
54
72
80
84
94
94
100
126
48
88
88
102
130
128
40
36
40
42
30
12
22
22
22
8
32
40
6
22
34
36
24
38
34
26
10
8
4
2
10
14
12
32
54
16
16
16
28
24
28
24
10
8
12
10
8
10
0
8
8
16
18
16
6
12
14
255
255
255
230
28
42
22
2
4
12
6
12
12
4
18
56
74
108
162
255
255
255
255
248
230
196
170
156
196
255
255
255
255
156
72
52
44
58
60
30
36
38
64
56
46
36
22
14
6
6
14
10
10
6
24
28
48
16
12
18
4
10
10
30
32
14
10
10
14
20
28
28
20
12
8
10
18
10
16
30
32
30
32
42
32
14
12
26
38
22
18
16
20
12
20
54
132
234
255
255
255
255
96
74
242
255
255
255
255
255
204
84
30
30
22
78
224
254
106
4
18
30
54
90
82
70
94
82
52
98
154
174
230
196
136
130
100
78
86
80
78
78
30
44
96
108
94
52
32
46
34
80
122
122
90
46
18
18
26
44
58
40
74
255
255
58
212
255
255
160
96
46
20
14
255
255
255
255
106
114
112
112
120
90
74
106
102
54
24
30
48
60
42
30
32
18
24
34
26
254
255
230
255
255
255
255
188
52
234
255
246
146
18
66
80
74
76
84
56
36
40
80
190
255
255
255
255
255
52
0
0
34
214
255
255
255
176
60
70
58
16
82
64
18
44
60
80
62
18
50
42
36
50
62
66
66
74
76
82
98
98
32
96
64
50
70
80
96
110
58
24
20
22
18
4
18
36
26
6
30
52
12
14
30
12
36
52
32
32
30
24
18
16
16
22
14
28
44
20
20
26
26
6
12
24
8
14
14
8
12
10
6
12
4
10
16
12
8
10
12
168
255
255
255
36
32
22
12
16
24
8
8
10
6
8
38
52
94
156
178
255
255
255
255
255
255
255
255
255
255
255
255
255
112
50
40
28
46
54
44
30
10
12
18
56
88
60
30
14
28
32
16
14
14
40
30
48
28
20
30
24
10
6
26
38
30
12
28
16
20
16
30
32
24
24
30
44
50
44
34
30
28
18
16
2
16
20
24
2
14
4
10
14
28
72
174
255
255
255
255
255
158
50
255
255
255
255
255
255
236
116
54
14
12
16
114
255
194
48
4
16
30
52
112
92
54
58
68
30
68
148
178
232
214
188
188
138
100
102
90
82
94
58
54
92
124
126
74
56
70
68
102
132
146
138
98
52
30
22
32
68
144
255
255
180
190
255
255
202
98
60
32
16
64
255
255
255
168
208
182
182
176
196
170
120
126
134
100
60
46
52
66
56
34
40
42
34
38
20
234
255
200
186
255
255
255
255
188
28
188
255
255
134
24
90
94
92
102
84
94
122
220
255
255
255
255
255
102
10
0
0
48
236
255
255
255
255
74
70
48
16
50
54
40
50
48
40
18
6
34
48
68
80
74
62
62
70
88
88
112
96
68
44
82
26
54
68
88
96
58
30
38
32
16
10
8
36
40
18
38
70
54
40
24
12
28
52
36
34
44
32
30
34
26
28
10
22
36
32
20
26
22
4
12
26
18
18
16
8
10
10
10
10
6
6
6
12
8
8
20
82
255
255
255
22
10
30
12
4
16
12
8
16
10
10
16
38
84
180
180
170
255
255
255
255
255
255
255
255
255
255
255
200
96
50
32
18
54
70
62
56
36
44
52
12
66
80
58
12
26
14
16
34
36
46
28
50
40
32
32
30
28
14
34
24
16
30
18
6
10
10
22
34
32
34
32
34
28
22
12
6
22
14
2
6
4
14
26
20
12
10
22
12
58
170
255
255
255
255
255
196
10
208
255
255
255
255
255
182
106
66
32
10
16
30
174
255
126
10
4
14
28
46
116
126
66
60
70
48
50
94
126
162
156
180
228
210
182
182
168
140
126
92
86
116
150
164
128
112
106
106
130
142
132
140
144
102
110
224
255
255
255
255
224
80
255
255
232
110
46
28
18
6
138
255
255
255
255
255
180
34
124
240
255
198
146
128
118
108
92
72
58
46
42
48
46
40
46
32
172
246
78
78
130
212
255
255
255
214
82
96
198
160
96
94
108
124
134
140
212
255
255
255
255
255
255
128
20
0
0
0
68
255
255
255
255
255
102
88
82
50
78
72
42
32
22
14
12
30
40
52
74
60
40
40
44
46
50
72
120
70
114
48
110
38
56
58
96
110
70
36
44
34
26
28
22
46
46
22
22
46
48
48
34
8
16
32
32
30
36
34
34
38
16
8
12
26
40
36
22
26
18
10
18
18
12
18
16
10
4
14
12
6
14
6
16
10
6
16
16
14
255
255
255
26
26
34
24
10
6
14
6
8
10
4
6
14
52
144
188
184
180
128
166
174
216
252
244
204
222
210
148
126
110
80
54
16
40
68
64
58
50
42
58
52
22
74
90
36
24
6
16
28
42
12
68
110
106
80
18
28
20
24
28
6
38
34
28
4
12
16
16
20
18
18
18
12
8
6
18
12
30
20
18
16
26
18
14
0
8
10
10
40
154
255
255
255
255
255
230
48
148
255
255
255
255
180
148
88
58
56
20
4
10
78
218
222
80
0
2
6
16
40
110
138
128
130
88
70
80
90
114
134
138
174
244
255
255
255
255
238
234
212
208
226
242
244
210
156
132
152
172
240
255
255
255
255
255
255
255
255
255
200
136
186
255
255
150
60
24
12
18
12
144
255
255
255
255
255
255
255
255
255
74
138
210
178
128
112
100
86
78
48
42
48
40
36
36
20
204
254
46
48
76
150
238
255
255
255
255
255
255
255
196
148
156
176
180
222
255
255
255
255
255
255
120
22
0
0
0
0
68
246
255
255
255
255
72
98
88
52
70
80
54
20
34
42
42
56
60
72
86
58
48
16
10
32
36
60
90
62
150
76
110
72
44
38
78
94
76
44
26
22
12
6
14
42
50
22
24
36
24
30
36
14
10
26
24
28
26
16
20
26
12
12
18
20
34
32
22
16
18
16
16
12
18
30
20
14
12
6
4
14
16
20
16
6
10
32
12
44
255
255
255
16
16
36
30
8
6
20
6
14
18
18
14
18
42
58
82
124
138
58
66
46
60
128
176
110
118
116
128
120
62
70
74
26
20
38
46
28
26
32
36
52
40
34
96
72
88
162
214
255
255
255
255
255
255
255
88
14
46
36
36
18
26
10
40
22
24
16
4
2
2
16
18
14
10
10
16
10
34
32
30
22
28
22
16
60
84
86
54
126
255
255
255
255
252
168
62
80
216
255
255
255
150
128
106
68
62
54
18
12
16
124
240
172
50
2
2
4
12
20
78
88
84
118
84
70
92
96
116
136
136
150
188
234
248
255
255
255
255
255
255
255
255
255
255
255
255
252
255
255
255
255
255
255
255
255
150
236
255
255
202
168
254
172
74
30
10
6
12
10
92
236
255
255
255
255
255
255
255
255
255
255
104
106
160
142
112
94
92
68
56
58
52
48
38
20
255
255
194
54
44
102
202
255
255
255
255
255
255
255
255
255
255
255
255
255
255
255
255
255
218
72
14
0
0
0
0
0
66
252
255
255
255
255
56
128
74
4
18
40
36
28
56
66
80
96
102
122
120
106
102
122
200
255
255
255
255
255
255
66
70
68
40
32
56
58
48
50
30
18
14
14
16
16
30
28
38
30
16
32
30
6
4
4
8
16
18
6
12
22
26
16
6
8
10
16
12
2
10
10
18
22
24
24
8
4
8
10
10
18
4
16
18
16
12
38
12
46
240
255
255
18
24
56
40
12
12
22
14
20
18
8
6
36
52
56
64
98
128
104
68
44
32
62
124
102
98
100
84
62
38
44
68
50
22
24
30
18
20
28
54
154
255
255
255
255
255
255
255
255
255
255
255
255
255
255
255
255
28
66
68
48
22
10
30
28
20
22
16
18
20
24
6
26
18
2
18
12
18
30
14
4
8
8
2
64
50
66
66
210
255
255
255
204
116
62
34
154
255
255
255
255
200
148
98
46
30
30
14
14
24
162
236
110
20
2
0
4
16
18
46
60
62
104
100
106
112
96
104
124
134
130
122
158
154
190
236
255
255
255
255
255
255
255
255
108
138
122
192
255
255
255
255
255
78
255
255
255
255
238
156
198
255
136
48
22
8
4
8
14
18
48
40
26
16
22
18
16
110
255
255
255
255
255
140
50
120
102
78
66
70
80
72
58
54
34
255
255
255
158
120
164
192
228
255
255
255
255
255
255
255
255
255
255
255
255
255
255
255
168
40
2
0
0
0
0
0
0
54
255
255
255
240
144
66
88
84
16
16
36
46
56
66
94
128
142
172
250
255
255
255
255
255
255
255
255
255
255
255
100
56
52
48
18
48
52
14
26
44
26
20
22
20
18
28
44
48
30
16
32
34
16
14
18
8
20
14
12
20
18
26
26
8
8
4
14
20
12
18
26
28
18
12
16
12
10
10
8
2
6
12
10
4
10
10
44
18
58
252
255
255
32
18
46
50
14
10
26
20
12
12
18
18
28
66
58
68
110
122
122
96
52
48
78
120
114
92
62
20
18
44
48
44
48
50
42
32
156
255
255
255
255
255
255
255
255
255
255
255
255
255
255
255
255
255
255
255
255
255
50
86
78
58
42
34
24
16
10
20
20
20
10
32
22
18
34
32
36
18
24
16
16
10
2
4
68
94
42
136
255
255
255
188
188
160
118
206
255
255
255
255
255
178
106
34
32
38
26
8
14
54
210
210
58
2
2
2
4
14
16
38
52
76
118
106
114
120
106
102
72
58
68
86
134
128
182
244
236
216
255
246
194
255
255
255
255
255
255
255
255
255
255
255
255
255
255
255
255
150
178
142
244
224
102
32
20
12
10
10
20
16
14
14
30
52
40
44
100
102
84
54
226
255
255
255
255
50
92
88
64
72
96
92
68
60
36
166
255
255
248
210
208
202
252
255
255
255
254
246
216
202
236
250
255
255
255
255
212
108
30
2
0
0
0
0
0
0
0
48
255
255
255
194
164
134
168
212
210
220
242
212
134
88
154
236
255
255
255
255
255
255
255
255
255
255
255
255
255
255
132
48
48
54
44
48
70
36
24
4
20
4
20
30
8
22
52
68
54
34
44
44
20
6
14
12
24
18
4
12
14
20
22
6
6
16
22
34
48
56
56
36
18
10
14
6
12
16
22
14
6
14
14
18
10
12
52
12
50
255
255
255
16
24
30
30
24
18
6
16
16
14
20
6
10
38
38
20
42
62
72
86
66
82
76
84
68
60
48
26
20
60
78
24
24
54
64
144
255
255
255
255
255
255
146
38
92
112
94
116
192
134
118
140
190
255
255
255
255
255
255
24
46
38
32
24
24
24
12
24
16
8
18
24
18
38
24
16
44
48
36
26
6
8
10
14
18
42
138
255
255
255
255
150
60
126
184
255
255
255
255
255
150
74
36
4
14
40
30
38
26
110
232
110
164
255
255
230
26
10
20
38
36
40
80
100
110
100
90
102
82
46
38
44
108
126
184
184
166
126
90
255
255
255
255
255
255
236
182
255
255
255
255
255
255
255
255
202
86
42
118
108
204
134
44
4
20
14
12
16
2
10
14
10
2
28
54
96
110
74
104
70
24
48
186
255
255
255
66
102
102
78
90
84
62
58
32
92
228
254
244
212
172
198
244
255
222
158
130
134
144
176
224
194
154
140
112
82
48
10
0
0
0
0
0
6
18
34
66
152
255
255
255
255
255
255
255
255
255
255
255
255
255
166
255
255
255
255
255
255
255
176
106
58
38
20
22
255
255
255
106
24
24
46
52
48
74
40
40
34
34
32
24
16
14
8
22
30
34
34
44
54
50
36
30
24
28
28
14
18
12
20
24
12
8
14
8
18
40
46
36
34
28
14
12
6
20
2
24
14
8
18
10
16
12
12
54
4
42
255
255
255
28
28
20
16
28
26
14
20
18
16
18
8
18
8
42
22
8
38
56
62
84
72
86
82
68
86
84
48
38
72
70
14
4
28
46
120
222
220
226
224
190
164
148
146
164
184
180
194
214
56
50
46
10
142
60
126
255
255
255
124
26
12
22
24
22
26
20
24
26
20
20
8
4
18
28
20
10
28
12
24
22
22
22
26
54
128
254
255
255
255
242
98
74
34
168
255
255
255
255
172
68
42
40
28
34
32
10
14
10
126
255
255
255
255
255
255
80
2
10
24
30
20
28
70
104
94
88
110
120
118
82
116
110
132
144
122
62
150
255
255
255
255
255
122
68
56
116
156
174
255
255
255
255
116
46
170
136
60
34
76
108
52
6
6
16
22
8
26
16
10
10
2
12
12
10
40
68
70
92
62
24
10
4
80
255
255
255
42
114
104
86
80
58
62
50
74
154
158
134
146
136
166
188
164
94
86
90
108
118
134
120
66
42
40
30
14
4
0
0
0
8
32
84
210
255
255
255
255
255
228
255
255
255
255
255
255
255
255
255
255
240
255
255
255
255
222
156
112
54
42
44
46
36
24
30
255
255
255
56
24
4
20
40
28
50
26
14
26
20
14
2
6
2
8
32
46
36
32
28
14
26
34
26
20
24
32
26
14
20
36
34
20
24
24
18
28
36
20
4
20
18
6
6
20
12
18
16
2
6
16
22
4
16
24
60
8
24
255
255
255
30
38
26
24
34
28
10
6
16
30
18
4
6
24
18
16
14
30
60
34
52
40
68
58
40
64
90
60
52
64
44
10
4
26
14
88
242
255
255
216
194
182
134
152
202
236
254
255
255
212
24
10
42
86
18
142
236
255
255
255
30
18
28
48
40
28
16
12
8
12
14
12
8
14
20
28
8
30
14
24
6
14
40
68
76
124
206
240
244
242
136
14
66
176
255
255
255
210
160
130
86
64
48
36
28
16
22
20
52
255
255
255
255
255
255
255
84
10
2
2
14
22
14
16
44
54
54
72
84
106
94
130
88
90
94
54
146
255
255
255
255
150
58
28
10
82
126
114
214
255
206
148
52
96
18
138
60
108
84
138
114
50
4
12
10
28
16
18
16
20
20
18
28
28
22
20
4
40
50
24
8
4
2
2
54
255
255
255
30
154
120
108
80
62
52
54
98
128
106
98
92
130
138
90
34
34
48
44
40
40
24
2
0
0
0
0
0
0
16
68
214
255
255
255
255
255
138
134
238
255
255
255
244
180
112
50
152
255
255
146
164
255
255
224
178
156
124
102
70
44
20
28
36
16
14
255
255
255
50
46
4
20
24
14
46
42
12
24
10
22
12
10
14
8
20
36
20
22
16
14
14
12
14
20
28
34
24
8
12
32
36
30
20
16
20
40
34
6
16
18
14
2
4
12
8
22
2
4
8
8
18
12
12
12
48
4
42
255
255
255
42
62
48
30
42
38
14
12
18
12
6
12
20
10
16
4
6
4
34
28
12
12
34
48
20
24
48
34
34
36
18
10
4
26
12
26
104
216
255
255
255
255
200
210
250
255
255
255
255
255
124
4
30
52
42
122
20
255
255
255
44
6
40
54
14
12
24
2
12
4
14
6
8
18
4
22
10
20
6
34
50
56
66
90
90
110
134
212
255
255
255
242
248
255
255
255
214
142
130
108
62
34
32
36
6
24
32
44
234
255
255
255
206
255
255
255
84
8
4
4
4
12
10
10
10
18
14
22
40
70
70
66
28
28
20
70
255
255
255
255
108
60
30
26
46
64
98
124
162
54
48
88
100
48
108
140
14
128
66
152
110
60
6
34
24
38
22
26
42
54
38
38
60
50
62
32
20
46
26
2
2
4
4
2
8
96
255
255
150
136
168
140
98
60
38
14
40
86
102
102
84
102
80
40
22
18
14
6
2
2
2
0
0
0
0
0
32
130
255
255
255
255
255
200
252
255
255
255
255
178
92
34
28
28
56
168
255
255
162
150
248
224
172
160
188
164
104
74
44
12
16
28
48
14
102
255
255
255
70
74
42
22
18
18
34
40
26
32
18
12
16
18
10
8
16
34
28
30
20
18
20
8
8
14
24
36
24
0
10
28
28
34
44
32
24
22
6
28
20
16
10
6
8
12
16
26
14
16
12
6
16
16
16
18
52
4
84
255
255
255
30
54
46
18
22
34
22
18
36
30
40
28
38
48
32
14
4
8
12
8
10
12
16
32
40
30
22
12
14
6
12
8
10
12
24
18
30
90
114
174
246
255
236
148
178
220
194
255
255
255
228
90
12
50
90
50
128
255
255
255
212
30
76
68
30
24
36
22
18
20
8
8
10
14
18
12
6
22
24
42
48
38
44
108
144
172
186
128
156
255
255
255
236
255
234
132
136
118
90
66
38
16
16
10
24
28
16
74
255
255
255
255
198
255
255
255
46
4
6
2
6
0
4
2
8
14
14
16
20
22
24
18
4
6
6
246
255
255
255
128
68
46
34
32
32
28
54
80
58
40
42
92
148
130
100
54
74
138
32
158
128
34
36
52
30
42
22
30
56
50
28
12
40
28
48
46
54
38
12
2
2
4
6
4
4
20
210
255
255
40
190
166
116
80
48
180
226
220
192
122
72
42
18
4
2
4
4
4
2
0
0
0
0
0
40
158
255
255
255
255
255
58
255
255
255
255
148
44
40
32
26
22
22
50
158
255
255
232
30
106
120
120
140
168
166
98
42
32
20
16
24
40
44
10
178
255
255
226
54
66
58
42
28
24
34
26
14
14
12
8
10
14
12
0
22
34
22
18
12
14
20
12
6
22
34
34
20
4
14
32
16
14
32
26
30
30
16
26
16
14
12
10
8
4
24
32
14
12
6
8
12
14
12
16
58
12
124
255
255
255
30
56
42
28
38
30
10
2
20
22
28
16
12
28
42
28
14
14
10
10
8
8
14
14
28
42
24
24
44
36
22
14
16
10
14
28
10
18
16
10
42
106
172
196
230
158
70
128
255
255
255
160
30
16
102
38
154
44
255
255
255
60
38
36
22
20
42
42
14
16
16
24
26
6
10
12
14
24
20
30
12
10
40
118
146
154
130
56
36
90
138
176
162
192
208
186
152
134
104
50
24
28
28
12
22
6
28
94
255
255
255
224
204
255
255
140
14
2
6
6
2
4
4
4
10
4
4
8
12
8
16
14
4
6
42
255
255
255
255
82
56
34
20
24
24
28
44
52
38
40
60
80
122
138
124
78
86
126
104
160
108
62
38
20
18
28
14
22
50
52
54
42
74
74
84
80
34
10
8
2
6
8
8
10
8
28
104
255
255
108
176
156
98
58
30
255
255
255
255
255
255
255
255
208
118
52
14
0
0
0
0
0
34
166
255
255
255
255
255
110
255
255
255
255
214
96
26
8
32
26
8
18
36
148
255
255
244
108
56
98
104
128
144
146
88
14
20
28
24
24
32
46
42
24
230
255
255
166
38
62
64
34
14
8
42
38
6
16
18
14
18
16
14
14
32
36
24
22
10
10
24
12
10
20
20
18
20
6
34
50
28
24
32
22
20
26
2
20
8
6
12
10
8
6
24
20
8
18
16
14
10
4
8
16
60
18
152
255
255
222
38
38
16
26
36
22
8
4
10
14
6
10
6
20
46
38
22
12
8
2
2
2
16
24
38
54
40
54
52
32
24
22
18
4
12
22
20
16
14
12
22
28
82
118
255
255
126
126
160
255
255
196
92
30
84
108
60
68
255
255
255
188
28
12
14
14
22
34
26
36
40
22
32
16
8
10
28
22
18
30
26
24
50
90
146
156
118
112
110
104
104
160
220
228
255
255
200
154
124
66
18
12
26
14
6
2
24
108
255
255
255
208
172
255
255
210
22
0
0
2
4
4
6
2
8
4
8
8
4
16
8
12
10
8
156
255
255
255
152
66
32
28
8
4
32
42
40
48
28
30
54
42
38
48
64
88
134
170
148
134
64
30
8
12
28
34
24
20
38
48
50
38
48
66
56
34
10
12
8
4
12
10
8
8
4
22
60
255
255
176
184
162
114
68
34
255
255
255
255
255
255
255
255
255
255
255
255
192
96
26
2
88
255
255
255
255
255
74
255
255
255
255
250
154
88
40
40
28
52
28
24
46
140
255
255
226
114
4
112
162
160
154
142
122
56
26
34
32
12
8
20
20
22
26
255
255
255
150
18
34
72
46
12
14
38
56
18
38
32
28
34
30
24
26
34
28
20
14
10
20
34
12
22
32
44
40
34
16
28
34
22
24
26
6
18
34
18
24
4
6
4
8
14
8
14
24
8
10
14
16
20
18
12
28
72
38
192
255
255
168
24
16
16
26
28
26
26
16
10
6
22
18
20
44
44
16
12
16
10
22
24
22
12
16
44
78
98
80
34
48
34
24
10
6
8
20
28
34
28
8
20
36
74
44
255
255
202
172
142
162
255
222
142
46
36
110
40
88
94
255
255
255
48
44
38
22
8
24
10
20
42
54
32
12
14
14
28
26
42
50
26
30
78
102
150
172
136
152
156
166
180
206
212
206
246
202
88
60
70
26
16
10
26
24
6
18
70
112
255
255
255
218
130
255
255
255
34
0
0
0
4
6
4
4
8
10
8
4
2
14
20
8
12
26
255
255
255
255
88
44
32
36
18
18
34
32
36
44
20
22
34
14
14
8
12
22
40
54
48
48
30
26
24
16
18
16
10
8
8
8
6
4
10
12
14
2
6
12
6
6
14
6
8
8
8
22
50
255
255
214
194
164
142
132
90
250
255
90
80
134
204
255
255
255
255
255
255
255
255
255
184
255
255
255
255
8
255
255
255
255
242
124
50
34
20
22
4
22
50
20
38
90
238
255
234
54
44
126
200
208
164
130
104
74
32
40
32
20
6
14
14
10
24
36
255
255
255
120
12
20
64
66
54
46
16
44
4
18
18
14
22
14
18
36
52
50
40
16
16
12
30
16
16
10
26
38
32
18
28
34
18
12
10
8
8
24
16
4
12
6
4
10
4
10
12
20
16
8
12
8
18
32
34
44
66
48
255
255
255
112
18
16
10
20
16
6
22
32
18
8
22
18
14
22
16
16
12
20
20
32
20
28
18
4
10
46
94
104
64
60
40
20
4
6
8
0
4
4
18
20
18
18
46
102
178
255
255
164
76
66
246
255
190
82
16
58
52
76
54
255
255
255
200
38
64
54
24
30
18
16
20
38
18
10
8
12
18
18
18
28
16
12
48
94
132
142
124
126
124
144
166
162
136
118
102
48
26
32
34
26
70
56
62
62
26
24
206
216
255
255
255
255
238
255
255
255
110
6
0
0
2
4
4
0
2
2
4
4
0
2
8
10
10
28
255
255
255
188
78
58
38
34
22
28
40
44
50
40
10
10
20
10
10
8
10
10
18
18
12
2
4
24
28
18
18
12
2
10
12
8
10
10
10
6
12
8
16
8
6
6
12
10
10
2
0
24
58
255
255
224
206
152
98
100
82
255
255
136
92
72
52
28
34
110
214
255
255
255
255
255
255
255
255
220
226
255
255
255
255
200
102
54
40
44
34
22
16
8
20
8
48
156
255
214
54
122
164
190
202
190
148
88
48
36
20
20
8
8
6
18
14
2
20
32
255
255
255
74
24
18
54
62
82
94
36
50
12
14
16
16
22
12
10
32
26
34
58
28
12
12
12
10
10
6
18
44
46
32
44
42
14
10
12
4
8
16
12
18
16
14
8
14
12
2
12
14
10
8
8
8
10
20
34
58
42
44
255
255
255
60
18
26
24
24
30
16
14
18
14
14
28
36
30
24
30
24
14
14
2
20
22
12
12
10
20
26
34
58
46
40
50
32
10
10
4
30
36
32
24
24
34
34
44
104
94
255
255
128
44
52
196
255
234
130
48
34
52
42
118
44
255
255
255
54
64
60
50
46
42
42
20
24
26
10
8
10
16
16
40
24
4
26
38
60
86
86
98
96
96
96
86
70
60
36
8
16
14
20
36
90
92
64
76
62
38
168
255
196
255
255
255
255
255
255
255
255
255
174
36
0
0
0
2
4
4
4
2
6
10
8
4
4
8
34
255
255
255
144
64
64
54
48
38
30
34
42
54
50
24
20
26
12
10
10
8
4
10
8
10
8
12
28
26
14
12
6
6
10
14
4
2
8
6
8
14
20
18
12
6
4
10
10
0
8
10
30
90
255
255
210
210
144
92
64
40
255
255
148
92
74
76
86
68
52
90
152
222
226
94
214
255
255
112
238
255
255
255
255
188
112
72
50
18
10
8
22
32
26
46
40
118
212
196
132
124
188
166
146
128
136
112
50
32
40
20
14
18
18
26
26
16
14
28
78
255
255
198
64
54
12
28
24
36
78
60
22
16
24
26
26
36
28
12
32
4
14
62
52
20
18
12
14
16
20
22
48
42
34
42
28
4
8
10
2
10
18
12
6
10
14
14
8
10
10
12
16
16
10
4
12
8
16
38
78
34
36
255
255
255
24
18
28
36
30
38
16
6
38
16
16
12
22
24
6
4
18
18
20
10
10
6
12
14
12
16
26
34
30
10
10
34
40
32
20
24
28
22
4
14
28
52
42
36
68
50
255
255
154
64
84
150
255
224
158
80
14
78
86
138
140
255
255
255
228
32
24
46
50
24
14
14
26
20
16
10
8
8
46
32
10
26
32
28
32
46
44
50
54
62
50
34
14
10
12
8
14
36
40
88
90
24
46
78
84
188
255
254
88
255
255
255
255
255
255
94
255
255
255
232
58
0
0
2
6
4
4
2
6
6
4
6
4
2
36
255
255
255
128
46
48
40
44
52
42
34
42
52
46
26
22
30
18
8
6
6
2
6
8
10
16
16
20
14
12
14
4
8
18
18
4
0
8
4
6
14
10
6
10
8
6
4
2
4
8
16
42
128
255
255
140
210
140
138
112
66
255
255
118
56
40
32
44
68
96
132
162
255
206
92
206
182
14
208
255
255
255
210
168
130
102
74
38
12
4
4
6
16
26
36
60
156
186
94
80
132
140
116
112
110
114
72
22
26
24
10
34
28
10
18
34
20
14
10
236
255
255
156
42
28
36
4
22
18
46
52
30
42
22
28
28
36
30
36
54
34
20
42
50
48
46
6
24
4
14
36
42
32
26
28
18
12
20
16
8
12
18
12
8
10
14
12
10
10
6
4
6
12
18
12
18
0
24
40
82
34
36
255
255
255
20
10
20
24
14
20
14
18
42
14
6
12
18
24
6
12
14
4
26
24
26
10
20
4
8
22
28
36
52
44
42
42
34
20
12
8
20
44
26
34
42
46
10
4
40
60
255
255
230
64
118
80
252
206
142
114
58
76
118
74
188
100
255
255
255
40
4
18
36
30
10
22
18
10
8
14
18
10
38
34
30
28
22
10
20
32
22
32
28
26
28
24
6
2
6
6
26
30
14
46
72
70
88
108
198
255
255
112
18
84
255
255
255
255
255
255
166
255
255
255
150
8
0
0
2
2
2
2
8
10
8
8
6
2
36
255
255
255
110
44
58
42
34
48
56
48
50
54
36
20
20
28
20
14
22
22
14
12
10
12
14
12
18
14
12
20
14
16
16
10
6
6
12
6
6
4
6
6
2
4
10
6
6
6
10
12
42
166
255
255
122
250
174
182
144
74
255
255
108
48
48
38
30
50
78
128
255
255
20
255
236
26
236
255
255
238
164
150
122
98
86
62
34
24
20
16
14
16
6
8
58
144
124
34
72
112
114
108
112
98
74
32
12
20
18
26
40
16
16
18
22
26
26
60
255
255
255
94
42
26
22
30
34
44
60
68
76
52
6
16
8
26
22
2
16
36
40
36
34
38
50
32
26
4
18
36
40
34
20
28
26
20
22
18
14
12
10
10
12
10
20
16
14
10
4
4
12
20
12
2
6
18
34
44
72
28
38
255
255
255
30
8
16
30
28
20
6
14
40
32
20
16
14
22
18
14
10
4
12
26
22
30
18
16
20
34
32
28
30
8
10
4
20
42
40
38
46
60
60
12
14
42
26
16
34
66
254
255
255
46
168
8
244
255
146
140
126
36
144
34
156
106
255
255
255
188
26
32
30
34
30
16
8
18
20
32
2
26
36
38
40
42
32
24
30
18
24
40
16
6
24
36
14
14
10
4
22
50
66
86
102
90
114
214
255
255
118
14
42
140
255
255
255
255
255
170
86
154
255
255
255
182
104
52
18
2
0
2
2
2
2
4
0
2
36
255
255
255
96
18
40
50
44
40
50
50
56
68
52
32
26
34
36
40
38
38
32
20
12
18
22
24
24
12
8
18
16
12
10
12
8
2
8
8
6
4
4
2
2
4
8
14
4
10
8
4
40
218
255
255
138
255
194
184
158
74
255
255
108
28
40
42
26
38
120
255
255
132
178
255
36
226
255
255
214
128
96
94
82
72
54
28
16
20
14
18
20
14
10
20
92
148
70
52
116
128
110
86
72
34
32
50
50
38
36
8
32
16
16
16
16
28
46
86
255
255
255
48
30
22
10
46
38
24
52
62
88
90
42
26
12
32
18
8
12
12
40
44
38
40
44
40
30
26
28
34
40
28
20
28
30
20
14
10
8
10
4
18
10
8
24
12
6
12
8
16
28
26
6
16
18
22
24
30
62
40
72
255
255
255
30
22
36
50
40
34
20
8
22
28
24
28
26
12
12
4
16
8
20
34
38
16
22
20
16
16
22
22
38
52
48
36
32
36
50
64
70
74
30
86
114
126
122
160
210
255
255
255
255
92
162
118
150
255
184
142
142
12
114
120
86
206
156
255
255
255
10
30
34
28
40
40
42
32
36
40
10
32
58
80
100
140
168
178
176
154
130
100
76
68
40
28
10
32
52
50
68
76
70
68
60
98
232
255
255
94
62
200
255
255
255
255
255
255
255
255
255
255
255
255
255
255
255
255
255
255
158
58
8
0
0
2
2
0
52
255
255
255
112
26
14
26
40
36
46
58
74
84
64
40
28
30
32
32
24
34
32
20
20
16
18
30
30
20
18
24
20
14
14
16
12
2
4
8
8
6
2
6
0
6
2
16
12
12
6
8
42
255
255
255
112
214
146
122
140
90
255
255
114
50
50
34
26
140
255
255
216
130
202
90
144
255
228
182
120
84
78
68
66
54
24
24
28
24
10
32
22
6
24
62
112
90
52
110
124
98
72
58
36
8
22
32
24
18
32
12
16
10
6
16
10
10
44
108
255
255
255
74
56
56
20
68
52
12
34
28
36
66
66
58
28
16
18
30
24
12
20
30
32
46
46
32
30
32
30
42
40
22
20
36
44
32
18
12
10
14
6
18
18
16
22
10
4
12
14
20
24
34
20
28
24
12
8
32
56
22
102
255
255
255
24
30
30
48
40
28
28
24
16
18
18
26
38
26
10
12
24
30
16
12
40
26
8
10
26
44
46
30
46
42
46
48
50
54
84
86
52
54
162
248
236
255
255
255
255
255
255
255
252
116
90
180
66
194
208
164
154
66
76
162
22
208
52
255
255
255
86
6
36
48
46
36
26
22
70
118
162
186
218
255
255
255
255
255
255
255
255
255
255
255
255
255
255
255
244
92
50
36
26
32
92
206
255
200
56
90
255
255
255
255
255
255
255
255
220
255
255
255
255
255
255
255
255
255
255
255
255
255
212
66
8
4
2
2
54
255
255
255
168
84
56
36
38
34
38
52
72
80
62
40
26
18
12
12
12
26
18
8
22
18
16
32
32
24
22
24
18
8
10
14
14
8
10
8
6
4
4
4
2
4
2
10
8
4
2
12
30
255
255
255
184
214
162
98
106
84
255
255
100
46
24
34
170
255
255
255
154
204
62
76
216
244
186
160
110
90
80
58
56
42
18
18
20
16
16
34
26
20
58
76
54
64
74
102
90
68
58
40
24
20
20
20
22
10
28
32
18
14
18
14
10
24
56
148
255
255
216
86
66
78
84
62
40
10
38
30
12
44
62
70
66
38
14
26
28
26
28
22
12
26
28
6
18
40
48
46
32
18
18
24
32
32
18
4
6
6
6
8
8
16
20
14
6
6
10
16
28
12
28
24
18
18
4
26
50
10
142
255
255
255
28
16
16
20
20
12
16
28
18
12
6
24
48
54
26
16
112
150
150
38
48
48
40
26
28
38
44
44
32
28
26
36
76
90
74
44
220
255
255
255
255
255
255
255
255
255
248
255
106
120
36
148
120
70
190
190
180
126
30
148
86
140
172
240
255
255
255
30
28
42
24
10
52
114
158
210
224
222
255
255
255
255
168
148
110
216
255
255
255
255
255
255
255
255
255
255
255
255
186
86
214
250
156
38
62
216
255
255
255
255
255
196
124
80
76
74
98
84
100
172
255
255
255
255
255
255
255
255
255
255
152
46
8
0
48
255
255
255
174
78
70
54
44
32
24
42
68
80
74
50
32
24
18
16
12
30
26
12
18
18
14
24
24
18
22
22
16
14
18
18
16
6
4
4
2
2
4
0
4
2
4
6
8
6
8
22
48
255
255
255
255
255
216
140
114
90
255
255
102
56
52
206
255
255
255
168
255
54
90
154
202
196
170
162
120
80
54
44
42
34
18
10
16
12
8
26
16
6
36
54
52
50
72
76
64
52
32
12
38
10
10
18
16
18
18
28
30
22
10
2
6
18
40
202
255
255
118
82
52
36
66
62
48
26
38
26
14
24
38
40
64
82
86
92
76
36
40
28
18
34
36
2
12
50
42
30
24
14
18
22
28
36
20
6
6
4
10
4
20
28
18
2
12
22
28
26
14
10
14
4
8
14
2
32
46
18
172
255
255
254
6
6
26
22
24
20
14
26
30
14
26
24
50
66
40
28
130
88
138
86
32
24
26
26
32
36
26
34
28
44
74
114
124
60
100
255
255
255
255
255
255
255
244
210
154
136
104
246
216
80
120
94
148
68
132
126
172
166
14
114
140
64
198
54
255
255
255
174
86
50
30
44
122
168
202
232
214
216
252
210
86
40
126
130
92
122
98
104
120
116
90
64
102
255
255
255
255
255
255
255
255
170
36
26
138
255
255
255
255
222
92
42
30
30
26
10
30
30
46
56
106
132
154
198
246
255
255
255
255
255
255
192
50
4
24
255
255
255
144
38
44
36
38
36
14
28
66
86
92
72
52
40
26
16
10
26
30
18
20
18
22
32
34
30
36
40
28
22
26
28
22
10
4
0
4
6
10
10
10
6
8
2
6
2
4
18
174
255
255
255
255
255
255
255
204
142
255
255
88
154
255
255
255
190
188
255
128
82
150
172
202
216
214
186
136
96
80
64
34
20
8
8
12
10
8
20
6
16
42
64
52
54
52
40
28
22
30
28
16
24
20
12
18
28
40
32
8
12
4
16
24
44
22
255
255
255
74
76
36
14
6
28
18
32
28
12
10
8
18
18
26
40
54
80
100
92
50
38
26
30
18
4
32
56
40
28
20
14
22
20
24
34
24
10
6
14
12
4
14
14
10
16
10
18
20
4
12
14
10
8
16
26
14
46
44
26
238
255
255
204
16
18
12
18
8
10
14
22
36
22
16
18
32
52
52
52
140
180
178
82
34
34
26
44
48
64
66
78
76
126
160
138
78
154
255
255
255
255
202
160
180
178
142
116
74
76
110
130
255
78
108
50
36
52
86
88
144
152
16
84
146
30
152
64
255
255
255
255
194
114
76
116
204
210
200
190
218
254
174
20
202
252
196
104
102
180
176
166
190
148
74
52
100
110
96
36
178
255
255
255
255
255
255
182
216
255
255
255
220
56
42
26
24
32
36
24
8
18
30
18
44
64
78
112
164
196
206
255
255
255
255
255
220
54
14
252
255
255
138
26
50
38
40
48
30
32
54
68
84
78
64
52
38
26
18
22
26
30
28
10
16
34
38
34
32
36
34
32
34
34
32
16
6
6
4
6
6
2
4
6
4
2
6
2
4
24
255
255
255
255
244
255
255
255
255
255
255
255
48
255
255
255
74
194
242
130
52
180
222
238
254
255
224
154
100
80
70
50
28
10
10
6
10
16
10
18
6
16
14
28
10
12
8
10
12
6
10
8
16
44
26
22
26
14
10
4
16
6
32
36
32
46
50
255
255
255
74
100
40
16
6
16
38
46
28
28
24
16
6
6
2
6
22
30
22
28
36
24
16
20
16
22
44
48
42
30
14
18
26
32
40
32
8
6
10
14
6
8
14
24
26
20
10
20
12
12
16
10
6
10
18
18
8
50
32
40
255
255
255
192
48
18
10
18
22
32
18
28
44
50
24
24
22
40
48
60
62
50
62
64
70
92
102
90
74
80
114
120
124
118
48
88
255
255
255
255
255
198
138
118
146
148
106
70
48
58
102
44
216
136
84
138
56
64
98
162
196
168
56
38
116
60
108
140
60
255
255
255
254
140
144
202
238
190
150
156
208
144
66
228
255
198
100
68
72
172
255
255
166
62
22
6
14
28
38
72
88
78
128
255
255
255
255
255
255
255
255
255
168
82
52
56
44
34
20
22
20
22
26
8
24
24
40
56
76
110
140
182
255
255
255
255
255
222
38
198
255
255
212
62
76
62
54
62
54
46
50
50
54
58
68
64
48
38
38
36
28
36
38
18
16
28
32
34
34
34
32
34
44
44
40
34
22
16
10
8
10
10
4
4
0
2
2
4
2
24
255
255
255
236
104
220
255
255
255
255
255
255
255
255
255
46
186
144
50
70
154
244
255
252
234
204
140
88
66
66
54
54
44
28
12
10
8
10
12
30
34
12
8
20
6
14
14
24
16
10
12
14
20
26
18
12
14
12
8
6
18
20
34
14
6
24
140
255
255
255
46
100
48
20
16
12
34
22
18
20
12
12
18
16
8
10
18
18
26
24
14
6
8
20
18
24
36
32
36
34
18
16
40
44
30
18
4
4
12
14
8
12
4
8
18
18
14
10
8
10
8
16
16
24
28
12
32
68
8
56
255
255
255
196
64
62
56
50
38
72
46
94
60
74
56
46
46
42
58
76
80
114
126
118
128
124
114
106
88
66
90
84
62
44
174
255
255
255
255
255
190
184
162
122
108
108
84
66
54
58
80
32
174
224
82
128
30
66
70
188
238
194
126
22
94
94
72
162
60
255
255
255
255
62
108
136
144
102
114
182
178
46
204
246
182
72
62
84
136
255
255
158
82
40
34
38
82
88
90
80
62
48
22
8
100
255
255
255
255
255
255
254
198
126
88
58
42
30
22
30
28
8
14
24
20
14
18
32
44
70
120
160
210
255
255
255
255
255
152
132
255
255
255
102
76
52
44
58
64
44
42
60
58
52
72
80
62
52
54
44
28
36
40
26
24
24
22
28
28
34
34
26
34
46
42
34
30
20
10
4
0
4
8
10
6
4
2
4
12
132
255
255
255
126
84
116
132
108
106
82
255
255
255
230
88
106
70
82
78
104
194
255
252
222
200
152
98
64
54
50
36
36
46
42
18
22
28
36
42
32
44
30
14
34
34
36
32
28
8
8
22
20
10
8
18
18
22
14
14
18
14
12
18
28
22
26
224
255
255
255
44
88
34
10
14
8
26
14
16
22
20
16
14
18
16
18
28
34
26
4
22
10
10
18
20
26
36
44
50
38
14
20
50
38
22
14
2
6
18
18
10
6
2
10
8
6
14
18
16
14
14
16
12
22
22
12
44
50
28
34
255
255
255
170
68
72
64
60
44
60
76
98
62
80
70
66
72
92
104
112
102
134
108
92
76
40
34
38
22
78
112
54
90
228
255
255
255
255
255
172
146
172
146
76
58
62
48
38
28
36
40
18
114
255
100
118
24
60
72
156
252
210
160
22
84
106
30
120
114
34
255
255
255
82
46
52
68
68
138
176
72
92
182
164
76
30
52
122
212
238
126
112
112
56
28
80
68
42
20
18
36
50
40
30
24
18
82
255
255
255
255
180
146
172
146
102
52
16
16
42
40
22
16
6
10
14
14
18
22
38
88
138
164
208
255
255
255
255
255
20
255
255
255
122
62
42
14
12
48
50
36
44
44
42
50
58
56
56
56
40
30
42
40
26
32
28
18
24
18
24
36
34
36
48
46
32
30
26
18
14
12
18
20
28
26
22
18
18
40
255
255
255
255
48
224
255
255
255
255
255
255
255
80
54
32
38
30
34
76
156
252
255
220
190
144
76
36
16
24
26
14
20
22
24
10
16
16
36
20
2
24
26
10
14
12
16
10
6
26
16
28
2
10
10
16
14
8
24
8
6
16
26
18
30
40
38
255
255
255
158
62
94
40
18
8
4
20
18
16
16
10
2
6
22
8
24
24
26
24
22
38
16
20
28
32
38
48
58
42
14
6
30
52
28
16
10
2
8
20
12
6
8
4
12
8
22
24
12
2
16
14
14
4
14
18
22
46
44
36
22
255
255
255
92
40
60
62
66
78
78
82
82
68
88
94
84
98
104
70
62
22
38
80
120
148
170
176
134
98
98
46
212
255
255
255
255
255
255
178
120
124
148
110
76
32
50
72
76
48
42
22
14
74
246
112
114
42
72
100
78
240
248
196
40
48
82
62
64
110
58
255
255
255
190
76
102
94
116
152
102
66
204
212
134
24
44
106
214
255
176
74
98
102
58
68
64
32
22
6
4
24
28
28
28
30
16
4
18
78
255
255
255
140
78
152
130
80
30
22
40
26
26
38
32
24
30
36
30
18
22
42
74
112
152
194
255
255
255
255
136
255
255
255
218
72
42
34
30
40
32
28
30
26
36
42
32
26
40
60
52
48
58
44
30
48
52
36
36
30
32
40
40
44
52
50
42
44
44
40
36
42
38
30
32
34
48
50
46
118
255
255
255
232
255
255
255
255
255
255
180
178
224
144
20
46
14
24
36
134
204
252
226
152
122
78
30
10
6
20
20
18
12
6
22
4
14
26
8
28
32
30
16
2
8
10
14
16
14
6
40
28
6
4
14
8
12
8
16
24
12
14
4
16
18
22
56
255
255
255
64
84
92
28
16
2
14
32
28
30
28
24
18
24
24
22
40
22
12
14
30
34
16
26
22
32
54
60
46
20
10
20
44
50
26
18
14
10
16
18
10
14
16
10
10
6
20
2
20
10
20
18
18
14
24
6
24
34
18
10
92
255
255
255
48
32
42
58
62
62
78
70
70
46
40
46
30
24
86
180
238
255
255
255
255
255
255
255
255
255
255
255
255
255
255
255
255
255
172
108
64
74
90
64
100
88
38
24
70
74
48
14
12
62
246
116
114
72
84
160
54
138
234
218
96
44
36
42
56
74
48
102
255
255
255
8
100
120
90
114
134
144
226
156
74
32
72
172
248
208
52
58
92
88
92
70
38
30
26
24
40
56
60
52
48
58
40
44
48
32
36
136
255
255
158
98
92
74
34
40
40
16
12
22
32
20
32
46
44
52
62
66
52
78
120
152
242
255
255
255
255
196
255
255
255
200
116
80
46
38
30
28
44
54
60
66
56
36
34
50
48
58
76
58
36
44
58
52
46
40
46
46
34
36
46
50
38
34
42
44
34
48
42
46
42
56
66
68
110
255
255
255
255
255
255
255
255
204
255
255
255
174
255
92
40
18
84
72
124
210
236
218
146
98
88
60
40
30
30
18
10
14
18
6
22
30
24
36
30
36
28
18
8
14
16
10
4
2
22
34
38
8
22
24
12
14
8
14
8
16
6
4
14
12
22
32
172
255
255
255
42
96
70
24
30
26
26
36
28
30
24
6
12
20
10
14
28
14
6
6
24
26
16
20
16
38
60
46
22
18
24
30
44
44
24
14
10
10
16
18
12
16
18
14
6
14
14
14
22
10
26
20
14
14
14
12
26
32
12
4
196
255
255
250
6
4
2
8
20
20
28
22
30
58
92
166
255
255
255
255
255
255
255
255
255
255
255
255
255
255
250
255
255
255
255
255
224
142
74
72
56
62
76
28
42
54
78
54
58
54
54
20
36
62
254
146
96
68
34
152
110
100
200
204
116
34
16
18
38
54
62
26
255
255
255
194
118
106
92
96
100
112
154
76
32
44
110
196
188
98
6
30
112
94
76
74
58
64
70
44
36
46
44
26
30
42
26
28
38
30
26
10
74
204
244
140
100
54
32
48
46
24
22
8
26
26
22
28
36
80
82
120
86
60
78
126
192
255
255
255
255
8
255
255
255
255
255
196
134
92
58
46
54
70
88
82
72
64
60
58
50
60
88
78
60
54
58
60
56
50
60
62
44
44
46
56
50
32
38
50
38
56
54
62
72
100
114
118
210
255
255
255
255
255
255
36
255
255
255
255
255
166
234
68
18
82
28
130
222
220
204
152
80
68
64
44
32
18
10
16
10
28
28
10
4
28
22
28
36
30
22
12
4
10
12
10
8
18
30
8
16
10
32
14
10
6
18
4
16
12
2
8
16
46
38
50
255
255
255
224
58
88
36
10
10
24
52
50
30
28
22
10
18
16
10
14
22
18
6
4
16
24
18
22
26
46
52
24
8
24
24
20
40
40
18
4
2
10
14
18
10
14
14
12
8
12
4
16
14
10
24
8
8
8
8
6
28
40
12
12
255
255
255
204
78
88
80
72
80
76
68
56
114
222
255
255
255
255
255
255
255
255
255
255
255
255
244
186
192
150
40
106
255
255
255
248
64
88
46
64
122
136
132
108
174
158
114
64
120
98
80
82
92
96
255
160
90
120
28
92
80
70
182
190
118
32
20
30
10
50
68
64
110
255
255
255
90
102
102
252
228
240
154
76
12
36
118
174
144
76
28
98
110
52
70
84
70
54
56
50
30
34
34
16
24
42
26
16
20
16
24
22
16
50
138
188
110
36
20
46
44
22
28
30
20
36
42
54
90
108
74
134
150
106
62
84
154
255
255
255
255
208
188
255
255
255
255
255
232
196
150
78
38
40
74
78
60
66
80
76
60
66
86
78
74
80
78
74
74
72
92
100
82
80
70
78
88
70
62
74
78
96
94
98
124
172
186
154
144
206
255
255
255
120
255
255
255
255
255
184
48
194
255
128
80
38
126
246
238
196
154
82
40
48
40
46
38
28
24
8
6
26
18
20
14
10
4
22
32
8
20
20
18
22
18
12
30
28
20
6
24
20
50
32
16
16
16
10
12
12
8
14
22
50
52
60
255
255
255
138
72
68
20
20
16
22
30
28
26
28
26
2
14
8
2
12
16
14
12
6
20
30
14
14
14
30
32
8
8
22
14
20
42
30
14
10
10
8
18
22
6
12
12
14
6
6
4
16
10
12
24
4
14
2
4
6
30
48
20
50
255
255
255
156
94
96
104
84
52
48
64
188
255
255
255
255
255
255
255
255
255
255
240
254
255
255
255
255
255
255
255
176
22
255
255
255
255
172
62
76
122
255
255
255
255
255
255
198
74
66
90
76
56
68
244
228
96
158
74
88
104
48
188
226
168
66
56
40
40
30
60
32
46
255
255
255
186
70
255
255
255
255
255
78
66
86
130
130
132
66
82
96
54
32
32
32
60
98
100
66
32
26
32
38
52
40
8
12
28
26
28
24
16
14
4
68
120
82
20
40
36
14
14
28
42
56
74
98
108
82
46
90
154
174
132
94
106
192
255
255
255
255
10
255
255
255
255
244
254
255
255
162
56
34
50
68
50
54
70
62
56
68
72
64
74
92
102
98
90
98
122
132
126
132
124
152
168
138
126
130
148
168
170
178
190
184
110
60
72
118
82
188
255
255
255
255
255
236
64
8
12
174
255
98
14
104
210
222
178
158
122
52
26
34
28
46
42
14
24
18
14
32
18
36
32
22
10
22
8
6
8
8
16
34
24
34
28
6
8
4
22
22
24
34
12
10
20
14
2
12
10
16
12
18
32
30
255
255
255
94
94
58
6
18
20
32
40
32
26
28
22
6
12
10
0
10
14
12
14
14
42
30
6
16
14
26
30
10
6
18
22
40
40
22
20
14
10
6
24
26
10
16
6
10
14
16
6
20
18
14
28
12
20
10
12
4
46
66
38
102
255
255
255
68
44
36
50
46
36
182
255
255
255
255
255
255
255
255
236
194
178
148
134
122
128
134
196
255
255
255
255
255
255
222
134
208
255
255
255
58
255
255
255
255
255
255
255
255
206
130
94
64
72
62
255
220
48
128
110
34
126
46
120
206
196
112
86
66
70
30
62
56
46
120
255
255
255
255
255
255
244
255
255
255
68
142
152
144
156
140
104
70
34
28
48
80
84
80
58
32
20
46
66
46
26
16
24
36
44
76
94
90
84
90
104
98
54
48
56
42
36
24
32
48
64
72
70
66
46
20
22
36
78
138
172
170
130
140
255
255
255
255
158
152
255
255
255
208
164
196
244
208
128
82
64
78
70
62
76
60
54
76
78
66
68
82
102
122
122
124
146
176
188
182
180
168
200
184
214
218
232
255
248
204
142
68
52
74
58
244
255
255
255
255
255
238
56
20
18
24
24
186
254
78
120
158
200
202
152
132
104
44
22
28
26
60
58
18
4
12
12
22
4
34
30
28
6
24
2
10
18
22
8
26
14
26
12
6
10
18
28
32
4
26
26
14
26
18
2
12
6
24
12
14
10
164
255
255
240
78
100
50
10
20
18
20
22
20
24
22
12
4
10
16
6
14
8
8
18
32
42
16
18
44
34
34
32
14
16
26
42
40
22
18
22
6
10
6
20
20
10
18
6
6
4
8
14
36
30
22
30
14
20
10
14
18
48
48
2
168
255
255
252
46
22
18
44
32
255
255
255
255
255
255
255
206
152
146
126
108
116
92
106
84
76
84
76
110
140
184
255
255
255
255
236
136
108
255
255
255
255
255
255
255
255
255
255
255
242
244
242
174
142
124
255
172
82
94
82
30
120
134
102
122
126
96
96
56
22
66
32
102
60
30
255
255
255
255
255
190
160
208
255
255
255
255
138
132
140
104
60
44
28
22
78
80
40
50
68
50
18
30
44
62
112
148
170
194
242
255
236
206
184
168
144
160
170
134
86
72
68
36
36
48
64
54
34
34
14
8
16
24
38
68
118
188
188
140
196
255
255
255
255
34
250
255
255
228
138
132
190
194
154
124
80
64
62
62
84
82
74
82
86
76
78
112
124
136
168
176
188
196
232
228
198
208
255
255
255
255
255
255
242
158
86
54
82
104
255
255
255
255
255
210
70
6
14
0
8
22
22
174
255
96
164
152
192
198
116
84
60
22
10
36
46
62
32
18
14
18
28
28
16
34
20
20
24
18
22
20
18
28
30
12
2
14
16
16
6
8
14
38
36
26
6
14
8
10
12
4
8
10
18
20
6
255
255
255
174
52
76
36
16
14
16
26
32
26
18
8
10
16
24
16
4
12
4
12
10
20
12
2
26
36
22
28
26
16
26
36
44
32
20
22
16
2
14
6
22
24
10
22
8
12
10
2
20
28
12
10
20
8
14
4
4
16
56
44
56
255
255
255
156
36
28
28
64
255
255
255
255
255
194
134
144
112
80
78
48
44
32
14
26
46
50
42
28
46
76
114
172
210
244
255
255
255
188
120
255
255
255
255
255
66
255
255
255
206
226
255
255
255
255
248
255
94
138
126
106
80
90
128
46
100
126
118
74
58
18
62
16
84
72
24
72
255
255
255
255
106
255
255
255
176
236
255
255
114
150
255
255
150
52
74
98
64
36
62
76
64
4
76
158
255
255
255
255
255
255
255
255
255
184
140
112
102
106
134
164
176
178
178
172
144
110
42
24
48
26
18
20
26
40
44
60
136
212
190
162
255
255
255
255
38
174
255
255
255
182
134
130
120
96
84
66
58
54
64
72
84
92
96
92
100
126
152
176
202
210
192
196
184
204
224
255
255
255
255
255
255
255
255
182
130
136
180
228
255
255
255
255
255
82
14
20
10
18
14
14
18
16
180
254
102
144
122
160
130
42
52
76
50
30
44
26
48
36
34
12
8
24
30
36
26
8
16
8
16
18
8
2
8
22
24
16
14
14
14
12
18
18
26
44
26
24
28
30
26
24
26
26
26
36
48
8
255
255
255
168
60
68
36
2
12
16
16
16
18
24
20
18
14
6
4
18
14
10
16
10
28
18
14
38
30
22
22
14
16
28
32
38
32
20
14
12
10
12
14
32
20
2
14
16
8
6
2
20
24
16
18
14
4
10
8
4
32
82
74
160
255
255
255
94
48
34
100
255
255
255
255
242
132
74
70
92
78
82
98
82
90
58
26
42
28
44
32
30
34
48
70
100
150
206
254
255
255
255
242
150
255
255
255
255
154
255
255
224
255
255
255
255
255
255
255
152
48
132
72
56
46
34
66
28
82
138
134
114
106
62
48
66
60
42
16
48
255
255
255
156
228
255
255
255
255
255
222
255
255
255
66
255
248
118
80
64
54
62
52
44
66
212
255
255
255
255
255
255
255
255
255
255
255
200
92
40
38
12
22
16
64
74
106
164
210
255
232
146
94
40
18
14
12
26
30
32
76
174
202
156
208
255
255
255
112
86
222
255
255
238
196
174
160
128
78
70
98
98
120
134
138
146
146
128
168
200
216
246
248
202
172
186
162
164
236
255
255
255
255
202
170
142
166
210
232
255
255
255
255
255
255
255
96
16
10
26
8
14
4
12
18
12
164
232
100
102
114
136
92
58
58
72
72
62
42
10
32
40
4
10
10
6
24
26
24
12
14
8
16
14
10
2
4
6
12
20
20
8
6
2
12
32
28
38
36
30
26
24
18
16
16
18
6
20
54
14
255
255
255
154
78
70
32
2
22
32
26
22
18
6
6
2
2
10
8
8
10
24
10
10
34
18
16
34
28
28
22
10
12
24
28
30
22
14
14
8
6
4
20
20
14
10
18
14
8
12
6
14
22
12
20
8
10
8
8
0
42
88
96
255
255
255
255
88
74
106
255
255
255
255
178
112
72
32
26
40
68
92
86
60
96
78
48
64
44
60
68
52
48
34
46
40
54
88
158
236
255
255
255
255
90
206
255
98
208
255
255
255
255
255
255
255
255
255
224
86
114
90
54
42
2
50
58
36
66
102
98
84
98
80
38
70
42
46
28
40
114
180
108
82
255
255
255
146
255
255
214
100
255
255
255
255
240
90
108
88
84
66
130
255
255
255
255
255
255
255
255
244
192
204
184
206
255
206
96
50
52
38
44
84
94
62
64
60
14
122
216
255
255
196
86
22
4
8
12
8
34
104
144
122
156
255
255
255
178
26
130
255
255
255
252
224
246
254
188
162
150
146
172
186
160
170
178
194
234
236
220
232
206
140
142
170
154
178
255
255
244
168
54
114
178
134
200
255
255
255
255
255
255
255
228
100
54
40
14
34
10
18
8
4
20
16
120
172
80
118
168
174
124
100
88
84
66
38
12
26
14
30
6
10
10
8
20
6
18
18
20
22
22
30
38
26
20
8
12
10
22
16
2
6
16
26
18
22
32
28
8
6
10
8
10
22
24
40
54
18
255
255
255
144
94
84
36
16
28
6
12
20
8
2
10
8
10
6
10
8
20
26
12
12
22
10
12
24
20
20
14
10
10
20
32
40
30
10
6
6
8
2
18
16
10
2
8
6
6
12
8
4
18
22
18
4
6
2
4
2
52
94
172
255
255
255
255
62
92
255
255
255
255
154
92
70
38
14
12
30
82
70
16
38
46
48
16
20
26
44
36
38
46
50
54
48
26
46
82
120
240
255
255
255
255
170
54
134
40
182
255
255
255
255
255
224
255
255
255
156
126
110
104
74
46
80
78
46
88
106
72
64
82
82
52
18
30
22
20
12
40
88
120
158
255
255
255
255
255
255
114
62
184
255
254
110
54
120
146
170
168
86
176
255
255
255
255
255
246
140
128
86
72
92
120
208
255
206
96
68
78
76
84
86
66
54
56
60
86
90
66
76
198
255
255
178
66
10
24
22
38
100
124
94
106
246
255
255
255
30
68
192
255
255
252
184
186
212
172
132
150
160
166
148
110
124
148
184
196
182
162
182
156
126
128
140
130
198
246
184
72
24
68
100
174
200
242
255
255
255
255
255
208
216
104
4
20
32
6
26
16
10
6
20
30
14
138
166
86
156
164
134
80
50
36
28
22
40
38
32
24
38
24
20
22
2
22
24
36
16
8
10
16
18
22
24
38
20
26
10
18
18
4
6
20
18
18
26
32
34
22
8
12
14
28
26
18
22
34
22
255
255
255
144
102
76
24
20
30
6
8
18
12
16
18
18
10
12
18
14
22
16
12
6
20
18
12
8
14
20
18
18
16
14
22
36
34
22
24
24
18
12
22
12
8
4
8
4
4
20
10
6
18
32
20
6
6
8
12
12
82
158
255
255
255
255
164
54
255
255
255
255
148
66
40
34
28
38
60
72
80
34
22
16
6
34
42
32
26
12
20
6
22
32
40
60
60
86
84
76
110
255
255
255
255
184
255
174
158
146
116
64
20
52
74
255
255
255
184
80
96
80
46
36
20
66
78
56
96
104
104
92
44
90
102
28
26
18
14
8
22
38
94
218
255
255
255
228
255
255
142
108
170
214
255
255
255
255
218
122
230
150
255
255
255
255
184
86
48
44
54
92
134
200
255
255
244
152
78
74
64
46
52
40
38
42
40
52
48
50
52
44
14
90
214
255
230
92
18
46
70
118
130
86
84
186
255
255
255
64
20
94
216
255
255
176
130
136
130
98
130
112
106
102
92
92
124
134
136
142
166
180
126
126
132
128
130
176
142
50
50
32
62
118
138
158
240
255
188
94
24
78
124
108
32
34
40
24
20
14
18
12
18
24
22
16
150
186
112
124
86
48
12
8
18
20
10
14
18
28
38
52
12
8
18
12
18
28
18
12
12
14
14
26
42
28
16
14
18
14
18
20
8
12
18
6
36
46
48
38
14
12
12
36
50
18
6
26
48
12
255
255
255
140
92
82
64
32
18
10
24
22
10
12
12
6
8
6
18
14
22
12
10
14
30
32
14
8
22
26
4
8
24
32
32
34
22
4
12
14
8
10
26
18
14
6
8
8
6
16
2
16
22
32
10
12
6
6
8
26
132
238
255
255
255
255
14
255
255
255
255
148
80
54
66
62
28
34
60
40
10
42
18
10
6
8
20
40
38
22
28
30
28
24
22
20
46
74
82
86
78
186
255
255
255
255
255
255
255
254
200
168
112
72
255
255
255
240
70
68
88
38
26
66
52
68
32
38
48
68
90
60
16
34
88
48
12
12
10
14
26
30
30
62
176
255
255
255
148
255
255
100
255
255
255
74
220
255
255
206
178
192
255
255
255
36
12
46
56
72
110
152
198
250
255
232
160
100
66
96
88
56
40
18
20
6
24
48
32
40
52
46
44
44
68
104
228
250
156
30
56
118
134
80
56
132
255
255
255
90
2
42
154
255
255
218
150
144
146
138
132
92
88
92
100
138
164
158
168
174
186
172
134
152
170
154
142
116
22
42
46
46
52
64
76
146
174
114
40
8
26
38
28
12
20
28
20
12
28
16
14
24
18
12
20
14
98
124
32
38
26
14
16
16
16
8
10
24
8
22
12
46
24
10
14
16
12
10
22
28
12
2
10
10
8
8
2
12
16
12
16
18
16
20
16
16
24
16
18
18
6
20
18
48
36
12
16
20
38
12
255
255
255
140
88
54
30
26
12
14
26
20
16
18
20
16
20
18
24
6
22
16
10
30
36
20
4
14
26
16
8
26
48
44
30
32
28
16
22
16
16
10
20
16
8
6
12
4
8
16
14
22
18
22
14
8
4
8
2
38
178
255
255
255
255
194
154
255
255
255
208
80
72
64
64
42
14
26
48
24
14
18
24
10
10
14
36
28
4
18
28
26
12
18
20
20
40
62
64
46
20
255
255
255
255
255
255
255
255
255
172
122
86
126
255
255
255
96
80
96
60
30
38
66
14
52
20
36
32
66
92
68
34
46
84
44
4
2
4
6
20
38
44
30
16
52
255
255
255
255
255
178
255
255
255
255
255
255
246
68
255
255
255
255
72
64
68
82
72
94
122
180
255
255
248
198
158
134
136
156
128
86
70
58
50
54
60
42
20
26
44
62
54
42
48
30
56
192
255
200
52
116
126
80
48
92
255
255
255
128
0
10
72
178
255
232
182
166
118
130
130
134
114
100
106
150
156
152
166
144
122
116
110
124
144
122
98
44
38
26
36
66
74
76
90
106
66
8
18
32
48
48
26
22
12
14
14
10
10
16
24
24
14
18
20
10
60
86
16
28
18
14
10
22
22
6
22
32
24
28
8
28
36
30
28
32
16
16
12
6
16
6
4
8
6
6
10
16
14
2
4
14
16
12
8
30
14
10
18
18
12
8
10
28
16
10
2
16
34
24
255
255
255
144
82
58
36
18
6
20
20
16
8
6
6
4
6
8
6
6
24
20
14
26
18
2
6
12
12
10
14
26
40
28
4
20
18
4
8
4
8
6
16
18
16
16
10
2
8
6
10
10
12
24
18
8
6
10
4
66
255
255
255
255
255
48
255
255
255
255
100
82
80
50
38
30
18
28
42
28
22
20
16
22
8
8
20
22
20
18
10
20
38
30
20
10
14
60
80
134
255
255
255
255
255
255
255
255
255
255
255
148
80
160
255
255
160
78
82
122
64
56
102
146
86
100
42
46
30
48
58
38
56
84
64
36
16
10
12
26
32
20
30
52
32
24
96
255
255
68
255
134
234
255
255
255
208
146
255
255
246
255
255
54
176
74
66
110
122
160
194
255
255
252
176
140
124
114
120
106
56
28
38
48
52
62
52
36
30
20
24
42
50
34
4
24
24
28
144
246
148
122
120
62
42
86
255
255
255
136
2
4
30
106
206
194
160
172
128
96
80
78
90
80
82
98
100
108
108
74
74
98
82
68
56
52
62
42
44
44
70
84
66
52
42
30
20
16
34
34
42
38
24
28
16
14
12
18
8
6
6
16
14
16
8
2
70
102
36
20
10
18
18
26
36
32
36
58
40
26
24
22
24
32
32
42
30
2
22
32
22
18
10
16
14
18
30
32
20
18
20
26
24
10
32
28
8
12
18
16
12
4
12
14
14
12
14
20
40
68
255
255
254
122
72
48
30
10
4
18
12
6
12
10
6
12
10
6
2
6
24
28
20
22
16
16
26
26
24
22
8
18
34
14
2
26
22
2
6
4
0
14
18
12
2
12
10
8
6
2
6
12
16
20
20
10
16
24
12
142
255
255
255
255
188
150
255
255
255
146
82
96
64
34
48
26
18
46
28
14
28
42
42
50
52
56
60
56
54
58
52
48
30
14
26
52
116
220
255
255
255
255
216
255
255
172
214
255
255
255
255
255
255
122
255
255
255
164
84
100
56
82
206
142
102
114
48
36
32
32
64
66
56
66
72
72
40
8
30
56
70
66
50
10
38
54
88
255
255
255
186
255
126
54
212
46
186
255
255
50
88
255
255
114
172
72
136
216
230
255
255
255
224
120
80
74
60
82
96
98
64
52
52
30
18
16
24
10
8
14
22
28
48
60
42
28
4
26
46
98
176
118
126
60
34
70
255
255
255
138
2
6
22
76
156
160
114
104
104
90
50
36
60
54
78
92
92
78
66
64
92
102
72
42
28
74
52
48
60
58
50
42
20
26
30
20
10
16
30
28
34
16
24
24
6
20
14
10
14
2
6
6
8
8
4
4
56
94
44
6
14
22
34
38
42
38
26
36
20
22
20
12
20
26
24
22
30
26
20
14
10
10
2
6
6
28
50
26
4
16
26
12
22
16
26
8
4
6
8
12
14
8
6
10
2
12
20
30
44
92
255
255
255
126
56
40
46
30
12
16
10
8
16
12
16
4
12
4
2
8
12
20
22
36
22
16
16
18
28
22
16
28
32
16
26
42
22
8
14
12
10
10
12
12
10
14
4
12
10
6
4
4
14
28
26
10
4
26
36
255
255
255
255
255
36
255
255
255
242
78
86
90
46
30
48
36
28
28
30
84
102
94
84
88
90
98
102
100
106
106
86
94
116
88
72
78
154
255
255
255
255
255
255
255
255
22
134
255
255
255
255
255
255
255
186
255
255
255
188
118
66
106
134
32
54
92
66
40
56
48
54
48
58
82
106
104
56
36
46
54
54
56
84
94
50
48
80
250
255
255
86
255
206
96
142
148
146
234
136
255
255
255
238
170
208
190
246
255
230
214
174
116
68
94
102
58
40
62
74
104
80
52
64
58
30
22
32
36
24
18
14
26
20
56
54
60
42
34
30
4
56
102
126
78
64
96
255
255
255
114
4
4
10
42
94
128
122
82
68
110
80
52
66
60
72
80
84
74
66
78
82
54
6
50
78
52
26
16
6
12
8
16
12
8
18
44
36
26
20
12
26
12
28
20
28
20
14
16
28
30
30
22
6
18
32
44
44
74
36
14
14
12
4
12
10
14
34
36
38
22
4
8
2
20
28
14
22
42
36
32
10
8
6
6
12
4
40
36
16
14
12
2
22
24
44
30
10
12
8
8
10
12
22
30
10
28
28
24
10
60
255
255
255
140
54
14
22
28
10
6
10
10
14
16
6
14
6
10
6
6
14
26
42
44
22
14
12
14
22
16
16
28
28
18
26
24
4
4
12
8
12
6
16
8
4
12
10
10
6
6
4
14
32
34
14
14
8
18
80
255
255
255
255
160
88
255
255
255
194
104
92
68
24
12
28
10
16
28
70
102
80
58
68
70
70
80
62
50
74
86
48
42
64
76
50
40
88
255
255
255
255
255
255
255
255
255
190
60
170
255
255
255
255
255
255
68
255
255
202
78
114
150
4
60
64
64
38
16
50
52
78
72
36
10
76
90
24
18
10
36
70
62
16
74
82
88
214
255
255
255
255
255
178
86
100
94
202
255
255
255
255
255
108
188
248
250
230
180
134
112
86
64
74
96
86
74
48
48
52
88
78
34
38
56
36
16
14
18
20
20
26
34
16
18
32
56
68
26
16
12
26
44
74
70
72
124
255
255
255
84
4
4
8
42
90
114
144
118
46
62
68
50
58
58
60
62
74
74
82
100
66
30
58
78
38
18
34
20
28
16
12
12
18
30
56
60
36
30
24
8
18
10
26
24
16
22
30
22
38
56
32
38
12
8
28
28
54
88
30
10
26
38
32
20
18
30
24
12
18
20
18
2
8
16
40
28
24
40
32
32
36
16
12
12
18
22
44
46
28
16
22
22
30
38
40
24
20
16
2
14
14
26
12
20
22
42
12
24
28
78
255
255
254
116
46
12
30
38
10
6
8
18
18
20
12
10
10
10
8
10
18
28
36
28
16
16
14
18
26
12
10
24
22
14
24
18
0
6
12
4
10
6
12
8
10
6
4
6
6
4
6
12
20
18
0
10
6
16
140
255
255
255
252
36
192
255
255
255
182
102
62
32
8
8
18
20
22
12
38
52
22
6
28
28
34
70
48
14
36
56
28
22
14
16
22
26
58
200
255
255
255
255
204
255
255
255
255
255
190
82
82
114
255
255
255
255
255
255
255
156
208
50
218
255
240
190
142
132
94
54
52
40
24
42
120
94
36
30
38
34
78
110
42
42
128
255
255
255
124
136
255
212
104
60
52
26
102
184
134
226
255
255
72
255
255
230
178
122
108
122
128
108
106
112
82
64
78
78
84
108
88
54
52
40
16
20
24
16
16
6
22
32
22
8
18
28
58
52
26
14
2
70
98
38
76
168
255
255
255
54
2
4
6
30
74
84
102
98
38
24
48
50
50
68
64
84
106
94
98
90
30
62
62
24
30
20
24
34
28
20
10
22
36
36
32
28
16
12
18
4
12
18
4
18
6
8
14
8
30
82
44
38
16
8
28
44
64
94
26
14
20
24
36
34
24
10
18
40
38
24
26
26
8
2
18
18
24
36
32
36
50
40
24
14
16
30
42
38
28
34
28
20
4
30
52
44
28
16
18
14
4
14
8
6
16
6
22
34
26
104
255
255
204
96
42
24
46
40
26
16
10
16
18
10
10
18
10
2
10
18
24
30
28
22
16
12
6
10
18
4
16
34
22
18
30
22
6
8
6
6
8
4
10
2
4
4
10
10
4
4
2
12
28
28
12
6
16
40
240
255
255
255
122
32
255
255
255
255
128
56
28
14
10
12
10
12
16
16
50
74
56
54
70
72
70
82
90
48
42
46
26
18
38
54
74
64
68
88
104
255
255
255
255
255
50
255
255
255
255
255
178
112
88
46
255
255
255
255
255
162
90
110
255
255
255
214
90
106
76
32
30
30
52
94
134
106
88
58
22
18
50
144
226
255
255
255
202
50
166
174
92
88
114
106
150
116
148
255
255
255
255
255
255
255
255
222
164
102
70
60
42
12
22
58
48
78
94
78
72
76
62
44
40
30
18
38
42
34
38
28
20
18
12
6
20
4
22
36
56
38
10
12
94
120
104
230
255
255
252
22
0
0
0
12
40
64
94
118
106
80
72
62
40
42
56
104
116
90
68
14
68
86
28
18
14
20
26
18
24
2
28
44
30
18
6
32
42
20
32
22
32
32
20
42
28
30
14
10
14
46
46
16
14
2
12
24
60
102
56
14
18
20
22
36
38
32
24
22
38
18
12
20
14
18
10
16
28
38
46
52
60
34
18
20
20
32
32
24
36
44
26
28
32
54
64
34
6
22
32
18
12
6
6
12
14
30
52
50
16
188
255
255
208
102
52
44
44
14
12
12
12
28
30
8
10
8
8
4
2
6
22
30
16
18
28
24
8
8
14
8
22
32
14
14
24
14
6
10
14
6
2
6
12
10
8
10
6
10
8
2
10
6
22
22
20
14
44
102
255
255
255
255
52
118
255
255
255
255
102
42
30
32
36
30
30
30
26
18
30
54
56
60
72
80
88
88
82
32
24
14
34
26
16
24
42
30
36
60
48
16
100
255
255
255
255
255
255
255
255
255
255
255
255
255
216
14
104
90
120
82
56
88
255
255
252
255
238
242
160
128
110
108
96
34
76
92
154
210
154
142
100
242
255
255
255
176
12
24
146
174
172
168
32
148
170
255
255
255
255
255
255
255
255
236
136
80
16
36
60
80
126
156
156
164
124
94
82
58
60
66
50
32
28
16
12
34
38
28
36
38
46
40
36
24
10
10
12
8
36
48
42
12
38
136
166
255
255
255
178
4
0
0
0
4
16
50
94
122
120
94
98
106
60
28
72
96
76
34
38
98
106
60
16
22
38
46
20
10
22
38
42
30
16
18
32
12
24
8
28
20
8
18
26
26
14
26
20
24
20
14
20
26
16
12
26
36
44
72
46
22
18
20
30
26
46
58
60
26
28
16
8
24
24
2
38
44
34
22
32
30
54
32
4
10
10
12
28
20
40
36
26
46
32
36
40
14
36
28
26
12
26
8
8
6
12
44
38
30
40
255
255
255
216
110
60
50
36
4
34
42
32
24
14
2
16
20
8
2
8
14
28
34
24
18
30
32
16
20
22
18
28
22
12
12
22
6
12
2
8
4
8
12
14
14
14
16
10
12
2
6
8
6
18
8
14
32
82
172
255
255
255
204
52
255
255
255
255
228
78
38
34
30
24
18
24
22
30
38
42
36
34
26
18
26
32
26
10
24
22
14
34
56
80
102
130
112
120
164
176
186
222
198
190
255
255
255
255
255
255
194
218
214
214
255
255
255
255
255
255
255
255
110
255
255
255
255
166
108
28
30
40
58
100
94
14
82
114
150
150
136
120
218
255
255
200
255
204
202
255
255
122
236
255
255
255
255
255
255
255
146
124
255
255
255
240
180
204
250
234
214
184
154
132
132
170
138
68
38
60
58
32
32
24
8
16
44
40
16
12
16
16
24
24
36
30
26
26
16
18
22
48
34
10
110
255
255
255
255
120
0
0
0
0
2
6
10
30
54
70
66
74
110
122
86
118
96
38
48
128
118
58
30
34
42
50
34
22
2
28
42
34
20
16
12
14
16
36
20
24
24
4
6
8
8
26
22
16
8
12
26
16
16
18
48
76
54
54
78
26
6
10
16
32
8
14
38
64
50
22
10
20
42
36
22
40
22
26
20
12
26
40
34
8
14
18
22
36
48
44
24
32
48
26
26
24
52
56
40
6
10
32
20
16
22
30
34
24
32
60
255
255
255
200
114
58
54
44
40
34
22
6
2
4
12
4
16
14
10
6
12
12
24
28
12
26
38
30
26
28
22
28
20
2
20
30
6
14
8
12
10
10
12
14
8
10
10
8
6
8
6
4
10
4
20
36
70
130
255
255
255
255
76
208
255
255
255
255
154
54
28
14
6
6
8
10
2
8
16
32
10
18
10
14
20
20
12
12
32
40
56
76
98
116
116
148
156
194
202
214
228
255
255
255
226
255
255
255
255
255
255
255
255
255
248
118
102
200
86
226
255
255
255
110
82
60
60
114
158
164
176
182
156
130
108
24
72
154
188
152
74
28
150
255
190
46
222
254
246
228
40
222
255
255
255
226
255
168
255
255
255
176
146
255
255
255
180
82
48
40
106
176
255
255
254
168
104
58
42
56
44
34
42
28
6
18
38
26
12
12
8
8
28
24
30
32
34
44
32
16
6
26
40
10
66
255
255
255
255
88
2
2
2
0
2
6
4
2
16
38
38
36
60
96
90
88
62
48
154
150
68
26
20
26
14
10
18
18
4
20
24
30
36
16
28
14
18
18
6
18
22
6
8
12
20
30
14
24
16
34
30
2
8
66
126
144
130
50
68
14
10
10
14
44
28
24
22
18
40
36
36
16
22
34
28
22
16
8
30
18
14
36
38
16
12
16
10
16
38
52
40
44
50
16
30
20
30
12
48
14
24
26
2
10
36
32
28
30
40
90
255
255
255
180
108
72
62
28
34
40
22
14
4
6
12
12
16
8
4
6
10
4
18
30
22
22
30
24
18
18
6
16
14
8
14
18
12
18
10
12
12
12
18
22
16
16
6
4
8
10
12
12
18
20
30
40
108
188
255
255
255
255
32
255
255
255
255
228
106
30
12
10
4
8
6
10
24
32
36
58
42
32
22
22
16
22
2
14
30
30
38
66
92
122
142
150
166
162
138
140
158
188
146
144
108
66
126
176
204
206
196
166
162
208
255
240
255
255
255
255
255
182
206
214
176
126
72
66
100
228
255
255
255
255
255
255
255
255
255
198
252
255
255
255
184
58
192
230
206
255
255
255
200
255
255
255
255
255
255
255
255
255
255
255
255
255
255
255
255
255
255
255
255
255
180
110
100
78
50
50
24
34
56
56
36
40
46
34
26
32
26
44
62
38
40
20
16
28
26
14
8
20
32
8
30
255
255
255
255
64
2
4
14
20
18
0
8
10
6
16
20
18
22
28
46
38
34
186
214
116
60
38
26
16
8
24
20
10
8
30
34
30
20
18
22
12
26
4
14
4
30
18
26
14
14
6
8
12
6
16
20
24
86
100
116
166
184
52
66
18
34
38
20
28
38
26
18
6
14
6
16
28
22
6
4
6
18
4
18
12
10
32
40
14
10
18
8
14
36
52
44
46
52
16
8
24
20
40
44
22
24
12
12
20
34
24
30
30
30
114
255
255
218
178
110
72
68
22
44
36
12
22
22
24
2
12
18
12
16
10
4
14
34
20
12
24
30
26
20
16
6
12
10
8
22
12
6
4
6
8
6
4
12
14
4
12
10
8
8
8
14
18
16
22
40
74
168
252
255
255
255
255
134
255
255
255
168
168
74
4
16
24
22
14
4
24
32
32
54
72
44
28
24
30
26
30
18
14
16
44
68
62
54
54
44
34
32
24
8
16
32
40
132
204
168
84
48
42
34
22
28
44
32
26
42
28
40
54
70
114
122
132
92
24
30
68
72
86
130
226
255
84
222
255
255
255
255
255
255
255
255
255
255
182
30
80
150
186
255
234
130
36
74
172
230
255
255
212
124
255
255
255
255
255
255
255
255
255
255
228
188
144
136
126
108
128
140
94
60
58
38
20
26
34
22
32
32
22
38
36
24
38
40
16
32
40
42
36
26
26
26
22
24
14
14
178
255
255
255
62
2
6
12
4
12
8
2
2
0
4
10
12
8
4
14
34
188
255
124
8
26
14
18
26
14
20
46
46
34
52
32
16
14
6
8
20
10
14
10
12
20
24
20
12
12
10
2
6
10
10
22
66
94
90
140
255
255
56
62
10
18
24
44
28
8
32
48
24
22
18
6
10
16
18
26
22
42
26
34
16
18
42
44
16
8
22
12
16
28
46
40
32
32
12
18
18
16
14
18
4
16
8
16
42
30
20
16
20
24
140
255
255
162
186
118
80
72
14
40
24
12
26
20
28
14
6
6
8
14
8
8
22
30
12
18
40
42
28
26
22
16
20
20
16
8
2
10
8
6
10
18
14
16
18
6
12
8
8
6
8
16
20
12
30
78
130
202
255
255
255
255
138
246
255
255
255
142
146
60
34
32
10
20
40
24
50
70
66
60
42
22
18
26
42
40
22
8
6
10
36
68
48
58
108
132
130
138
124
130
138
170
212
224
182
106
54
40
42
38
30
44
32
28
28
40
10
36
18
46
62
58
74
64
62
52
30
32
38
20
174
255
255
255
255
255
255
255
255
255
255
255
255
136
136
208
244
252
182
78
48
112
124
124
102
78
94
100
82
40
6
38
58
56
66
50
60
56
50
56
76
110
142
108
104
78
74
66
42
48
42
38
30
40
40
32
40
66
64
36
38
44
36
34
16
16
22
50
54
32
26
32
26
18
10
8
92
255
255
255
84
6
2
16
20
20
8
0
2
4
4
2
2
4
4
50
178
255
174
44
56
34
18
4
24
32
28
48
30
32
18
16
14
16
26
40
26
12
14
10
30
24
26
16
14
14
20
18
6
10
24
22
54
124
172
250
255
255
54
66
24
30
10
28
66
40
52
32
24
30
34
36
20
20
14
12
22
38
32
12
8
24
44
34
8
10
16
4
18
16
18
28
12
20
26
6
6
8
12
16
26
14
4
24
42
28
24
20
12
8
196
255
255
118
188
114
78
58
8
44
20
8
32
32
32
18
8
8
10
2
18
16
28
36
26
32
38
24
22
32
18
12
20
16
6
4
2
4
6
4
14
22
10
8
12
8
12
6
14
18
18
26
24
20
54
110
162
246
255
255
255
255
4
255
255
255
208
136
118
60
40
56
52
22
24
56
94
98
60
36
20
28
18
50
54
32
14
10
6
18
42
42
30
50
66
78
70
84
96
130
118
128
112
82
54
28
18
22
32
18
10
22
10
12
26
38
18
42
46
86
56
24
22
18
12
16
12
36
42
64
62
52
72
255
255
255
255
255
134
110
255
255
255
128
128
122
64
42
68
68
86
96
112
108
78
76
106
104
106
120
92
78
66
52
78
70
68
72
76
52
54
36
50
52
52
58
24
10
10
16
18
12
8
14
18
26
32
70
38
28
12
50
52
40
30
12
2
30
50
38
26
28
30
14
6
10
62
255
255
255
104
4
2
0
2
6
6
4
2
2
2
2
0
2
54
192
255
226
34
94
30
12
20
28
22
24
20
30
26
20
6
4
12
26
20
10
4
16
24
12
18
16
18
20
4
4
4
22
12
18
20
36
160
255
255
255
255
255
50
60
8
30
42
36
44
42
36
22
34
26
26
22
30
40
36
12
20
10
26
4
26
28
22
28
8
8
14
22
30
14
12
26
28
6
26
20
10
20
20
28
40
26
34
22
34
14
10
8
16
16
255
255
255
62
180
106
70
36
22
30
24
22
24
16
20
6
10
8
10
10
16
12
28
36
20
16
12
16
26
32
10
14
18
8
6
6
4
6
2
6
16
18
2
2
6
14
12
8
20
20
16
26
24
42
94
140
192
255
255
255
255
154
136
255
255
255
194
134
94
50
18
40
50
44
60
96
104
72
34
26
14
36
44
16
30
22
22
32
34
24
28
48
42
32
20
36
48
42
66
50
30
16
10
8
14
14
2
22
38
18
6
16
10
12
24
32
36
46
72
88
50
30
30
18
6
6
22
24
68
66
22
8
48
40
138
255
255
255
255
255
255
255
214
64
160
224
168
104
112
116
106
94
84
60
40
52
62
48
26
58
70
32
30
20
24
34
30
24
22
38
22
16
12
14
14
38
44
30
26
16
22
16
18
12
22
20
24
74
110
38
24
24
36
34
34
22
32
26
26
38
32
26
32
24
16
38
68
255
255
255
140
2
2
0
2
4
2
4
2
4
4
2
2
34
168
255
222
12
102
70
20
10
8
30
36
4
30
4
18
10
26
20
12
28
40
20
22
20
32
46
20
24
12
32
14
14
8
18
6
20
32
96
255
255
255
255
255
255
44
52
20
38
26
14
12
16
28
26
36
38
16
28
32
46
48
18
10
10
24
12
30
16
22
26
10
22
28
10
16
20
12
12
28
22
22
16
14
18
20
24
28
20
32
14
32
32
8
8
18
46
255
255
255
40
182
118
78
28
34
36
20
26
24
6
10
8
10
8
8
10
8
14
38
40
16
22
10
8
38
32
10
22
18
6
6
6
14
4
4
4
14
12
12
8
8
14
8
6
14
4
12
36
44
86
136
160
224
255
255
255
255
74
230
255
255
255
172
114
84
50
24
62
80
92
104
102
64
34
28
28
26
28
20
46
38
2
28
42
36
44
26
14
20
42
54
48
38
32
52
56
50
30
32
30
12
22
28
30
38
30
18
32
28
34
32
42
54
70
78
60
42
32
40
30
20
18
30
30
62
22
22
16
36
8
20
64
255
255
255
255
255
255
248
204
192
150
82
48
66
86
80
46
70
80
46
28
46
64
40
26
14
28
14
8
20
10
12
16
8
18
24
14
14
12
2
6
20
28
32
26
26
8
22
10
22
10
4
20
64
66
8
40
44
24
28
14
12
8
24
54
38
24
16
32
44
36
46
255
255
255
182
0
2
4
4
2
6
4
0
0
0
0
28
134
255
204
48
136
88
44
14
4
12
18
30
22
22
24
32
14
10
4
20
4
30
16
22
50
64
74
78
24
12
34
54
26
10
20
36
74
130
255
255
255
255
255
255
204
56
66
34
36
20
12
10
4
8
20
22
4
18
26
14
22
36
24
18
8
18
16
22
12
20
16
38
26
34
14
30
22
6
8
22
28
18
18
8
24
24
14
16
32
12
24
38
38
8
10
30
78
255
255
255
46
198
136
74
12
46
48
36
36
22
8
4
4
6
6
0
18
6
2
24
32
22
18
4
8
34
28
14
12
10
10
8
4
10
4
6
6
16
8
10
14
6
12
10
8
10
10
22
38
54
106
148
180
255
255
255
255
240
0
255
255
255
255
132
96
96
54
36
84
110
112
98
64
10
34
20
28
30
22
46
42
2
30
32
26
20
30
58
72
86
102
86
76
56
54
56
60
56
26
34
46
42
42
26
64
56
14
14
20
16
22
30
22
30
36
32
16
20
24
14
14
10
26
40
36
38
4
20
28
24
8
14
22
72
124
255
255
214
142
242
122
52
36
30
22
46
78
70
24
46
94
78
34
32
68
44
16
16
12
28
14
6
16
16
14
16
4
12
10
10
14
8
8
20
26
38
36
34
32
38
46
46
30
28
16
34
50
40
30
24
8
22
18
18
18
34
44
32
14
24
36
70
62
52
200
255
255
218
0
2
2
0
2
2
0
0
0
0
18
114
226
186
52
118
92
50
34
20
6
20
18
6
32
12
4
8
2
8
4
16
32
18
16
24
48
68
20
44
40
24
24
42
46
30
64
80
126
255
255
255
255
255
252
184
136
44
50
16
40
32
16
14
14
8
18
12
28
8
14
6
16
22
18
14
8
10
8
16
8
16
8
16
22
38
12
20
8
2
16
14
16
4
10
6
22
34
22
14
10
12
18
36
20
8
22
20
128
255
255
232
50
192
116
56
10
44
36
22
10
6
12
2
12
14
10
10
18
8
18
40
34
20
28
10
14
36
28
14
14
12
14
12
8
20
12
12
6
16
6
4
12
4
14
10
12
22
28
38
58
86
136
168
206
255
255
255
255
130
82
255
255
255
202
100
94
96
62
52
96
94
74
56
14
32
26
12
12
12
22
46
42
50
64
48
32
30
50
74
64
64
68
34
40
22
20
10
46
42
6
8
28
32
20
52
50
20
34
30
22
24
42
42
24
20
16
8
22
24
28
38
42
38
32
0
22
38
38
52
54
38
12
6
20
66
102
238
255
255
150
216
96
52
50
46
26
32
64
72
46
34
44
74
50
20
48
48
10
22
10
18
30
24
24
34
22
32
30
36
30
28
32
36
46
62
70
76
80
84
88
96
88
86
62
48
30
32
36
38
54
50
24
12
16
32
16
30
40
42
22
40
28
72
74
52
118
255
255
240
0
2
4
4
4
2
0
0
4
28
108
218
190
26
78
60
26
22
22
28
26
32
16
0
16
10
6
18
14
10
22
34
26
30
6
20
42
72
70
42
20
8
10
32
32
20
84
98
180
255
255
255
255
248
174
146
128
52
68
24
36
28
8
4
6
4
22
22
24
14
8
6
12
14
20
6
6
16
2
20
20
16
10
18
30
16
36
16
20
12
30
16
10
8
10
8
30
46
32
18
14
12
24
10
6
10
14
4
184
255
255
188
80
190
108
60
10
32
30
24
18
6
6
16
16
12
10
24
20
12
24
34
28
18
16
12
24
36
18
12
8
12
20
8
18
24
10
16
18
30
12
2
8
10
16
14
22
26
30
60
98
126
166
196
246
255
255
255
255
50
170
255
255
255
152
94
94
94
72
108
122
90
60
28
12
16
10
4
24
26
10
40
50
68
58
32
32
34
54
50
12
4
16
44
62
20
34
44
54
20
8
14
6
22
46
64
36
14
14
8
14
24
32
38
42
28
4
18
20
34
40
38
18
24
32
22
24
58
84
96
86
102
80
44
42
46
86
196
255
255
138
180
160
72
62
100
70
40
72
60
40
46
58
46
44
40
42
52
32
16
8
24
38
46
30
28
28
40
58
80
96
98
98
106
106
110
106
94
90
102
108
106
104
108
92
62
36
18
30
34
48
66
56
20
8
20
16
26
24
32
10
18
2
50
74
68
54
255
255
255
4
2
2
2
0
0
0
0
28
112
206
186
46
50
46
14
20
14
16
12
16
14
22
18
22
20
16
12
6
2
26
30
22
36
20
16
20
22
38
38
26
22
10
28
6
60
114
112
240
255
255
255
250
154
106
80
64
36
48
10
36
40
22
20
20
20
22
12
20
16
18
22
28
40
40
24
18
18
20
24
22
8
2
16
14
14
8
16
8
18
14
28
28
30
12
8
26
38
16
4
14
26
32
6
4
16
10
2
248
255
255
140
118
188
104
44
12
44
32
20
18
6
6
12
8
6
16
16
4
16
22
26
22
18
18
14
36
34
10
12
12
16
14
6
20
12
4
2
2
20
12
4
6
12
16
22
34
36
46
80
100
116
166
218
255
255
255
255
204
12
232
255
255
248
116
84
94
90
88
136
120
100
68
36
18
24
26
38
34
12
18
28
34
42
18
8
14
42
52
28
6
8
16
42
34
18
8
40
24
6
4
12
26
54
64
64
48
26
14
26
24
38
26
18
44
34
8
16
20
32
10
6
18
32
26
28
64
108
124
112
96
122
134
118
118
108
116
124
236
255
218
72
156
66
14
50
78
62
58
34
54
40
20
24
32
44
40
50
64
38
12
22
26
18
16
14
34
48
62
98
120
118
122
126
118
108
90
76
72
76
74
70
80
98
116
110
64
14
10
8
14
34
58
32
20
12
18
26
22
26
24
28
28
52
86
62
38
255
255
255
20
2
0
2
0
0
0
20
102
198
180
46
56
66
38
14
10
14
26
20
22
12
16
28
22
20
18
26
20
32
24
10
24
28
6
30
24
6
18
20
24
30
18
22
70
134
138
162
255
255
255
255
180
94
54
28
8
48
70
16
24
22
16
16
10
16
20
36
30
12
14
8
16
44
76
74
54
36
16
10
14
8
8
24
18
18
24
12
24
24
28
36
18
24
14
12
26
32
12
10
6
28
24
12
6
14
10
18
255
255
255
72
130
162
84
36
20
46
24
12
12
4
6
8
2
6
18
22
2
18
36
26
8
20
18
18
36
26
2
10
8
16
16
16
20
12
6
0
14
24
8
6
12
14
18
26
36
44
62
88
98
128
196
255
255
255
255
255
134
26
255
255
255
196
102
98
108
82
92
100
64
48
32
40
18
12
6
14
38
38
52
36
20
18
16
12
34
32
12
14
14
18
24
30
16
18
26
38
20
8
6
28
38
40
38
28
22
26
34
26
14
54
38
12
36
26
14
20
30
18
18
22
28
30
16
46
102
132
118
84
62
74
104
114
128
136
162
182
255
255
255
64
134
68
48
58
60
80
58
36
48
42
62
78
62
54
42
26
44
52
30
28
48
46
48
48
72
50
38
56
66
70
72
72
66
54
44
40
38
34
30
36
50
66
92
118
84
26
8
12
22
24
52
46
26
16
20
34
32
38
40
24
32
52
74
60
36
255
255
255
34
6
2
2
0
0
18
86
176
180
64
38
66
60
38
38
28
26
2
24
24
12
12
20
22
28
22
20
22
30
18
16
14
18
28
50
22
22
18
24
30
10
26
8
110
182
172
255
255
255
255
212
148
76
36
18
18
54
58
16
30
14
12
6
4
8
8
20
32
18
16
18
30
36
28
64
84
70
30
6
8
8
6
12
24
22
12
6
24
14
10
12
10
16
34
36
28
28
4
18
24
34
18
18
10
12
10
68
255
255
255
24
138
136
70
42
12
32
12
16
18
6
0
10
4
4
20
18
10
26
32
18
6
12
22
16
20
22
10
12
6
12
14
12
14
6
6
12
26
24
8
14
14
18
22
30
38
48
70
102
124
172
234
255
255
255
255
244
78
74
255
255
255
170
62
54
82
60
64
38
10
6
30
26
4
20
32
24
6
36
34
16
6
4
10
4
26
22
14
8
20
28
24
26
18
8
8
28
24
6
8
32
30
18
22
20
24
30
26
36
32
66
26
14
40
38
32
34
20
4
12
10
14
18
16
50
98
106
78
46
30
24
42
56
70
94
136
184
255
255
255
38
110
64
50
48
52
56
46
36
60
58
44
60
68
76
72
30
16
44
42
18
6
6
28
32
88
90
66
72
88
62
18
16
16
16
16
12
10
6
4
12
20
22
48
74
72
28
12
18
20
36
64
52
16
12
20
36
38
46
36
20
16
64
84
64
26
255
255
255
32
8
0
0
0
4
76
164
158
74
24
46
40
40
10
46
36
40
34
36
22
12
14
20
30
32
12
8
14
8
12
10
10
10
26
18
12
4
8
8
36
36
14
32
146
255
255
255
255
255
240
180
130
60
4
46
48
58
60
22
18
10
8
8
8
2
12
22
22
20
20
16
26
44
30
30
62
106
72
28
8
12
14
20
22
22
32
14
24
22
6
18
40
50
50
48
40
30
18
28
38
48
22
12
12
12
10
134
255
255
200
8
142
110
64
48
10
36
12
16
14
4
2
8
12
14
14
12
14
18
24
20
8
10
14
24
26
18
10
16
10
12
4
16
14
2
10
20
30
42
18
24
20
18
16
32
50
66
100
128
130
170
236
255
255
255
255
198
46
118
255
255
255
192
104
70
76
54
80
60
22
10
32
14
12
36
26
4
26
28
8
24
12
8
14
20
24
26
24
30
28
24
14
14
14
10
16
24
10
14
10
34
30
16
26
16
6
16
8
12
28
34
16
4
16
24
36
32
26
20
14
4
22
34
32
60
86
86
58
36
18
8
4
16
26
42
72
104
255
255
255
36
108
62
54
50
44
44
44
16
52
54
58
40
38
62
92
68
38
42
30
10
20
20
42
30
40
68
78
74
86
84
44
10
6
8
8
8
14
22
22
38
54
64
92
108
88
58
30
38
22
18
50
58
24
10
34
42
32
34
16
28
26
80
80
46
24
255
255
255
36
4
8
8
6
38
138
158
64
24
52
36
20
40
18
20
38
22
10
30
18
20
26
22
38
32
8
6
12
6
14
10
6
2
16
20
24
18
12
14
16
24
16
62
190
255
255
255
255
255
206
170
104
28
40
100
102
54
56
12
20
12
6
10
8
12
14
20
30
28
26
36
32
26
32
42
18
76
100
66
14
10
8
2
16
20
10
26
42
36
28
46
58
46
30
30
38
30
24
34
44
34
12
4
4
4
4
214
255
255
152
16
148
86
62
62
14
38
14
24
12
8
12
14
18
16
12
14
18
24
30
14
14
20
14
16
26
24
18
22
8
8
2
14
4
8
14
26
6
22
16
26
32
30
30
56
72
84
118
132
132
172
240
255
255
255
255
148
16
156
255
255
254
128
96
80
76
70
68
84
52
26
26
6
20
24
6
26
34
16
16
22
4
16
22
22
20
18
22
30
36
16
10
22
30
24
30
38
18
22
22
34
32
22
28
10
14
28
16
12
4
14
24
34
24
32
42
30
42
34
14
30
54
58
50
78
96
86
66
34
8
6
8
8
6
12
26
34
172
255
255
90
162
74
52
40
34
52
78
54
62
30
82
60
30
48
90
84
62
60
46
32
26
22
12
32
38
36
52
68
78
80
64
34
22
22
22
30
38
44
50
76
84
82
110
116
94
70
36
46
36
24
32
50
44
12
52
42
16
16
4
20
34
66
50
18
28
255
255
255
30
12
6
6
20
90
154
96
8
40
40
26
14
30
36
28
34
36
32
36
30
30
16
18
40
28
20
32
24
20
20
18
20
32
30
20
40
26
24
22
26
24
38
96
210
255
255
255
255
228
214
156
58
20
90
166
166
58
74
22
36
28
12
10
12
18
20
12
10
22
26
46
54
32
26
42
42
8
76
108
74
20
10
14
10
8
18
24
32
44
52
54
42
20
4
26
60
108
168
240
255
255
255
255
255
152
44
255
255
255
72
36
156
76
68
64
24
26
20
20
14
18
6
4
10
10
18
22
20
34
34
10
14
28
24
24
28
22
18
18
8
12
12
12
4
4
10
16
8
6
6
26
40
30
38
74
86
96
120
122
132
176
255
255
255
255
244
108
46
220
255
255
218
110
66
30
32
16
16
70
70
50
18
4
22
22
28
18
18
20
20
18
4
16
30
18
16
10
28
42
24
16
34
34
48
32
26
44
30
24
30
40
34
24
34
32
12
28
28
24
18
18
34
14
28
52
22
22
26
48
40
34
68
80
76
92
86
70
60
38
18
8
6
8
6
6
12
10
116
255
255
158
160
128
72
32
22
24
46
66
52
26
72
66
38
48
64
60
56
64
76
72
44
40
54
26
8
28
46
42
68
78
76
64
38
40
42
50
52
56
72
98
94
92
112
88
58
32
12
26
16
24
32
42
50
14
46
22
8
10
6
4
38
50
42
30
48
255
255
254
24
28
18
14
62
120
116
30
34
28
6
20
22
8
16
30
38
34
22
34
30
12
12
22
38
36
28
28
22
28
26
20
24
24
24
20
28
14
16
28
32
28
50
86
172
255
255
255
178
170
168
100
14
78
154
255
255
68
72
10
20
20
22
12
6
24
28
24
16
16
28
46
70
62
46
36
32
16
18
68
108
90
52
42
44
32
38
58
72
70
28
50
132
214
255
255
255
255
255
255
255
255
255
255
255
255
88
255
255
255
62
82
130
54
72
64
30
26
34
18
10
6
6
8
10
8
16
12
10
30
18
18
10
20
32
22
14
24
36
40
26
18
16
28
24
24
22
16
6
16
22
44
48
26
44
78
86
104
124
118
128
172
255
255
255
255
190
78
72
236
255
255
202
98
62
22
14
26
46
68
60
36
10
4
16
18
26
28
22
34
30
18
12
12
28
30
8
26
16
6
2
22
38
26
30
10
12
26
22
22
30
24
28
28
30
38
32
50
32
26
32
44
56
42
36
32
18
40
14
20
52
78
86
74
56
52
34
42
66
50
36
24
12
8
8
8
10
24
92
255
255
255
68
160
124
56
40
48
48
58
30
28
66
66
38
48
58
52
52
50
64
80
62
38
52
64
48
48
50
46
72
84
84
90
80
62
50
50
56
66
90
106
90
82
80
44
24
18
22
16
20
24
24
40
60
36
42
20
6
4
6
24
46
36
20
40
70
255
255
255
22
18
16
20
74
98
52
26
42
20
12
8
28
28
14
12
30
28
18
22
10
12
26
26
16
34
42
26
4
20
24
24
12
4
22
16
24
12
8
20
10
36
48
70
196
255
255
248
152
98
74
68
72
132
242
255
255
52
66
24
36
28
4
22
28
4
16
10
46
32
28
36
56
54
50
38
38
28
10
10
46
84
82
68
64
54
58
36
36
98
212
255
255
255
255
255
255
255
255
248
180
18
226
255
255
255
50
255
255
255
4
86
132
50
58
50
16
36
50
42
44
26
10
16
18
12
20
14
8
24
10
18
4
22
26
24
12
6
14
20
18
12
16
28
24
30
22
16
10
24
30
40
32
18
42
74
86
96
108
120
150
192
250
255
224
218
168
62
92
212
255
255
220
102
70
48
36
38
46
48
34
22
22
14
26
28
22
28
22
6
10
8
18
40
60
44
28
32
28
26
12
18
26
26
32
10
10
34
30
32
22
14
22
20
16
18
20
10
10
18
28
40
44
38
18
10
36
38
22
56
90
96
70
36
18
22
26
40
64
68
66
54
36
34
40
38
32
38
84
228
255
255
78
108
118
82
62
66
60
76
58
40
54
68
64
76
74
56
52
46
44
40
38
38
44
64
82
96
94
76
78
90
96
92
84
80
68
58
76
92
102
96
82
68
40
14
18
22
6
16
26
38
18
18
50
46
34
18
10
16
22
34
44
24
6
36
102
255
255
250
26
22
20
32
98
76
22
34
18
28
24
6
10
24
22
20
36
36
38
22
12
22
46
24
10
22
42
32
14
8
4
14
10
8
18
6
26
16
12
12
26
50
72
158
255
255
255
255
138
100
96
86
140
246
255
255
255
56
56
14
26
14
14
30
24
16
4
28
24
20
8
22
42
38
40
40
40
32
16
8
2
20
42
50
120
170
230
255
255
255
255
255
58
110
242
244
144
56
52
110
255
255
255
255
255
200
122
255
255
255
74
124
136
50
60
42
18
40
38
16
20
14
10
12
16
16
16
12
14
22
4
12
14
22
16
20
14
8
16
16
6
12
6
20
10
10
18
24
10
20
18
18
20
30
48
80
80
70
90
112
144
174
232
255
248
242
186
50
96
220
255
255
198
96
40
22
32
52
76
58
40
20
20
26
40
30
38
26
16
12
20
26
28
44
52
24
40
28
14
16
16
20
10
16
16
2
24
38
38
30
2
14
34
32
14
20
18
22
36
40
38
46
36
24
20
30
42
26
28
68
70
54
42
16
8
18
28
36
58
86
108
110
90
84
90
78
50
48
80
164
255
255
190
68
76
66
30
12
14
56
66
62
50
56
74
86
76
56
56
58
62
46
28
30
36
62
82
114
110
94
78
78
92
90
74
72
78
70
100
98
76
54
42
28
22
32
4
22
6
10
8
40
34
14
26
32
20
10
18
30
22
32
36
6
6
36
162
255
255
220
2
4
4
56
98
34
42
40
48
52
38
12
14
26
20
32
44
26
16
24
10
22
26
10
4
26
38
16
10
16
18
22
16
18
22
14
54
60
40
40
54
44
100
234
255
255
255
200
104
78
92
140
255
255
255
255
255
58
60
22
24
12
20
28
34
20
16
30
38
48
32
34
54
40
26
36
54
44
20
0
4
22
118
255
255
255
255
255
255
255
212
255
255
255
255
255
255
174
62
202
255
255
255
132
68
12
230
255
255
156
44
102
110
50
60
32
8
30
40
34
54
24
18
20
6
14
20
16
14
20
8
16
18
32
20
18
12
12
16
12
10
18
22
28
14
26
18
36
20
20
24
34
58
64
66
86
62
54
86
98
124
152
230
255
255
255
180
36
108
246
255
238
206
136
44
34
50
70
56
34
20
28
36
34
20
12
12
24
12
6
16
14
14
30
48
30
42
18
8
22
26
30
30
36
36
34
26
32
34
12
12
6
20
46
40
44
48
56
74
46
40
46
48
40
40
30
16
6
26
50
28
46
70
64
48
46
54
62
84
84
102
114
102
82
72
68
52
60
78
116
255
255
208
22
58
76
56
12
36
40
44
58
38
28
58
84
86
74
60
56
72
70
64
62
38
54
34
78
88
86
76
72
78
92
104
88
74
58
76
48
30
18
14
26
6
42
20
28
8
12
18
30
34
14
20
24
28
18
32
30
20
24
18
14
20
54
244
255
255
192
0
2
22
70
66
34
30
18
22
52
56
28
28
30
14
20
44
48
14
22
20
34
12
18
6
30
26
14
8
10
14
8
14
28
18
46
66
30
4
8
28
62
188
255
255
255
255
134
94
52
108
232
255
255
255
255
236
58
64
26
12
14
32
26
14
6
12
14
24
44
34
42
50
28
22
48
50
28
6
28
98
255
255
255
255
122
136
255
255
255
255
255
92
90
50
172
255
255
142
255
255
144
66
32
10
30
255
255
255
102
8
88
104
58
54
36
28
36
38
24
18
12
4
4
8
18
36
34
36
32
16
22
32
34
20
26
26
14
4
8
6
20
34
28
20
30
14
24
20
20
32
52
60
52
56
66
58
78
106
110
130
162
224
244
214
214
136
6
120
228
255
238
206
152
90
70
70
68
72
62
32
18
6
8
4
4
20
24
24
14
10
14
22
34
40
30
18
4
12
12
16
14
12
10
20
30
24
36
44
24
14
4
8
12
24
48
56
56
54
50
40
30
44
44
30
18
10
18
38
38
28
36
66
82
62
48
52
72
80
56
60
60
60
58
48
52
54
68
66
96
176
255
230
74
44
90
88
50
48
48
54
56
22
18
44
62
56
68
54
38
36
22
30
56
38
18
10
30
56
62
56
58
54
54
84
102
78
46
40
10
8
6
18
30
10
30
22
18
12
24
18
22
18
18
26
28
24
16
32
26
22
18
4
2
14
56
255
255
255
156
0
0
24
54
48
20
22
12
8
16
46
34
20
30
24
24
28
36
18
18
18
10
16
10
16
28
16
14
18
24
26
20
14
30
26
44
32
12
18
20
32
106
244
255
255
255
146
92
90
64
172
255
255
255
255
230
86
60
64
22
12
4
20
24
28
10
10
12
6
34
28
50
46
28
32
50
46
22
132
255
255
255
255
68
142
255
255
255
255
74
206
255
255
255
190
130
180
220
86
255
255
198
146
88
26
110
255
255
255
76
14
102
102
42
28
34
26
24
22
8
16
18
8
8
8
22
34
26
18
8
6
2
12
16
16
18
10
2
6
6
4
18
22
20
22
28
14
12
4
8
24
44
48
48
54
60
72
94
110
118
132
172
212
214
232
236
128
8
122
232
244
230
196
120
70
76
88
74
82
102
78
36
24
16
16
8
28
22
22
14
2
2
10
22
28
28
16
10
18
20
14
8
2
12
16
18
24
36
34
18
22
18
16
20
16
52
56
42
14
52
52
44
42
38
44
44
18
20
58
56
36
64
62
88
80
50
60
58
40
20
36
50
64
74
74
76
90
90
88
120
186
240
220
112
28
44
62
34
38
42
60
64
38
14
22
48
38
56
58
40
46
18
8
20
22
6
10
10
24
40
44
48
40
22
24
66
62
24
22
22
4
10
22
24
4
10
6
8
14
22
18
38
28
20
8
18
12
30
24
20
18
24
16
18
18
74
255
255
255
122
0
2
24
52
52
34
44
34
14
22
34
38
30
12
20
30
44
28
26
30
30
26
18
18
30
40
32
36
48
26
36
6
18
6
10
22
38
42
28
32
72
158
255
255
255
186
76
64
80
112
255
255
255
255
240
104
24
58
64
18
18
20
14
6
26
24
10
8
18
10
26
44
40
48
66
64
16
238
255
255
255
255
212
255
255
255
108
238
255
255
255
255
255
255
255
255
255
255
255
255
255
220
86
70
14
126
255
255
255
46
42
126
98
34
22
24
24
26
22
14
14
2
8
8
8
20
36
40
34
18
10
8
18
24
28
18
22
24
14
14
8
20
32
34
24
22
28
28
22
16
28
48
54
52
56
64
70
70
80
100
108
158
208
204
216
244
134
4
114
232
220
222
218
126
56
56
72
14
54
108
118
74
46
38
38
34
52
50
28
2
10
18
18
16
12
12
16
18
12
6
20
14
14
24
30
26
32
36
30
32
46
34
36
40
38
78
82
46
48
58
40
36
28
18
26
50
26
18
44
54
34
44
38
50
68
42
52
40
24
4
10
36
66
70
64
66
72
80
80
112
162
194
204
146
54
4
46
44
22
22
54
50
34
44
30
26
52
56
52
48
60
52
34
34
26
14
14
14
16
24
30
48
48
12
10
32
42
20
14
18
18
26
34
20
10
12
6
8
14
12
22
38
36
20
14
14
22
28
26
30
12
14
8
18
8
52
255
255
255
98
2
6
48
70
20
30
18
42
38
40
46
46
34
18
22
42
38
8
26
22
16
6
32
54
52
42
28
16
16
24
42
26
18
12
16
14
10
30
60
58
100
206
255
255
252
116
42
60
76
192
255
255
255
255
122
48
14
60
70
10
22
24
18
10
12
14
4
10
14
22
28
20
20
34
42
10
248
255
255
255
152
255
255
236
102
104
255
255
255
255
70
112
255
255
90
202
255
255
134
255
255
255
128
74
18
134
255
255
188
34
70
128
80
32
32
24
10
12
10
8
18
14
20
12
22
36
32
30
30
20
12
20
28
32
40
10
8
10
4
2
8
18
30
24
8
10
14
12
20
18
42
58
56
60
66
68
66
64
74
92
96
146
210
242
255
255
118
2
100
238
216
192
200
132
80
82
64
18
8
60
92
80
70
68
68
56
52
64
82
44
20
10
4
8
10
16
30
18
14
10
18
18
16
10
28
18
32
36
36
46
64
60
32
28
38
88
90
58
88
98
86
56
26
10
8
26
22
24
34
24
14
8
24
16
22
6
16
24
42
26
28
18
38
44
28
26
40
44
46
84
132
156
150
114
56
30
24
30
42
42
56
58
58
52
32
30
38
74
48
28
28
26
42
54
34
26
30
30
22
18
6
12
42
24
12
30
30
28
34
30
32
28
22
8
4
14
28
20
28
40
30
34
36
32
46
26
18
20
22
12
22
28
14
16
2
50
255
255
255
80
0
10
60
56
20
26
50
48
22
28
36
38
32
18
16
24
42
10
10
28
22
16
40
44
26
22
18
6
18
36
30
6
20
16
6
8
18
26
62
106
122
222
255
248
168
98
58
114
176
255
255
255
255
126
42
32
34
56
78
36
10
12
4
20
20
10
8
18
2
30
20
20
36
48
44
158
255
255
166
255
255
255
255
80
226
255
255
255
100
255
255
255
255
255
255
255
255
255
255
255
255
255
56
16
50
174
255
255
106
24
66
112
64
32
22
12
6
16
24
24
10
14
20
30
28
42
32
30
28
16
10
20
24
22
26
8
12
10
4
6
2
18
22
18
8
8
6
6
6
16
50
54
54
72
72
68
58
52
58
88
118
164
220
255
255
238
90
4
102
240
216
180
162
112
88
102
86
36
40
62
88
78
88
96
80
88
80
74
98
80
32
16
10
18
24
16
8
20
8
8
28
30
16
4
16
14
40
44
32
24
28
50
28
6
22
60
50
14
58
80
86
74
46
30
28
24
36
34
48
28
26
14
16
8
20
14
22
18
36
30
26
20
28
46
38
30
40
50
68
98
138
152
126
98
78
28
28
50
58
38
74
88
56
30
10
20
22
50
40
38
38
18
26
48
36
50
40
26
22
32
8
16
26
26
14
24
14
14
26
18
18
16
14
12
20
24
30
28
50
58
30
42
30
30
48
30
16
20
12
16
26
18
10
22
8
94
255
255
255
60
2
14
54
40
14
10
40
28
20
26
32
36
22
12
16
18
26
8
4
34
8
6
44
38
16
24
20
8
16
20
10
24
10
12
20
26
22
18
58
102
122
212
255
212
132
90
126
178
255
255
255
255
188
76
22
18
26
42
64
34
26
36
34
30
26
20
22
24
32
54
24
10
32
18
96
255
255
222
255
255
255
248
124
162
255
255
255
208
255
255
52
170
250
248
168
255
255
255
255
255
255
210
24
50
126
255
255
255
62
32
74
116
66
40
16
10
0
4
4
10
28
34
28
10
20
28
12
12
14
6
8
16
20
16
18
28
26
24
14
6
14
34
32
24
28
24
26
14
10
26
52
42
50
70
54
40
26
42
64
84
132
180
194
242
255
202
56
2
100
255
255
222
174
120
90
86
100
66
64
64
80
64
84
96
88
92
94
102
126
124
86
60
56
64
52
36
28
26
18
12
28
26
10
8
16
18
26
40
24
8
16
30
22
30
50
68
52
8
46
40
76
78
48
32
34
28
32
26
56
30
30
28
36
34
32
46
42
34
26
22
30
34
38
44
48
36
54
72
90
116
142
124
84
94
84
40
38
42
42
40
60
72
36
8
20
38
40
52
42
50
48
24
18
30
34
42
38
30
24
46
36
16
22
30
20
18
14
6
10
4
2
16
22
20
28
18
20
12
38
26
8
26
20
22
36
18
8
4
12
16
14
28
14
34
32
156
255
255
228
38
0
16
54
44
16
16
34
28
28
22
18
46
50
22
12
16
32
18
10
28
8
8
34
30
14
8
26
18
24
10
30
22
8
0
4
14
20
30
64
96
128
228
255
194
82
84
214
226
254
255
255
188
94
28
12
14
10
56
68
18
10
4
16
40
60
52
54
50
58
54
30
54
72
74
255
255
170
206
255
255
158
68
72
255
255
255
255
255
255
252
255
255
255
255
255
218
255
188
216
124
158
52
146
82
68
218
255
255
38
32
90
118
62
44
20
10
10
14
18
14
28
14
44
28
20
28
14
10
16
14
12
10
12
14
4
30
14
20
6
4
22
48
42
28
26
14
26
14
8
32
56
50
60
64
42
34
30
54
80
104
156
160
184
255
255
194
36
4
80
232
255
255
230
154
104
72
66
60
42
38
38
58
78
70
82
86
98
134
168
170
144
92
66
62
58
64
70
52
34
30
62
42
32
24
24
22
16
30
54
40
20
34
36
84
80
74
52
36
48
36
70
86
62
44
38
36
18
16
56
34
18
36
32
38
46
48
44
52
60
60
54
56
50
46
36
54
68
68
82
116
124
90
66
68
60
30
28
14
16
70
102
78
36
38
58
60
84
88
64
68
56
30
28
30
40
22
38
30
14
28
42
34
28
42
42
30
34
32
22
16
22
34
22
22
6
8
8
10
18
18
12
10
22
32
32
10
4
8
10
18
12
18
4
26
40
204
255
255
150
14
4
12
48
42
2
20
32
24
18
6
6
26
42
16
16
18
36
32
24
20
14
22
36
30
10
26
28
18
14
4
16
8
12
18
24
22
22
32
52
90
152
255
255
120
50
136
164
94
130
250
200
108
68
24
10
36
46
56
80
38
28
20
20
46
46
30
34
38
28
22
26
40
76
255
255
255
236
255
180
74
86
64
255
255
255
180
255
255
214
255
255
182
255
255
255
255
255
255
255
218
62
255
224
234
34
255
255
255
38
34
108
114
60
48
26
22
20
8
10
6
24
14
10
28
44
34
16
6
10
6
8
12
12
12
2
28
32
36
10
10
26
46
36
20
18
14
26
24
20
52
62
48
52
54
50
68
86
100
104
116
140
150
222
255
255
160
20
6
56
178
255
255
234
168
102
58
18
8
32
26
16
60
62
56
70
98
126
128
146
146
164
132
90
78
64
64
72
94
92
84
80
52
58
52
48
54
44
38
60
72
78
90
70
78
32
24
16
30
46
40
60
72
64
62
58
52
6
20
38
62
28
32
10
16
30
32
30
26
42
42
42
48
56
62
42
64
54
40
56
82
76
42
44
68
62
38
44
32
18
32
94
72
34
30
40
26
44
64
50
56
62
50
40
26
42
36
48
42
36
40
58
60
50
62
70
52
50
58
48
36
40
36
22
24
2
6
4
6
12
16
30
34
26
40
30
12
6
6
16
22
8
2
30
36
70
255
255
255
88
26
14
12
38
38
22
24
28
24
18
8
14
46
66
30
30
18
30
30
42
28
16
20
24
12
14
28
26
32
6
12
24
16
4
30
38
32
2
34
44
92
164
242
206
102
50
54
82
114
212
255
182
110
80
38
36
46
34
58
56
26
24
16
22
24
26
24
6
12
2
22
18
202
255
255
255
30
255
255
96
38
78
106
255
255
255
255
255
158
255
255
255
94
136
255
255
255
255
160
255
255
46
160
92
255
54
255
255
255
30
18
92
100
60
40
16
32
18
12
12
8
16
16
20
16
34
40
22
18
20
14
16
10
10
14
6
10
18
12
10
10
18
46
48
14
6
14
24
36
34
50
48
58
86
80
58
66
68
48
42
72
104
168
255
255
255
122
8
2
28
124
255
255
250
192
104
72
38
20
44
44
60
50
34
58
76
90
76
72
86
82
128
148
114
80
60
42
52
66
96
92
80
76
84
84
66
58
48
36
42
66
70
84
62
54
44
2
16
26
12
22
68
70
56
66
68
64
30
34
26
62
42
24
8
22
36
32
8
2
20
8
10
28
34
58
18
44
44
44
68
78
68
32
38
74
78
68
52
40
26
32
76
52
14
10
28
32
30
52
68
58
14
28
46
14
16
16
24
28
30
22
34
46
30
28
46
42
32
44
48
38
34
28
38
42
24
24
24
22
18
36
50
32
40
48
38
22
6
22
28
44
46
44
64
40
104
255
255
255
72
16
16
10
38
44
20
8
26
32
24
16
24
48
42
2
20
16
26
20
30
18
18
22
22
14
10
14
18
26
20
18
8
28
20
26
30
22
12
34
50
102
190
255
255
160
68
2
22
60
255
255
255
142
74
36
42
30
6
72
96
78
76
64
42
28
30
42
24
16
22
24
68
255
255
98
236
255
255
255
108
100
62
255
255
255
142
255
255
138
255
255
255
206
138
110
255
255
172
255
255
255
128
72
218
226
70
255
255
255
18
22
96
112
64
42
20
20
20
6
2
8
12
6
4
16
46
44
26
6
10
10
10
2
6
18
8
4
12
16
24
20
18
26
34
22
6
4
2
14
16
30
34
58
72
34
16
56
72
54
62
104
144
188
255
255
252
98
10
4
10
82
230
255
255
240
176
114
66
58
62
28
36
24
34
80
96
72
26
54
76
82
116
148
144
122
94
62
66
76
76
82
78
68
70
94
78
64
44
32
38
36
16
28
52
60
70
34
22
32
8
12
50
66
56
66
60
68
62
58
32
52
36
4
14
16
24
30
6
8
8
18
16
24
8
30
16
44
48
46
74
80
54
42
42
58
70
76
52
20
38
80
94
60
22
16
14
6
18
38
54
54
32
28
30
34
12
18
26
18
28
32
34
44
32
20
36
32
6
8
20
16
16
14
32
32
6
6
8
8
16
46
42
2
34
36
36
36
6
30
16
16
26
22
34
10
122
255
255
255
70
4
20
6
38
42
24
18
24
28
26
22
24
32
34
20
10
18
16
14
22
22
26
18
14
16
6
14
10
8
18
12
18
26
4
16
48
18
12
12
42
102
176
242
240
188
128
70
132
255
255
255
242
98
36
26
30
6
18
62
110
100
92
98
84
66
44
42
36
44
54
42
82
252
255
255
255
255
255
162
104
88
54
255
255
255
118
255
255
204
255
255
118
102
184
52
116
124
70
188
255
255
255
246
188
90
168
255
255
206
22
30
102
126
68
30
24
18
16
14
8
12
8
2
2
16
40
22
22
22
20
14
24
8
12
12
16
10
6
14
24
26
42
54
52
26
16
32
34
26
24
30
30
62
80
46
28
52
66
52
42
74
146
202
255
255
255
102
20
12
10
48
182
255
250
232
202
118
28
34
68
32
40
56
66
104
106
34
32
60
96
116
116
124
106
112
108
70
70
82
60
52
52
62
54
82
78
94
86
66
58
42
42
40
54
56
68
46
52
78
54
6
26
22
22
48
70
74
44
2
26
52
28
8
2
14
28
36
24
20
22
14
8
28
22
30
8
36
48
44
54
44
18
34
64
52
42
50
42
16
108
116
76
60
36
40
28
12
14
42
60
56
8
26
10
38
36
44
34
12
16
20
12
22
20
10
24
20
14
14
2
8
12
8
26
32
10
16
24
32
18
20
26
30
50
40
32
26
16
24
14
20
14
8
30
18
160
255
255
255
30
12
16
4
32
44
34
32
42
46
58
46
22
18
26
20
14
22
16
18
16
24
44
42
20
8
6
14
8
10
6
4
30
44
28
18
28
20
48
48
30
72
152
180
160
146
124
112
228
255
255
255
134
48
44
50
28
8
12
46
82
42
32
42
20
42
40
18
34
44
68
54
50
72
134
86
38
100
60
54
46
12
84
255
255
255
216
255
218
106
174
255
208
72
144
74
108
174
188
192
128
255
255
255
196
76
162
255
255
108
28
22
108
130
52
12
14
26
32
16
16
28
22
16
4
12
38
22
12
12
10
16
28
22
16
12
12
18
12
16
24
16
30
26
10
26
54
46
34
28
22
34
34
46
52
26
16
42
32
54
72
62
102
168
255
255
255
84
16
8
6
36
148
252
248
208
184
126
52
82
92
34
64
48
34
74
56
10
36
86
64
44
54
98
86
62
80
72
62
62
52
62
66
66
50
64
74
88
74
70
72
56
64
34
28
44
52
40
38
68
70
30
24
44
40
28
54
78
48
32
40
24
24
32
20
28
34
46
38
34
36
42
42
16
2
16
8
36
34
32
56
46
6
18
56
44
24
46
84
68
102
50
32
44
40
50
40
40
18
36
54
42
24
42
30
26
26
14
42
42
20
26
38
52
44
36
48
42
14
30
34
30
30
26
36
36
36
38
12
36
42
26
18
22
32
24
20
20
26
14
10
16
16
10
14
12
230
255
255
132
12
20
22
8
28
34
54
62
52
50
38
20
14
10
12
20
26
18
20
16
6
2
30
38
26
4
2
12
18
12
8
18
20
26
16
20
26
24
50
20
44
48
146
178
144
116
98
224
255
255
255
158
72
56
70
48
32
14
12
56
98
72
62
62
46
50
34
8
18
2
14
16
14
40
28
86
150
202
224
146
82
72
182
255
255
255
255
255
255
206
116
255
255
204
160
92
80
184
192
146
255
255
255
255
158
28
132
255
255
74
34
24
94
106
32
6
14
32
14
8
16
24
24
30
14
18
30
22
26
18
10
14
16
10
12
10
26
20
24
8
24
24
24
20
4
20
28
6
32
46
38
34
30
46
58
36
20
38
12
20
68
80
90
168
255
255
244
90
26
6
6
28
116
220
248
226
202
162
114
84
48
32
50
76
106
118
76
46
56
76
26
38
36
90
126
82
66
64
94
112
100
80
64
46
36
56
72
74
34
28
32
20
60
32
4
24
18
12
12
40
54
44
56
68
58
24
32
54
64
54
50
32
12
20
28
28
42
38
28
30
24
34
44
46
28
18
32
68
98
110
102
72
42
66
80
36
6
24
56
38
42
52
42
38
76
54
34
24
16
26
58
40
20
22
8
28
34
6
22
36
4
16
18
44
42
24
38
56
34
42
24
16
6
14
36
28
22
42
28
48
36
12
4
22
38
28
30
24
22
24
28
22
32
42
22
38
255
255
255
48
14
12
10
4
20
60
96
68
48
30
6
32
20
10
16
26
16
16
20
16
22
26
26
22
30
22
16
16
10
20
22
22
20
32
10
20
40
30
58
64
58
56
144
216
210
164
192
255
255
242
168
104
74
52
32
4
22
24
22
70
102
74
38
44
38
26
8
14
6
30
38
34
28
60
54
156
198
42
128
160
110
56
108
255
255
144
255
255
116
132
146
192
255
186
142
112
98
150
100
152
255
176
255
255
160
74
192
255
255
78
24
22
92
120
42
12
20
28
10
4
18
14
12
18
12
30
48
42
32
12
8
6
14
18
20
6
16
10
8
28
38
40
48
46
24
42
52
40
50
38
26
22
20
38
52
38
18
36
28
26
66
74
116
200
255
255
216
80
18
2
2
14
82
192
254
244
210
166
152
134
78
50
20
6
62
104
78
42
50
98
68
26
28
50
94
68
34
48
54
54
42
42
40
48
70
72
82
92
76
54
20
28
44
46
6
16
30
28
38
32
30
58
46
46
28
18
46
56
58
50
48
40
12
16
10
22
36
10
14
22
8
20
2
34
54
48
70
86
92
84
72
64
62
86
76
60
42
30
38
20
32
34
28
68
80
56
30
20
28
34
30
30
20
14
14
34
58
42
42
48
16
10
12
16
34
20
20
44
28
10
18
38
16
6
28
24
12
24
16
24
22
28
32
40
22
16
24
8
10
10
16
28
42
40
28
78
255
255
255
24
2
16
14
8
26
58
66
30
24
20
18
24
28
12
6
18
18
16
30
24
10
14
20
16
12
8
16
14
12
2
14
2
24
16
12
8
44
40
30
36
42
46
82
158
202
166
220
216
148
106
82
48
34
18
10
8
10
34
62
72
90
68
48
52
26
4
10
22
20
18
10
16
22
30
22
74
186
154
56
104
120
6
118
255
255
136
255
124
226
130
255
255
255
206
74
102
110
64
96
226
188
126
255
255
255
182
255
255
255
88
12
40
92
122
52
18
34
32
12
10
20
12
28
16
12
40
38
26
16
4
6
18
14
10
18
14
4
10
16
22
28
40
54
34
20
20
22
24
16
12
20
14
36
64
70
50
24
18
14
44
70
64
98
210
255
255
192
52
8
4
2
8
50
160
230
244
250
190
142
112
54
14
22
26
50
62
66
44
38
84
82
14
24
60
100
68
14
28
40
60
44
12
28
32
64
62
96
74
72
74
18
20
52
36
26
44
38
60
78
62
56
28
60
62
36
32
46
62
64
52
52
54
20
22
14
4
24
20
22
38
44
36
38
12
18
34
42
50
44
64
82
56
44
46
24
30
40
26
12
16
22
38
32
72
96
68
42
64
60
40
14
28
40
18
44
42
64
52
50
58
28
14
18
10
20
24
20
34
24
4
12
18
18
14
44
12
10
16
12
16
8
12
2
12
8
4
32
24
14
14
18
20
16
6
46
96
255
255
255
22
10
20
14
14
24
66
84
70
50
40
16
14
14
10
8
22
40
30
22
16
2
4
20
20
8
10
8
10
24
28
30
28
40
26
10
14
16
30
4
14
48
40
66
120
160
122
140
110
88
92
58
36
32
38
28
26
24
54
44
32
54
40
36
28
18
10
22
14
16
6
18
38
24
18
26
18
94
136
78
72
138
102
62
144
255
102
182
64
255
168
170
255
255
122
38
40
140
208
216
92
198
255
255
255
255
255
255
255
255
64
16
36
92
116
58
20
30
34
6
14
38
18
24
10
20
42
28
22
20
12
4
16
2
4
14
14
10
10
8
16
34
46
42
12
12
16
10
12
8
8
24
22
30
52
50
32
14
12
22
34
42
62
98
255
255
255
174
48
10
2
4
4
26
142
240
255
255
246
198
160
92
20
6
8
32
60
70
68
84
136
142
78
52
72
94
86
58
70
54
54
62
40
46
42
46
22
60
62
50
72
48
18
34
4
46
34
28
42
66
54
10
12
60
66
50
48
32
30
38
56
80
82
56
12
18
16
12
12
10
12
12
8
24
34
20
14
22
36
48
106
106
48
40
56
40
34
20
16
32
36
38
46
44
38
66
66
42
42
36
30
30
50
16
26
42
30
38
46
44
54
36
8
10
8
20
34
24
24
34
14
18
26
48
56
54
32
34
28
16
12
16
22
22
36
34
24
48
36
26
22
14
28
4
34
56
140
255
255
255
18
10
24
12
30
20
34
46
52
52
46
38
16
22
30
22
20
36
26
20
28
34
40
34
30
10
12
12
8
14
16
16
16
32
36
16
16
20
14
12
18
16
42
72
96
124
106
96
84
80
74
40
30
40
40
16
24
50
62
44
26
44
26
28
30
28
28
22
8
4
18
26
38
40
32
32
24
44
122
138
14
94
112
140
62
186
174
94
106
255
255
255
140
92
160
214
180
160
110
96
255
255
255
255
255
100
255
255
255
252
70
24
32
88
114
60
20
26
32
10
10
18
14
18
10
22
34
30
22
12
4
2
14
2
2
22
16
12
4
6
28
40
38
24
4
12
16
10
20
10
10
34
28
14
54
74
54
34
28
26
26
36
58
136
255
255
255
160
44
8
0
0
0
14
86
196
252
255
250
236
230
178
92
56
34
36
76
50
36
60
120
160
134
78
92
114
108
62
60
68
54
54
68
60
34
30
12
62
54
46
70
64
50
40
24
66
62
18
16
42
42
6
26
64
82
70
72
60
42
34
44
62
64
50
26
10
30
28
18
14
12
6
12
2
22
28
16
34
56
82
104
82
54
58
90
76
100
70
54
50
44
28
24
38
24
30
46
36
36
42
4
8
20
12
16
26
30
46
28
26
50
50
16
12
10
52
50
38
22
10
26
24
42
46
60
62
34
34
22
4
4
12
30
32
36
24
12
24
30
36
42
28
26
16
32
38
194
255
255
255
20
12
24
6
18
2
30
38
34
44
38
28
40
38
28
16
20
48
44
12
20
24
16
18
8
8
20
20
20
6
16
22
20
14
46
66
52
26
22
30
28
30
28
34
30
52
68
56
52
44
34
28
40
38
32
18
14
36
50
44
46
62
42
34
34
22
20
28
50
26
50
52
52
34
28
30
32
28
96
172
142
48
18
50
106
100
204
46
142
46
255
255
255
255
255
255
255
255
255
255
255
255
255
255
255
255
208
254
255
180
60
14
16
84
108
62
22
24
28
4
2
8
20
20
20
26
24
28
28
12
12
10
24
12
16
30
8
12
12
12
30
40
40
28
10
16
24
24
16
0
2
26
26
12
42
54
30
22
28
34
40
40
56
152
255
255
255
126
36
8
4
6
6
4
18
106
220
240
200
170
198
200
140
114
116
48
30
28
8
6
48
98
104
58
28
84
86
36
26
58
54
34
54
74
30
10
24
70
72
38
74
102
92
58
50
54
88
80
40
40
68
36
38
38
68
66
66
70
48
34
32
42
50
40
18
44
46
20
50
18
30
6
14
14
30
34
30
56
68
78
104
102
72
56
86
50
98
68
68
74
72
66
48
48
28
38
36
18
22
30
8
20
26
22
16
36
16
14
26
32
48
58
40
16
14
38
34
18
8
16
8
16
24
8
14
34
40
40
28
18
6
14
20
20
16
28
28
10
4
12
14
8
16
28
32
46
238
255
255
238
18
10
26
10
18
22
34
54
44
62
46
32
34
30
8
30
24
18
54
40
24
40
30
12
22
8
20
18
18
18
14
10
8
28
18
44
46
42
42
32
20
12
8
20
18
26
40
20
8
12
22
30
48
52
42
22
28
50
46
22
24
44
56
50
52
40
28
26
46
34
62
38
38
20
46
50
34
22
42
104
168
158
134
160
152
74
184
146
70
208
255
198
172
130
100
72
208
255
255
255
255
255
194
136
255
255
255
255
255
176
76
58
52
98
118
66
38
34
34
6
10
10
10
2
4
14
18
24
28
8
8
10
14
2
22
30
18
12
16
20
30
36
40
32
22
26
30
26
10
10
10
16
16
28
50
52
26
12
32
36
40
44
62
184
255
255
255
108
34
8
4
2
4
2
4
60
192
255
226
164
170
192
172
148
146
100
16
30
20
20
28
50
68
82
6
94
96
56
16
20
52
56
58
80
46
20
32
58
80
108
128
120
86
50
26
20
44
82
78
12
34
38
48
44
62
68
66
70
66
72
66
58
72
64
30
44
8
32
38
36
54
30
14
8
32
36
34
42
44
72
116
108
72
50
58
12
68
46
34
40
60
84
78
54
26
34
20
6
20
24
20
32
20
24
6
28
12
10
10
34
44
28
32
14
26
44
46
56
46
36
16
12
6
10
4
20
54
52
32
34
16
16
20
8
22
48
32
18
14
22
32
32
34
38
40
36
255
255
255
174
20
4
32
24
22
20
18
54
76
58
32
24
24
34
22
14
32
18
18
44
40
36
40
26
10
22
10
8
18
22
14
14
14
18
6
34
24
8
26
26
12
12
6
14
24
26
36
26
14
4
14
22
32
48
62
32
14
44
54
38
0
22
44
12
20
60
50
36
46
42
56
36
46
36
56
34
6
4
8
24
46
46
20
34
30
54
118
162
134
104
88
42
72
36
32
70
40
46
98
255
255
255
208
132
186
184
255
255
255
152
40
42
50
98
110
50
32
20
44
16
18
6
4
6
6
16
26
26
16
8
4
12
14
2
22
14
12
4
18
28
22
46
60
42
20
2
18
16
18
18
22
34
32
36
36
42
26
14
30
36
36
48
82
242
255
255
244
110
40
8
4
6
6
2
10
14
112
254
255
204
178
170
168
194
196
138
46
16
46
56
72
78
96
126
88
82
54
50
20
18
26
68
74
84
52
42
42
38
68
96
84
64
46
36
26
30
20
44
62
22
10
42
48
54
60
60
78
84
86
96
92
76
74
60
32
36
30
50
54
54
50
48
42
30
44
40
26
40
52
104
132
102
88
60
50
36
60
46
48
40
38
72
96
66
20
18
26
2
18
30
30
18
26
20
10
30
20
14
24
42
36
12
20
12
18
10
30
40
40
16
16
18
8
14
18
22
44
48
20
30
32
28
24
10
40
52
28
14
10
20
32
18
28
40
20
14
255
255
255
128
22
8
24
36
12
22
6
40
82
76
38
30
20
26
14
22
10
10
16
8
18
28
36
44
34
20
10
8
10
6
18
22
20
26
18
42
34
28
22
14
10
14
20
28
26
26
44
48
36
28
22
50
56
50
58
44
30
42
38
18
0
46
96
72
60
24
34
34
34
36
40
28
28
26
22
4
16
20
38
78
110
100
74
100
92
124
140
102
128
154
188
196
200
168
118
34
32
42
160
208
82
118
118
70
40
12
255
255
255
106
28
28
32
88
86
50
46
32
36
6
8
10
10
10
4
18
30
22
12
0
4
20
16
6
16
18
22
14
28
28
10
26
44
28
28
22
28
18
20
16
8
16
8
18
36
42
26
18
36
38
24
40
122
255
255
255
176
86
30
0
2
2
0
0
10
2
48
182
242
188
160
150
128
182
248
226
140
70
50
24
48
62
88
104
72
38
60
50
26
24
30
52
84
110
76
16
64
64
92
104
94
88
64
40
2
32
46
52
40
14
12
46
40
44
46
24
44
60
68
64
68
76
68
44
18
38
46
56
46
32
12
16
26
24
34
44
34
34
64
124
126
104
110
74
68
80
78
46
52
60
42
46
84
84
40
10
18
24
20
32
30
28
26
20
6
28
30
12
8
38
26
6
12
10
28
16
34
22
40
10
14
26
16
14
18
30
38
30
22
18
24
22
6
34
46
28
10
8
18
44
40
12
26
20
26
52
255
255
255
76
12
2
6
10
20
18
26
24
74
86
56
30
20
14
12
4
18
8
18
26
12
22
30
32
26
16
22
32
24
12
20
6
12
24
22
20
28
6
22
16
10
2
30
24
16
20
32
46
32
28
44
70
46
46
64
48
32
40
50
38
0
46
94
72
78
14
8
8
4
8
10
6
2
2
16
32
32
42
68
84
64
30
16
32
58
62
10
82
152
142
98
98
134
156
138
122
140
174
255
134
38
90
138
90
48
42
255
255
255
74
12
14
16
70
80
38
24
14
16
6
12
10
16
4
10
14
34
20
6
6
10
22
10
4
12
4
8
8
22
20
6
34
54
34
18
6
20
30
30
30
26
32
30
38
38
34
22
14
38
42
30
58
130
255
255
255
140
76
24
2
0
2
0
0
10
2
18
124
226
206
146
114
78
100
188
236
208
166
132
82
28
8
46
80
70
22
36
32
26
24
62
72
70
102
120
58
28
60
100
80
60
62
44
50
34
28
42
34
36
22
28
76
42
48
58
60
60
58
62
62
68
80
66
58
32
52
18
30
16
4
30
26
20
10
26
44
36
52
80
104
114
94
106
56
44
78
108
84
58
60
58
46
82
138
116
54
52
36
38
58
46
40
34
32
46
36
40
22
22
50
46
6
2
22
34
36
38
22
56
40
26
38
28
16
10
18
26
12
26
22
16
14
8
36
36
20
14
8
24
62
50
38
18
18
36
42
255
255
255
46
2
2
4
10
28
4
24
12
72
122
94
44
30
22
20
24
16
2
10
2
14
6
20
40
40
20
22
36
28
24
30
24
16
8
14
18
36
50
24
12
10
4
34
26
28
8
14
16
30
30
58
56
28
44
42
22
26
30
36
20
4
20
60
62
46
8
4
8
6
14
10
0
0
2
16
24
22
34
48
26
32
42
36
38
52
44
58
28
42
94
192
218
184
124
38
166
204
255
216
70
86
102
120
70
20
76
255
255
255
22
6
16
22
66
84
46
32
22
26
20
16
8
18
8
6
22
38
24
12
12
10
22
10
8
12
8
4
4
22
24
30
44
46
30
20
22
30
22
16
10
12
20
22
40
42
16
12
16
30
40
38
66
150
255
255
255
160
72
16
2
0
2
0
2
8
4
2
54
164
232
182
84
34
46
102
158
182
188
174
114
60
20
36
92
100
58
12
28
60
58
30
94
76
72
96
102
40
64
92
70
78
78
22
26
38
24
26
44
44
36
56
76
34
52
52
46
64
56
44
52
92
122
116
72
6
34
22
28
10
12
30
10
38
20
26
36
40
62
88
106
118
136
108
2
34
6
72
74
38
30
56
56
70
136
142
76
40
36
38
56
44
34
32
18
24
44
56
44
26
32
44
28
12
28
18
28
12
0
28
40
36
26
10
22
16
22
14
8
22
40
26
28
6
36
24
14
20
8
22
50
34
36
22
4
14
42
255
255
255
34
2
2
4
8
28
18
16
12
34
114
118
52
24
16
16
20
16
10
18
28
14
22
14
26
50
26
16
34
44
28
18
20
16
30
8
30
6
44
50
22
12
14
40
24
16
22
14
10
18
20
30
26
24
36
24
22
16
16
40
22
24
24
22
16
6
0
2
8
12
6
10
0
0
2
18
38
32
28
46
42
24
22
30
38
50
32
18
50
118
254
255
255
255
252
250
186
128
140
94
82
44
72
42
48
32
192
255
255
255
32
14
24
30
62
84
46
32
2
22
28
16
8
14
10
16
30
30
18
10
8
4
18
10
8
6
10
16
8
14
4
24
52
50
42
26
22
36
6
20
10
8
6
30
42
26
14
16
16
22
22
28
60
212
255
255
255
150
46
4
2
0
2
0
2
6
6
10
18
80
214
255
162
54
42
72
96
140
190
206
152
112
90
26
62
90
78
56
14
26
72
22
74
100
112
116
118
86
30
94
102
96
74
16
16
12
2
12
26
26
44
88
100
58
4
6
30
60
54
46
26
68
122
132
134
92
48
22
28
28
46
60
30
20
34
26
36
64
72
106
134
158
174
114
60
50
36
46
80
52
4
24
56
58
104
106
80
62
44
44
58
56
38
40
28
18
40
22
38
34
32
16
24
16
18
8
34
36
36
42
46
34
26
18
32
10
8
10
28
40
46
14
22
2
38
14
8
36
30
24
38
36
12
36
24
20
54
255
255
255
18
0
0
0
2
14
18
12
30
2
74
124
80
32
36
42
30
8
4
4
30
20
14
22
12
24
16
6
8
32
14
10
14
4
16
22
20
34
12
30
28
16
12
18
24
20
16
20
12
8
8
24
26
20
18
24
34
14
6
34
24
42
60
70
66
58
42
24
12
4
12
10
0
0
0
4
26
38
32
42
66
48
48
46
48
46
28
26
74
122
218
255
226
192
152
168
220
160
56
78
118
74
90
70
90
48
166
255
255
222
36
24
24
44
70
88
38
26
8
6
30
20
12
14
12
20
22
18
22
16
10
6
18
16
8
12
10
18
4
6
4
24
44
40
34
22
36
40
22
22
22
28
28
46
52
38
30
32
24
24
22
30
86
244
255
255
236
96
22
0
2
2
2
0
2
6
12
10
4
30
146
255
255
134
44
50
66
98
174
230
206
174
156
86
8
42
62
66
42
38
76
64
14
70
116
126
104
68
18
78
124
150
134
64
8
22
30
32
22
16
38
96
120
112
82
36
56
38
40
60
28
34
76
96
126
118
62
34
34
34
38
58
58
70
76
34
46
86
92
126
146
160
150
84
46
80
46
52
88
78
60
58
64
60
106
84
70
82
84
90
104
124
116
90
68
42
52
28
38
56
44
24
20
18
12
32
60
52
38
30
38
30
8
10
20
20
32
28
52
38
38
16
32
20
46
18
28
60
24
8
26
52
22
30
28
10
54
255
255
255
8
2
4
4
2
6
34
30
46
20
42
118
132
76
42
54
42
10
4
26
24
6
14
10
16
30
20
10
12
24
32
14
10
2
4
20
12
30
18
10
34
32
12
10
8
14
8
4
12
8
36
44
36
26
24
34
36
34
54
50
12
68
86
84
96
116
118
98
92
74
58
30
4
0
0
2
10
26
26
20
50
48
54
34
48
58
52
36
56
164
255
255
250
255
255
255
255
66
206
255
255
255
252
154
134
164
255
255
255
178
32
8
36
42
78
98
50
34
10
6
28
32
6
16
18
20
14
12
18
14
4
12
18
8
2
14
6
24
10
14
26
48
56
50
36
10
24
28
4
22
36
40
34
52
54
38
32
36
34
44
32
34
94
255
255
255
158
80
24
4
0
0
0
0
2
2
10
20
18
16
58
184
255
188
70
22
28
48
56
132
162
176
188
140
64
60
88
96
76
68
128
142
104
54
44
84
96
76
34
36
110
150
162
132
50
26
16
26
24
16
20
58
96
100
96
38
28
10
30
64
78
64
66
68
90
102
78
52
30
18
18
12
32
52
36
28
50
90
102
118
130
142
118
66
52
66
80
60
84
86
86
48
22
34
78
40
8
12
66
72
78
110
132
118
90
50
40
44
40
48
42
46
36
14
24
40
44
30
8
12
18
40
16
26
24
24
6
6
30
26
32
16
30
44
50
14
22
36
10
16
10
38
42
6
18
16
68
255
255
255
32
4
8
8
10
10
54
62
80
72
12
50
102
116
76
46
34
18
22
16
6
8
18
20
24
16
6
12
16
26
10
22
16
8
2
22
22
12
14
24
8
26
10
14
16
22
14
22
32
38
36
20
12
16
26
42
48
50
42
16
14
76
98
82
98
110
140
140
150
150
156
116
62
42
14
2
2
6
12
14
28
28
24
18
22
36
44
30
46
90
255
255
255
255
255
220
74
194
255
255
255
255
255
238
154
166
255
255
255
108
16
12
46
36
78
92
40
34
10
8
20
22
14
18
32
32
18
12
14
12
14
14
8
2
6
16
14
18
8
28
32
38
44
38
24
8
18
30
16
16
28
18
12
38
56
44
24
18
22
42
52
46
110
255
255
255
158
74
20
4
0
2
4
4
4
2
2
10
10
4
26
106
192
194
118
40
54
66
34
66
112
150
174
148
100
74
92
70
62
64
92
148
138
94
40
70
88
96
92
48
74
82
98
134
90
54
26
20
16
8
12
18
58
88
102
80
22
42
74
66
116
114
86
68
74
82
80
80
68
40
6
18
6
18
18
6
30
72
102
84
90
116
82
20
34
34
56
30
22
20
32
30
14
58
106
86
40
48
68
74
50
6
60
78
68
28
10
34
42
28
12
34
40
8
20
28
40
58
42
40
24
38
30
14
22
10
2
12
30
32
24
12
20
36
8
14
22
32
14
4
14
30
34
16
26
30
58
255
255
255
64
2
8
4
2
6
44
54
28
88
48
4
36
102
142
116
60
20
10
6
18
22
12
10
6
6
8
22
8
6
28
24
20
10
14
26
48
46
34
6
14
14
6
18
18
20
22
34
34
28
18
20
20
14
28
44
40
28
14
12
14
62
112
100
94
100
118
142
158
154
192
204
166
138
90
46
18
2
2
10
16
16
16
20
20
22
26
32
28
34
102
164
204
184
92
42
116
226
255
255
255
194
174
152
188
202
255
255
255
38
12
20
44
18
86
80
34
44
30
20
26
20
12
8
22
22
8
6
14
14
16
12
10
4
4
4
2
6
20
28
16
34
40
30
28
26
36
40
36
30
20
8
10
24
34
34
26
18
24
28
34
48
174
255
255
255
166
68
20
4
0
2
2
0
2
2
2
2
0
4
26
100
188
212
164
92
74
94
88
90
112
134
154
152
124
52
64
44
68
56
14
70
100
90
38
44
36
68
122
58
62
86
92
132
112
106
68
26
24
22
18
10
14
70
102
110
116
78
50
18
48
82
102
108
102
68
60
98
122
106
52
52
32
32
10
20
34
66
122
140
146
156
98
26
32
50
72
42
52
72
58
40
52
76
94
62
24
50
72
104
124
68
34
80
60
30
26
36
34
20
10
30
22
12
50
50
26
12
20
8
60
84
34
10
8
14
10
26
38
38
30
6
16
22
20
8
22
20
20
6
8
34
34
14
12
16
54
255
255
255
86
2
6
6
6
12
34
64
38
64
48
0
6
40
108
168
162
96
34
14
26
14
8
16
22
20
22
4
18
18
12
4
20
20
40
32
22
22
34
34
22
12
30
40
20
16
14
10
22
22
32
54
62
46
46
38
26
22
12
10
4
68
112
76
84
110
108
96
128
146
190
238
242
220
180
148
102
44
12
0
0
4
6
10
22
30
24
12
18
54
34
42
38
16
2
14
84
212
255
255
255
255
255
255
255
124
255
255
250
18
10
32
58
24
76
78
24
36
42
30
18
24
22
24
36
36
16
6
12
6
10
12
6
8
8
10
2
0
14
18
18
32
32
14
22
40
36
32
36
26
18
12
22
30
38
46
48
36
22
18
26
42
254
255
255
255
144
36
4
0
0
2
4
4
2
2
2
2
4
4
14
72
158
196
158
116
84
52
42
50
76
86
110
134
120
20
28
34
74
68
26
54
38
100
74
44
24
72
198
120
38
102
140
174
130
128
96
12
8
24
14
4
16
20
48
52
90
114
68
50
48
34
28
66
94
68
24
42
86
88
62
32
20
36
72
74
100
76
82
122
156
166
122
56
30
26
42
26
46
26
6
48
92
94
94
66
50
52
46
46
70
96
42
58
48
14
38
84
90
70
64
58
42
56
82
62
28
18
20
30
82
72
36
20
4
4
14
38
42
48
32
8
16
32
10
24
18
10
28
2
10
22
22
8
6
14
40
255
255
255
106
2
2
2
4
32
40
44
46
72
88
26
2
6
30
90
166
170
102
50
30
22
16
12
36
48
46
28
2
8
16
16
4
8
12
18
24
16
4
18
30
14
30
16
10
24
34
40
54
36
38
64
64
50
44
24
34
32
10
16
24
64
110
86
102
92
54
40
58
118
130
168
192
218
198
186
182
150
96
44
16
2
2
4
4
14
22
20
30
58
38
56
12
2
0
2
22
78
130
154
184
220
186
190
122
138
255
255
208
14
22
30
50
24
82
88
8
10
28
20
34
30
14
8
20
26
14
10
10
2
14
16
8
8
8
10
8
8
20
22
28
40
38
16
24
36
32
30
36
20
10
6
18
38
46
42
52
58
42
24
20
64
255
255
255
254
104
10
0
0
0
0
0
0
4
4
4
6
10
8
4
40
106
168
166
116
80
62
66
102
92
44
54
88
106
40
36
72
118
70
64
64
38
82
88
16
44
26
134
160
62
18
82
154
136
132
140
80
28
24
4
20
34
16
32
80
108
64
46
28
26
26
16
42
64
66
26
36
50
38
46
34
36
60
50
36
44
94
102
132
182
192
162
136
120
46
42
12
60
58
54
66
80
78
88
80
48
4
28
32
28
56
72
98
76
36
34
16
48
48
74
84
64
72
84
78
70
70
60
50
76
72
52
28
6
8
18
24
22
32
22
26
24
18
16
6
12
12
32
4
10
22
16
20
20
28
40
255
255
255
108
2
2
4
14
48
32
36
90
82
156
92
28
18
12
8
78
162
184
154
108
68
46
38
38
8
28
36
32
22
10
16
4
16
26
26
10
8
14
10
20
22
40
20
20
46
62
68
64
46
48
48
20
2
24
6
28
18
8
18
12
68
136
128
106
44
12
18
84
162
126
174
160
190
174
158
178
212
214
164
106
62
26
6
4
4
10
20
26
54
56
44
10
2
0
14
18
14
12
18
24
30
20
24
22
255
255
255
168
24
10
30
58
20
92
76
16
22
46
32
46
18
24
30
46
42
18
10
10
8
20
16
6
6
14
20
12
10
20
22
30
32
24
6
36
38
22
26
28
12
14
6
6
22
24
24
36
46
40
38
32
102
255
255
255
210
76
4
4
4
2
0
0
0
4
2
2
4
4
6
4
22
70
128
178
168
104
86
94
104
66
30
62
100
116
84
52
76
142
100
18
48
42
68
90
44
32
28
54
152
152
82
20
110
144
158
164
132
94
76
28
26
22
28
44
90
66
40
44
54
18
30
58
86
94
78
50
28
42
22
12
44
46
22
32
74
48
42
96
118
166
180
140
116
110
64
48
32
14
30
54
80
76
60
56
50
16
16
22
48
62
58
90
114
90
84
100
82
54
28
10
32
20
34
42
18
8
32
46
50
70
66
72
68
32
20
34
38
38
42
44
12
22
4
16
24
14
10
28
18
14
24
24
20
12
10
32
255
255
255
110
0
4
4
14
42
38
72
136
86
162
162
100
62
30
10
14
62
124
166
178
142
96
84
72
34
26
2
12
16
26
20
8
24
6
30
30
20
22
20
22
42
48
34
50
66
60
46
28
38
26
16
14
38
52
30
42
20
10
20
16
88
164
116
48
8
20
68
182
208
116
194
198
210
180
152
134
146
204
234
216
184
138
76
28
6
2
4
2
4
2
6
8
2
0
26
26
28
34
24
10
14
32
40
14
255
255
255
136
40
22
34
50
16
90
68
18
10
36
20
34
18
34
46
42
22
12
16
10
6
24
20
10
14
14
12
16
16
28
32
44
50
38
26
58
56
26
12
4
16
18
8
10
26
24
30
40
28
22
42
50
154
255
255
255
152
42
2
2
2
2
0
2
6
8
2
4
6
8
8
2
16
38
80
128
170
122
84
150
180
80
30
66
92
100
64
24
56
146
128
42
16
10
62
88
70
34
20
16
52
132
138
50
38
90
130
146
120
106
104
42
14
22
28
18
90
88
48
38
40
44
80
64
78
118
134
78
38
60
36
22
48
42
24
36
24
46
36
90
106
120
112
96
94
46
26
22
46
16
32
52
82
100
76
54
42
12
20
24
42
56
78
104
92
66
64
84
102
86
94
72
78
68
68
54
42
56
62
38
26
32
20
34
62
28
26
48
28
16
32
52
34
24
4
6
14
16
14
18
2
8
6
6
14
8
12
42
255
255
255
80
2
2
4
20
56
98
160
184
104
140
172
148
116
88
52
16
4
14
48
120
166
172
186
168
98
56
36
6
6
16
32
12
20
30
46
22
16
26
28
32
54
42
34
40
40
28
8
10
12
0
4
24
52
36
38
44
24
16
30
26
96
164
124
94
80
24
110
214
154
42
80
154
214
190
166
114
54
84
144
168
178
190
170
122
58
14
2
4
8
4
2
2
0
0
26
20
12
20
12
22
12
14
14
50
255
255
255
82
16
34
48
54
12
86
68
16
6
20
26
22
24
34
46
36
10
6
4
2
12
26
16
8
12
18
30
44
48
58
70
88
94
62
38
64
64
32
28
12
18
26
20
24
30
24
44
40
16
20
30
44
224
255
255
255
102
16
2
4
4
2
4
10
10
4
2
4
6
8
8
4
10
36
80
114
150
118
64
124
218
182
66
42
96
156
158
112
30
90
142
88
64
50
74
78
60
20
36
50
40
74
110
76
32
56
114
146
146
138
140
90
30
28
22
14
48
54
32
32
28
60
74
28
46
74
136
122
70
76
56
38
44
48
44
20
24
10
30
62
74
82
88
108
100
26
8
50
52
32
50
50
60
78
76
40
48
40
6
6
24
30
38
54
26
24
32
46
72
68
72
64
76
56
64
68
76
72
40
30
52
50
38
38
82
62
50
48
24
14
22
32
22
10
12
12
14
20
22
28
48
42
34
12
22
16
20
34
255
255
255
54
4
4
16
46
86
140
192
196
126
158
156
150
144
144
106
40
4
4
4
26
62
94
150
202
194
172
152
110
88
74
68
66
72
64
46
44
54
56
54
66
70
56
44
38
38
20
12
8
14
18
12
24
38
12
28
40
32
4
36
28
88
116
88
98
134
134
178
248
198
142
126
36
110
124
150
120
16
4
50
78
106
152
174
180
144
76
26
4
2
0
0
0
0
0
24
36
24
20
30
20
10
14
8
74
255
255
255
54
16
40
68
64
8
106
76
18
10
6
22
8
34
24
40
54
30
0
10
12
16
22
24
20
16
12
28
30
18
16
18
42
64
52
32
48
38
8
22
10
8
14
12
18
30
34
42
28
8
20
20
46
255
255
255
255
64
2
4
4
2
2
4
6
4
10
4
2
4
4
2
6
4
26
62
110
154
128
52
54
150
180
116
46
20
80
122
130
114
68
46
58
70
70
38
60
60
20
30
48
40
54
80
96
110
66
128
112
106
140
134
92
62
52
34
52
60
60
48
24
36
56
74
50
62
54
58
86
72
74
54
38
44
40
34
26
4
16
34
56
94
146
144
122
84
14
28
40
66
42
32
20
56
80
72
28
48
68
36
28
52
52
30
34
18
26
34
22
26
38
34
52
50
52
12
24
30
32
22
32
40
26
20
32
56
12
30
38
10
12
20
24
20
26
22
24
30
28
14
16
44
26
34
12
20
18
32
44
255
255
255
30
4
4
16
50
84
116
162
172
108
180
192
186
184
190
170
90
14
8
8
4
6
0
32
82
128
156
176
186
174
172
160
150
126
124
106
94
84
60
38
22
18
4
18
24
18
14
20
8
4
4
16
22
34
34
38
20
32
26
22
34
190
248
158
130
92
16
112
222
238
234
255
255
255
210
194
148
52
42
68
36
16
78
106
136
156
128
72
24
2
0
0
0
0
0
10
26
32
28
16
12
10
6
14
168
255
255
190
48
36
40
88
66
30
110
52
16
12
20
42
20
34
16
18
34
36
10
6
12
12
14
12
4
14
32
46
34
46
54
64
98
88
34
14
26
28
14
16
2
12
16
4
20
32
36
46
36
18
28
32
116
255
255
255
198
34
4
6
6
4
4
2
8
8
4
2
4
4
4
8
4
6
18
42
86
132
126
54
48
102
136
132
82
32
74
82
8
60
88
64
46
22
38
26
50
56
22
16
32
76
98
106
122
90
32
94
88
58
104
110
80
72
60
72
90
52
22
52
44
66
64
38
16
28
38
28
56
88
106
98
72
76
68
34
40
50
38
48
20
24
132
186
154
130
50
88
30
22
24
24
28
40
96
102
38
26
50
46
44
42
50
52
32
16
12
2
8
14
14
32
72
44
72
40
18
30
48
24
8
6
18
8
18
18
20
32
42
10
6
18
30
26
20
14
18
30
24
22
10
36
54
28
12
22
16
30
64
255
255
255
6
0
4
20
64
94
122
172
176
86
116
198
172
188
252
255
174
42
2
0
6
8
6
2
2
22
42
58
82
90
102
110
92
66
56
58
32
12
16
20
64
64
62
20
18
40
24
18
8
16
18
12
22
26
36
36
22
14
56
34
26
255
255
255
255
255
255
176
138
92
74
36
108
162
166
172
148
106
124
138
124
124
100
64
42
96
116
90
44
14
4
0
0
0
0
0
2
6
12
16
14
12
4
34
255
255
255
138
26
44
30
92
72
42
102
52
32
32
12
26
24
34
26
42
32
22
20
12
8
14
24
18
14
14
6
36
26
52
48
62
80
60
48
52
50
32
14
12
8
18
0
14
24
28
34
52
50
28
26
48
236
255
255
255
108
8
4
6
2
0
4
2
4
4
4
0
4
6
2
2
8
6
6
40
82
136
162
104
62
56
138
182
128
48
58
72
52
62
20
28
52
54
18
28
26
60
56
22
46
74
118
112
88
66
22
54
92
88
108
118
106
82
30
48
32
36
46
60
88
82
44
52
58
70
84
60
58
86
106
114
98
84
62
32
38
52
70
88
86
124
252
255
192
166
90
134
98
18
22
38
58
50
36
94
48
14
10
30
34
42
34
50
56
24
14
18
22
16
16
12
32
18
26
40
52
52
50
38
12
10
32
42
32
18
20
38
48
16
14
8
28
48
26
20
36
32
24
22
12
20
34
46
8
12
22
20
104
255
255
255
0
2
4
2
42
96
166
214
216
200
66
120
112
114
242
255
255
104
12
0
2
4
4
4
6
6
8
4
2
14
30
62
92
88
84
68
38
26
26
32
84
40
78
26
20
10
22
22
10
8
4
8
16
28
24
24
34
22
28
46
42
255
255
210
202
232
255
234
190
196
224
234
228
208
174
148
130
98
72
42
60
86
90
76
88
94
94
62
38
18
6
0
0
0
0
0
0
0
2
6
6
4
0
72
255
255
255
94
6
24
16
92
86
52
88
24
4
30
14
6
24
24
24
36
4
18
32
14
10
18
18
14
8
10
12
16
10
30
22
26
34
20
16
38
56
36
8
2
6
8
16
8
20
22
28
40
40
28
24
86
255
255
255
255
58
0
2
4
6
4
6
2
6
4
4
2
2
4
8
10
12
4
8
34
56
108
148
120
62
26
104
184
148
86
76
88
10
48
30
52
2
32
12
28
10
42
84
52
26
74
126
104
92
64
22
46
52
74
88
82
100
92
24
32
38
40
52
26
98
116
80
50
48
18
48
76
96
96
78
94
100
84
54
22
24
34
68
68
66
142
238
196
114
100
42
100
114
80
54
42
42
24
14
82
74
14
30
40
38
52
30
24
62
52
22
22
18
22
28
10
20
14
12
26
30
26
38
46
24
38
58
44
22
20
20
36
44
18
20
14
38
60
24
32
52
22
32
26
14
14
50
46
32
14
6
4
186
255
255
255
0
2
2
2
6
36
126
206
226
255
196
70
44
182
255
255
255
255
82
2
0
0
0
0
2
2
2
4
18
42
56
78
90
76
76
44
42
8
26
30
64
40
110
6
70
46
40
16
16
14
10
18
16
12
4
24
52
58
20
14
12
176
252
76
110
124
124
64
20
42
46
38
72
96
130
150
180
196
178
170
140
74
70
56
50
78
88
42
36
40
40
52
54
56
62
70
72
78
86
86
82
68
50
136
255
255
255
52
16
24
16
98
94
70
106
42
30
40
16
4
16
14
24
34
12
8
30
10
10
20
18
16
18
6
2
6
10
26
34
40
36
18
6
22
42
36
12
6
10
10
8
10
14
10
22
38
30
12
36
158
255
255
255
194
32
0
0
0
2
2
2
4
6
4
2
6
12
8
4
6
4
6
6
16
40
114
158
122
62
22
56
130
144
112
74
76
24
30
32
58
12
36
38
38
20
12
56
72
48
124
124
106
92
50
14
38
52
72
92
68
84
102
62
14
26
32
44
8
66
108
102
68
68
74
30
60
106
138
74
76
92
72
42
14
10
30
44
40
64
122
150
96
84
84
18
50
80
94
90
68
10
46
20
74
88
4
30
22
42
60
48
30
16
38
26
12
24
36
8
10
54
60
36
14
6
12
36
34
20
40
32
18
28
36
34
22
38
14
8
22
54
60
16
22
26
14
40
24
12
6
40
22
30
28
18
6
255
255
255
234
0
2
4
4
2
6
62
152
220
255
248
140
94
202
255
255
255
255
218
8
0
0
0
0
0
2
14
34
48
46
40
52
60
50
22
36
36
22
38
30
16
50
60
20
66
14
48
20
22
12
20
16
24
14
14
26
48
30
34
58
50
252
255
120
176
158
150
104
90
76
72
64
70
46
54
52
28
88
126
154
178
144
140
200
206
204
216
210
216
224
230
220
212
192
208
216
206
200
200
196
186
166
152
255
255
255
228
52
10
4
30
124
80
90
86
28
22
8
10
8
20
18
22
20
12
10
22
2
6
14
12
12
12
2
2
4
8
12
16
36
46
34
18
38
44
24
20
10
8
12
10
22
18
16
32
40
22
12
72
255
255
255
255
104
10
0
0
0
4
8
8
6
2
6
4
8
6
6
4
4
6
6
18
22
56
118
150
120
66
24
38
78
108
128
124
114
66
16
48
76
46
90
74
42
38
36
68
28
68
98
126
132
76
38
30
44
70
88
116
92
92
98
82
58
32
26
22
44
72
72
50
14
14
56
68
80
34
104
64
62
90
74
46
28
26
54
56
58
96
114
112
100
104
102
30
50
64
86
88
94
38
22
58
60
70
28
28
38
78
70
68
56
48
36
40
28
32
32
14
36
60
32
22
28
30
36
38
22
28
30
8
26
44
38
42
12
28
22
18
12
54
52
20
16
16
32
40
20
14
6
42
42
22
14
18
28
255
255
255
170
0
0
0
0
0
4
28
84
164
246
255
214
192
255
255
255
255
255
255
52
0
0
0
0
2
14
42
62
52
24
32
58
54
34
8
18
24
44
22
14
6
42
62
30
54
36
56
12
24
22
18
14
40
28
6
36
56
48
62
40
10
176
246
62
118
114
102
100
102
88
108
110
96
80
86
66
62
86
118
136
152
148
138
168
210
224
254
255
255
255
228
224
236
204
198
192
186
172
154
166
162
164
166
255
255
255
150
62
10
14
44
110
54
92
78
50
44
14
14
10
30
30
24
24
12
10
18
8
10
18
16
10
8
4
4
8
8
12
28
38
26
24
30
42
42
24
24
34
16
12
16
20
2
6
28
42
34
26
150
255
255
255
220
38
4
4
0
2
8
8
4
6
4
4
8
2
4
4
8
8
8
12
8
14
38
116
164
130
62
26
60
74
74
124
152
146
132
86
80
72
44
84
124
86
8
14
46
8
56
78
134
122
46
34
30
16
14
62
114
86
96
112
94
84
52
38
24
14
22
52
64
36
36
48
18
74
68
134
98
76
76
70
50
42
42
68
66
52
62
70
112
158
150
104
38
30
50
106
98
86
92
68
64
40
40
46
4
48
68
50
58
32
18
4
22
28
26
32
36
44
22
18
16
22
34
36
20
14
26
12
8
20
32
30
24
20
38
22
14
18
48
48
28
16
4
18
16
18
24
14
28
36
42
34
34
48
255
255
255
108
0
0
0
0
0
2
14
40
88
164
226
230
226
255
255
255
238
255
255
172
0
0
0
2
10
20
28
34
34
34
36
46
34
34
14
24
38
28
22
20
24
24
44
50
26
8
14
14
18
16
16
12
36
44
24
30
24
22
26
4
14
255
255
236
250
255
242
238
222
192
166
176
168
144
152
128
112
116
100
102
98
96
78
52
62
56
92
82
96
110
76
60
98
88
44
40
38
44
48
60
58
70
86
255
255
255
114
48
8
18
74
128
34
86
54
30
50
32
14
4
22
30
24
18
18
20
12
6
10
12
14
18
6
6
4
6
4
16
20
16
14
6
16
32
34
14
22
30
12
18
14
20
12
12
26
32
22
72
255
255
255
255
136
10
8
8
0
2
6
8
8
10
4
4
10
4
4
12
10
8
4
22
20
18
40
98
176
180
102
42
96
102
56
82
106
128
130
112
82
72
70
60
144
144
94
42
32
38
100
106
126
98
40
18
48
78
70
32
102
68
50
74
76
86
56
32
68
30
34
84
86
48
72
46
28
36
60
96
62
52
54
58
48
38
52
56
34
20
34
82
140
188
138
48
36
12
18
70
84
72
112
146
72
16
34
46
24
36
42
42
54
54
40
26
28
22
38
48
28
28
22
28
44
24
6
2
8
4
28
20
6
6
20
10
14
28
28
16
20
14
44
54
28
20
28
20
6
10
18
18
16
22
48
36
10
60
255
255
255
44
0
0
0
0
0
0
8
20
30
56
114
162
178
208
255
255
255
255
255
204
0
0
0
2
8
14
22
38
46
28
28
48
38
10
32
30
30
36
34
36
18
8
8
14
18
32
20
14
8
14
14
28
18
24
18
2
10
10
16
20
12
255
255
255
255
255
246
228
244
254
218
216
216
182
184
144
126
134
100
92
86
76
76
72
66
12
46
40
24
34
42
16
34
48
12
8
16
10
34
34
28
54
110
255
255
255
80
10
14
44
134
140
56
106
54
8
26
20
4
8
10
28
30
20
18
30
22
20
32
26
16
12
12
14
12
10
20
16
20
24
24
14
16
32
24
8
20
18
18
12
12
14
4
14
52
72
48
158
255
255
255
255
62
4
8
8
4
6
2
4
4
4
2
4
4
6
6
8
16
14
26
16
16
8
24
66
136
168
104
32
86
120
74
72
24
70
98
60
58
74
90
44
122
124
118
96
52
48
80
76
110
108
38
34
102
126
158
114
70
64
104
138
114
96
70
14
50
36
60
78
68
78
58
8
46
26
16
60
72
54
54
64
50
10
24
22
24
36
34
102
156
160
102
12
38
20
30
54
30
46
98
154
102
18
20
70
72
60
62
46
18
24
38
38
34
44
42
28
18
26
20
14
50
44
24
24
28
26
44
54
24
6
8
14
16
2
24
22
26
20
44
42
30
30
22
16
28
28
30
26
12
30
36
36
12
172
255
255
244
6
0
0
0
0
0
0
2
4
4
4
26
60
74
76
106
255
255
255
255
202
2
0
2
8
18
32
52
64
54
36
38
66
62
44
58
52
32
26
16
12
24
30
22
18
8
22
20
12
6
22
26
22
32
28
36
26
20
22
22
14
10
255
255
248
212
182
172
178
196
226
210
220
222
174
186
176
164
152
106
104
126
98
76
108
128
104
48
10
6
24
26
10
36
50
28
26
30
4
30
46
50
52
200
255
255
252
54
2
20
74
150
84
78
112
30
6
28
22
16
10
6
12
16
14
34
32
8
14
28
18
14
12
8
10
10
6
16
8
12
16
12
14
28
38
22
14
30
26
28
18
14
22
10
12
40
46
36
240
255
255
255
152
8
8
8
8
4
2
4
2
2
2
4
8
6
6
4
10
18
4
8
18
22
18
18
34
104
154
120
46
50
110
120
88
28
40
64
34
66
44
18
28
72
54
70
90
52
48
98
118
142
108
36
92
122
106
72
130
90
136
150
126
100
92
56
12
58
56
60
62
82
66
42
32
22
40
14
30
74
50
18
34
42
36
24
48
34
36
66
142
162
114
100
40
44
42
24
48
24
18
88
116
76
30
22
14
52
70
90
70
12
16
16
28
56
28
12
18
24
16
14
6
32
46
34
12
26
32
44
58
28
18
22
44
38
28
16
18
10
16
42
24
8
14
8
14
16
20
18
14
4
14
26
48
22
255
255
255
170
0
0
0
0
0
0
0
0
0
0
0
2
12
18
18
10
44
178
218
218
90
2
0
4
16
36
54
72
66
38
36
40
38
28
30
50
34
24
20
20
14
16
18
28
20
18
16
14
8
6
24
32
24
18
22
10
12
26
24
20
22
34
255
255
192
152
140
136
134
132
142
142
176
206
172
170
192
220
224
182
166
200
156
82
94
112
130
114
62
40
48
36
14
38
58
24
26
50
46
60
80
84
72
255
255
255
134
48
8
40
110
144
30
104
84
30
8
24
34
26
16
22
22
34
32
32
18
6
16
22
14
8
10
8
14
12
14
20
2
18
24
6
12
30
38
18
10
20
4
34
18
2
22
20
28
50
60
66
255
255
255
255
78
6
12
12
8
4
6
6
2
0
0
4
8
4
4
8
12
12
16
18
10
6
6
14
26
76
142
150
84
18
90
164
110
48
76
80
38
24
32
50
56
64
42
46
82
72
30
80
132
186
166
78
88
112
52
26
40
114
152
138
108
86
58
30
22
44
44
56
50
66
50
32
48
18
50
46
70
82
30
20
44
74
42
2
12
26
64
146
192
156
134
122
34
42
44
24
14
20
32
68
124
138
110
58
42
54
84
94
88
46
22
20
42
72
62
52
66
70
52
16
6
28
30
14
8
24
34
36
54
26
16
14
18
44
42
36
34
10
16
40
40
14
10
28
20
2
12
8
6
2
6
22
12
108
255
255
255
94
0
0
0
0
0
0
0
0
0
0
0
0
0
0
0
0
0
14
26
26
14
2
0
4
16
38
70
78
40
8
24
36
18
22
32
36
30
34
24
18
10
12
24
48
40
24
12
4
10
4
16
34
40
28
16
16
24
32
30
28
30
46
255
255
178
112
94
100
114
122
116
112
138
182
186
164
180
214
222
206
184
212
206
144
116
108
128
120
88
74
66
78
44
12
24
26
30
30
36
44
80
88
64
255
255
255
78
46
20
56
132
106
36
110
66
16
18
24
26
32
18
6
20
30
32
32
28
26
36
34
18
4
14
0
8
6
16
14
6
20
16
14
30
34
32
10
8
18
6
24
10
16
18
10
20
38
50
160
255
255
255
206
28
4
8
8
4
0
0
0
0
0
4
6
0
8
8
6
10
14
18
36
18
14
22
16
12
50
108
152
124
10
32
132
90
22
56
76
12
18
40
26
28
32
38
54
74
94
60
16
90
148
140
64
26
92
52
42
88
70
54
56
76
72
36
14
22
60
68
64
58
76
88
58
34
48
92
76
62
58
38
36
76
72
2
36
44
72
126
174
176
90
86
94
14
62
64
38
46
22
34
80
110
126
128
118
102
94
126
108
98
84
60
50
58
66
44
44
64
66
72
40
22
30
12
2
20
14
28
18
36
48
20
22
32
14
18
38
44
38
40
44
54
24
30
26
22
8
24
42
28
26
32
46
78
250
255
255
244
28
0
0
0
0
0
0
0
0
0
0
0
0
0
0
0
0
0
0
0
0
0
0
0
4
20
48
72
46
6
6
34
46
44
56
60
58
36
20
12
36
32
24
16
20
42
24
10
8
16
6
12
34
32
10
6
6
14
22
24
32
24
30
255
255
158
88
62
66
78
100
118
108
108
126
122
96
114
146
148
158
160
170
182
158
120
120
162
146
124
130
84
74
76
40
20
20
24
32
38
40
62
80
116
255
255
250
58
36
22
102
174
76
78
106
72
20
2
30
32
38
40
34
22
26
32
34
30
24
28
26
28
24
12
6
14
14
14
6
10
28
28
32
36
30
32
16
16
24
14
34
24
16
26
24
24
38
56
255
255
255
255
92
0
0
0
0
0
0
0
0
0
0
4
2
4
10
10
4
14
34
36
24
10
8
12
14
26
52
88
138
152
44
24
110
86
44
82
104
50
30
20
42
54
72
58
56
60
70
78
46
68
102
96
66
16
80
90
76
64
46
54
62
74
88
60
26
28
58
90
70
32
12
42
68
48
72
64
28
34
64
60
76
96
38
38
54
56
72
82
110
124
40
90
198
104
104
80
22
14
42
18
66
96
60
30
32
32
54
114
96
86
114
128
112
94
80
48
30
30
28
34
48
38
52
58
26
22
14
34
24
24
36
42
10
28
26
12
18
32
38
42
32
42
34
24
20
20
16
46
30
12
22
34
40
140
255
255
255
84
0
0
0
0
0
0
0
0
0
0
0
0
0
0
0
0
0
0
0
0
0
0
0
0
6
20
40
76
64
18
10
32
42
46
58
72
60
32
16
12
36
24
12
18
22
42
30
6
24
14
16
30
48
40
18
10
2
20
30
24
28
12
10
255
255
140
70
44
52
48
52
88
88
80
102
104
76
82
102
106
126
142
150
168
178
150
124
160
154
122
136
114
88
94
82
34
20
30
26
22
24
44
66
206
255
255
130
78
64
66
152
168
26
106
106
60
30
16
16
26
34
38
50
42
20
30
30
14
4
18
24
16
16
4
12
4
14
22
14
12
22
22
30
30
34
36
18
14
14
6
8
6
8
16
28
36
46
92
255
255
255
254
26
0
0
0
0
2
2
2
0
0
0
4
6
2
10
4
2
18
26
14
16
10
4
10
12
4
26
58
114
136
64
60
140
126
72
90
86
26
40
20
16
46
74
72
64
64
58
44
20
78
82
80
106
38
36
74
80
54
40
56
72
80
86
68
38
28
22
64
72
42
38
44
24
38
26
20
26
54
66
38
52
56
24
42
40
48
56
96
126
146
60
80
164
88
88
76
30
8
44
48
96
118
84
78
56
32
46
82
64
78
92
126
124
120
120
108
74
58
56
36
40
28
20
40
24
18
22
12
22
12
22
30
30
50
42
12
12
6
16
54
58
52
44
34
36
8
14
28
18
14
28
60
50
146
255
255
255
40
0
0
0
0
0
0
0
0
0
0
0
0
0
0
0
0
0
0
0
0
0
0
0
0
6
20
36
54
46
24
20
28
36
34
52
64
22
42
36
14
24
56
56
22
18
44
18
22
20
30
26
32
20
16
8
18
12
24
38
32
28
22
22
255
255
134
62
28
38
40
38
50
62
66
76
90
84
78
68
70
100
114
116
130
162
172
146
170
202
192
182
162
134
106
70
42
58
58
56
60
44
50
38
255
255
255
82
88
74
84
144
94
40
118
82
34
42
16
16
10
22
28
32
36
40
34
28
20
14
14
8
8
10
4
10
6
10
14
10
8
10
12
24
26
32
18
8
2
6
12
10
12
8
16
28
42
64
154
255
255
255
116
0
0
0
0
0
2
0
2
0
0
0
0
4
14
14
6
2
16
26
18
16
10
12
20
32
54
48
38
92
134
70
42
108
140
140
124
66
22
14
34
28
20
54
54
52
60
64
54
18
70
48
42
98
80
14
50
82
114
92
62
64
58
38
54
42
26
14
74
98
80
70
46
38
28
36
76
92
74
56
30
46
48
14
46
36
40
98
132
140
154
120
176
224
138
146
128
96
56
102
114
112
144
130
156
160
142
134
126
102
130
86
110
116
106
98
138
144
124
124
76
46
26
22
38
24
16
16
14
28
6
20
28
26
14
16
30
38
30
58
86
72
52
28
24
42
14
8
22
28
20
48
144
180
255
255
255
242
16
0
0
0
0
0
0
0
0
0
0
0
0
0
0
0
0
0
0
0
0
0
0
0
0
4
14
32
58
52
30
38
46
44
32
42
88
60
76
34
22
18
22
48
40
30
36
10
30
22
16
18
18
20
24
32
38
30
36
54
54
40
22
8
255
255
124
60
32
36
26
32
40
48
64
54
38
48
58
50
50
74
96
102
90
96
118
114
130
178
214
202
148
122
116
88
68
66
60
48
58
66
68
58
255
255
196
42
52
36
68
116
48
68
112
62
24
32
14
16
8
20
36
34
22
30
36
28
8
14
24
6
10
8
16
8
4
10
20
24
20
16
24
22
16
22
8
12
4
12
12
8
8
24
24
26
48
88
255
255
255
255
38
0
4
6
6
2
2
2
2
4
10
10
6
4
14
16
14
10
22
22
10
8
14
28
40
28
22
18
18
58
114
100
72
84
102
140
174
114
38
24
20
30
16
58
50
60
74
88
76
10
70
64
62
102
74
18
68
84
100
58
18
46
26
42
64
52
48
24
66
82
82
90
72
46
36
28
32
38
20
24
16
30
46
20
32
52
80
98
100
94
82
80
108
78
62
82
88
92
52
106
96
54
88
62
90
128
170
186
162
144
118
114
120
146
144
100
110
108
84
104
90
72
60
42
38
36
32
30
34
30
40
38
34
12
4
8
28
24
20
50
80
62
18
18
48
48
20
22
44
26
28
88
252
255
255
255
255
52
2
0
0
0
0
0
0
0
0
0
0
0
0
0
0
0
0
0
0
0
0
0
0
0
0
4
16
34
56
46
22
28
22
36
26
24
56
50
46
12
22
38
40
52
42
34
20
18
12
26
12
16
6
16
14
30
20
18
24
34
26
2
16
12
255
255
108
36
4
18
14
18
24
20
50
76
58
54
50
44
48
52
64
84
78
62
60
42
36
70
134
160
112
98
128
112
78
76
68
50
56
52
38
230
255
255
120
54
66
20
62
106
20
100
114
60
6
14
6
12
14
30
34
26
24
38
38
38
22
12
20
8
10
12
16
12
10
10
14
16
12
24
28
12
10
22
14
20
14
10
6
12
22
34
24
20
40
94
255
255
255
176
6
0
10
12
14
6
2
2
2
10
16
14
14
8
16
18
12
18
18
10
4
6
20
12
24
40
34
18
24
38
62
86
104
108
90
114
178
142
54
30
24
40
26
58
44
48
74
90
92
40
62
106
100
100
58
72
64
60
78
78
58
38
20
38
72
58
28
26
40
40
26
44
54
30
22
32
36
74
78
48
22
40
44
30
24
44
72
72
116
150
130
132
156
90
32
38
62
70
40
70
48
34
68
58
62
36
92
120
98
62
64
80
92
138
158
128
104
74
56
80
68
62
74
70
46
20
24
40
42
24
18
22
30
8
10
14
22
14
20
48
64
20
18
18
30
32
12
30
42
24
56
158
255
255
255
255
170
0
2
10
18
24
28
28
26
22
14
4
0
0
0
0
0
0
0
0
0
0
0
0
0
0
0
2
14
38
66
60
38
40
40
58
44
16
24
10
12
16
28
38
44
36
30
36
22
16
2
32
24
6
10
18
28
18
8
32
40
30
20
6
14
10
255
255
110
36
6
10
6
16
26
18
28
64
80
82
58
32
48
64
54
60
70
64
58
38
16
30
108
178
158
126
150
158
124
82
60
62
70
86
48
255
255
255
86
52
42
34
102
98
24
110
94
40
12
22
16
18
24
34
38
32
38
42
34
34
18
8
16
10
12
16
8
8
6
12
8
16
22
26
22
14
16
18
8
2
8
8
12
8
18
30
6
4
40
148
255
255
255
86
0
0
10
10
12
4
0
2
2
8
14
10
6
18
24
20
6
6
6
10
8
14
24
32
38
14
16
36
44
38
56
72
102
120
86
78
146
166
110
68
58
66
62
80
52
42
30
76
94
58
32
110
158
146
48
48
116
112
66
54
58
46
42
80
62
36
22
10
20
38
26
20
38
50
34
20
4
18
52
50
32
48
34
2
8
30
80
88
84
120
164
176
162
104
22
54
96
110
88
62
40
40
30
54
56
22
44
82
94
38
28
22
38
66
88
102
110
84
68
80
48
38
52
52
40
14
14
36
36
22
12
34
24
6
12
14
16
30
44
66
52
10
14
2
30
30
20
34
26
6
88
255
255
255
255
216
46
98
120
144
150
152
156
154
158
166
164
136
104
80
56
34
12
0
0
0
0
0
0
0
0
0
0
0
6
26
66
80
56
46
50
64
50
24
26
16
18
28
36
14
12
12
18
30
28
22
14
20
42
38
32
26
16
12
14
34
20
6
12
6
26
24
255
255
132
48
22
14
2
6
14
18
18
26
48
72
76
46
40
66
74
74
74
76
84
86
60
42
92
166
174
122
140
192
188
146
86
60
66
46
116
255
255
186
88
46
28
78
126
60
60
112
88
32
20
24
12
6
26
28
30
28
40
48
32
24
14
10
20
16
14
22
8
8
4
14
4
12
2
14
22
18
20
18
6
4
6
8
14
6
18
44
36
20
78
255
255
255
254
34
0
0
6
8
8
4
4
6
4
4
6
6
4
16
12
10
2
8
6
6
4
28
20
14
16
10
16
24
42
38
52
72
88
96
72
62
114
142
120
96
72
50
66
100
88
44
18
60
94
78
36
68
156
136
64
18
78
122
108
70
46
62
84
76
32
28
38
38
58
78
70
38
28
50
62
44
28
28
54
16
38
66
52
20
10
38
52
68
52
18
86
158
128
88
90
50
82
82
98
84
58
60
34
30
28
36
14
30
98
96
58
12
30
62
76
78
90
70
64
66
70
80
88
80
70
32
24
36
42
50
34
32
14
16
18
20
18
38
54
44
26
24
20
22
26
16
26
44
40
76
230
255
255
255
255
144
216
255
255
255
254
230
204
196
220
240
255
255
252
228
204
184
142
90
54
20
2
0
0
0
0
0
0
0
2
8
40
70
62
44
42
50
46
40
28
8
28
30
18
16
22
34
22
8
26
20
20
10
10
20
12
2
4
20
42
40
6
8
18
16
18
32
255
255
130
40
22
22
16
10
2
8
18
22
32
54
74
68
44
40
60
82
76
62
68
88
80
52
60
100
132
98
90
132
146
138
96
76
70
14
198
255
255
126
42
24
12
74
90
22
98
114
78
24
32
22
20
34
38
32
24
26
40
46
36
22
12
14
12
6
12
12
14
12
8
18
8
16
10
14
16
4
14
14
4
4
6
6
14
6
2
20
36
30
150
255
255
255
116
8
0
0
2
2
2
2
20
20
24
12
8
6
16
4
16
20
8
16
16
4
10
18
12
6
8
22
10
34
44
14
8
50
80
104
104
72
84
98
80
64
46
50
72
114
140
104
54
64
78
60
72
30
130
154
90
16
44
80
130
114
52
68
128
100
40
36
64
56
50
66
80
74
58
44
32
34
32
32
64
36
16
42
42
28
30
68
72
66
46
32
124
176
136
116
104
38
48
36
50
86
72
74
64
36
22
58
12
18
40
56
56
42
28
32
50
78
102
104
70
52
58
76
78
80
84
54
30
26
32
50
52
54
22
24
14
12
56
56
26
56
30
16
18
26
22
10
18
56
92
232
255
255
255
255
50
174
246
236
180
148
114
116
92
74
98
116
126
180
176
182
198
236
255
246
226
168
102
50
12
0
0
0
0
0
0
0
18
44
54
50
48
44
32
34
36
16
26
18
26
22
34
28
16
14
24
22
22
16
10
14
16
10
28
46
48
26
30
12
50
42
28
24
255
255
130
42
22
26
32
30
6
8
6
16
20
32
42
64
66
40
30
52
62
50
52
66
74
66
70
88
110
110
82
94
96
116
124
88
56
32
255
255
255
84
38
36
32
86
72
50
118
92
38
8
28
12
20
16
18
22
18
18
36
44
38
24
12
12
12
10
10
4
20
10
2
22
10
16
12
10
20
4
12
20
4
2
8
10
20
12
10
4
26
54
255
255
255
255
46
0
0
0
2
4
2
6
20
10
18
4
8
8
8
8
8
28
14
10
10
14
20
20
8
4
14
22
10
32
24
10
10
30
58
80
94
88
80
92
88
54
54
72
96
96
98
62
48
94
104
62
56
54
108
132
116
40
20
48
94
116
68
64
118
108
70
78
84
42
26
24
48
82
104
84
34
24
42
56
62
24
50
58
28
20
38
68
40
10
42
90
134
136
120
106
88
34
36
4
16
52
32
46
50
54
36
42
34
16
74
86
72
72
62
52
68
56
78
126
114
68
34
92
94
72
60
42
42
48
36
26
18
56
40
20
18
46
66
18
8
50
28
14
24
16
12
18
74
136
255
255
255
255
255
136
236
132
80
70
44
28
8
40
54
82
80
76
42
98
106
110
112
116
148
200
252
255
240
206
162
112
60
16
0
0
0
0
6
22
46
70
86
78
56
38
30
30
18
20
24
16
10
10
18
12
6
8
4
12
16
20
28
16
30
26
18
12
34
36
60
14
6
8
255
255
138
48
16
10
20
34
22
4
4
8
12
24
26
50
80
76
56
56
54
48
58
60
64
72
84
88
84
120
124
118
118
132
124
80
56
64
255
255
198
68
22
30
56
104
70
78
106
66
22
28
18
2
6
20
30
30
24
26
44
34
42
44
32
18
14
14
10
8
18
6
4
26
4
26
10
4
20
10
12
18
2
4
10
8
20
12
8
10
32
144
255
255
255
150
16
0
0
0
0
2
4
2
14
14
6
8
14
6
4
6
10
12
20
22
20
12
16
10
12
6
26
24
22
44
46
34
32
20
46
78
76
98
96
90
90
40
42
26
74
86
94
62
36
84
132
110
62
30
72
86
80
60
34
44
66
104
72
68
120
108
62
82
106
46
20
16
4
28
56
74
60
32
38
12
56
54
30
30
10
42
26
38
10
16
86
148
148
144
128
98
94
48
32
10
14
30
10
38
38
40
50
62
44
54
98
58
60
118
84
62
28
18
56
74
62
64
96
104
94
82
72
52
74
76
48
40
46
60
30
10
18
32
38
4
14
54
28
4
12
18
18
58
162
255
255
255
255
255
82
190
110
32
56
70
48
80
114
132
168
190
174
172
142
164
184
206
196
136
102
112
132
172
196
226
250
248
230
176
118
70
24
2
0
4
16
40
74
100
102
72
46
52
20
16
16
22
16
14
14
14
12
10
16
12
16
4
20
26
30
16
16
8
22
40
22
28
26
22
255
255
132
42
12
12
22
48
70
70
56
42
44
46
42
50
70
70
58
60
54
44
54
60
52
54
70
78
74
122
168
136
130
114
92
92
62
130
255
255
160
70
12
36
48
74
30
88
106
66
4
34
30
28
12
8
26
22
22
38
36
22
24
24
24
26
24
20
16
8
18
22
20
26
10
12
10
8
18
12
12
14
6
4
4
10
16
22
12
16
32
255
255
255
255
26
2
0
0
0
0
2
6
6
14
12
4
4
12
6
8
2
6
2
6
8
14
30
12
4
20
16
28
14
12
18
6
18
42
30
50
102
106
112
98
78
100
90
50
18
72
66
100
96
42
42
86
106
112
34
64
80
82
58
10
48
90
146
106
60
114
138
90
86
104
72
14
34
18
50
74
60
40
24
26
24
34
58
26
16
28
30
22
50
30
44
128
136
128
148
148
134
112
28
22
26
24
36
32
14
24
14
24
30
20
74
108
58
66
106
64
78
48
54
80
92
102
144
116
70
54
48
58
54
60
40
8
22
42
46
28
16
12
14
44
20
24
48
12
8
6
24
46
104
255
255
255
255
255
82
132
86
52
24
58
92
138
192
194
172
186
194
178
178
188
214
224
254
255
222
192
168
128
120
106
108
132
162
222
255
252
238
206
142
72
18
0
6
22
60
100
98
88
98
66
18
14
24
12
10
10
26
16
12
8
12
22
24
6
20
22
16
10
12
8
16
14
24
4
6
255
255
158
72
46
70
80
88
96
114
112
90
82
72
66
66
64
56
50
40
32
36
48
60
48
60
76
72
94
152
170
146
130
96
106
162
64
224
255
255
102
42
20
40
38
52
8
116
114
62
16
66
36
56
18
8
34
28
22
40
40
38
56
42
20
16
16
14
18
16
8
8
22
32
22
6
12
22
18
6
14
16
10
16
20
16
6
10
14
32
88
255
255
255
226
2
6
14
14
8
0
0
0
2
12
10
10
12
16
6
10
4
4
8
12
14
20
12
14
12
16
12
32
8
30
28
14
16
8
16
16
52
76
98
92
52
36
68
46
64
82
60
78
96
52
38
58
52
90
78
68
78
70
56
26
54
52
124
134
96
124
154
112
80
82
100
72
32
32
64
74
34
18
16
50
44
54
48
20
68
60
36
10
42
22
66
110
122
114
114
130
130
90
30
46
62
68
58
60
58
56
40
20
24
20
56
110
102
100
120
118
72
22
68
122
134
116
106
68
44
48
60
50
20
26
30
16
18
26
26
10
10
8
12
32
26
22
34
14
8
12
64
140
255
255
255
255
255
54
108
172
160
126
74
84
114
166
168
122
130
184
208
220
218
244
255
255
255
255
250
234
230
196
170
138
134
122
80
92
154
190
220
255
255
255
224
180
120
56
2
48
64
76
108
110
68
36
42
56
28
14
28
22
16
16
10
10
22
22
22
14
8
14
16
10
14
8
12
20
26
255
255
218
116
90
98
88
66
56
58
72
62
70
66
68
72
52
46
70
60
32
32
56
64
56
82
126
158
186
204
194
192
186
118
140
210
82
255
255
196
104
76
66
62
72
84
46
120
86
54
66
68
12
32
26
22
28
14
20
42
52
54
40
8
6
24
20
8
14
14
10
12
6
10
14
16
16
24
10
8
26
26
22
20
12
6
4
6
28
56
230
255
255
255
70
2
6
8
6
8
2
4
4
2
10
6
2
12
16
18
12
14
10
14
6
8
14
10
10
6
24
10
34
24
22
18
12
10
8
12
18
40
44
76
130
96
22
16
14
58
92
76
86
114
76
46
46
26
44
42
28
58
62
52
54
46
28
86
96
100
132
168
166
120
98
134
138
80
48
70
58
16
16
26
56
40
74
78
72
92
62
60
50
6
58
94
154
174
152
158
166
136
82
44
56
72
70
68
72
62
54
68
62
50
56
54
70
114
120
76
74
102
78
58
104
138
106
74
58
22
44
74
70
50
38
58
40
24
12
24
2
18
14
30
36
30
30
30
4
18
56
172
255
255
255
255
255
36
62
88
64
90
122
98
66
86
104
124
100
136
184
200
220
188
202
236
184
255
255
255
255
255
242
228
190
174
160
108
88
102
102
92
132
208
255
255
255
255
255
198
128
68
4
58
106
110
78
52
50
44
24
24
20
4
4
18
30
46
36
14
10
16
16
22
28
22
6
12
28
30
255
255
206
82
56
54
42
38
28
32
44
40
46
42
56
78
50
26
56
58
32
60
92
76
70
116
172
200
180
178
200
218
204
128
154
182
108
255
255
144
116
90
80
60
74
58
66
110
80
36
60
26
24
26
32
40
40
36
44
58
54
40
28
16
14
20
10
10
26
18
14
4
8
8
10
12
18
24
10
12
22
22
18
8
12
10
4
14
48
86
255
255
255
255
4
0
6
12
12
8
2
2
2
2
10
14
12
16
6
12
2
14
16
24
14
18
22
8
14
8
38
44
20
16
18
10
40
26
26
12
10
46
74
84
142
164
90
42
46
54
52
64
88
108
112
82
44
28
78
62
48
58
74
74
62
42
18
72
54
48
88
152
208
186
144
118
98
76
50
60
34
22
38
64
68
12
36
54
94
46
16
20
64
56
110
206
254
206
180
176
152
118
72
52
80
90
52
66
86
90
50
46
80
66
60
66
66
102
136
100
88
126
128
126
174
224
216
162
78
20
44
82
76
78
72
70
52
64
40
14
36
14
8
20
40
38
30
18
28
102
188
255
255
255
255
252
10
144
255
255
246
204
134
74
82
84
110
126
144
188
170
156
160
132
146
154
106
168
240
234
250
255
255
255
254
228
178
112
88
92
100
98
82
68
70
102
154
210
255
255
255
255
234
152
46
44
84
88
68
72
56
16
14
14
16
18
16
18
10
22
14
28
8
6
6
26
4
18
16
24
255
255
146
30
10
12
12
18
18
22
34
42
46
38
52
80
58
28
52
54
44
76
90
60
60
130
204
220
184
192
210
188
168
146
180
136
168
255
255
144
118
68
36
30
44
18
82
90
64
26
46
44
64
44
42
50
40
38
52
72
70
48
28
18
18
12
14
16
24
6
14
12
10
4
10
18
26
30
22
28
32
20
8
4
8
12
8
20
66
232
255
255
255
100
0
0
2
2
2
4
6
6
6
6
4
2
10
14
20
6
14
8
10
16
12
14
22
16
24
20
14
20
26
38
32
24
34
22
14
4
10
30
58
46
90
168
136
60
46
50
32
60
96
116
136
128
78
66
96
48
72
96
106
70
50
58
38
62
72
62
72
100
138
154
188
170
128
128
112
112
116
132
104
100
72
68
42
76
44
28
14
24
32
34
128
244
184
74
82
90
72
84
66
58
84
64
34
28
40
90
76
58
76
82
70
70
66
72
112
108
94
108
102
98
124
178
254
255
208
118
98
102
88
100
104
76
22
36
64
58
10
26
18
38
62
36
8
32
122
255
255
255
255
255
228
10
200
255
255
255
255
132
12
58
94
110
112
170
254
255
255
232
204
170
152
148
154
172
255
255
255
255
255
255
255
255
220
142
128
106
110
140
134
102
80
88
98
98
94
116
194
255
255
255
255
240
146
40
40
72
82
64
28
20
12
10
16
18
8
14
16
26
32
30
16
18
18
26
16
40
255
255
174
44
24
20
12
6
6
8
6
18
30
44
56
70
50
36
62
62
54
74
78
62
96
214
255
252
192
192
192
172
176
166
168
104
248
255
255
218
176
98
64
82
82
92
132
116
70
36
64
48
76
58
38
50
38
18
42
70
62
42
34
18
18
16
10
14
30
22
18
10
8
4
8
4
10
18
14
18
16
6
14
16
12
4
16
34
130
255
255
255
208
4
4
0
2
4
4
2
6
8
8
2
2
2
10
8
8
12
8
28
26
22
20
12
10
18
16
4
22
26
8
16
10
10
18
12
16
2
20
16
36
18
52
134
154
120
96
60
30
38
56
84
120
118
86
76
78
38
38
96
120
94
72
94
72
66
106
108
98
80
64
74
148
150
122
168
146
144
216
224
190
124
88
100
56
32
20
14
74
92
88
90
174
178
88
68
74
58
62
84
66
64
46
18
28
20
18
30
62
54
68
86
76
64
58
58
80
78
66
88
112
124
126
142
208
255
250
182
136
126
114
106
94
104
98
48
38
22
38
30
40
40
36
56
118
200
255
255
255
255
255
224
8
232
255
255
255
255
246
118
38
42
58
90
180
255
255
255
255
190
136
76
40
62
108
122
186
254
255
255
255
255
255
255
255
230
220
166
140
172
200
190
160
128
138
168
130
104
94
116
144
200
255
255
255
250
180
120
44
36
52
44
38
38
34
22
20
12
10
22
30
38
26
8
2
6
26
20
255
255
176
50
36
42
42
36
32
34
30
40
42
50
66
78
68
68
98
90
76
88
94
132
208
255
255
196
168
190
184
182
198
182
168
98
255
255
255
255
244
152
136
168
160
184
200
152
90
66
82
56
80
92
70
82
72
26
44
72
60
46
32
10
6
18
10
8
14
16
24
26
8
10
10
0
8
20
10
8
12
8
8
6
6
6
26
90
255
255
255
255
84
0
4
0
0
0
2
4
10
8
8
6
4
2
8
4
0
14
22
8
12
8
10
4
6
12
12
8
10
12
14
14
6
16
20
8
2
8
12
12
36
42
38
80
112
148
150
104
58
42
36
40
84
112
90
86
80
78
32
74
128
90
72
72
40
34
62
90
110
106
66
56
136
142
114
110
148
134
194
136
160
148
134
112
60
74
108
88
102
76
58
80
134
112
78
128
132
72
94
128
86
60
46
18
32
36
10
10
20
28
34
50
62
60
46
46
82
104
62
80
88
128
110
118
176
214
236
210
174
174
184
166
98
74
106
112
102
86
54
52
72
104
176
255
255
255
255
255
255
255
54
166
255
255
255
255
104
255
255
102
30
26
56
146
250
255
255
234
76
74
72
68
84
106
130
86
54
102
150
190
255
255
255
255
255
255
255
255
255
242
212
196
178
162
216
255
255
255
255
230
188
186
184
204
222
212
208
230
218
128
40
22
38
40
36
40
50
34
20
14
10
16
32
30
26
24
28
16
255
255
168
46
30
38
52
62
66
68
70
70
76
84
94
96
76
72
86
60
58
98
140
218
255
255
238
182
184
208
204
198
202
178
140
68
216
255
255
255
255
196
172
218
204
255
255
232
132
112
110
78
76
84
80
98
98
56
60
80
76
74
66
28
8
20
20
8
12
24
16
24
20
22
18
10
16
20
4
8
12
4
2
2
2
26
60
206
255
255
255
154
14
4
4
0
0
0
0
0
6
8
6
4
0
4
8
8
10
8
14
16
20
14
8
8
16
4
6
4
6
16
14
26
22
16
20
18
20
24
18
14
6
28
24
54
74
118
138
130
124
104
76
68
110
110
68
70
64
60
42
68
134
124
88
52
40
50
28
34
76
130
118
74
114
156
116
112
136
98
110
50
68
96
100
88
48
90
98
98
52
38
34
38
84
92
100
142
96
96
170
174
142
98
58
40
34
70
68
14
14
28
4
12
42
60
56
58
88
130
90
28
14
62
72
104
164
184
222
238
244
255
255
255
226
142
146
178
206
246
254
255
255
255
254
255
255
255
255
255
158
255
255
255
255
255
255
60
192
234
255
248
124
56
106
182
222
190
252
244
188
182
164
108
78
164
180
68
60
92
86
92
88
102
192
255
255
255
255
255
255
255
255
255
255
255
255
255
255
255
255
255
255
255
255
255
255
244
222
254
255
228
188
138
72
18
20
40
60
56
30
24
18
18
22
24
20
8
14
20
255
255
178
60
40
50
56
50
50
64
72
70
88
92
94
86
62
64
72
60
84
146
216
255
255
255
255
255
255
255
250
206
178
126
64
32
174
255
230
248
255
236
178
206
190
255
255
255
240
194
174
196
152
122
124
134
124
102
102
104
94
90
86
60
36
30
30
30
28
24
20
32
34
36
34
28
30
28
4
4
6
10
12
12
26
50
130
255
255
255
255
30
0
2
2
2
2
4
4
2
2
4
4
4
2
4
8
8
6
10
8
12
4
14
8
16
22
22
18
12
14
4
4
8
12
16
20
14
16
14
16
22
12
18
20
36
38
70
110
118
132
136
120
136
194
176
102
94
92
62
40
64
90
114
102
52
22
30
12
10
38
86
144
104
66
82
86
84
96
78
56
28
18
84
112
92
54
62
26
48
36
44
32
76
158
104
70
144
120
148
162
98
90
64
100
64
34
34
58
50
42
28
28
16
24
36
54
56
58
102
122
82
48
64
114
120
176
198
210
220
230
255
255
255
255
255
255
255
255
255
234
162
78
130
254
255
255
255
255
255
255
255
255
255
255
255
176
236
74
168
255
255
230
60
116
150
150
196
246
246
196
182
190
152
78
180
232
56
34
42
54
48
20
16
2
46
160
238
252
255
255
255
255
255
255
255
255
255
255
255
255
255
255
255
255
255
255
255
255
255
255
255
220
188
144
112
86
40
18
60
52
36
38
28
12
14
24
12
18
18
255
255
166
60
34
40
36
24
30
44
42
50
72
66
62
58
54
80
104
124
170
246
255
255
255
178
108
108
126
188
252
255
255
255
255
255
255
255
255
255
255
255
255
255
255
232
242
214
108
62
30
68
50
34
78
126
124
126
152
164
150
136
120
92
78
60
46
52
46
38
36
42
38
36
32
20
20
28
14
12
14
24
26
32
58
88
255
255
255
255
92
4
0
2
0
2
4
6
6
4
0
0
0
0
2
2
2
6
4
12
10
16
4
14
12
4
2
6
18
8
8
6
10
10
10
6
10
8
6
6
6
26
14
12
10
34
50
60
80
94
106
94
72
102
184
214
174
152
142
104
58
46
66
102
108
72
54
42
42
54
68
54
102
122
96
72
64
62
64
74
62
30
20
48
112
120
88
58
54
58
36
28
14
102
138
72
166
255
246
206
114
68
114
82
62
60
30
26
32
40
70
62
14
10
4
34
22
26
30
64
108
128
122
114
124
94
148
184
198
214
216
232
255
255
255
255
255
255
255
255
255
255
255
255
255
255
255
255
255
255
255
255
255
254
184
255
255
232
118
56
160
255
216
70
68
114
134
124
130
132
104
90
120
130
70
124
230
166
58
26
50
62
24
28
18
10
14
72
114
98
88
130
180
230
255
255
255
255
240
244
244
255
255
255
255
255
255
255
255
255
255
255
255
255
232
172
152
146
102
20
22
32
44
44
28
26
42
48
36
22
255
255
128
32
14
26
28
20
26
28
32
42
42
36
54
72
96
152
178
166
158
156
154
224
255
255
255
255
255
255
255
255
255
255
255
255
255
255
255
255
255
255
255
255
255
255
255
255
255
255
255
255
255
255
255
238
180
120
92
72
52
72
74
68
84
86
78
78
90
80
68
60
50
50
48
38
34
36
26
30
30
36
32
48
94
255
255
255
255
224
2
0
0
2
2
2
4
6
4
4
0
0
0
0
4
4
4
2
4
8
8
8
2
4
4
4
2
2
6
8
2
4
6
10
4
6
4
6
14
2
6
22
2
12
12
4
36
64
72
88
110
94
64
78
136
192
218
208
164
122
80
46
32
96
120
98
64
54
54
54
46
18
22
48
66
56
50
58
48
70
78
58
44
46
76
106
94
88
56
68
86
102
136
190
46
72
248
255
250
156
114
128
136
66
52
54
48
58
44
28
48
62
34
18
36
24
20
12
22
20
50
74
112
96
122
94
124
132
164
192
188
230
250
255
255
255
255
255
255
255
255
255
255
255
226
128
78
94
116
112
78
28
156
208
144
236
255
212
130
200
156
180
234
118
36
132
154
142
156
172
164
140
128
134
112
116
132
130
108
48
44
56
36
4
22
12
18
4
28
50
32
4
24
46
40
18
22
44
78
102
136
124
62
18
104
182
246
220
255
255
255
255
255
255
255
255
228
202
168
112
80
64
22
26
46
50
46
42
48
30
255
255
126
30
4
26
24
16
18
18
28
36
36
46
74
88
92
102
64
82
150
255
255
255
255
255
255
255
255
255
255
255
255
255
255
255
255
255
255
255
255
255
255
255
255
255
255
255
255
255
255
255
255
255
255
255
255
255
255
252
220
182
132
98
70
40
26
18
36
54
74
82
88
98
92
82
78
66
44
40
42
48
60
120
255
255
255
255
255
40
0
0
0
0
0
0
2
6
2
4
0
0
0
0
4
4
4
2
0
0
0
0
0
0
4
6
8
6
6
10
10
6
4
8
4
8
8
6
12
6
12
24
16
12
8
22
22
28
58
86
106
112
112
102
118
152
200
232
196
154
108
74
44
98
150
126
94
64
44
30
8
32
26
18
38
52
32
38
42
54
58
48
54
72
52
68
80
114
66
82
110
148
176
194
158
208
255
255
152
70
64
90
66
26
56
56
28
38
52
36
30
60
80
62
62
46
52
28
48
34
34
56
62
84
120
98
116
106
114
138
140
154
144
120
84
48
252
255
255
255
255
238
90
52
56
58
68
60
44
28
8
66
136
128
64
186
255
255
62
102
72
80
232
220
28
128
132
122
180
244
255
242
234
224
190
142
102
78
96
116
90
72
70
38
22
12
12
2
12
36
38
22
16
20
32
28
24
16
6
26
40
22
16
70
30
64
66
46
255
255
255
42
246
255
255
255
255
255
255
176
134
122
108
72
34
8
28
36
52
44
255
255
130
36
14
30
22
18
24
22
32
50
56
50
36
54
78
134
186
206
238
255
255
255
234
210
178
148
106
70
44
18
2
8
14
8
18
18
22
36
58
54
36
40
28
26
28
28
28
10
12
8
42
76
92
98
114
130
148
162
150
134
130
140
144
158
150
150
140
110
72
48
32
28
32
40
56
64
60
58
76
98
142
255
255
255
255
255
80
0
0
0
0
0
0
0
0
4
2
4
0
0
0
0
2
4
4
2
0
0
0
0
0
0
2
2
2
2
2
4
10
6
4
4
6
10
12
6
12
6
16
24
20
4
28
36
58
42
10
56
84
82
112
114
116
120
160
234
240
198
152
122
88
150
192
170
120
60
60
62
72
56
44
62
38
70
42
32
28
26
34
42
32
18
22
8
20
64
50
82
88
120
140
156
198
255
255
200
72
40
36
18
10
10
32
52
32
24
42
38
24
50
70
60
30
26
46
72
90
54
30
38
42
28
24
26
26
48
54
48
52
54
28
8
0
6
255
255
242
255
255
216
80
26
54
76
114
154
202
248
255
255
255
255
152
238
255
244
198
84
56
74
112
192
64
112
80
22
40
102
148
176
222
255
255
255
255
178
118
154
158
110
98
82
76
76
70
54
28
34
22
6
28
38
20
16
40
44
44
48
36
16
36
88
62
82
22
90
255
255
255
255
255
228
255
60
164
255
255
255
204
128
112
112
118
96
68
36
44
90
255
255
134
32
10
30
28
28
38
40
52
56
28
20
48
76
96
108
116
120
108
88
52
12
16
20
8
12
20
16
20
22
26
14
20
12
22
22
20
22
14
22
18
14
6
16
18
18
22
16
18
14
10
2
6
2
10
14
14
16
18
32
44
52
46
74
90
110
136
150
154
154
138
120
96
72
58
36
20
16
38
50
68
174
255
255
255
255
255
255
255
255
255
255
255
255
255
255
255
255
255
238
186
120
48
6
0
0
0
0
0
0
0
0
0
0
0
0
0
0
2
4
2
2
4
6
6
8
14
10
22
6
20
20
30
26
22
52
72
30
24
48
82
110
138
126
122
180
230
236
226
212
160
210
218
192
146
94
96
86
120
104
86
68
54
66
72
48
50
32
40
58
30
36
32
16
36
6
76
90
104
166
200
206
218
234
180
72
16
10
6
0
6
12
8
42
46
30
52
36
32
46
40
52
26
22
44
52
40
44
30
46
46
12
4
30
28
18
24
8
6
8
0
0
0
4
255
255
255
255
255
206
46
114
188
132
68
50
72
154
255
255
255
255
255
255
255
194
106
98
82
30
104
236
88
130
82
16
52
98
106
100
100
160
244
255
255
255
226
158
182
162
120
102
102
106
112
118
108
74
48
38
44
54
54
46
56
34
10
14
10
22
8
28
48
44
20
90
255
255
255
94
255
255
255
232
255
46
252
255
220
150
120
104
104
106
126
144
90
16
255
255
140
32
16
42
44
46
50
42
32
10
30
58
70
64
50
36
30
24
22
28
22
22
22
18
4
8
16
16
26
20
28
24
20
16
16
16
18
22
24
24
14
4
8
14
8
18
6
4
2
4
6
8
4
8
14
6
2
8
10
20
8
8
10
14
8
10
22
32
48
68
74
76
86
80
76
90
92
82
94
124
158
255
255
255
255
255
255
255
255
255
255
255
255
255
255
255
255
255
255
255
255
255
255
255
255
255
255
210
102
24
0
0
0
0
0
0
0
0
0
2
4
4
2
4
10
12
22
10
14
4
22
40
26
42
64
34
18
36
38
14
42
64
106
122
116
122
154
192
224
238
206
240
216
192
162
106
104
94
112
90
66
84
96
62
50
62
68
44
30
24
4
46
54
46
60
68
124
124
168
240
214
178
158
126
74
24
14
10
2
10
14
6
16
18
28
32
64
54
56
42
22
56
42
56
24
20
6
36
40
42
28
20
42
50
14
10
32
28
10
4
0
0
0
0
100
255
255
255
255
255
255
255
255
255
255
255
255
255
255
255
255
255
255
255
255
255
255
236
156
36
136
248
74
184
96
76
116
102
90
72
40
70
142
100
150
255
255
222
206
218
182
170
168
148
136
146
158
158
140
116
146
166
184
196
216
196
168
118
82
74
72
72
46
18
28
82
228
255
255
255
48
200
212
154
255
255
255
255
106
96
106
94
82
66
86
150
182
164
255
255
146
46
36
58
64
64
32
10
26
38
60
62
56
46
34
38
34
38
34
30
22
24
22
22
16
18
18
20
20
16
26
32
24
18
18
18
18
14
14
14
4
4
8
16
6
10
2
0
10
10
6
6
14
6
8
8
8
8
14
10
2
8
8
8
4
6
12
18
10
10
8
14
30
30
32
32
44
36
32
44
56
98
178
255
255
255
255
255
255
255
255
255
255
255
255
255
255
255
255
255
255
255
255
255
255
255
255
255
255
255
255
255
255
104
10
0
0
0
0
0
0
0
0
2
6
8
18
22
14
6
2
28
28
26
52
60
62
46
24
44
22
20
38
78
118
120
130
142
146
150
152
170
144
136
122
78
90
78
80
72
24
28
82
80
40
32
20
32
46
26
8
26
38
52
72
98
144
142
182
200
132
116
100
56
26
8
8
6
10
8
2
16
14
4
14
28
56
68
72
32
26
42
40
26
30
24
24
28
36
24
36
50
44
20
22
20
20
18
12
8
2
6
6
4
14
86
255
255
255
255
255
255
255
255
255
255
255
255
255
255
255
255
182
255
255
255
255
255
255
255
255
255
82
200
178
144
68
60
94
70
12
84
162
78
84
192
255
210
186
212
156
120
140
154
138
118
110
132
150
114
96
92
114
124
178
224
255
218
154
120
102
108
104
96
90
116
64
255
255
255
200
176
90
20
92
186
234
176
84
38
32
62
84
68
42
74
112
118
255
255
148
62
70
100
102
68
54
52
50
58
70
52
32
26
24
34
40
40
32
24
24
22
18
20
18
22
18
12
14
14
14
16
18
10
12
10
12
4
2
4
8
14
10
12
4
8
6
6
14
14
14
16
12
8
8
16
18
14
16
14
12
16
12
14
2
8
12
8
6
8
14
8
14
2
4
10
10
4
10
18
20
20
8
12
30
16
18
24
32
32
32
34
36
48
48
70
98
102
118
148
164
208
255
255
255
255
255
255
255
255
255
255
255
255
255
255
255
154
46
6
0
0
0
0
0
0
2
8
8
4
2
6
14
14
18
22
40
58
46
54
12
20
16
40
90
94
116
148
142
116
102
84
72
80
92
78
96
104
102
128
94
40
56
96
90
50
22
24
54
36
38
30
52
82
82
128
168
154
146
132
94
90
64
22
8
4
2
4
8
14
14
16
8
0
8
22
28
32
28
42
40
30
38
40
40
48
46
30
34
46
62
52
24
16
22
26
28
20
4
10
2
4
2
4
0
4
42
128
240
255
255
216
152
152
232
255
255
255
255
255
255
176
74
76
204
224
198
162
182
255
255
168
110
120
108
194
210
192
208
170
158
194
255
255
255
255
255
255
255
255
234
130
80
82
82
62
24
20
58
72
42
16
58
66
28
28
106
114
88
84
70
74
102
140
132
126
72
74
255
255
236
186
108
58
146
146
100
70
86
96
64
42
36
34
24
32
54
54
255
255
174
110
118
140
100
72
78
80
44
40
36
12
6
14
14
14
16
8
6
8
18
18
14
10
6
10
16
10
4
6
4
8
12
4
6
12
8
2
6
6
6
6
10
8
6
10
6
6
12
26
16
16
14
16
12
14
12
14
12
12
12
8
10
14
2
2
6
2
2
6
8
8
12
8
2
8
8
10
12
12
16
22
20
20
34
34
32
26
22
20
28
24
24
18
32
32
28
20
14
4
4
8
20
32
52
86
114
154
216
255
255
255
255
255
255
255
255
255
255
255
255
255
212
102
44
20
6
2
4
6
6
6
6
4
4
4
12
24
24
26
14
22
18
18
40
40
54
96
114
96
76
60
46
76
92
76
78
104
102
132
144
108
72
78
110
116
58
42
54
22
26
36
84
94
88
140
170
148
146
136
72
32
30
22
18
10
4
8
2
4
4
4
4
8
6
4
6
2
8
16
26
30
38
54
50
54
42
32
34
38
28
16
4
4
4
10
16
10
8
10
4
6
6
4
0
0
0
0
0
0
0
0
0
0
0
14
34
48
50
50
52
48
30
6
52
104
140
144
128
176
162
208
196
92
36
94
144
180
254
255
246
240
255
255
255
255
255
255
255
255
255
255
255
255
255
255
255
255
255
255
255
255
255
255
204
156
172
188
164
138
112
100
126
116
114
78
96
144
255
255
226
210
174
138
166
100
36
32
38
64
76
88
72
38
16
26
24
20
255
255
158
106
118
128
86
106
126
66
24
18
10
6
8
16
8
6
6
4
6
12
14
8
10
12
10
4
10
6
10
6
4
8
14
8
10
6
4
4
2
8
12
6
8
8
4
6
4
6
10
8
8
2
16
10
8
12
6
8
4
2
8
4
10
12
8
10
8
8
14
10
8
12
14
14
16
16
16
12
10
12
18
20
14
10
12
22
20
22
18
16
12
14
32
22
34
20
16
12
14
12
4
10
12
14
14
6
0
14
24
30
58
86
118
214
255
255
255
255
255
255
255
255
255
255
255
255
255
224
100
34
8
4
2
4
2
2
2
10
6
4
20
12
14
12
6
6
8
22
44
54
58
68
54
64
54
28
16
38
54
80
96
100
112
112
112
130
114
88
68
24
30
62
86
82
86
122
146
140
138
96
28
2
24
32
42
38
20
0
4
8
20
20
6
4
8
2
2
8
16
14
6
24
14
22
28
30
16
8
12
8
2
2
4
4
6
6
2
4
6
6
2
0
0
0
0
0
0
0
0
0
0
0
0
0
0
0
4
10
24
70
144
204
234
255
255
255
255
204
158
186
208
194
108
16
38
44
44
48
54
84
98
102
94
76
94
108
164
238
255
255
255
255
255
255
255
255
255
255
255
255
255
255
255
255
255
255
255
255
255
255
255
255
255
255
255
255
255
255
255
255
188
78
108
164
146
76
20
18
22
18
22
28
28
40
68
64
36
12
255
255
152
120
188
184
190
182
106
26
18
20
12
10
18
20
8
12
12
10
18
20
22
16
20
16
20
12
16
14
18
14
10
10
12
8
6
2
8
12
6
12
10
2
6
6
12
4
14
12
6
6
16
10
20
4
4
8
6
6
2
10
14
14
4
10
10
14
12
24
14
10
6
8
14
8
6
6
2
6
4
2
4
4
6
8
10
10
10
16
22
16
16
16
28
26
28
12
12
4
8
16
20
24
26
28
22
24
14
16
18
20
30
30
22
30
48
72
98
172
255
255
255
255
255
255
255
255
255
255
255
255
255
184
82
30
0
4
4
2
4
8
10
12
20
0
12
12
6
2
18
38
46
54
56
32
20
12
12
14
24
50
62
56
90
130
94
54
64
68
74
74
88
114
136
152
158
156
146
106
54
8
16
20
24
10
16
36
54
32
2
10
10
14
6
4
6
8
6
6
12
8
14
12
4
8
10
10
4
2
2
0
0
0
4
6
6
2
0
0
0
0
0
0
0
0
0
0
0
0
0
0
0
0
2
6
14
44
120
228
255
255
255
255
255
250
218
150
94
54
26
30
8
4
6
18
12
18
4
4
16
20
20
14
20
14
46
56
40
40
36
8
20
24
20
26
50
72
150
246
255
255
255
255
255
255
255
255
255
255
255
255
255
255
255
255
255
255
255
255
255
255
255
255
255
254
180
100
44
32
18
4
6
12
24
36
54
76
68
48
255
255
250
255
255
255
255
255
114
20
20
16
6
10
28
24
14
14
12
8
8
8
8
12
26
10
14
14
18
14
6
18
14
10
10
10
6
2
10
16
14
8
2
6
12
2
16
12
22
8
10
6
16
12
18
4
4
6
4
6
4
4
14
14
10
12
12
16
10
12
12
10
8
2
2
4
4
4
0
8
4
6
10
6
10
10
8
2
2
8
14
10
6
4
8
14
20
12
14
10
4
8
12
14
12
18
14
18
16
18
12
18
32
32
24
20
18
30
26
36
46
70
76
78
112
186
255
255
255
255
255
255
255
255
255
255
255
124
54
12
8
12
16
18
2
18
16
14
16
6
2
4
8
10
20
26
12
18
10
6
20
36
30
16
30
96
90
36
64
90
94
116
154
190
192
160
136
112
58
42
50
34
26
14
16
24
20
18
28
52
26
4
16
8
8
8
4
6
10
16
18
6
12
8
6
8
8
12
10
6
2
0
0
0
0
0
0
0
0
0
0
0
0
0
0
0
0
0
0
0
0
4
12
20
44
86
152
248
255
255
255
216
114
50
8
44
62
70
58
68
46
54
44
40
30
36
34
40
56
48
42
38
38
30
36
40
54
42
10
24
54
68
58
16
24
40
52
46
44
34
26
32
36
20
18
22
30
44
22
40
30
60
92
112
154
212
244
240
242
255
255
255
238
218
206
166
90
66
68
98
156
166
160
122
60
28
8
28
52
56
255
255
255
255
255
255
255
255
128
30
16
18
10
20
28
20
20
16
12
10
12
10
6
18
8
14
8
4
8
2
2
14
14
14
14
16
20
10
20
10
16
10
8
10
14
12
20
16
18
8
12
10
14
24
24
16
10
12
8
16
8
10
10
10
14
14
14
16
16
16
22
20
18
12
4
8
8
12
10
18
16
16
20
16
22
8
8
2
6
10
6
8
10
2
6
4
8
0
4
14
12
16
10
8
4
2
4
8
14
22
16
14
22
22
14
12
18
26
24
38
30
46
36
34
50
56
46
44
54
130
255
255
255
255
255
255
255
255
255
255
198
100
38
6
10
10
4
2
14
12
6
10
10
2
8
14
14
12
4
24
40
56
58
36
44
86
82
58
78
92
114
110
130
132
74
20
42
42
66
64
70
52
64
64
36
30
16
14
2
34
40
26
12
14
0
12
8
6
8
6
4
12
18
6
4
4
4
10
10
8
2
0
0
0
0
0
0
0
0
0
0
0
0
0
0
0
0
0
0
6
22
58
108
146
166
192
238
255
202
92
94
162
154
84
46
34
36
54
50
44
18
30
44
44
50
50
48
30
46
40
42
44
54
62
54
50
62
52
48
32
26
22
52
36
18
12
24
44
56
66
68
66
66
50
40
46
44
68
62
80
38
26
18
10
32
10
18
8
16
34
36
38
40
36
28
52
84
122
202
255
255
255
255
255
255
255
244
140
58
36
255
255
255
255
255
255
255
255
98
18
16
24
20
26
28
18
12
8
18
26
22
26
18
24
18
26
12
12
18
20
18
16
16
16
16
18
22
12
20
10
14
12
12
16
28
26
26
14
14
4
2
4
10
16
8
14
8
8
4
8
10
4
4
2
8
2
14
4
10
4
10
10
10
16
6
2
2
12
6
8
20
20
22
20
18
12
8
4
4
4
10
2
14
10
6
6
10
6
12
14
16
24
26
26
22
18
14
18
12
16
10
10
18
18
14
14
18
24
22
26
12
30
20
22
24
34
30
34
36
32
32
34
74
240
255
255
255
255
255
255
255
255
255
255
132
30
4
4
8
22
12
14
20
22
20
12
6
8
14
56
78
56
32
24
46
74
50
6
8
16
28
28
62
84
96
96
112
104
92
82
104
122
136
158
148
166
176
164
150
150
142
126
110
84
72
66
54
50
36
24
16
10
10
6
6
8
8
16
14
10
0
0
0
2
2
2
0
0
0
0
0
0
0
0
0
0
2
16
40
78
120
162
196
192
148
126
114
64
88
88
92
64
28
16
26
28
36
42
20
4
10
6
28
30
44
42
52
12
18
6
20
16
14
36
50
30
38
26
40
50
62
54
48
34
18
38
32
18
8
18
24
22
26
44
54
58
62
62
68
44
34
36
18
18
40
28
14
14
28
20
10
18
20
20
48
102
150
204
255
255
255
255
255
255
255
255
255
255
255
255
255
255
255
255
168
255
255
255
64
6
10
22
20
26
28
14
4
10
18
22
14
20
20
24
22
32
30
30
24
24
30
20
12
8
8
12
18
12
18
14
10
6
6
8
20
8
14
4
6
14
12
6
6
10
2
10
6
4
6
2
6
6
4
8
18
4
10
2
10
6
10
8
6
8
6
2
4
14
4
6
18
14
18
12
4
14
8
8
6
10
16
14
12
10
2
14
24
18
20
24
24
32
34
30
34
36
28
22
14
16
8
12
22
22
24
26
28
26
22
22
14
26
18
24
18
26
26
28
30
32
36
34
28
32
24
62
186
255
255
255
255
255
255
255
255
255
174
58
38
42
40
58
72
96
98
98
76
84
98
146
128
88
58
82
80
90
88
62
78
100
108
112
122
132
136
122
120
116
120
140
174
186
186
204
220
252
244
252
240
254
255
255
255
255
254
255
238
216
206
190
182
162
132
120
106
84
82
78
64
52
46
32
12
2
0
2
2
4
4
4
2
6
18
20
22
26
42
92
136
158
152
134
114
68
16
2
42
38
16
20
2
16
28
4
32
34
34
18
12
20
24
20
20
30
26
14
54
32
42
26
26
8
6
12
28
48
48
32
40
44
52
68
72
70
50
48
50
48
52
52
60
52
48
44
14
6
22
16
16
34
34
18
4
12
18
18
36
34
32
18
16
44
30
26
50
106
166
255
255
255
255
180
136
230
255
255
255
255
255
255
170
216
146
46
255
255
255
196
118
34
6
14
10
22
18
8
2
8
10
10
4
4
6
4
4
4
10
16
2
4
22
22
14
8
8
12
24
16
10
14
12
10
8
4
10
10
6
4
14
6
10
6
4
10
10
2
8
12
8
16
18
24
18
10
18
12
18
10
10
6
10
6
4
4
8
6
8
8
2
20
30
20
18
8
10
18
14
14
20
14
2
8
2
10
18
32
26
18
30
38
34
38
36
26
30
34
32
38
38
42
34
40
40
42
44
38
32
36
28
44
44
48
32
26
20
16
16
24
24
22
16
20
20
26
18
20
26
24
48
126
255
255
255
255
255
255
255
226
58
62
84
112
118
140
124
152
126
152
166
172
124
128
130
134
102
94
68
36
58
74
70
74
76
66
68
70
72
52
76
96
96
96
96
94
76
100
66
92
80
82
114
138
170
170
178
206
220
200
216
228
238
248
248
255
255
236
232
244
230
192
184
176
146
124
112
104
120
126
124
118
110
130
164
180
210
234
254
255
255
198
120
48
26
46
26
8
38
40
16
20
22
20
22
14
30
12
6
16
14
26
34
38
16
24
30
10
30
18
52
32
34
16
18
34
100
128
128
82
56
40
46
52
48
42
44
40
40
48
38
34
38
50
54
66
44
48
68
66
64
60
40
22
20
34
28
38
24
22
32
34
60
88
74
74
100
158
230
255
255
255
238
204
216
255
255
255
214
208
255
255
118
164
124
255
255
255
234
138
188
108
34
14
14
30
20
10
2
8
14
18
18
16
16
12
8
8
16
28
14
10
10
18
18
14
8
8
14
6
12
12
8
10
4
2
8
8
6
4
12
6
12
10
10
6
8
10
4
10
2
20
12
22
22
18
18
14
8
4
4
6
10
4
4
6
8
4
6
8
4
30
36
30
28
16
14
20
34
36
38
34
30
42
42
40
56
60
52
56
60
48
40
46
48
42
50
50
54
58
58
64
74
74
66
64
70
60
50
52
34
50
46
66
52
42
46
42
28
22
20
22
8
8
2
12
14
12
6
18
22
30
34
30
106
255
255
255
255
255
110
88
96
102
90
114
96
120
104
136
138
126
102
104
74
40
16
18
14
38
56
42
28
18
6
10
10
6
24
2
22
20
36
78
64
50
38
86
56
50
44
40
52
42
42
16
24
8
42
18
40
68
84
94
110
130
158
158
154
176
212
196
204
242
248
240
236
218
228
226
226
220
230
255
255
255
255
255
255
255
255
255
255
255
255
148
54
36
48
50
30
26
20
6
2
20
32
44
38
24
32
44
12
14
16
30
24
8
18
32
26
26
36
18
16
30
118
78
84
74
60
44
36
22
16
8
16
10
6
18
20
26
24
30
24
36
2
16
26
28
24
20
20
16
14
12
26
40
12
18
34
42
80
104
90
90
144
212
255
255
255
255
98
58
70
84
255
255
242
58
60
84
60
88
255
255
255
255
82
52
190
170
78
26
16
32
32
16
6
14
14
18
12
16
14
10
14
12
14
16
8
12
14
10
8
14
4
12
18
18
16
6
6
2
2
8
12
6
2
10
10
6
8
8
4
10
6
20
8
14
6
18
0
16
16
14
10
16
20
14
14
16
14
18
8
8
16
10
20
16
12
34
32
20
26
18
6
20
40
40
54
54
66
76
72
76
82
76
76
82
74
60
52
50
44
34
40
26
6
10
16
14
16
20
22
28
38
54
60
68
56
44
32
46
44
36
46
66
68
52
46
58
44
18
12
20
28
42
28
38
42
56
70
74
78
106
202
255
255
255
202
80
64
48
28
50
30
24
26
50
58
64
50
48
76
50
18
8
22
58
44
12
14
32
18
20
16
12
18
16
30
10
8
38
66
54
16
38
24
22
24
10
22
16
6
2
22
18
44
20
42
18
16
16
16
32
20
10
12
14
32
26
54
72
84
72
86
86
74
74
78
92
124
160
214
255
255
255
255
255
255
255
255
255
255
255
255
230
84
16
28
18
18
18
10
28
42
40
28
10
20
42
44
30
16
8
16
8
10
16
16
42
30
4
18
30
104
138
255
210
150
32
4
16
28
24
24
18
16
22
14
6
8
18
30
36
14
32
32
36
44
40
30
4
12
16
28
22
18
36
34
46
80
82
76
120
224
255
255
255
255
174
32
255
255
255
222
210
244
80
34
70
176
255
255
255
255
72
250
170
246
232
120
34
18
24
22
24
22
22
14
20
2
4
18
14
14
16
16
18
10
16
22
16
12
8
6
10
16
8
6
6
10
10
6
12
12
16
16
14
4
6
4
6
8
18
12
20
14
4
10
14
8
18
32
24
10
22
20
10
12
12
4
10
10
8
28
44
46
22
14
24
22
2
18
28
24
28
44
34
40
62
78
78
74
72
66
48
22
8
46
86
106
124
148
166
168
160
160
158
148
156
160
144
126
120
118
102
90
80
76
64
78
52
22
6
18
22
50
46
46
68
80
64
60
52
56
64
78
86
78
74
58
36
16
52
92
255
255
255
206
32
6
46
70
106
132
136
138
172
196
194
164
146
56
16
24
14
26
32
30
28
26
32
18
12
16
40
34
44
32
20
10
12
26
10
14
26
6
6
8
28
16
4
10
8
14
10
30
26
34
28
20
20
14
30
22
32
54
48
60
34
58
56
72
44
42
44
32
38
28
18
48
98
138
164
194
200
118
60
138
224
218
255
255
255
255
255
255
210
48
84
70
20
24
32
14
48
26
8
2
6
14
30
40
34
36
50
36
38
54
38
32
34
50
46
72
250
255
255
255
255
68
32
42
32
22
10
24
28
20
26
28
44
50
48
32
32
48
44
40
48
52
36
40
38
44
40
34
34
28
42
48
62
178
255
255
255
255
255
255
255
255
255
255
255
255
92
222
208
166
128
255
255
255
255
255
124
255
140
254
255
166
28
14
22
8
10
20
12
8
22
6
16
18
10
10
14
32
30
24
22
16
12
14
12
14
16
10
6
10
18
10
12
12
16
18
20
16
12
12
8
4
12
16
14
4
10
16
10
4
4
14
12
32
34
12
4
6
4
4
4
4
10
22
46
58
58
34
28
12
20
28
12
10
24
40
36
38
20
20
36
16
26
64
112
150
180
204
222
246
252
230
220
218
192
170
136
124
106
98
104
116
116
114
112
126
134
130
130
118
110
116
132
124
98
100
94
66
48
42
18
12
18
26
4
22
24
26
34
62
80
118
160
180
192
182
255
255
255
255
255
255
255
255
255
255
255
138
112
164
226
218
180
110
40
4
12
32
42
46
14
10
46
40
34
54
64
48
46
50
50
24
8
28
20
22
22
2
2
16
20
18
16
10
8
12
18
20
34
28
8
18
22
14
34
34
50
50
22
8
8
26
34
22
6
6
20
48
48
68
76
108
170
190
200
238
176
40
58
220
255
200
164
210
255
255
255
255
255
255
48
106
100
86
66
64
42
14
22
26
24
14
10
30
34
38
56
56
54
48
36
54
60
52
44
48
255
255
255
255
255
255
102
54
36
44
36
36
18
18
44
60
56
54
42
46
54
28
16
8
30
44
56
48
52
44
24
26
40
42
56
72
122
255
255
255
186
182
255
255
152
255
255
255
255
255
120
84
146
194
194
255
255
255
144
154
130
196
30
134
244
174
24
14
24
8
2
12
4
4
22
22
18
16
10
14
8
24
16
14
10
10
8
8
10
16
28
22
24
20
20
10
10
16
20
8
4
4
4
12
8
26
18
8
4
6
14
14
4
2
4
14
10
22
32
26
12
2
12
14
10
4
12
36
52
52
34
44
42
26
14
32
26
30
22
4
8
10
32
68
116
172
214
234
255
248
224
210
186
154
100
52
22
12
38
56
42
32
42
48
56
58
44
32
28
32
32
28
24
22
18
10
32
68
72
78
96
114
134
144
148
160
158
156
140
140
152
162
170
174
166
170
154
110
80
38
172
255
255
255
255
255
255
255
255
255
255
255
255
255
255
255
58
122
130
76
46
36
40
54
32
32
66
58
52
54
40
30
30
46
72
72
32
30
10
18
22
10
4
18
30
8
6
18
24
32
12
10
8
20
20
20
16
10
36
38
22
8
8
14
6
12
8
12
28
38
56
62
64
94
90
104
152
158
164
172
120
98
200
255
255
255
228
146
150
255
255
255
255
255
255
80
68
92
90
64
48
40
36
26
10
14
24
20
32
40
16
16
10
16
12
38
12
34
34
168
255
255
255
180
255
255
234
44
18
26
20
16
4
28
52
30
16
20
16
24
24
18
12
6
10
14
26
20
36
24
18
26
58
88
124
140
144
196
255
176
184
130
255
255
94
255
255
255
255
170
96
70
58
66
100
242
255
184
255
255
52
194
114
182
255
172
16
20
26
14
8
8
12
12
14
10
10
10
8
16
4
24
16
12
2
8
4
2
4
12
28
16
20
6
8
4
6
8
12
10
0
4
2
12
16
22
16
14
8
10
20
6
14
16
14
16
16
20
16
18
14
2
14
8
8
8
12
34
46
48
26
20
36
32
8
24
28
44
58
54
82
136
192
232
244
230
194
146
102
40
4
28
46
60
84
96
80
82
86
68
54
52
52
56
62
56
40
38
48
50
52
52
52
44
44
60
58
56
44
30
34
24
30
64
86
76
72
80
74
72
70
64
40
20
8
32
50
70
76
84
102
172
208
234
238
255
255
255
255
255
255
255
255
255
255
255
255
255
255
204
84
28
40
50
50
74
84
50
28
32
36
40
38
36
68
88
78
52
36
18
4
8
6
20
58
52
56
34
22
40
26
14
24
12
32
26
18
28
44
20
8
12
12
10
20
18
32
58
64
70
90
104
112
112
92
114
162
172
186
212
246
255
204
50
255
255
255
246
100
184
210
82
255
255
255
255
90
14
40
36
42
46
30
34
12
16
40
48
44
50
46
24
20
32
46
34
14
48
238
255
255
255
255
132
255
255
200
36
6
18
24
36
22
32
32
20
38
42
24
22
26
18
10
18
16
12
2
18
14
20
10
68
100
120
132
132
134
178
255
255
188
255
238
250
248
255
84
222
164
178
88
102
50
8
4
255
255
70
192
255
104
168
174
196
246
132
14
12
18
18
16
4
14
10
16
12
8
14
8
18
6
16
8
6
8
10
12
10
4
6
32
20
24
10
10
10
12
14
16
6
6
8
6
6
6
20
24
26
6
6
12
14
20
16
24
18
10
16
22
22
14
4
16
6
10
12
16
38
62
82
88
68
78
66
36
34
40
56
90
136
194
238
224
162
92
40
20
36
48
66
72
74
82
70
78
72
38
30
24
16
24
26
24
40
46
28
16
20
18
8
8
6
10
16
22
28
44
50
48
48
76
98
98
112
104
96
96
100
82
74
78
98
98
92
94
96
94
86
72
70
70
56
44
32
16
14
20
30
42
70
104
146
232
255
255
255
255
255
255
255
255
255
255
168
32
60
94
82
96
102
72
58
60
36
6
40
58
64
70
78
62
60
56
42
64
30
38
14
16
36
36
20
14
10
44
44
10
14
14
18
22
30
44
46
36
20
36
72
92
116
138
136
122
116
124
178
254
255
255
255
255
255
180
210
255
255
255
255
232
162
138
42
74
255
255
255
255
28
32
24
22
12
14
54
24
38
20
14
4
16
16
16
16
16
54
14
60
110
255
255
255
255
248
132
255
255
212
10
16
26
20
34
12
14
40
44
56
56
50
36
34
20
16
10
14
18
12
18
16
24
52
128
116
78
68
100
166
252
255
255
255
255
255
164
180
162
204
236
102
124
98
114
38
16
28
255
255
52
40
255
255
30
98
98
148
88
12
6
8
28
30
10
14
18
8
28
12
12
12
24
14
20
14
10
2
12
6
14
2
6
20
14
16
14
6
14
12
12
6
4
6
2
2
14
10
10
28
24
14
2
14
22
8
2
12
22
10
16
18
18
14
8
16
14
32
34
28
32
42
62
86
74
78
80
56
58
66
96
132
140
138
106
16
60
72
68
74
64
48
40
30
26
26
16
28
22
10
12
16
12
10
18
16
24
24
6
2
6
4
6
10
6
6
16
14
20
34
24
28
28
36
46
50
64
62
54
56
68
70
70
80
80
66
58
58
50
40
36
38
26
24
26
28
26
22
16
20
18
16
12
6
4
10
36
52
100
234
255
255
255
255
255
255
255
255
255
36
36
76
98
96
90
92
88
68
48
26
12
40
64
80
82
90
50
8
38
24
6
18
30
28
24
22
8
20
58
54
36
40
34
30
40
40
46
46
52
72
88
108
138
148
120
110
134
162
230
255
255
255
255
255
238
212
255
255
255
255
255
114
72
210
220
180
255
255
255
255
132
36
20
12
12
10
46
28
18
12
10
8
18
10
4
48
30
42
94
92
236
255
255
255
82
255
255
255
255
62
8
8
32
52
58
42
48
44
46
30
34
30
24
40
40
30
36
28
6
18
12
2
26
112
122
44
14
56
114
152
194
212
196
255
234
76
216
255
202
255
160
44
30
26
42
26
72
76
255
255
8
120
250
255
146
18
30
112
92
28
6
14
22
32
12
22
30
26
26
14
6
4
20
14
14
10
8
8
18
6
10
2
2
14
4
6
14
4
12
4
10
2
2
4
10
8
16
4
8
26
8
16
4
4
6
8
4
2
16
12
16
14
16
10
6
12
24
28
22
14
16
26
30
38
34
42
50
26
34
50
82
86
48
26
30
62
82
44
30
40
26
20
12
4
22
24
12
14
12
6
14
14
16
4
28
14
10
22
8
12
16
4
4
6
4
10
22
10
16
24
0
4
10
12
12
16
16
4
8
14
20
26
34
40
26
16
20
26
18
16
10
20
16
6
10
4
10
10
14
18
14
6
16
10
8
8
8
8
16
8
38
70
120
218
255
255
255
255
255
140
40
34
30
20
28
34
46
46
54
50
36
40
32
28
26
50
30
34
12
40
16
18
20
8
28
44
34
6
26
46
34
34
24
16
18
8
26
28
42
66
72
78
100
98
64
72
102
118
180
230
210
214
204
168
150
104
228
255
252
255
184
116
134
104
146
154
255
255
255
255
192
10
24
28
20
8
32
24
14
12
8
4
20
14
22
90
66
58
82
38
255
255
255
188
182
255
255
255
84
18
24
16
46
48
40
16
32
32
28
24
32
16
4
14
24
16
26
28
6
6
0
8
52
100
60
18
20
42
114
180
188
190
154
240
255
122
186
150
92
150
74
40
18
16
8
70
102
72
