P2
320 240
255
26 43 52 50 45 46 46 47 47 43 45 44 44 45 46 44 44 44 42 41 46 42 42 45 47 48 45 42 41 41 38 40 40 40 39 38 42 42 38 37 35 36 35 36 39 38 36 36 37 35 37 54 77 98 110 115 117 116 113 101 61 34 23 20 15 17 18 18 18 17 21 48 76 89 87 83 89 100 110 113 115 117 118 118 119 119 119 120 121 122 119 119 120 121 121 121 119 120 121 121 121 120 119 119 118 117 118 117 115 114 114 113 114 114 111 104 92 90 98 105 110 112 113 115 113 115 115 116 115 115 113 113 112 113 115 113 114 114 114 113 112 111 109 108 107 103 101 100 101 100 97 90 86 83 79 68 68 67 61 58 55 55 66 84 101 109 112 114 115 114 117 117 118 120 121 119 121 120 119 121 118 120 122 121 119 119 118 119 121 121 121 122 122 124 125 126 126 127 128 116 50 38 39 53 81 106 118 117 117 124 127 126 124 122 117 103 63 40 34 33 41 39 41 43 39 39 39 40 41 39 39 47 67 86 87 70 50 40 37 37 42 41 42 44 46 49 59 63 68 78 86 95 101 106 109 111 113 115 116 117 117 117 118 118 117 119 119 119 119 119 119 119 120 120 116 111 102 80 58 46 48 45 46 51 54 59 56 50 45 46 57 69 80 89 92 93 96 97 97 97 96 98 100 102 105 110 111 113 116 117 117 117 116 115 115 115 114 113 111 109 
46 84 100 93 88 89 88 92 92 82 89 86 84 86 92 86 86 86 85 81 85 85 83 84 88 86 84 83 82 81 83 82 84 86 81 88 82 79 78 76 79 73 71 72 73 75 75 73 71 71 66 83 120 164 200 222 228 230 229 222 194 130 76 45 34 35 32 30 30 34 45 98 147 171 167 162 168 184 202 216 222 226 227 228 227 231 232 232 232 232 233 233 233 233 235 232 233 234 234 232 233 232 231 231 229 227 227 225 224 223 216 215 214 213 203 184 170 174 187 198 207 214 218 221 221 220 213 204 190 170 148 145 147 147 153 171 177 177 180 187 190 191 190 190 190 186 181 177 175 170 161 154 148 139 130 128 123 112 102 103 113 140 171 195 209 216 222 224 224 224 228 227 229 233 234 233 232 232 232 233 230 232 233 232 229 232 230 232 235 235 234 236 237 238 241 242 245 248 249 223 88 70 83 103 135 203 228 227 222 232 237 238 237 234 227 202 128 84 73 73 74 79 80 77 77 83 76 73 75 72 63 57 79 112 128 105 88 82 76 68 74 74 73 82 103 112 131 140 149 165 184 198 205 209 213 217 221 224 225 226 228 228 228 229 230 230 230 231 232 232 233 231 232 234 232 227 218 190 145 97 92 92 95 99 106 109 102 95 90 91 115 143 164 174 175 181 184 185 187 189 190 190 192 197 202 209 211 218 224 223 227 227 226 223 222 223 222 219 217 216 
45 85 100 93 91 88 87 92 92 83 92 96 87 78 81 83 84 84 83 80 81 81 84 86 83 83 85 79 80 91 81 92 89 81 84 88 85 84 84 82 78 83 84 81 80 75 76 72 67 66 70 63 80 118 162 195 213 225 231 231 227 215 177 121 71 54 43 36 31 32 58 110 149 166 164 154 159 173 194 213 220 224 224 224 225 227 229 231 233 234 233 235 233 230 231 230 231 232 231 228 231 229 228 229 230 227 225 223 221 217 210 203 196 188 178 171 180 191 196 198 211 220 223 215 192 161 109 66 44 37 39 46 49 48 44 47 49 46 46 55 67 71 83 98 105 105 111 108 106 114 116 115 115 114 106 102 101 95 94 109 150 186 207 215 219 220 223 224 225 228 230 232 232 233 234 232 231 230 231 232 230 231 233 232 230 232 232 232 232 232 234 234 234 236 239 241 244 251 232 164 58 61 75 93 131 203 226 225 219 217 211 218 226 228 219 195 141 113 103 94 92 89 84 80 82 76 71 71 76 77 60 56 60 68 75 75 74 77 80 79 73 77 86 101 120 132 142 153 169 186 195 204 207 210 215 217 220 224 227 226 227 226 226 228 229 228 229 230 230 230 230 230 231 232 230 230 226 218 194 148 103 92 97 105 107 106 104 91 88 108 129 147 162 171 174 182 186 185 185 189 188 190 192 194 197 201 206 211 216 220 223 224 225 224 221 220 219 219 216 214 
41 75 92 88 89 85 91 95 96 92 85 89 88 86 86 86 83 82 82 81 83 80 82 83 79 81 87 87 84 82 81 85 88 86 82 89 86 85 82 76 78 83 82 80 80 76 82 77 69 68 68 67 71 81 101 139 174 203 222 231 233 230 226 209 176 143 110 84 67 63 96 137 160 168 171 159 154 169 194 214 219 223 225 226 227 228 228 231 233 232 236 237 236 234 233 233 232 232 232 231 232 230 231 231 228 226 224 220 215 209 195 183 176 175 181 195 203 206 208 214 230 236 208 149 83 52 43 44 48 48 47 53 56 56 51 54 53 54 53 52 53 50 47 46 50 51 53 51 48 51 49 60 71 78 81 86 81 85 115 166 199 211 218 220 222 224 225 227 229 234 234 236 235 233 232 232 231 232 233 233 233 235 235 234 233 236 235 234 233 232 234 236 236 236 236 239 243 246 202 104 68 53 58 83 131 206 227 227 224 224 220 211 209 201 181 163 176 192 192 174 162 169 160 146 142 126 87 70 69 66 70 72 73 70 64 64 69 71 71 76 77 91 113 136 148 146 159 172 183 193 202 207 209 214 219 219 221 223 225 224 227 225 225 227 225 226 229 229 230 231 231 230 233 235 232 231 229 227 219 199 159 115 100 101 103 106 95 87 94 119 132 143 155 165 171 181 182 180 180 184 180 182 189 197 199 201 206 211 216 221 219 220 222 224 222 221 221 218 214 213 
36 78 96 90 90 84 86 90 92 91 91 85 82 82 85 85 86 84 83 84 77 77 81 85 86 87 86 83 82 85 82 91 88 81 82 86 83 79 80 86 83 78 80 86 84 75 80 78 73 72 74 73 76 76 72 89 115 154 192 216 228 234 234 232 230 222 211 192 172 160 160 166 169 167 163 149 146 166 194 213 218 223 226 226 227 231 232 233 234 235 237 236 236 237 238 236 236 236 236 235 233 231 231 231 230 227 222 213 202 191 177 170 176 189 204 215 216 217 223 233 237 191 115 58 52 44 44 45 47 51 51 51 54 53 48 55 54 55 55 55 55 51 52 54 55 57 59 57 54 53 49 52 52 53 57 61 64 83 129 190 222 230 229 227 226 228 231 233 233 236 238 238 236 233 232 233 233 233 233 235 235 237 237 236 236 237 236 234 234 233 234 235 234 234 235 238 245 225 163 89 100 100 80 84 145 214 231 234 236 233 220 220 219 210 193 181 192 213 225 220 221 221 211 205 211 208 160 120 89 65 58 62 66 67 62 53 61 63 62 66 84 116 138 149 157 165 178 187 192 198 205 210 213 216 217 218 223 224 224 223 224 225 227 228 226 228 229 231 232 232 230 232 233 234 232 233 233 232 228 219 202 160 118 94 93 100 90 84 94 119 130 139 149 158 166 168 170 171 173 179 177 185 192 197 202 204 208 213 218 220 220 220 220 220 218 217 218 217 216 215 
39 80 94 85 84 82 87 87 84 84 86 83 83 83 83 83 84 82 83 88 82 76 79 85 86 85 87 84 81 81 83 89 85 81 88 87 84 84 85 86 86 82 82 81 80 80 83 80 76 77 80 77 79 79 73 73 79 95 125 167 207 224 231 233 233 232 233 230 227 223 215 199 184 170 159 153 154 169 191 207 213 219 224 227 228 231 231 233 236 236 237 238 239 242 244 242 243 242 240 239 238 236 235 232 227 223 217 204 185 170 172 182 195 207 214 219 221 229 233 217 170 98 56 46 47 46 45 45 49 55 51 46 48 52 52 54 51 52 55 55 60 57 56 56 56 55 59 58 55 55 54 55 56 56 55 60 58 56 71 112 161 194 222 237 235 233 234 233 234 238 237 236 235 234 235 235 235 237 238 236 237 238 238 237 238 238 235 234 234 233 233 235 235 233 233 235 242 193 125 99 105 134 155 162 174 226 235 232 231 233 230 227 224 224 225 216 193 193 209 219 216 210 200 189 186 194 215 211 181 141 110 76 57 54 59 53 63 63 59 68 93 130 152 159 166 181 188 193 198 203 207 211 213 215 218 217 221 223 223 223 222 224 225 226 226 230 230 230 230 231 231 234 234 233 233 233 233 232 232 227 220 198 155 112 95 95 82 79 92 112 126 133 142 152 155 157 160 164 167 171 182 190 196 200 204 208 209 213 217 221 220 219 222 220 214 211 214 213 211 212 
39 78 90 79 75 79 87 88 86 85 86 83 86 91 91 85 92 95 95 98 98 88 86 85 79 77 77 75 74 76 79 82 82 84 89 83 82 87 90 85 91 80 76 80 82 87 87 85 84 86 86 84 83 82 82 82 77 74 79 100 141 178 206 223 228 233 235 234 234 234 230 216 196 174 158 159 162 175 191 208 215 220 224 226 227 227 230 234 236 236 238 240 243 246 248 251 253 253 250 245 241 240 236 229 219 212 195 182 176 179 192 204 212 218 223 229 237 219 181 134 84 66 54 49 49 47 45 46 48 50 50 48 51 54 53 53 48 52 57 55 55 53 55 56 53 55 59 54 52 58 56 55 60 62 60 62 62 59 53 51 59 90 134 179 217 241 241 238 238 238 237 236 236 237 238 239 239 240 241 238 239 240 239 239 239 240 236 235 236 233 233 233 233 232 231 233 226 161 102 109 113 125 168 202 201 235 238 233 232 234 234 235 233 234 235 228 212 200 203 220 217 217 213 208 201 191 206 217 220 219 200 164 117 71 36 35 45 53 63 88 123 152 165 173 184 192 196 197 200 208 210 212 214 216 220 218 221 221 221 223 223 225 225 225 224 226 227 227 227 230 232 232 233 234 234 234 234 233 232 231 229 218 190 145 101 90 73 71 84 104 117 137 148 151 151 157 160 167 174 181 192 199 203 205 208 212 214 216 220 222 221 220 219 218 217 212 210 209 208 208 
40 75 92 89 90 93 98 102 104 105 109 109 116 124 129 136 148 151 150 154 151 149 143 127 105 88 77 70 68 72 70 80 81 79 84 79 78 81 81 79 82 77 79 84 85 85 84 82 82 87 86 84 82 81 83 83 81 80 80 76 78 98 131 166 196 216 226 231 234 235 231 219 194 167 150 146 159 176 193 210 218 224 226 227 229 227 231 236 240 243 241 237 235 232 223 211 204 203 210 223 234 242 238 224 208 191 175 175 186 200 211 220 222 224 229 203 164 115 80 74 72 65 57 54 53 52 48 49 50 49 51 52 52 50 49 54 52 54 56 58 56 56 57 56 54 55 57 55 54 56 57 59 61 61 59 55 58 62 61 57 60 56 55 71 115 168 221 245 245 241 238 239 240 242 243 241 240 241 242 240 239 240 239 239 239 238 235 233 232 230 228 227 228 228 227 216 172 130 112 127 136 141 163 189 203 229 238 238 234 234 236 240 242 244 245 231 225 201 184 196 203 212 213 210 208 206 205 212 219 220 221 223 208 164 90 17 11 35 75 122 153 166 174 184 194 196 197 201 204 206 212 214 214 216 219 222 222 221 222 225 224 226 224 223 223 224 225 226 227 230 231 232 233 234 233 233 234 233 232 232 233 225 208 170 113 81 64 64 75 90 116 136 150 157 158 162 168 176 186 194 198 203 209 212 214 218 221 222 222 221 220 218 218 219 219 217 214 211 209 209 
53 101 132 136 135 139 141 145 151 157 159 157 162 171 179 187 194 199 201 201 201 201 196 187 170 147 112 84 70 67 67 72 73 74 78 75 71 69 70 72 72 72 75 79 81 80 78 79 80 79 74 79 81 79 75 81 79 76 77 80 73 68 69 83 113 143 176 199 213 222 218 202 176 154 139 130 148 175 198 214 219 225 227 231 235 236 236 217 187 157 138 117 108 105 95 83 76 77 84 95 103 131 147 157 174 186 193 202 213 220 224 230 229 199 136 85 45 34 43 53 52 60 57 51 50 49 48 51 53 53 54 54 51 50 54 56 53 53 55 58 56 56 58 58 56 57 55 54 55 56 60 59 58 58 61 56 57 58 60 62 60 60 62 59 53 70 110 169 222 251 249 246 245 245 245 243 240 239 237 236 237 237 237 238 236 234 234 230 227 224 222 220 220 218 203 163 117 120 141 145 146 153 174 193 200 227 236 240 238 233 234 240 243 241 231 197 196 198 199 204 210 225 229 220 208 207 206 211 218 220 220 221 224 220 192 121 46 51 107 155 165 174 180 188 194 194 194 199 205 209 211 215 218 219 221 225 225 225 224 225 223 224 225 223 222 226 225 226 228 230 231 231 232 233 231 231 233 233 231 230 231 227 212 177 123 76 53 52 64 84 118 143 158 163 165 174 179 186 194 199 202 204 208 213 216 218 219 219 218 216 218 217 217 217 218 219 215 212 209 208 
80 149 186 184 182 181 180 185 189 189 187 188 193 198 202 204 206 209 212 211 211 210 209 208 209 200 173 136 98 69 66 66 65 65 68 68 63 64 64 61 63 60 62 66 70 74 72 72 70 66 68 71 69 66 67 67 62 65 68 66 64 62 57 53 58 75 92 104 119 141 142 137 132 134 139 131 144 171 198 213 221 225 229 230 213 159 112 86 67 43 37 28 29 31 30 29 32 35 34 30 28 40 49 58 76 105 143 186 220 231 223 189 147 99 52 38 37 41 45 45 44 50 48 45 49 46 46 48 51 53 54 53 51 49 50 56 55 55 53 51 50 53 57 58 56 57 58 56 55 59 62 62 58 56 59 55 59 60 58 58 59 61 61 61 60 56 56 72 110 166 234 253 253 249 248 246 242 239 237 236 237 236 236 235 234 233 231 227 224 221 217 213 210 188 139 102 97 126 152 148 138 150 178 198 200 220 234 240 240 234 230 236 242 234 206 163 185 213 226 226 224 222 224 224 217 214 212 216 222 223 221 221 222 221 221 215 168 140 143 163 169 176 181 187 195 197 197 200 206 212 212 213 218 222 221 224 223 223 223 225 225 225 224 223 224 227 226 227 227 229 231 232 232 232 232 231 232 233 232 232 232 224 209 175 120 69 48 52 68 88 121 152 169 174 174 179 178 182 190 197 200 204 207 210 214 212 214 214 214 211 212 214 212 211 211 215 213 213 212 208 
93 170 204 197 197 198 196 199 200 198 196 195 198 202 205 208 206 209 212 212 213 213 211 212 214 213 208 192 156 104 68 54 54 58 57 53 53 55 56 55 46 49 53 54 56 63 64 58 54 58 57 60 58 56 61 54 53 58 59 52 50 53 55 56 59 56 57 53 51 57 58 61 80 102 117 125 143 168 189 206 217 223 210 166 97 59 35 29 29 28 32 35 38 39 39 38 40 41 41 42 42 40 39 36 33 44 56 69 82 92 89 74 56 46 45 49 47 48 48 46 47 50 48 44 46 48 48 48 50 54 50 53 53 52 53 53 51 52 53 51 51 53 58 60 55 55 59 59 57 57 58 57 59 60 58 61 60 61 62 59 63 62 58 56 60 61 61 59 61 74 108 175 231 255 252 249 245 241 238 236 236 235 234 231 230 227 226 222 218 213 203 200 189 156 104 82 87 107 127 133 132 149 178 195 193 205 226 237 240 240 233 227 230 219 182 160 199 228 232 227 233 229 221 214 217 222 220 221 223 224 224 224 224 224 223 222 221 205 180 161 168 175 181 187 194 194 202 205 207 211 212 213 217 220 218 221 221 221 224 225 224 225 225 224 225 226 227 227 227 227 229 231 232 233 232 231 233 229 226 228 225 217 203 168 107 47 34 46 70 103 137 160 175 181 180 177 175 180 188 195 198 199 201 205 208 203 204 206 207 206 201 201 201 202 203 205 203 205 207 206 
94 170 202 197 200 201 201 202 203 200 203 204 205 206 205 206 207 211 213 211 214 214 213 213 215 215 215 213 197 159 97 56 45 48 48 45 48 52 51 45 49 60 64 60 53 56 50 45 46 49 45 47 45 43 46 45 46 48 49 46 48 42 42 47 47 44 49 48 47 52 56 66 72 74 79 87 115 152 181 197 205 186 131 71 40 31 35 34 33 35 33 35 38 39 40 40 40 42 42 39 40 38 37 38 41 43 43 42 38 35 40 41 42 42 41 41 43 45 46 46 48 48 47 46 46 49 47 50 54 56 55 54 52 51 54 51 51 52 54 55 55 56 58 58 56 57 59 57 54 55 60 55 57 61 59 65 64 63 61 60 64 64 63 63 65 64 65 66 65 65 60 72 110 175 244 252 247 243 241 238 236 234 231 227 224 223 222 215 205 197 187 187 177 152 116 96 89 90 95 102 110 145 186 202 185 189 213 231 238 233 225 213 206 189 165 179 209 230 237 232 222 220 223 220 209 219 225 225 225 226 226 226 227 227 227 223 223 219 206 184 168 167 175 185 191 195 200 204 208 210 212 213 216 217 215 219 219 218 219 220 219 222 224 224 225 225 226 227 228 228 228 229 232 233 232 230 232 230 229 227 221 210 194 156 88 30 18 34 71 117 150 176 189 190 184 180 177 177 182 190 196 196 198 200 199 198 201 199 196 195 193 194 194 192 189 196 194 196 201 203 
96 171 206 202 205 205 205 206 207 207 206 209 210 210 210 209 210 210 211 212 213 212 214 215 214 215 214 213 210 191 145 79 43 37 40 35 43 43 45 62 88 110 114 100 73 60 46 45 50 54 50 54 50 43 40 37 36 33 29 31 38 31 31 35 37 40 45 40 40 54 75 81 80 71 63 69 106 148 178 182 164 102 56 39 40 35 37 36 34 33 38 41 41 42 42 44 45 46 45 46 42 42 41 40 41 43 44 47 46 42 40 41 43 43 40 43 41 46 52 51 51 50 49 48 53 52 52 51 50 52 52 49 51 54 55 53 53 57 56 52 57 57 56 57 59 56 57 57 58 60 54 58 60 61 62 61 59 58 58 61 64 60 60 63 65 59 60 62 62 60 59 57 59 73 110 184 234 247 242 236 233 230 227 224 221 220 214 203 191 180 175 183 165 141 135 124 95 69 58 65 98 151 193 199 170 159 172 179 178 180 197 215 224 226 222 216 225 235 241 237 218 205 204 205 203 219 226 229 231 232 231 230 228 228 231 226 226 223 220 214 182 168 173 185 190 196 202 206 208 211 208 211 210 208 210 213 213 214 216 217 217 220 222 224 225 226 227 228 228 228 230 230 231 230 229 228 228 229 229 225 216 201 182 139 70 22 9 35 88 145 169 188 195 195 191 181 176 178 183 188 191 194 196 198 196 197 197 193 188 186 190 190 190 189 186 188 188 192 197 199 
93 175 212 207 209 210 211 212 212 212 213 216 216 214 214 211 212 213 213 212 214 215 214 213 213 220 217 213 212 207 180 107 57 40 43 40 42 41 55 95 140 168 174 157 125 94 79 80 95 111 110 104 97 87 73 63 48 36 29 29 32 30 30 32 35 34 36 35 40 56 79 105 96 68 56 72 117 156 172 154 99 55 38 36 35 34 36 35 36 40 43 44 40 38 42 41 43 43 45 48 42 41 43 43 40 46 45 42 41 42 43 44 46 46 42 50 52 50 50 51 47 47 53 57 56 51 51 48 48 53 51 48 49 52 54 57 55 53 53 55 60 58 57 57 58 59 56 55 56 58 56 55 56 57 58 59 60 60 61 62 60 64 64 63 62 65 64 62 60 60 63 65 61 59 64 66 109 184 238 237 233 227 223 219 211 207 197 182 168 161 164 134 108 106 126 145 111 62 29 38 90 162 213 221 189 147 173 178 171 181 202 221 233 239 240 235 228 232 236 232 226 218 220 220 212 203 209 223 235 236 236 235 233 232 232 232 232 228 223 219 216 181 169 178 187 195 199 202 203 206 204 205 206 205 204 209 210 212 213 212 214 216 219 220 221 223 224 226 226 228 231 229 230 230 228 227 226 226 224 218 207 193 165 114 50 17 13 58 121 165 182 195 198 198 196 187 181 177 174 176 186 189 191 193 191 188 190 190 189 188 187 192 191 189 189 190 189 193 200 203 
95 176 214 211 214 214 214 217 220 220 218 219 219 218 217 217 218 218 218 218 222 223 223 222 221 220 219 220 219 212 193 126 69 40 38 33 31 34 60 115 165 183 187 179 164 157 155 153 155 163 168 168 168 167 158 132 103 75 52 38 34 31 29 32 40 35 36 33 36 54 88 107 95 70 60 77 128 154 142 100 51 37 32 29 31 33 39 42 42 41 41 43 43 42 42 37 40 43 44 45 46 45 45 44 42 37 39 44 45 40 44 56 53 43 44 44 44 43 46 52 45 46 47 51 60 52 53 53 52 53 55 57 58 54 51 54 55 56 55 53 58 54 54 55 55 61 59 57 56 56 55 53 54 57 60 55 54 58 61 59 59 59 59 60 64 59 59 58 59 62 62 65 67 64 60 61 60 75 130 210 226 224 218 209 197 188 176 160 139 120 118 117 116 122 139 160 117 97 102 110 138 188 217 215 192 192 210 216 207 195 204 215 229 239 241 238 225 222 228 233 227 226 233 236 221 184 176 206 236 237 239 239 239 238 235 233 233 232 228 222 223 211 186 173 186 191 196 199 200 199 199 201 202 203 205 207 211 213 214 214 219 220 221 221 222 224 222 223 226 227 226 224 225 225 223 223 222 221 217 210 201 183 155 104 35 17 12 76 153 184 194 198 199 200 197 188 182 174 170 177 181 183 186 186 183 180 183 184 184 187 185 186 186 189 193 190 193 197 199 202 
95 177 216 212 215 215 218 219 218 218 222 220 219 221 225 228 228 225 226 234 236 236 233 229 227 225 221 219 218 214 201 127 63 34 34 32 32 44 74 117 157 173 176 176 176 174 175 179 186 192 189 190 191 192 188 183 174 160 136 103 75 44 33 35 33 33 33 33 39 56 88 96 82 59 55 96 140 141 100 49 43 35 31 32 35 33 35 35 37 44 34 38 41 40 37 39 41 41 41 43 42 43 43 42 43 36 39 42 43 41 37 41 44 45 47 46 45 45 46 47 47 46 48 52 54 51 46 44 47 53 48 54 56 53 52 53 52 52 53 55 57 55 55 56 54 55 55 54 55 57 58 55 54 55 58 57 54 57 59 56 60 59 57 56 58 62 59 58 58 60 62 60 62 62 57 62 59 62 66 80 155 200 204 189 172 156 134 114 87 64 122 161 167 158 157 168 154 132 110 99 140 182 208 207 188 182 198 215 221 212 199 198 211 227 234 237 234 230 232 238 241 243 240 229 210 210 221 229 234 237 240 242 242 241 240 235 233 229 225 224 223 223 203 181 178 188 188 188 190 194 194 199 203 206 209 211 212 215 217 215 220 222 223 222 222 222 223 225 226 226 225 225 228 230 227 224 219 216 213 205 191 175 134 75 22 4 28 103 170 187 193 196 197 199 199 191 182 175 171 170 171 174 178 180 180 182 180 179 180 181 185 186 188 192 196 199 200 204 206 205 
98 178 218 216 218 218 219 220 221 221 222 223 225 228 233 236 235 234 236 240 244 242 236 228 223 220 215 213 212 204 183 119 60 31 34 36 39 56 94 143 165 175 176 174 172 179 186 189 191 195 197 198 201 201 199 199 199 197 191 180 158 110 68 41 30 34 35 30 29 39 51 67 61 56 85 136 134 98 57 34 40 35 32 33 34 39 38 36 37 40 37 36 41 44 42 43 42 43 44 42 41 41 38 37 40 36 38 38 38 37 44 43 39 37 42 42 43 43 44 47 46 47 48 48 48 48 47 49 50 51 48 46 49 50 46 51 51 51 51 52 56 56 56 55 54 54 56 57 56 56 58 57 56 58 60 58 59 58 56 54 57 58 56 54 57 58 58 58 59 60 58 63 63 60 59 62 65 66 65 67 68 117 151 147 114 95 75 52 60 112 167 179 179 174 167 170 153 125 101 97 141 180 206 211 192 167 185 210 225 222 199 189 192 203 217 239 240 237 237 239 242 239 228 220 221 227 228 230 234 239 243 244 244 243 241 238 235 233 230 227 223 224 217 195 169 185 185 187 192 195 198 204 208 210 213 213 216 219 221 222 225 224 223 224 226 225 224 224 224 225 225 225 229 230 225 219 219 215 210 203 184 164 116 58 18 0 47 124 181 190 195 194 197 202 201 199 194 187 178 171 170 170 176 183 184 180 180 182 184 185 193 195 196 200 203 208 208 209 210 209 
100 183 220 214 219 220 222 224 223 222 224 226 227 228 229 233 233 230 231 236 236 234 228 221 219 216 213 211 206 191 147 92 50 31 33 41 62 101 141 166 170 172 173 175 181 188 194 196 197 199 198 201 203 203 202 203 204 207 206 199 196 180 141 88 40 24 16 13 11 10 11 17 32 78 143 149 131 83 40 30 32 36 36 34 32 33 33 32 35 41 36 39 41 42 41 41 44 44 41 40 41 39 39 41 41 42 38 36 36 40 47 45 44 42 40 41 43 43 41 44 43 46 47 47 48 47 49 45 44 49 50 52 51 48 48 48 50 50 48 48 51 51 51 52 53 49 51 53 56 57 56 58 57 56 56 58 57 59 61 56 56 58 59 58 56 58 57 56 56 59 58 60 60 60 62 60 60 62 65 68 69 67 87 91 51 26 15 7 56 173 190 180 167 165 169 155 145 128 102 85 117 175 212 214 191 159 167 191 215 224 209 195 189 188 187 215 233 239 239 237 230 224 224 224 224 221 225 231 235 239 243 244 243 242 241 237 235 233 230 228 224 224 225 211 181 183 187 193 198 200 203 207 209 209 211 214 218 220 221 224 225 226 226 225 225 226 227 227 227 227 225 223 226 227 225 219 216 212 206 196 176 148 95 36 0 5 70 143 187 193 197 196 196 198 198 198 198 192 184 179 171 169 174 180 182 185 185 186 185 187 196 200 200 203 208 211 211 212 214 215 
102 185 224 219 220 219 222 223 223 224 223 223 224 224 224 221 219 219 219 220 222 222 220 216 212 212 209 207 193 159 100 60 35 27 33 58 104 146 167 170 175 174 176 181 186 192 195 199 201 201 201 205 207 207 207 207 207 209 210 210 208 205 195 164 105 32 4 0 0 0 0 0 41 116 167 126 107 69 36 33 35 40 37 34 34 34 33 32 33 37 40 43 41 39 42 39 39 38 37 39 38 37 40 42 42 44 43 40 40 41 41 43 43 42 42 41 43 40 38 44 47 46 46 47 49 53 49 49 49 47 52 50 50 51 52 55 52 52 53 54 47 49 50 51 52 50 51 53 52 48 56 58 59 58 55 59 56 60 63 60 58 60 60 58 58 59 57 57 58 58 60 63 66 65 63 65 63 61 62 64 69 69 72 76 68 23 1 16 88 188 189 177 156 143 145 150 138 123 107 92 82 139 184 193 177 172 169 173 189 214 206 202 197 190 183 187 226 242 233 223 224 224 224 226 228 225 226 230 235 239 240 240 240 239 239 236 234 233 233 231 225 225 226 218 199 189 193 198 202 205 209 208 209 212 216 221 221 223 224 225 226 226 227 227 226 226 225 225 226 226 225 224 224 223 222 219 212 205 195 184 165 133 80 31 9 20 94 158 189 194 193 193 196 199 197 196 195 194 193 190 184 178 175 176 180 181 182 186 189 190 194 199 201 204 209 210 210 214 217 213 
103 187 227 221 221 220 221 221 221 223 222 220 220 221 219 220 218 219 220 221 225 228 230 227 221 214 206 203 185 134 71 34 19 26 54 100 141 165 173 172 178 180 185 191 193 196 197 200 202 203 205 208 208 208 207 209 209 208 209 211 210 209 207 198 170 73 12 0 0 0 0 12 84 154 158 116 85 52 32 32 36 34 37 38 33 36 32 32 33 36 42 43 40 37 39 36 38 39 39 40 34 37 36 38 43 42 40 40 41 41 42 41 40 39 36 38 38 42 42 41 45 46 44 43 45 50 50 48 47 48 48 48 49 49 52 55 53 53 53 52 46 45 47 47 47 52 52 49 48 53 56 58 57 55 58 57 56 56 57 59 57 59 59 57 56 57 55 54 55 58 62 62 60 61 65 68 67 64 61 60 60 63 63 65 71 66 36 71 143 188 181 170 159 148 139 142 133 118 98 80 91 123 137 145 163 157 171 179 188 202 204 205 203 198 196 192 217 228 226 223 225 227 230 233 236 238 239 239 239 239 240 239 238 236 234 235 234 233 232 232 226 226 226 223 213 196 197 203 207 208 210 214 216 217 220 222 223 223 223 223 227 227 227 226 226 227 227 226 226 225 223 223 222 221 219 214 209 203 191 173 154 100 49 17 15 42 123 174 190 194 197 196 196 198 199 199 197 195 196 197 192 188 184 181 180 181 181 186 189 189 193 195 198 202 206 209 212 214 214 211 
104 188 227 220 221 221 221 219 218 219 218 217 216 216 216 223 226 227 227 230 235 241 241 237 231 218 211 203 174 117 57 10 8 45 100 144 162 169 173 177 185 188 193 198 198 200 200 201 204 206 208 207 206 207 207 207 207 207 208 210 210 209 208 203 181 105 25 0 0 0 1 45 121 163 133 107 80 51 34 37 36 31 36 40 34 32 35 35 32 34 42 39 39 40 37 37 38 38 39 40 38 37 39 42 40 40 40 39 39 41 40 40 38 34 36 49 51 45 41 41 42 42 43 43 43 45 46 50 52 48 45 48 48 47 51 47 51 51 48 48 49 45 44 46 50 47 47 50 52 53 57 54 53 55 61 57 56 57 58 56 56 58 58 57 56 57 57 55 55 58 55 56 56 58 63 63 62 60 60 61 59 62 62 62 62 64 72 109 153 179 171 154 140 130 125 129 116 103 83 68 128 114 101 114 146 140 166 188 201 208 211 216 218 215 215 223 223 223 224 224 229 233 237 240 242 243 245 244 244 242 240 237 234 232 231 231 231 233 234 234 230 227 225 224 219 204 199 203 207 206 211 213 216 219 221 222 224 224 225 226 227 229 229 227 225 227 228 227 225 224 221 218 217 217 215 212 205 193 175 154 121 71 29 6 11 57 141 183 191 195 196 194 193 194 197 201 197 196 195 196 193 191 188 185 186 181 181 185 187 186 188 192 196 200 204 206 210 213 214 214 
104 186 223 217 218 219 220 218 217 217 212 215 216 216 215 224 232 238 238 236 237 241 240 236 230 218 211 190 149 94 39 9 28 84 146 170 175 177 179 183 184 189 194 198 201 204 203 206 207 206 208 210 208 207 207 207 207 207 208 209 211 208 204 195 173 113 40 6 4 12 30 98 158 164 114 104 74 47 35 39 35 31 36 38 30 28 38 39 35 37 41 39 38 38 39 42 40 41 43 43 44 42 41 40 36 38 39 39 39 41 41 39 43 51 69 113 106 76 48 35 43 45 47 46 44 48 48 49 49 47 49 51 50 50 52 49 49 49 50 52 51 48 52 53 47 44 45 46 47 50 52 52 52 57 63 55 54 55 57 57 56 58 58 57 56 53 56 58 58 59 58 58 57 58 59 60 54 56 60 60 59 58 62 63 61 65 61 70 92 120 135 125 107 97 100 102 98 92 90 108 173 120 104 133 163 182 195 203 208 211 212 214 220 225 226 226 226 225 224 225 231 235 239 242 244 246 246 245 244 244 241 236 232 232 231 228 230 232 233 234 232 229 227 225 223 213 202 203 208 208 211 211 215 219 220 222 223 225 226 228 226 228 228 227 226 229 228 226 225 223 218 214 213 212 209 203 195 179 156 129 80 36 9 1 16 79 148 182 189 195 194 192 192 195 195 199 196 196 196 196 194 194 192 189 185 179 179 182 185 187 189 195 200 203 205 207 213 216 215 216 
101 183 221 216 217 217 217 218 218 218 216 218 219 218 217 222 229 238 242 239 237 235 235 233 226 216 202 161 105 57 27 29 67 118 157 173 178 181 183 190 195 197 199 201 203 207 205 207 207 205 204 207 207 207 208 210 209 207 205 204 207 203 194 181 154 96 46 18 14 31 81 141 180 166 105 91 62 41 32 30 33 35 35 34 33 31 36 36 36 41 39 38 35 34 38 41 37 38 41 41 40 39 39 38 38 40 38 39 39 38 42 33 66 112 136 169 151 119 95 80 52 48 48 48 49 47 47 47 48 52 52 50 51 52 50 51 50 52 55 56 50 50 58 60 46 41 45 47 46 45 42 45 49 52 52 52 52 53 53 55 56 56 59 59 56 55 54 55 58 59 59 60 59 58 56 58 58 59 58 58 55 56 57 58 61 66 64 63 63 63 79 84 84 85 93 83 77 77 100 145 158 117 122 153 167 185 194 202 207 211 212 214 219 222 224 226 227 226 225 226 232 235 239 242 244 245 244 244 243 241 237 233 231 232 231 231 232 232 232 234 231 232 228 225 226 219 209 206 209 210 212 212 214 217 220 224 225 224 225 228 228 227 227 228 230 229 228 226 223 219 211 210 209 205 199 191 180 164 134 87 41 10 0 0 17 95 159 186 191 194 193 195 195 194 194 199 198 198 196 194 193 193 192 189 183 177 176 178 183 189 194 195 200 205 207 209 215 218 219 219 
102 186 225 218 218 218 217 217 218 218 216 218 218 218 217 218 220 225 228 229 224 221 219 218 217 204 167 118 69 36 36 65 111 149 164 173 179 182 186 194 199 200 200 200 203 205 204 205 205 204 203 203 207 215 222 225 221 213 204 198 198 189 179 158 115 49 21 15 30 65 131 174 187 157 99 89 63 43 33 34 33 37 38 35 34 33 34 36 37 38 36 34 40 44 38 38 39 41 41 40 38 39 39 39 42 38 43 42 41 43 45 66 115 159 170 170 177 185 183 160 89 57 48 49 50 49 49 47 47 51 51 52 52 52 51 53 55 57 57 55 59 54 52 54 54 47 47 46 45 43 42 44 47 50 53 50 51 52 52 53 54 53 56 59 60 55 54 54 56 57 57 57 57 55 56 54 55 55 55 57 55 55 53 54 58 63 63 63 61 60 62 66 73 79 88 95 107 106 102 106 104 109 125 149 169 181 190 199 207 209 209 211 216 220 222 225 225 227 229 230 234 237 239 239 240 242 241 241 240 236 233 232 231 231 231 232 232 233 233 233 233 233 229 226 225 221 212 210 213 214 212 212 213 216 219 222 224 225 226 228 228 228 227 227 227 227 227 225 220 212 208 208 203 195 188 178 163 134 91 43 14 1 0 2 27 116 167 186 191 196 194 194 193 192 193 197 197 198 198 196 196 196 195 191 185 179 175 176 181 188 193 198 203 206 207 210 214 218 220 220 
103 188 225 218 218 218 218 219 217 215 211 215 216 215 214 215 215 216 216 216 213 211 209 206 194 158 114 72 44 40 65 115 150 163 166 173 178 183 189 196 200 204 205 205 205 206 206 205 203 201 203 208 220 234 242 243 239 225 209 195 188 179 159 118 58 13 1 12 54 117 163 182 174 139 92 78 53 39 35 36 32 38 38 34 31 33 32 34 36 36 34 35 39 42 38 43 42 38 38 42 34 38 39 39 42 43 44 45 45 45 53 122 162 172 179 187 218 227 218 193 98 55 45 47 47 52 48 46 47 46 48 50 51 51 52 55 56 57 62 67 62 61 59 57 57 52 48 45 44 46 50 50 48 49 52 50 51 54 54 50 54 55 55 55 54 54 56 57 57 56 54 56 56 56 56 54 51 51 51 50 56 58 55 55 59 57 58 56 55 56 58 62 64 66 72 83 110 140 151 131 98 100 116 139 165 176 185 195 204 207 209 210 215 220 221 224 226 228 229 231 233 236 237 237 238 238 237 238 235 233 231 230 228 229 231 230 231 232 231 228 233 234 230 226 227 222 215 213 214 216 214 214 216 218 218 221 222 224 226 225 226 228 228 227 226 227 226 223 217 209 204 199 193 184 174 165 130 87 45 13 2 0 0 5 41 132 173 189 193 194 196 193 193 193 189 191 193 197 199 199 196 195 194 191 183 177 174 177 183 188 193 201 206 208 209 214 215 217 219 218 
101 181 220 215 215 215 214 214 212 210 210 211 210 209 213 212 211 212 213 213 210 207 200 184 149 100 65 36 27 47 90 140 162 166 170 174 178 184 191 195 200 205 207 207 206 206 204 204 202 199 208 225 239 248 251 252 248 231 208 186 170 154 114 60 15 0 0 37 102 156 170 175 159 123 81 64 48 39 34 33 38 38 36 34 34 35 32 30 31 33 33 36 36 34 36 38 37 36 38 40 37 37 37 39 43 45 46 46 43 46 111 155 182 190 190 226 228 218 198 159 69 48 46 48 49 46 45 45 46 44 44 43 47 51 53 58 56 58 62 60 54 55 57 55 52 52 49 46 46 46 46 47 48 50 53 54 55 55 54 50 52 52 54 56 54 55 56 57 59 60 53 54 55 57 58 55 55 55 55 54 53 52 51 56 59 52 56 56 54 55 54 53 54 57 60 62 78 101 123 139 151 131 117 125 153 172 184 191 197 202 208 210 214 218 222 224 226 226 227 231 232 232 232 232 231 234 234 232 231 231 231 231 228 228 229 230 231 231 232 232 233 235 232 229 227 223 221 216 213 219 218 218 220 221 218 222 223 224 225 225 225 227 227 227 228 228 226 218 208 200 196 187 177 166 154 121 74 34 10 1 0 0 0 4 40 140 178 190 194 194 195 191 189 190 191 189 192 195 197 196 195 197 198 195 185 177 173 178 187 192 196 197 202 207 209 214 217 219 221 221 
91 173 209 201 199 197 200 203 205 204 204 208 207 205 206 208 209 209 205 203 205 195 164 129 103 58 34 24 33 70 124 153 164 168 173 176 182 188 195 203 205 203 203 205 205 202 200 199 199 204 225 241 249 253 255 252 246 219 188 169 154 110 55 13 1 0 17 84 151 169 169 173 153 117 80 61 46 38 35 34 35 34 37 38 34 36 35 32 32 32 33 35 36 37 38 35 36 37 37 35 35 38 45 48 46 47 48 44 48 79 154 181 191 201 217 237 220 210 174 93 55 47 47 47 47 44 42 42 43 47 44 45 51 56 58 61 57 58 58 52 53 53 52 52 47 47 51 52 49 47 48 45 49 52 52 55 54 53 55 53 48 50 52 54 55 52 60 61 58 60 57 61 61 58 56 57 55 52 54 59 54 52 54 59 59 55 57 56 56 58 56 54 54 56 58 56 59 63 68 78 101 117 136 149 151 166 178 186 192 198 205 208 210 215 221 223 226 227 226 227 228 229 228 227 227 232 232 231 231 232 232 231 231 231 230 231 232 232 234 235 235 236 234 231 228 225 224 215 211 219 221 221 221 221 220 223 223 223 224 225 226 228 226 225 227 226 220 211 198 184 182 172 155 132 105 69 24 3 0 0 0 0 0 6 47 146 179 187 191 195 196 192 191 191 191 185 185 192 196 195 195 197 200 199 192 186 181 180 183 191 195 196 201 205 206 211 214 218 220 220 
79 138 162 153 150 153 164 175 184 190 196 201 204 204 205 203 204 205 206 203 195 175 131 87 63 33 21 28 56 106 149 161 166 171 180 182 189 195 199 205 207 206 205 204 204 199 194 195 203 220 239 248 254 255 252 244 219 186 155 135 101 49 13 0 0 5 72 134 167 174 176 180 155 110 69 57 43 39 38 32 36 34 34 37 36 31 34 35 32 33 41 38 37 41 44 40 34 33 34 33 31 41 47 46 43 50 51 43 65 137 169 189 197 212 235 221 218 201 141 50 45 44 46 45 44 46 47 46 45 44 44 41 45 51 54 61 59 58 56 53 52 52 50 49 52 47 49 49 48 45 49 50 48 47 51 53 51 52 54 53 54 53 54 54 54 55 58 59 60 61 57 61 61 57 56 56 57 57 56 58 53 58 57 55 57 57 56 55 53 53 54 55 58 60 61 59 55 55 56 57 61 65 75 100 139 173 174 179 190 199 207 209 213 218 220 223 225 226 226 226 225 226 229 230 228 227 227 229 232 232 232 232 233 233 233 233 231 231 232 233 235 235 235 233 231 227 225 215 209 216 222 224 224 223 224 223 224 225 226 226 230 228 226 226 227 223 216 201 182 164 152 140 112 76 44 21 4 0 0 0 0 0 0 5 43 143 179 190 193 194 196 194 190 191 196 192 186 189 196 199 198 199 202 203 199 195 188 183 183 192 197 199 201 203 204 209 210 213 217 217 
74 121 145 142 141 146 149 156 160 161 174 192 202 204 208 205 205 202 197 184 154 123 86 53 30 20 16 41 92 149 162 165 169 176 185 186 191 197 201 201 204 202 200 200 201 198 200 208 221 237 248 252 253 249 235 210 168 137 115 86 39 8 0 0 4 49 126 166 173 170 167 158 119 76 57 48 42 39 36 33 35 35 34 35 36 32 33 33 34 36 39 38 37 38 41 36 38 39 37 33 33 43 45 43 45 51 48 75 121 159 187 186 208 233 232 219 214 149 70 42 43 44 45 44 40 44 44 46 47 47 44 40 40 42 43 47 51 54 54 52 51 48 49 52 51 44 44 45 47 50 47 47 46 47 48 55 54 52 54 58 56 56 57 56 53 54 55 56 59 64 59 57 58 60 59 64 62 59 57 55 60 57 55 58 63 56 56 57 56 55 57 57 56 56 56 56 56 56 56 56 57 59 58 57 65 100 158 184 189 195 201 208 212 214 218 223 225 226 226 226 225 224 225 226 225 225 225 227 228 228 232 234 232 232 234 232 233 232 232 234 233 233 233 233 231 226 226 221 215 213 223 225 224 223 223 224 225 227 228 227 228 228 227 226 224 217 209 188 160 133 116 80 48 26 7 1 0 0 0 0 0 0 0 3 35 137 177 188 189 190 195 195 192 191 195 190 186 191 196 197 197 198 202 203 199 197 195 189 188 195 198 199 204 207 206 210 208 211 214 214 
72 128 156 156 159 162 162 167 174 174 165 166 175 187 196 201 202 197 179 146 108 72 44 26 15 9 31 84 137 161 166 168 172 178 185 191 196 200 202 202 204 201 197 198 206 210 220 230 239 247 252 250 243 222 182 142 121 97 62 23 5 0 0 5 38 121 157 152 128 98 50 30 39 52 51 48 40 34 34 37 34 33 34 35 34 39 36 31 31 36 35 37 35 33 34 37 39 38 36 35 40 39 51 60 57 58 75 118 156 169 192 206 225 233 221 206 161 91 41 43 46 43 43 45 47 48 51 49 45 44 42 44 46 50 51 44 43 48 53 55 53 53 47 43 48 44 46 47 46 48 49 45 50 53 47 49 55 54 52 56 56 57 58 58 54 54 58 60 59 56 60 60 58 58 61 61 59 60 62 62 60 57 53 53 59 58 56 56 57 56 58 57 56 58 59 58 57 57 55 54 54 55 56 56 56 55 63 117 177 201 198 204 209 211 214 219 222 225 226 224 225 226 226 226 224 223 224 224 226 228 230 231 231 232 234 233 233 233 232 232 233 234 235 235 232 227 225 221 218 218 221 222 224 225 225 226 226 226 227 228 228 227 225 225 223 214 198 158 111 80 58 34 16 4 0 0 0 0 0 0 0 0 0 1 26 124 173 188 190 193 194 193 193 194 195 190 186 189 193 195 198 199 200 201 201 197 194 190 190 194 194 200 204 207 209 212 213 216 218 219 
73 138 171 172 178 182 178 180 184 184 184 181 178 174 176 184 189 190 171 125 76 37 18 11 7 19 64 118 155 163 168 170 175 181 186 195 201 205 205 202 202 197 196 201 213 231 241 248 251 251 249 233 203 166 134 99 75 40 10 1 0 0 0 24 92 137 113 78 54 39 21 36 47 48 49 53 39 33 34 35 34 34 37 38 33 36 34 31 30 34 37 34 33 34 35 30 27 29 32 34 47 50 56 62 66 75 136 159 163 187 191 220 236 229 209 200 96 43 40 40 42 41 40 40 44 47 52 52 48 47 46 45 48 50 47 48 49 49 49 49 48 47 45 45 48 44 46 46 45 47 48 46 50 52 48 52 52 49 50 55 55 56 57 58 57 61 55 54 58 61 62 60 58 58 62 60 60 65 68 66 66 63 59 56 54 61 62 59 55 55 54 56 58 58 58 57 57 58 57 55 53 55 52 51 57 53 52 48 72 141 198 205 208 213 213 217 219 222 225 225 220 223 223 223 227 225 224 225 226 225 227 228 230 232 232 231 233 231 231 233 234 234 235 234 232 228 226 225 223 219 220 224 226 226 227 228 227 228 230 230 228 226 227 228 223 212 185 124 62 36 18 4 0 0 0 0 0 0 0 0 0 0 0 0 16 103 162 188 194 194 199 196 193 192 194 193 185 182 184 186 190 194 199 201 198 200 197 194 192 194 197 202 207 209 209 216 219 221 221 221 
75 143 180 180 182 186 187 190 192 190 192 193 196 196 194 193 195 193 186 164 105 41 9 1 10 53 116 152 161 163 170 178 183 186 191 199 205 204 200 198 199 195 196 203 214 234 246 251 248 241 220 184 137 101 85 59 22 3 0 0 0 1 20 66 108 79 48 34 28 21 23 56 54 39 42 44 39 39 41 39 34 34 35 35 35 34 31 33 35 35 31 35 35 33 32 32 36 35 32 34 46 54 54 54 70 132 151 166 184 199 201 222 227 218 203 143 66 38 43 44 46 45 43 44 47 51 47 47 48 47 47 50 50 48 48 50 43 41 47 52 45 44 47 49 48 47 49 48 47 48 46 46 47 48 47 50 53 53 51 51 55 53 54 59 64 60 59 58 59 61 58 61 60 59 62 57 62 65 65 66 65 68 63 59 60 57 68 65 56 56 55 56 57 58 58 55 53 55 57 56 56 55 56 56 55 56 56 54 53 62 105 186 216 211 210 214 217 220 223 224 220 220 221 224 225 223 224 225 225 226 227 229 230 230 230 230 231 229 229 232 232 233 233 232 231 230 227 225 224 223 224 223 224 227 228 228 228 228 227 226 227 225 224 224 220 207 155 80 21 6 0 0 0 0 0 0 0 0 0 0 0 0 0 0 9 86 149 181 190 193 194 196 195 193 194 187 189 184 178 178 183 191 196 198 196 202 199 197 195 193 194 203 209 212 214 220 222 223 223 222 
80 148 181 182 189 191 192 195 196 195 195 196 198 200 201 207 204 200 200 194 163 93 29 3 32 102 146 162 162 165 172 181 186 190 197 199 201 200 197 195 196 193 195 199 204 216 227 231 220 192 153 123 84 51 32 11 2 0 0 0 1 34 83 98 59 39 28 25 26 26 44 67 58 40 43 45 41 41 40 34 35 35 35 35 36 36 36 34 33 34 33 35 35 34 33 38 36 35 36 37 44 53 61 78 114 139 148 173 200 211 216 223 222 214 182 70 42 41 43 44 43 44 46 48 46 45 47 45 46 48 46 49 50 49 48 45 46 46 46 46 44 47 50 49 44 44 46 47 46 47 49 48 46 46 49 45 52 52 50 53 54 56 57 55 57 60 60 60 60 60 57 59 60 60 62 60 59 63 65 62 62 66 65 64 66 59 57 58 59 57 55 56 58 59 57 58 58 56 53 52 56 55 54 53 58 59 51 52 56 54 51 100 171 214 210 211 213 216 218 220 223 222 222 223 224 225 225 225 226 227 227 229 231 232 230 232 229 227 228 230 231 232 234 233 232 230 227 226 227 225 222 224 226 228 231 227 230 231 230 227 228 226 226 225 216 198 112 34 0 0 0 0 0 0 0 0 0 0 0 0 0 0 0 0 5 67 143 181 190 192 195 196 194 191 190 190 193 185 174 173 174 183 192 198 198 197 197 197 195 193 195 203 207 210 215 216 219 222 223 225 
84 152 186 186 189 194 196 198 198 198 198 199 202 204 204 207 208 210 210 208 203 172 96 35 52 118 151 163 166 171 176 190 193 192 197 195 196 192 189 192 194 197 199 198 196 188 185 180 166 138 98 69 41 17 2 0 0 0 0 1 36 91 81 43 35 28 24 24 26 36 58 67 57 45 46 41 40 39 38 36 35 36 35 34 36 35 35 34 35 37 36 33 33 33 28 34 36 36 34 35 38 48 72 106 130 111 125 163 200 214 213 219 217 187 118 52 44 44 42 44 44 46 47 47 47 54 55 48 43 47 45 51 50 46 48 49 53 53 48 44 46 45 46 46 44 43 45 45 46 52 47 49 47 47 51 51 48 52 55 54 50 53 53 52 56 55 58 58 60 63 58 58 60 61 62 66 65 64 63 61 56 62 61 59 62 59 60 60 58 56 54 56 57 58 60 58 57 57 56 55 55 53 53 54 54 53 55 55 54 54 60 51 86 153 211 215 215 214 215 219 223 223 223 224 224 226 226 224 223 225 228 229 231 231 231 233 229 228 229 231 232 233 232 233 233 232 229 227 227 226 225 223 223 225 228 229 231 232 232 232 229 227 225 224 215 182 74 11 0 0 0 0 0 0 0 0 0 0 0 0 0 0 0 0 3 44 129 174 185 192 193 192 194 194 191 192 193 191 183 174 171 181 190 196 199 199 197 196 194 190 193 201 207 211 214 214 223 225 225 226 
89 158 193 190 192 196 202 201 199 198 201 205 208 208 205 207 209 213 214 211 208 199 156 107 94 135 157 165 169 176 181 188 194 197 195 189 190 188 185 188 195 202 207 204 193 176 156 139 117 84 48 18 3 0 0 0 0 0 4 29 94 62 37 32 31 27 27 27 33 51 70 67 55 45 45 41 39 39 36 34 40 34 34 35 34 37 36 35 35 35 35 31 30 32 32 36 35 34 32 34 32 44 104 148 133 146 172 197 211 213 204 210 210 157 53 45 42 42 42 44 48 46 45 47 51 52 49 47 48 52 46 49 52 51 50 63 59 53 49 50 46 47 48 48 46 44 47 48 49 52 52 52 53 51 47 48 47 49 52 53 49 49 50 53 55 52 57 60 60 60 60 61 62 62 62 64 62 60 61 61 63 65 65 60 54 62 60 60 59 56 61 57 57 59 57 63 60 56 55 58 58 59 56 53 56 55 56 58 59 55 58 58 52 75 146 209 217 216 218 220 220 223 224 225 224 224 224 223 224 227 229 228 231 233 232 232 229 229 230 231 233 236 234 231 231 230 230 230 229 227 224 223 224 227 230 233 233 233 232 231 232 230 227 222 206 147 44 0 0 0 0 0 1 1 0 0 0 0 0 0 0 0 0 0 1 20 105 161 179 185 187 190 195 195 187 191 192 191 185 178 173 176 182 190 197 197 198 199 199 196 197 203 208 211 212 217 223 226 227 228 
89 160 197 196 194 196 203 202 197 197 202 203 205 207 209 211 210 211 212 211 209 206 191 160 129 150 166 169 172 180 183 192 193 192 192 186 187 193 200 208 213 216 215 206 189 162 133 96 60 32 13 2 0 0 0 0 0 2 27 81 61 37 29 31 32 28 25 31 48 68 80 74 63 53 45 42 41 41 39 35 37 33 33 35 37 36 36 37 35 33 33 32 30 31 34 30 30 28 30 35 35 94 132 138 138 162 191 213 225 229 228 218 171 100 42 41 43 41 40 43 44 46 45 43 45 49 48 49 49 50 47 53 60 72 87 80 59 50 49 48 46 47 49 48 48 48 49 51 52 53 50 53 52 51 51 49 49 47 49 54 56 53 52 54 55 56 59 60 60 61 58 60 60 61 64 62 59 58 60 62 63 63 65 63 57 57 58 57 59 61 63 55 57 60 56 56 57 57 58 56 55 56 58 59 59 53 55 59 60 59 61 61 60 54 62 155 210 223 219 220 223 224 225 225 226 226 224 224 224 225 227 230 231 232 232 232 230 229 231 232 235 235 235 233 233 231 233 234 232 229 227 226 225 228 234 234 234 233 231 232 230 229 226 220 196 114 26 0 0 0 0 0 0 0 0 0 0 0 0 0 0 0 0 0 0 0 71 139 174 179 184 188 191 193 192 187 186 188 188 183 176 173 176 182 190 197 198 198 198 197 198 200 207 212 215 218 222 225 227 227 
89 162 195 192 194 196 199 199 198 200 204 203 204 207 209 210 210 211 211 210 208 210 200 176 147 149 158 166 173 179 186 188 186 184 184 189 205 224 233 230 218 211 205 192 162 119 86 53 23 4 0 0 0 0 0 0 0 34 73 75 48 34 31 31 31 29 29 44 64 76 84 79 61 46 45 39 40 41 38 35 37 34 33 34 33 35 34 33 32 30 32 33 34 33 32 30 32 32 31 38 73 137 141 128 157 186 201 212 219 217 211 170 98 46 44 42 41 43 41 38 43 45 45 44 44 49 47 49 50 49 48 54 63 76 87 59 49 49 51 48 46 46 47 49 51 49 49 48 49 53 49 50 51 50 48 51 51 51 51 52 55 54 56 57 54 54 57 58 59 60 57 59 60 60 60 61 61 60 59 62 59 62 63 61 60 56 58 59 60 61 54 57 60 59 54 55 56 60 61 55 58 54 60 63 55 57 58 57 58 60 61 55 56 56 58 77 162 210 217 216 222 224 224 224 224 225 224 224 223 225 227 228 229 229 229 232 232 231 231 231 233 234 234 234 233 235 235 233 230 230 231 227 222 225 234 235 235 234 232 233 232 230 227 218 183 75 13 0 0 0 0 0 0 0 0 0 0 0 0 0 0 0 0 0 8 28 74 128 166 173 180 182 186 190 191 186 184 184 185 182 173 166 163 167 180 191 196 196 194 194 196 199 205 213 218 221 224 226 226 226 
90 161 193 188 189 192 199 200 199 200 204 204 204 206 209 212 211 210 211 212 210 210 205 186 155 138 151 166 176 180 183 181 183 192 206 225 239 248 249 235 198 178 167 144 99 55 31 13 1 2 1 0 0 0 0 0 48 88 90 60 48 41 37 33 31 34 40 56 69 70 80 75 55 39 38 38 37 40 39 34 34 31 34 36 30 34 33 34 34 31 31 32 33 34 33 32 37 37 39 62 117 136 131 133 165 203 207 210 214 213 191 104 53 43 41 40 41 42 43 45 43 44 45 44 44 49 49 47 48 49 48 50 51 49 46 48 50 50 50 53 51 48 45 46 52 49 46 45 49 52 51 51 52 52 51 52 54 55 54 53 54 53 56 57 53 54 56 59 62 62 58 60 61 61 60 65 65 64 61 58 60 63 62 60 62 60 60 61 61 58 56 58 58 56 55 59 58 60 62 60 58 58 59 59 58 56 60 60 59 61 57 52 56 60 59 58 88 165 223 214 219 221 223 223 221 224 222 221 223 225 224 225 229 231 230 231 233 233 232 233 233 236 236 234 235 235 235 234 232 232 234 227 223 226 235 241 242 241 240 240 235 233 229 215 166 44 0 0 0 0 0 0 0 0 0 0 0 0 0 10 25 46 64 79 97 127 142 156 169 176 175 177 182 185 185 187 185 185 185 181 171 161 155 157 168 183 195 197 193 192 195 200 206 213 218 222 225 226 227 228 
86 152 187 185 185 192 197 200 201 203 202 204 207 209 210 212 215 216 215 213 210 210 209 194 161 136 150 166 175 179 181 188 205 226 241 249 251 247 230 195 155 136 109 72 35 20 7 1 0 0 0 0 0 0 1 32 99 107 76 58 49 41 36 33 36 42 47 60 66 58 66 57 47 41 38 38 36 38 38 33 34 35 37 36 31 35 33 38 38 29 32 33 30 28 31 32 35 31 51 109 139 129 125 141 171 200 212 218 221 211 134 68 43 43 43 42 39 40 43 41 41 43 46 46 43 47 46 47 50 51 51 50 52 54 52 50 53 53 53 56 56 47 44 47 51 50 51 50 47 49 54 55 55 54 52 50 54 55 56 57 56 54 54 56 57 57 58 59 58 57 56 58 62 62 60 62 66 65 61 60 62 61 61 62 62 61 61 60 59 61 60 59 58 57 58 59 56 57 59 58 59 59 56 56 60 55 57 57 58 61 58 55 58 61 63 65 58 110 185 220 214 214 217 219 218 221 220 220 222 224 223 225 228 230 232 229 232 233 233 233 234 235 236 236 237 235 237 236 236 236 237 233 226 215 201 191 185 178 174 177 176 182 188 184 163 115 86 60 31 4 0 0 0 0 1 4 16 36 62 92 114 137 157 171 179 183 185 185 187 190 188 188 190 190 189 191 186 186 187 182 177 163 153 153 161 179 192 194 192 189 193 201 207 211 215 220 224 227 227 227 
81 151 185 182 183 190 193 199 202 199 198 200 202 204 208 212 214 215 213 210 210 208 208 195 168 144 159 173 178 183 198 220 238 248 252 250 235 208 172 134 110 89 55 21 8 5 1 0 0 0 0 0 0 0 10 104 114 95 72 57 49 41 38 37 36 41 50 59 59 49 42 44 43 38 36 44 40 38 38 38 43 39 39 39 34 36 35 36 37 33 34 34 31 30 31 34 31 45 90 151 144 148 160 176 194 204 211 218 204 154 75 52 44 40 42 43 37 39 44 41 40 42 43 43 41 45 45 49 52 50 48 49 52 54 54 51 52 54 54 50 51 50 46 47 52 47 51 51 48 51 54 54 54 55 55 53 54 57 59 58 57 54 54 56 57 58 58 56 55 58 55 58 60 60 63 61 63 64 64 62 62 63 63 62 62 61 59 59 58 58 59 58 57 59 61 57 58 60 62 61 58 59 56 56 56 58 58 58 60 61 56 56 59 62 61 68 64 71 112 184 206 213 215 217 217 218 218 219 220 220 222 225 225 228 231 230 231 234 235 234 236 236 238 239 237 238 241 239 234 227 217 206 184 144 99 99 114 129 136 137 144 156 162 165 172 184 184 175 161 136 84 40 19 26 50 49 52 78 115 146 163 163 168 179 188 189 190 193 196 197 199 200 199 198 201 199 199 197 193 190 187 178 169 161 161 176 188 193 192 188 193 200 205 209 213 220 223 225 226 228 
81 146 179 178 182 189 193 198 200 199 198 199 201 204 207 209 211 214 212 209 207 206 206 198 177 154 166 178 186 197 227 244 252 251 243 222 186 156 127 91 64 40 20 6 1 0 0 0 0 0 0 0 0 7 39 130 120 90 67 56 50 50 44 38 39 39 43 47 47 42 35 40 43 41 38 40 42 37 33 36 36 34 38 40 38 37 36 34 33 33 35 36 34 32 32 36 27 80 145 160 156 166 182 196 205 223 215 217 182 90 57 49 46 44 44 43 42 42 41 38 41 41 41 42 44 47 46 45 46 46 49 51 52 54 56 52 54 55 54 54 51 53 50 48 50 48 50 54 54 50 53 52 51 52 55 57 58 58 57 56 56 56 56 57 58 56 55 55 57 60 58 62 63 63 63 60 63 62 59 59 64 66 64 61 60 61 59 60 59 57 58 58 58 60 65 59 60 59 58 60 56 56 59 60 59 59 58 61 63 60 55 57 58 59 60 63 63 58 75 118 120 175 209 215 214 215 216 218 218 216 220 222 224 227 230 234 233 234 237 235 238 239 242 244 238 230 220 209 198 189 183 172 143 102 72 84 105 136 155 150 155 164 167 167 176 183 194 203 208 206 190 174 148 112 75 62 87 111 132 154 163 169 178 185 190 194 196 198 197 198 200 201 202 203 203 205 207 207 206 203 198 191 185 178 172 177 185 189 192 192 193 198 206 211 213 219 222 226 228 227 
78 145 179 178 184 191 195 196 198 199 200 201 202 205 206 207 210 212 210 207 202 201 203 199 181 157 168 181 191 208 231 240 239 225 200 179 145 113 84 56 23 6 2 1 0 0 0 0 0 0 0 0 0 17 74 114 103 85 69 55 47 43 39 35 35 35 35 37 37 35 35 35 36 38 37 33 37 36 32 32 38 35 35 35 35 36 34 33 32 29 34 33 29 28 30 30 46 112 166 158 170 174 184 200 213 223 218 202 149 64 59 49 46 47 46 44 45 45 42 38 45 43 43 44 45 48 44 45 48 47 52 55 53 52 55 55 57 52 50 54 50 50 50 48 46 45 47 51 51 47 53 53 50 49 55 60 59 54 54 58 56 57 59 59 60 57 55 58 60 58 61 63 61 60 60 59 63 62 59 61 65 66 64 63 64 62 63 65 64 60 55 57 59 59 59 62 60 58 58 59 60 59 57 57 57 62 60 59 63 72 85 78 65 56 57 57 60 61 67 82 83 85 144 204 210 212 209 213 217 215 222 220 223 228 231 235 235 235 237 238 242 240 229 212 196 189 182 173 166 164 162 151 130 112 110 110 121 134 141 145 156 169 172 173 180 182 192 196 195 195 203 207 207 199 183 152 135 134 144 157 166 180 187 191 198 202 201 201 200 200 201 205 206 206 205 204 206 207 209 209 208 204 199 192 185 179 182 187 192 194 191 197 203 207 211 217 221 224 227 226 
81 150 181 177 183 187 192 195 197 198 200 199 201 206 208 209 210 209 207 206 201 199 200 195 174 151 164 182 194 206 213 211 199 179 157 133 99 67 39 16 3 0 0 0 0 0 0 0 0 0 0 0 16 49 84 101 97 84 69 56 46 39 34 33 35 30 32 35 34 32 33 27 28 35 39 32 35 35 34 35 36 36 34 34 36 36 35 33 32 31 31 29 29 30 31 27 95 148 165 164 182 198 211 218 221 221 220 182 116 56 55 48 46 46 43 45 43 42 43 43 42 43 46 46 44 47 50 51 52 53 49 52 53 52 51 55 56 55 53 51 49 49 48 46 44 44 51 53 52 50 52 52 52 52 54 56 53 54 55 56 59 59 59 58 58 59 58 57 58 58 59 58 58 57 57 64 61 61 65 70 66 61 60 63 64 67 63 62 63 63 55 59 63 62 60 59 60 59 57 57 57 62 61 55 53 58 58 58 58 59 63 85 81 68 67 60 59 62 64 70 97 64 69 124 196 207 206 209 213 213 216 218 222 227 231 232 236 239 240 238 218 200 187 179 172 165 157 149 143 140 139 131 122 120 129 131 132 138 148 156 165 177 180 181 189 195 198 196 195 200 203 204 207 211 211 207 204 178 158 167 175 187 193 196 205 208 207 204 202 202 204 206 208 208 209 209 211 210 209 210 212 209 207 205 201 193 189 184 182 187 188 193 201 207 207 212 214 221 225 226 
84 153 185 179 177 183 192 196 195 197 198 197 202 208 210 209 207 207 206 202 198 196 191 171 137 126 148 170 184 192 188 179 163 144 123 82 49 29 14 1 0 0 0 0 0 0 0 0 0 0 1 55 91 95 79 83 84 73 60 53 45 38 36 36 34 29 32 33 32 31 29 30 29 29 34 34 36 35 32 32 36 39 36 35 39 33 34 34 34 33 30 31 32 30 29 44 132 164 158 170 184 202 215 225 230 223 226 165 85 54 56 52 49 45 43 43 46 47 46 46 42 42 45 46 45 51 48 47 47 47 49 47 51 54 52 52 53 53 53 54 53 52 51 48 47 43 46 50 51 48 51 53 56 58 59 58 59 59 56 54 57 56 54 53 55 58 61 62 60 59 58 54 54 56 56 58 58 59 61 61 64 65 63 60 60 60 61 63 64 64 59 64 67 64 60 64 65 63 59 57 59 57 57 59 58 55 56 57 56 55 59 59 56 57 67 59 60 64 64 63 97 66 50 63 104 186 203 206 209 210 212 215 219 223 228 231 238 232 212 188 171 163 161 162 159 138 138 135 129 128 131 132 138 144 145 148 150 156 162 167 178 186 193 196 197 200 204 204 203 205 208 207 208 209 209 210 210 209 200 184 180 187 194 198 201 203 203 205 207 205 207 207 210 213 213 215 215 214 213 213 214 211 210 208 205 204 199 197 192 184 185 192 201 207 208 211 211 216 221 223 
87 156 189 184 183 184 190 195 196 196 200 199 202 207 209 207 209 207 203 199 194 188 175 133 68 45 86 128 154 164 159 152 136 109 75 41 21 7 0 0 0 0 0 0 0 0 0 0 0 14 83 154 136 81 68 80 83 67 49 45 40 35 35 35 32 32 31 30 30 30 24 26 30 31 28 35 34 35 35 34 31 38 41 38 35 34 35 33 30 29 27 28 30 28 37 106 149 157 159 179 194 210 221 225 223 218 220 137 54 59 59 57 54 49 43 44 44 44 43 43 41 46 45 43 46 46 46 46 48 51 48 47 50 51 47 53 54 56 58 56 55 61 60 56 53 42 47 50 51 51 47 52 52 50 53 52 56 56 54 53 58 57 58 59 58 60 58 59 61 58 57 58 60 60 57 59 60 61 61 59 60 58 56 57 62 64 64 63 62 61 64 59 59 61 64 60 63 63 59 56 57 56 59 61 56 57 55 56 55 52 63 62 62 62 60 60 63 63 60 61 83 64 56 53 53 100 176 206 203 207 211 215 220 224 228 225 205 182 163 149 136 134 133 130 125 120 126 137 142 143 146 148 153 157 154 155 158 167 174 176 187 193 196 198 199 199 203 206 207 208 209 207 209 212 212 211 213 211 209 208 195 187 186 191 199 200 200 202 205 208 208 213 214 212 214 213 214 214 213 212 213 210 208 207 206 207 208 205 201 196 189 187 191 196 199 207 208 209 212 215 
87 160 194 186 180 180 190 195 195 196 196 198 200 203 206 206 207 205 201 199 193 187 147 80 15 0 15 47 79 100 110 90 68 47 22 6 1 0 0 0 0 0 0 0 0 0 0 1 20 88 174 197 129 58 59 65 68 61 47 38 37 36 34 34 33 31 32 30 29 31 28 27 29 30 29 34 35 34 33 32 35 32 32 34 36 32 35 34 32 32 32 30 27 28 52 150 150 152 170 186 200 215 225 230 225 224 190 112 53 58 54 57 59 57 48 46 47 46 45 47 43 46 46 44 44 46 47 47 48 49 48 50 53 53 51 52 55 60 65 71 74 74 70 63 54 46 48 51 54 55 51 52 52 53 57 60 58 55 54 57 56 55 57 59 56 56 59 60 60 61 59 59 59 59 59 56 53 59 66 68 62 58 61 65 65 69 63 62 64 65 66 61 62 62 57 62 60 62 63 60 58 54 56 59 57 57 59 57 58 64 64 62 60 59 58 61 64 62 61 65 71 63 55 53 55 52 93 160 204 198 205 210 218 219 204 173 152 137 127 120 103 93 91 99 113 120 136 152 164 166 155 144 146 148 143 152 162 172 180 187 194 200 200 200 205 206 208 208 208 208 209 210 214 217 214 209 210 210 210 213 213 202 194 194 202 204 204 206 208 208 212 211 212 214 217 214 213 218 221 219 214 212 210 209 210 209 210 209 206 205 199 197 191 187 194 197 200 205 209 209 
86 159 189 181 182 183 191 196 197 196 198 199 202 204 203 202 200 200 199 193 188 170 108 38 2 0 0 0 5 13 24 19 13 7 1 0 0 0 0 0 0 0 0 0 0 0 2 36 113 192 212 182 105 47 52 55 60 50 37 37 34 35 32 30 33 33 30 31 35 35 34 31 28 26 27 30 35 37 35 32 35 34 33 33 34 38 37 34 32 32 35 34 29 47 104 158 161 170 186 196 202 207 215 222 223 220 170 100 53 53 55 55 54 51 47 43 43 44 44 43 40 43 45 45 45 47 48 46 46 48 48 50 53 56 56 55 64 77 89 98 92 100 99 87 68 53 45 45 48 52 47 50 50 50 55 55 57 56 56 59 55 54 55 56 54 57 59 61 61 59 55 56 55 56 60 55 57 65 70 63 60 58 58 59 64 65 61 61 63 64 66 62 61 60 57 59 58 58 59 59 61 62 59 56 58 59 58 56 57 61 56 60 58 58 65 61 61 61 65 72 67 59 54 54 55 57 49 94 159 191 196 204 193 167 137 122 98 86 79 68 63 60 62 72 91 122 145 157 158 152 147 145 137 136 148 155 166 182 193 194 200 197 200 205 207 206 208 207 207 210 211 209 213 220 221 215 214 214 214 212 211 214 207 199 198 201 201 205 209 211 215 212 215 219 220 220 220 222 223 221 215 213 212 212 211 211 214 212 208 206 209 207 202 196 193 195 198 201 206 209 
86 156 183 176 181 186 188 193 197 194 198 199 200 200 198 197 194 192 191 191 175 131 68 15 0 0 0 0 0 0 0 0 0 0 0 0 0 0 0 0 0 0 0 0 0 4 51 131 196 214 213 156 88 45 44 49 53 44 36 41 34 36 31 28 34 31 29 33 35 32 34 36 33 30 31 34 31 33 36 34 34 34 32 31 31 31 33 33 31 32 30 33 29 70 164 160 170 175 184 204 213 216 221 223 221 225 147 82 55 55 61 60 58 54 48 46 43 43 43 43 45 44 44 46 47 47 48 48 49 53 54 53 53 53 54 56 74 77 81 102 125 140 148 138 103 65 50 46 45 47 48 53 52 51 57 56 53 52 51 52 54 56 55 54 56 55 57 58 57 56 57 56 56 56 56 58 57 57 57 59 61 62 57 56 62 61 61 61 61 61 62 62 62 62 59 58 60 62 60 57 58 57 59 59 57 56 62 60 58 60 62 58 55 58 61 61 66 68 69 71 65 55 56 58 55 58 57 51 82 159 174 144 108 88 84 69 50 46 49 49 54 55 66 84 105 126 138 139 139 142 130 129 133 142 152 160 176 183 186 193 197 198 199 202 206 208 209 210 210 212 211 212 216 218 218 218 217 218 217 215 215 212 211 208 202 202 208 211 212 216 217 218 222 227 227 226 226 225 223 223 221 216 216 218 215 212 213 213 211 209 206 209 207 201 198 195 195 198 203 210 
78 147 180 178 184 185 188 193 195 195 199 199 200 200 198 193 189 184 180 175 154 90 31 1 0 0 0 0 0 0 0 0 0 0 0 0 0 0 0 0 0 0 0 0 4 58 155 205 213 213 210 143 76 41 44 41 42 37 32 34 32 32 32 32 33 31 30 30 31 32 32 33 34 34 32 32 26 27 31 33 31 31 32 36 36 35 31 31 33 34 33 31 58 106 150 152 170 183 193 209 220 223 228 230 221 220 116 63 58 58 64 61 57 52 48 51 46 45 46 44 48 46 46 47 46 46 46 47 51 56 57 55 51 49 50 59 69 83 92 91 92 104 118 132 132 78 50 42 50 63 48 47 51 52 47 48 52 53 55 58 57 53 54 56 55 58 57 57 58 59 55 54 55 55 55 55 57 59 58 57 57 59 60 59 59 59 62 61 63 66 64 62 65 66 65 67 62 61 61 56 59 55 56 58 55 58 68 66 57 54 62 60 58 57 57 63 67 64 63 68 57 56 56 55 52 56 54 54 59 71 101 64 36 33 39 28 18 22 34 43 54 62 74 85 92 108 119 111 102 112 121 138 149 154 162 170 177 182 186 192 196 200 200 199 201 206 206 210 214 214 214 214 218 220 218 219 218 219 219 218 218 220 216 212 212 210 213 215 216 220 227 228 231 235 234 233 234 232 227 225 224 219 216 214 212 210 210 212 212 209 206 209 211 210 206 197 200 198 197 200 
77 146 182 183 188 185 188 190 192 194 197 197 197 195 191 186 181 174 165 152 116 44 10 5 1 0 0 0 0 0 0 0 0 0 0 0 0 0 0 0 0 0 0 5 46 146 198 214 212 209 207 138 72 41 43 35 34 33 33 34 33 31 35 37 33 32 32 33 32 31 31 34 34 31 30 34 32 31 32 32 30 31 32 33 32 34 31 30 31 33 36 37 98 154 143 131 170 189 197 216 228 223 222 225 222 209 103 57 61 61 64 61 57 54 50 44 45 43 43 45 45 46 47 47 48 49 46 48 52 54 51 52 53 54 57 61 67 72 76 81 88 99 117 139 155 120 65 41 48 60 49 46 49 50 46 50 53 54 55 57 53 52 53 54 55 52 54 57 57 57 53 56 58 56 52 55 55 57 60 65 64 57 56 58 57 56 58 59 61 62 60 68 67 64 66 65 60 56 55 55 58 55 57 60 61 61 73 77 71 64 67 64 65 64 58 64 65 62 60 63 56 54 54 52 50 57 56 54 51 49 70 49 17 0 3 11 9 21 39 51 58 65 71 77 82 97 101 91 87 103 113 130 148 160 164 173 178 182 188 196 197 205 206 203 204 209 208 210 212 213 215 216 217 220 220 218 218 221 222 221 220 218 215 213 212 214 216 219 221 224 226 228 232 234 235 238 238 237 233 228 229 226 223 218 215 213 215 214 211 209 208 212 213 213 211 204 205 200 196 198 
75 143 180 182 187 185 188 188 189 196 204 204 198 190 182 174 168 157 140 114 61 16 3 4 0 0 0 0 0 0 0 0 0 0 0 0 0 0 0 0 0 0 2 38 129 190 209 211 208 203 195 136 73 40 44 35 32 34 35 34 34 34 36 37 34 33 36 34 30 30 29 31 32 32 31 35 34 31 30 33 32 33 34 34 32 30 32 33 34 35 31 66 132 172 158 170 184 184 188 211 229 230 228 225 222 201 99 58 66 66 67 64 63 60 55 46 45 46 46 45 48 48 50 51 48 47 47 49 51 50 54 53 53 53 55 61 60 62 64 64 60 71 93 121 145 155 102 59 42 44 44 45 47 48 49 53 48 47 49 53 53 52 52 52 54 53 59 58 56 56 58 54 53 56 56 56 55 54 61 82 91 66 55 57 58 57 57 58 62 63 57 65 69 67 63 65 62 61 58 55 58 61 62 64 72 72 72 77 80 74 65 64 66 67 63 60 64 64 62 63 56 53 55 56 51 56 54 51 50 52 52 63 34 2 0 5 12 22 33 44 53 66 71 77 92 106 99 86 85 100 120 131 145 157 165 174 182 187 191 195 198 201 204 204 204 208 208 210 213 215 216 218 221 220 219 221 219 220 221 220 222 220 218 217 219 212 218 220 220 222 223 224 227 229 231 236 237 237 237 237 236 231 226 221 218 219 221 222 219 217 213 212 213 212 212 207 205 203 201 201 
74 137 173 180 186 185 185 184 191 211 226 227 210 187 169 159 144 123 96 60 15 2 1 1 0 0 0 0 0 0 0 0 0 0 0 0 1 1 0 0 0 0 31 105 183 201 208 205 200 194 184 132 70 33 32 28 33 33 31 34 37 36 34 31 30 35 32 32 32 31 32 32 31 30 28 29 33 31 29 31 33 29 30 33 36 33 33 35 33 32 45 115 161 171 167 188 201 197 199 220 224 226 232 233 223 210 105 61 65 64 64 67 68 63 55 47 46 47 46 45 43 46 50 54 55 49 47 46 49 54 55 57 57 56 58 55 56 57 56 53 51 56 70 88 107 146 129 80 42 43 43 47 47 47 50 51 50 50 51 53 55 53 53 54 53 54 58 59 59 60 61 57 56 57 56 55 55 54 59 70 76 65 57 56 55 60 63 63 64 67 60 61 57 55 64 66 64 60 57 58 64 65 74 83 85 86 81 79 85 99 109 87 73 67 59 57 63 65 62 60 54 64 61 56 61 57 53 53 53 56 57 57 45 20 0 0 1 8 22 39 49 61 79 92 98 104 88 79 86 103 128 133 142 155 164 176 183 187 189 191 193 199 201 202 205 207 208 209 211 213 213 215 218 220 218 222 220 220 222 223 224 223 222 221 220 213 217 219 221 223 225 225 224 225 226 228 226 229 236 238 237 236 230 223 222 223 226 227 228 228 224 217 212 210 210 207 208 208 205 202 
67 134 169 171 178 179 176 180 201 231 241 236 205 166 141 133 108 74 38 6 0 0 0 0 0 0 0 0 0 0 0 0 1 2 2 0 0 1 2 1 0 18 94 172 201 208 208 203 196 187 180 139 75 31 34 30 31 31 31 32 33 33 36 38 34 31 31 32 31 32 35 30 30 30 28 29 33 33 33 35 33 29 29 32 34 35 33 29 36 70 121 152 164 170 180 197 193 199 213 228 230 229 231 232 223 225 137 77 59 59 68 68 66 61 54 49 50 50 47 44 45 49 50 52 56 55 49 50 53 51 54 55 57 59 57 53 55 57 55 53 56 54 57 66 77 96 116 111 81 44 42 48 48 47 50 51 53 52 50 52 53 52 53 56 60 56 55 55 58 60 62 59 58 58 57 58 55 58 60 55 54 59 58 55 56 62 63 64 71 92 123 114 96 76 61 64 65 61 56 61 77 79 123 145 99 95 103 106 113 136 163 132 98 76 66 58 59 60 57 57 82 95 84 67 61 56 51 52 54 54 56 52 57 45 7 0 0 1 9 27 37 54 75 89 88 84 74 79 96 116 126 132 142 155 165 177 183 186 188 191 195 200 202 203 206 208 209 210 211 213 216 216 217 217 217 219 220 221 222 224 226 225 224 221 219 217 214 220 226 224 225 223 224 224 223 223 216 217 225 230 230 230 228 226 227 231 233 234 235 235 231 226 219 214 214 212 210 206 203 205 
72 136 172 173 176 177 173 186 213 239 238 222 189 162 153 145 135 117 96 77 57 52 47 37 20 7 2 0 0 0 0 0 1 2 1 2 0 2 3 1 5 85 163 204 207 210 204 200 194 185 179 162 94 34 34 32 31 32 32 31 30 31 35 38 35 30 32 31 30 30 29 27 30 31 30 33 32 31 34 37 31 30 31 33 35 34 28 55 102 143 175 150 137 155 185 195 189 200 215 223 233 231 233 232 225 232 189 111 57 62 65 61 57 54 50 48 47 51 52 45 46 48 51 52 51 47 47 51 53 50 56 55 56 55 54 55 60 61 57 56 52 51 52 55 57 59 82 133 139 64 49 49 51 50 47 51 52 53 51 48 53 54 56 57 56 57 56 55 56 56 55 56 56 57 57 59 57 57 57 54 56 57 57 57 60 62 61 66 86 127 170 161 154 143 117 98 79 66 62 69 93 105 128 130 101 126 150 159 159 163 174 161 126 90 70 64 60 58 59 70 119 139 115 78 59 59 55 50 48 55 59 56 63 62 37 2 0 1 4 10 21 42 62 70 66 67 69 80 91 97 117 135 144 150 159 170 179 184 188 191 198 201 201 202 204 207 209 213 214 213 218 215 214 216 218 220 221 221 221 225 226 226 225 223 221 218 215 221 228 227 224 223 223 222 221 218 214 212 216 221 217 216 220 226 232 237 238 238 240 242 240 238 232 224 217 212 211 207 205 206 
94 170 208 204 200 201 198 204 217 228 223 216 205 199 201 199 199 200 197 188 175 169 161 151 138 123 98 64 29 3 0 0 0 0 0 2 0 0 0 5 47 145 200 211 211 205 200 195 189 184 177 177 114 45 34 34 37 38 36 32 33 34 31 31 34 31 33 31 30 31 30 27 31 35 32 32 33 31 31 33 29 30 32 33 34 31 54 110 161 174 176 162 154 163 188 199 193 198 211 224 234 229 234 237 229 230 225 144 65 65 65 58 53 51 47 50 49 47 45 46 44 46 50 51 46 43 44 47 50 52 55 54 52 51 53 57 60 60 59 57 54 52 53 55 55 53 58 103 145 132 56 46 49 48 46 49 47 49 52 51 53 56 58 56 52 60 56 54 56 60 57 55 56 57 57 58 57 57 55 53 58 57 59 60 59 58 61 67 86 121 163 187 197 196 193 186 155 100 63 71 88 126 141 138 142 163 177 186 187 176 169 165 132 90 66 63 60 58 56 73 151 155 126 89 64 58 54 49 49 56 58 54 59 67 60 19 3 0 2 4 8 20 36 45 48 57 68 82 89 88 112 136 145 149 159 170 177 180 184 191 197 199 200 200 201 207 209 212 213 211 214 213 215 220 222 220 222 222 223 224 224 223 223 222 221 217 215 218 225 229 227 225 223 220 218 214 212 210 211 213 209 208 211 218 229 238 241 243 245 247 246 245 238 230 222 214 211 210 209 208 
106 190 230 224 221 220 219 217 218 218 214 220 220 219 219 219 218 217 217 214 211 210 208 205 200 195 184 165 127 71 30 7 0 0 1 0 3 2 3 26 122 187 210 209 208 203 198 191 185 180 177 185 134 64 31 30 35 37 36 34 36 33 30 30 34 35 31 31 32 31 30 27 29 31 30 29 30 31 32 33 32 32 34 36 40 47 98 131 146 160 172 169 175 188 200 204 196 198 210 226 234 228 233 239 231 230 236 172 92 66 60 58 56 54 51 49 50 46 44 47 44 49 50 49 48 46 46 49 51 52 55 54 51 51 52 58 58 57 57 58 56 54 54 56 54 49 52 62 102 152 71 51 46 46 48 52 50 50 52 54 57 56 53 53 57 60 60 60 59 60 59 60 63 63 60 59 60 59 57 57 58 58 59 59 59 59 62 66 94 153 196 222 226 222 225 224 212 174 131 113 108 151 181 190 190 195 200 205 206 194 167 173 150 108 78 65 57 56 55 70 172 168 149 126 93 72 61 55 52 53 57 54 59 68 69 44 9 0 1 3 7 14 19 25 34 45 57 79 100 113 127 144 151 155 166 170 179 184 188 190 194 196 197 200 207 210 208 212 215 212 216 214 217 223 225 222 227 228 225 224 224 221 220 220 218 214 213 214 223 233 230 226 222 219 216 211 203 205 208 204 201 202 206 212 221 236 242 246 248 249 248 248 242 232 219 215 212 212 211 210 
106 192 231 224 222 224 223 222 220 219 219 221 220 218 219 218 218 218 217 215 214 214 211 206 201 198 192 187 175 146 97 48 16 3 1 0 2 1 16 79 170 200 207 206 205 202 195 189 185 181 178 187 156 90 30 32 32 36 37 34 35 34 32 31 35 30 28 29 32 32 29 28 27 27 31 31 31 33 35 33 32 32 36 38 44 80 139 171 173 160 136 152 177 196 203 207 204 205 212 224 230 233 238 240 235 235 237 192 118 64 56 51 49 48 46 44 43 44 45 44 44 45 46 46 47 45 49 52 51 49 56 55 53 51 49 55 57 59 59 59 54 52 55 57 53 50 50 50 76 132 127 68 40 43 47 50 51 52 54 55 53 53 55 57 57 57 59 61 60 56 60 59 60 62 62 60 59 58 58 61 58 60 64 66 62 60 64 64 87 152 215 234 234 231 231 230 227 214 194 173 162 172 194 214 219 220 221 223 225 217 179 158 139 111 74 67 59 58 57 71 184 181 158 140 120 91 72 66 60 53 56 54 58 64 64 60 17 0 0 1 5 10 13 17 23 26 42 65 92 117 139 149 153 157 164 170 179 185 189 192 196 197 198 200 204 207 207 209 210 211 214 212 217 223 224 227 232 232 230 227 223 220 220 221 219 214 211 210 218 234 237 232 225 219 213 207 204 202 198 194 195 198 205 214 225 232 241 247 249 249 250 248 244 234 220 218 214 214 214 212 
106 191 232 225 223 226 223 222 222 221 221 224 222 220 221 219 220 221 219 217 217 215 214 211 204 198 189 183 177 160 131 92 58 32 14 5 2 2 41 132 192 204 205 204 203 201 197 190 184 181 182 187 179 124 32 31 32 35 36 36 33 36 33 29 32 28 29 31 31 30 30 29 30 29 29 31 29 31 35 40 52 89 83 50 38 95 144 165 182 206 173 164 181 200 205 205 209 206 204 215 229 235 239 238 232 228 230 205 143 67 50 51 51 49 45 45 44 44 43 42 45 44 46 49 51 43 46 47 48 51 52 52 51 51 52 58 57 59 62 63 59 53 55 57 54 53 54 53 58 87 172 87 41 44 45 51 52 50 50 53 53 49 51 56 58 58 58 58 58 58 61 60 60 59 59 64 59 58 60 60 61 56 58 61 61 65 69 65 76 124 204 230 238 236 229 227 229 229 214 185 181 196 214 226 233 235 236 236 235 232 217 186 139 95 75 64 61 64 68 85 188 170 143 130 119 105 93 77 61 55 54 56 60 62 63 66 38 11 0 0 2 9 9 9 19 28 41 59 85 116 134 143 150 156 161 172 181 185 186 187 195 200 200 198 202 208 210 209 207 208 212 215 219 220 220 227 233 234 233 231 225 220 220 220 218 215 212 210 216 232 238 240 234 225 214 203 209 203 193 193 197 199 204 214 224 231 242 247 247 247 249 246 240 231 222 221 220 219 219 219 
106 195 234 226 226 226 226 226 225 225 224 224 223 221 221 222 222 223 224 222 222 219 217 213 207 200 190 179 168 157 136 108 83 59 37 24 4 13 78 178 202 208 203 199 199 199 196 189 184 184 179 183 191 154 58 31 26 28 30 32 39 35 31 31 33 32 32 28 27 31 25 22 26 31 33 33 39 38 35 43 76 97 78 36 24 142 160 167 172 158 141 157 183 200 202 208 212 210 207 209 217 233 239 235 227 224 227 215 184 143 98 67 54 50 46 47 45 42 41 41 45 47 48 47 49 47 49 49 48 49 51 49 51 53 52 58 57 55 58 65 61 61 61 60 59 59 56 55 52 59 146 110 69 50 46 52 48 48 51 51 51 51 53 56 56 56 54 57 59 56 60 63 63 61 61 62 65 63 59 59 61 60 58 59 66 71 64 60 75 119 199 228 237 239 239 235 237 237 229 213 193 209 225 233 239 241 241 241 241 240 235 213 166 110 71 61 64 70 85 119 195 173 147 139 136 126 103 83 70 62 59 58 58 60 64 67 59 25 0 0 1 4 4 9 22 31 41 56 79 104 128 146 155 159 163 174 181 181 184 192 197 200 199 198 200 202 210 211 209 209 214 217 222 225 228 233 234 234 234 232 225 223 222 219 215 212 211 211 216 227 217 232 241 237 223 203 197 195 193 194 199 203 207 213 223 233 242 246 248 249 247 243 238 233 224 215 198 185 173 163 
105 195 234 225 226 224 225 226 225 224 222 224 223 222 223 221 222 222 222 223 221 221 220 215 206 196 184 171 158 145 129 99 72 54 45 25 9 45 122 197 205 205 200 196 198 195 193 187 183 183 175 175 188 174 107 34 24 27 30 33 34 33 32 33 35 33 29 27 29 31 22 34 52 71 82 74 58 52 54 66 117 129 100 50 23 88 141 142 117 97 69 134 183 198 199 202 196 198 210 221 215 224 231 231 225 212 210 211 208 197 192 177 113 56 55 41 39 40 41 42 40 45 48 47 45 49 49 47 47 51 47 54 56 54 52 56 58 57 61 70 76 72 76 79 70 59 53 54 54 55 91 130 111 65 43 47 46 50 54 51 51 55 53 50 54 53 53 54 57 60 59 63 62 60 60 56 64 64 59 58 58 59 60 66 75 62 62 66 87 138 200 223 232 237 239 241 240 240 238 233 211 211 221 231 236 240 241 242 242 237 232 218 167 107 71 61 66 77 97 131 187 149 133 135 124 109 88 79 74 64 59 55 55 60 68 69 76 42 4 0 1 8 10 11 18 30 48 57 68 91 127 140 157 171 172 174 177 185 190 189 196 196 200 206 208 208 211 209 208 213 214 216 224 232 233 235 236 237 237 235 231 226 223 218 212 218 216 213 217 224 202 193 210 233 237 216 198 188 187 194 199 203 208 215 220 227 234 239 241 241 243 236 211 178 148 138 132 140 157 174 
106 194 232 223 224 224 224 225 225 223 223 223 224 224 224 222 223 223 222 223 221 220 216 210 205 192 178 164 145 121 104 79 63 56 49 23 20 88 169 200 204 203 201 199 196 189 187 186 182 176 172 168 180 193 171 64 27 23 29 36 39 34 31 30 30 41 35 30 29 31 30 62 66 76 121 117 93 99 118 129 142 138 148 152 135 134 160 185 185 144 66 101 152 170 153 168 167 178 195 205 216 216 217 220 218 189 195 206 213 210 198 204 177 126 79 50 38 38 40 40 44 45 45 47 51 48 49 47 45 45 48 49 49 50 53 51 55 55 60 76 88 99 114 116 94 73 62 57 54 55 56 133 110 47 42 46 44 47 49 47 51 51 52 53 52 57 60 58 57 60 60 61 62 61 57 56 56 58 60 58 62 60 61 65 67 64 64 74 103 150 189 208 220 230 239 243 235 225 224 232 212 216 216 217 229 234 236 235 235 234 222 200 156 108 74 65 77 88 102 124 140 112 104 110 102 77 65 67 70 64 57 52 56 61 65 69 68 49 20 0 3 8 13 15 15 28 46 60 68 83 141 147 155 169 174 177 180 188 192 189 196 195 195 199 204 205 202 205 210 212 215 217 222 229 233 236 237 237 237 236 234 228 221 215 212 212 211 211 214 220 214 199 194 206 231 232 207 192 190 192 196 198 205 211 212 218 218 222 220 201 157 124 108 112 133 144 157 172 185 188 
106 194 233 225 226 225 226 227 226 224 225 225 225 224 224 223 222 222 222 221 219 215 211 205 197 185 169 158 143 114 98 78 63 53 42 21 34 111 189 206 204 202 199 195 188 186 184 181 179 179 174 169 177 192 195 139 54 19 25 32 35 34 32 30 29 33 29 27 27 34 60 142 167 129 82 109 165 167 141 139 156 140 143 157 164 161 168 176 179 174 184 170 171 165 137 139 162 188 205 206 217 219 219 214 200 179 191 207 219 225 204 200 199 164 89 57 38 36 39 39 41 43 44 46 49 47 48 49 50 52 47 48 48 49 51 52 54 53 57 67 72 97 127 135 108 79 66 57 52 52 51 84 100 81 40 47 45 46 48 47 48 52 55 55 55 56 60 58 56 58 59 63 62 59 58 59 59 57 57 59 57 57 62 65 66 73 72 79 105 149 184 201 214 226 236 244 246 235 225 220 198 218 208 196 222 229 230 231 231 226 215 182 134 89 64 64 91 93 80 79 82 78 77 81 84 73 71 68 63 60 59 56 57 59 60 70 65 54 31 0 3 5 3 6 19 34 45 57 67 74 96 122 144 163 176 179 186 189 188 188 193 194 198 202 202 199 205 210 210 210 211 214 225 233 234 238 238 238 238 238 237 235 224 213 214 215 214 213 214 220 223 213 206 202 205 229 228 210 197 200 196 200 204 208 211 211 204 176 127 76 71 97 129 153 168 175 182 193 201 201 
107 195 233 226 228 227 226 227 227 225 226 225 224 222 222 223 222 221 219 218 217 214 208 201 191 177 163 149 129 103 81 65 52 40 27 16 56 134 197 206 204 200 199 197 188 185 183 181 177 170 165 169 183 196 200 202 97 34 24 27 35 34 33 33 31 32 29 25 37 83 180 196 195 173 124 107 154 184 184 172 160 169 177 181 185 181 173 168 166 171 193 203 199 185 170 161 177 195 209 217 222 212 202 203 212 198 188 191 208 231 226 204 198 195 176 131 84 51 38 43 42 40 42 47 51 46 48 48 47 49 47 49 49 49 50 54 56 56 57 62 66 80 96 108 112 97 83 66 53 51 51 48 93 106 39 45 44 48 50 46 51 50 51 53 51 52 56 59 59 58 58 59 60 61 61 59 60 59 58 58 57 56 60 64 65 75 82 86 108 153 181 193 207 224 237 247 248 244 234 215 180 204 183 172 222 222 224 227 226 217 200 148 107 80 61 70 98 89 65 62 60 60 61 65 66 72 75 72 63 55 54 55 58 59 59 64 67 66 44 5 3 1 2 8 19 19 43 60 69 79 93 119 143 160 172 178 184 185 185 190 198 196 198 202 204 201 206 210 212 213 211 218 227 234 236 237 239 239 239 238 236 234 226 216 213 214 212 209 210 215 225 215 215 215 201 201 224 229 224 222 212 207 204 202 196 170 127 90 76 96 127 144 158 171 182 187 193 199 203 205 
106 194 234 227 228 227 227 227 227 226 226 225 225 225 226 224 222 221 220 219 213 209 202 193 181 168 152 131 106 83 63 49 39 30 17 6 66 147 200 207 204 200 198 194 187 184 183 179 173 168 158 166 184 197 197 199 161 80 19 22 28 31 33 33 34 32 24 44 106 189 202 195 191 188 178 166 150 144 156 180 186 190 194 194 188 196 178 164 165 175 191 207 195 174 162 143 159 184 204 217 220 208 205 208 209 205 196 204 220 224 225 210 194 190 200 209 204 135 60 40 38 39 43 46 47 48 48 49 49 49 53 57 56 53 56 53 57 58 61 71 79 86 108 127 126 108 85 68 58 54 52 46 69 82 51 48 47 47 49 50 51 47 49 53 53 55 55 55 57 59 63 60 57 58 60 59 57 59 63 62 64 61 61 61 61 81 94 99 118 164 188 202 211 218 230 241 243 239 228 206 161 186 172 164 214 221 224 225 219 206 182 132 95 73 62 79 95 84 62 52 55 55 56 57 56 69 72 69 62 54 51 57 55 53 58 69 73 72 54 18 3 2 7 18 28 24 41 54 64 73 84 119 148 163 167 174 183 185 186 190 196 195 199 205 207 203 205 208 210 212 213 220 229 236 239 240 241 241 241 238 235 232 224 216 212 211 210 210 209 212 221 216 213 212 207 188 198 221 239 242 238 225 205 175 138 107 100 106 120 135 155 168 176 182 190 194 195 196 198 200 
107 194 234 228 230 228 228 228 229 231 227 225 224 224 223 223 224 223 222 219 212 207 200 188 174 160 136 107 84 69 50 34 23 14 4 0 82 162 203 205 203 201 197 192 187 186 183 176 170 166 157 166 183 195 192 197 208 128 35 19 22 31 31 29 32 29 42 116 189 203 197 191 189 185 174 163 153 122 115 157 183 192 193 184 171 171 160 161 172 181 190 200 203 197 177 133 151 183 201 201 211 196 194 209 229 225 220 211 206 208 207 204 201 199 200 211 225 214 154 61 38 38 43 45 46 48 46 47 49 49 48 50 53 54 53 54 58 60 65 78 85 87 102 127 146 131 109 85 65 57 51 50 55 64 70 53 48 46 46 44 50 49 52 55 53 53 53 56 58 59 64 59 57 57 59 60 58 59 62 63 62 60 60 60 65 84 90 97 120 159 182 193 203 214 224 234 235 231 220 198 155 153 149 164 210 218 220 218 212 196 152 108 84 76 71 87 85 74 63 58 49 53 58 60 61 67 64 65 64 56 52 56 59 59 60 73 78 74 55 24 1 0 1 9 22 34 49 58 61 65 85 119 146 161 170 174 183 188 187 188 195 195 199 206 209 207 207 208 210 212 212 221 231 238 240 242 243 242 242 240 238 235 225 214 212 211 210 209 208 209 213 224 214 202 203 196 178 187 214 237 236 208 162 124 110 113 127 137 145 157 169 183 189 190 195 197 202 201 199 202 
109 197 236 229 230 226 228 228 229 229 229 227 224 224 223 224 224 222 220 219 211 201 193 183 166 144 114 85 66 58 32 15 7 2 0 0 92 173 209 207 202 198 197 193 187 184 179 170 160 153 149 168 184 190 191 200 211 179 103 22 20 26 31 29 26 40 122 183 203 200 195 190 181 171 163 159 157 157 151 142 155 170 180 179 171 165 147 139 142 155 173 198 203 193 180 151 166 204 231 227 226 210 203 208 222 226 226 221 214 210 204 206 215 215 203 207 218 229 212 148 58 38 39 45 48 44 41 45 51 53 49 49 52 53 51 55 58 59 64 78 96 100 108 123 136 123 103 83 68 59 49 51 51 60 77 53 46 44 44 47 50 51 51 53 55 56 57 56 56 58 59 58 57 57 59 59 57 57 58 59 61 62 61 59 64 83 96 106 124 152 176 187 198 211 224 229 230 220 200 172 133 122 136 171 209 209 208 198 180 158 116 84 73 74 77 91 78 64 56 56 54 55 55 55 57 58 57 55 56 61 52 54 56 56 57 67 84 79 63 48 4 0 3 9 20 33 50 61 67 72 89 118 146 163 168 176 182 186 189 192 194 196 201 206 207 206 206 205 205 210 214 225 233 238 240 243 243 242 242 243 241 237 224 214 213 209 210 211 211 210 206 219 215 195 173 176 164 152 157 180 172 132 111 114 121 124 131 144 156 167 184 192 194 193 197 201 206 207 206 207 
107 197 238 231 231 228 229 228 227 226 228 226 226 225 222 224 224 223 220 216 209 199 185 168 142 115 84 59 43 35 11 2 0 0 0 7 108 184 211 207 202 199 197 194 190 184 172 160 153 149 161 175 188 195 197 200 206 212 164 51 21 22 27 28 36 105 181 204 197 198 190 183 174 164 159 164 166 169 173 179 181 181 186 192 193 191 188 177 160 145 144 169 185 189 189 182 174 188 214 230 225 219 218 221 227 237 241 240 236 231 227 223 218 217 218 203 205 215 225 212 126 56 35 44 48 42 44 46 49 54 53 51 52 52 51 54 56 58 65 81 113 132 153 170 172 155 120 83 64 67 56 53 50 56 73 56 47 44 45 47 49 50 52 53 52 54 56 58 58 55 58 54 56 59 61 58 58 58 57 58 61 65 62 62 70 81 100 115 131 151 172 186 197 208 217 221 212 185 152 131 105 107 137 172 188 182 176 158 132 111 99 75 67 72 77 86 79 66 56 56 50 49 52 56 60 52 56 56 55 60 52 51 52 56 62 76 94 87 72 65 7 0 7 12 17 32 36 44 55 71 94 119 145 161 162 175 180 182 186 194 196 200 203 202 202 205 207 205 203 208 218 230 237 240 242 244 244 245 244 243 241 237 223 211 211 206 210 212 212 213 207 205 212 205 174 170 169 152 133 126 111 108 115 120 118 126 137 151 164 176 192 196 194 195 198 200 207 209 209 208 
108 195 234 227 229 229 229 227 226 225 226 225 225 226 224 225 224 222 219 212 204 195 172 140 107 82 58 37 21 12 0 0 0 0 2 22 129 196 211 206 200 197 195 193 190 182 170 164 163 167 177 184 190 195 199 201 206 213 197 134 31 19 25 38 81 174 195 195 194 194 181 173 168 159 153 167 167 168 172 175 182 184 190 194 195 192 196 201 203 196 187 184 182 179 173 176 177 175 193 232 220 221 225 227 224 225 225 227 228 226 224 226 227 227 223 200 188 205 222 214 203 91 38 41 46 45 47 48 50 53 53 54 54 54 55 55 58 64 71 83 134 170 196 208 204 183 159 113 74 72 65 54 51 55 60 64 49 45 48 48 48 50 49 49 50 54 56 58 56 55 60 58 56 58 60 58 59 64 69 68 61 59 60 63 67 84 97 108 123 143 160 175 186 193 198 199 178 142 114 103 91 104 129 146 141 130 132 119 101 95 88 75 70 72 75 93 81 65 56 53 50 49 52 57 59 51 54 55 55 57 54 57 56 56 64 81 102 92 68 46 4 0 4 10 17 31 34 39 50 72 101 122 136 148 161 171 179 183 183 186 192 199 202 201 201 208 206 205 208 214 221 230 237 242 243 244 245 245 244 244 241 237 225 213 210 209 212 215 213 211 216 205 203 197 177 167 153 133 118 115 117 112 111 114 119 131 136 144 156 168 184 193 196 197 196 198 206 210 211 209 
109 195 234 226 225 226 227 227 227 226 226 227 226 225 224 223 219 218 215 206 193 179 143 102 75 57 37 18 4 0 0 0 0 0 2 40 145 201 209 208 199 197 194 190 186 184 174 170 173 181 186 189 193 196 199 202 205 207 212 197 77 32 19 57 148 186 189 191 195 189 178 166 162 160 157 167 171 171 172 176 186 192 194 195 195 191 196 198 195 193 197 199 203 200 184 179 181 189 203 217 209 208 210 210 208 204 201 202 205 209 209 214 217 217 214 212 210 215 218 217 224 144 70 39 45 48 48 48 49 51 52 55 56 56 55 59 59 62 69 87 143 190 216 223 219 213 200 160 110 74 67 58 54 53 54 64 49 42 45 46 58 54 48 47 49 55 55 57 57 56 59 59 58 56 56 57 57 62 67 69 58 55 59 62 63 80 89 101 116 133 142 147 159 166 162 155 134 117 103 88 91 96 99 101 102 89 96 93 84 83 78 74 69 66 73 116 76 53 54 54 51 51 52 56 65 68 72 76 74 63 57 57 57 57 63 88 101 87 67 53 6 0 1 5 16 31 37 47 66 86 89 111 127 141 160 170 178 182 185 186 193 198 198 199 202 203 205 206 210 219 226 232 237 242 244 244 245 245 245 243 239 235 227 217 211 211 213 211 208 207 215 211 200 174 137 114 115 116 114 114 116 104 102 111 123 137 147 168 190 195 184 191 195 197 201 200 204 207 209 211 
110 197 235 225 226 227 226 226 226 226 227 227 226 224 223 221 217 211 204 193 175 142 102 69 51 35 13 2 0 0 0 0 0 0 4 64 157 203 210 208 200 197 194 191 188 187 180 178 181 186 190 196 198 197 197 197 201 204 211 210 156 54 33 98 182 184 191 193 187 175 172 169 164 163 166 167 170 171 175 184 190 197 197 195 195 196 199 197 195 196 201 203 207 212 214 212 208 210 211 207 207 209 210 210 210 209 207 207 208 211 212 214 215 216 217 216 219 218 215 219 223 194 104 36 49 44 45 47 50 51 52 52 53 55 56 59 59 65 78 100 149 198 226 234 232 231 223 198 149 85 64 61 58 54 53 59 51 45 43 46 54 51 50 50 49 51 51 52 52 54 55 57 59 58 57 57 56 54 54 58 57 55 57 60 63 78 84 92 108 127 122 123 120 115 114 107 101 98 91 82 90 84 83 84 76 72 77 76 74 79 71 71 69 72 87 100 67 53 55 52 47 54 58 63 74 86 120 147 140 92 65 56 55 59 70 97 103 89 70 55 7 0 1 7 18 29 45 67 87 95 91 105 127 147 156 168 178 182 183 185 193 198 200 200 198 199 206 208 210 216 230 236 239 242 244 244 244 244 245 243 238 232 226 218 210 212 211 209 207 207 210 209 197 171 137 119 113 113 112 106 90 106 119 138 174 198 207 210 202 184 182 188 193 197 200 200 205 207 207 214 
110 196 236 229 228 228 228 227 227 229 228 227 226 225 223 219 212 203 192 172 132 93 58 30 14 7 1 0 0 0 0 1 1 0 6 86 172 209 209 203 198 195 193 191 187 183 178 179 185 190 195 197 195 194 196 194 199 204 208 212 210 92 84 146 177 180 195 190 174 166 163 167 170 173 178 173 171 177 184 187 190 194 193 193 198 201 199 200 203 203 205 209 211 213 217 221 222 219 215 211 209 210 212 214 213 213 213 211 211 212 217 219 219 220 222 219 219 218 216 214 221 225 131 41 51 41 44 46 49 54 49 51 53 55 57 58 63 68 77 99 153 203 230 238 238 239 234 221 176 97 67 60 57 54 54 53 52 49 47 47 46 50 51 49 48 49 50 54 56 57 55 57 58 58 61 57 55 55 55 53 55 55 57 60 67 73 77 85 96 105 103 105 99 91 89 86 91 91 85 80 88 85 83 78 71 73 73 71 69 68 67 67 63 76 104 62 53 53 54 54 48 54 60 68 86 125 178 211 210 173 102 65 54 59 73 108 112 91 68 57 9 1 1 10 26 33 42 60 81 90 91 104 128 149 158 169 178 180 182 190 193 194 197 201 200 201 205 209 213 221 231 236 239 241 244 245 244 244 243 241 236 228 223 216 207 208 211 213 212 210 209 207 191 166 141 121 109 100 94 96 113 143 167 191 221 237 244 232 199 159 175 186 192 194 196 201 202 203 205 210 
111 199 239 231 227 228 228 226 227 231 230 230 227 224 222 213 199 182 161 131 84 48 19 3 0 0 0 1 1 0 0 0 0 0 15 113 183 210 207 199 196 192 190 188 183 180 182 186 190 193 193 190 193 195 193 194 199 204 209 214 218 153 145 166 162 175 185 180 169 166 163 174 177 176 181 181 179 180 185 193 193 193 192 192 197 201 197 198 203 208 212 211 212 216 218 221 220 218 216 215 217 217 214 215 219 219 220 217 214 213 218 218 218 220 224 223 220 216 216 219 220 234 156 62 44 43 46 48 51 52 48 53 56 56 59 59 61 66 77 101 162 204 227 236 243 243 239 234 195 119 83 70 60 53 52 51 52 50 47 47 48 47 46 48 52 49 50 54 58 55 58 55 55 58 60 63 57 56 58 59 57 57 58 60 63 64 68 75 82 85 93 86 82 79 75 80 88 92 89 87 87 81 78 77 72 73 71 68 65 64 66 63 64 73 81 52 51 53 51 48 51 51 53 64 96 173 221 239 243 233 169 88 55 57 72 123 124 98 71 57 11 4 1 5 20 31 39 52 68 84 89 104 125 144 160 170 179 181 186 196 198 200 200 200 200 203 208 212 215 221 231 236 239 241 244 246 245 244 242 240 237 229 219 210 205 204 209 211 210 209 208 204 186 159 135 107 93 89 95 113 166 201 222 235 241 243 247 249 223 172 174 179 187 195 199 200 202 205 207 209 
108 195 234 224 223 223 223 224 225 227 227 229 226 221 213 199 180 149 111 75 33 9 1 0 0 0 0 0 0 0 0 0 0 3 32 136 193 211 207 198 196 187 180 178 176 177 180 187 194 194 188 188 191 191 186 194 198 202 208 214 214 209 185 165 169 181 185 186 182 176 172 175 175 175 181 182 183 185 186 189 193 189 190 196 200 205 204 203 204 206 207 208 213 218 218 224 222 218 214 213 213 215 215 214 216 219 223 225 225 223 224 222 220 220 221 223 222 219 217 216 223 235 163 74 50 48 45 49 55 59 56 53 53 56 59 58 65 68 77 107 165 200 223 235 241 241 241 235 212 166 107 73 61 58 53 51 52 50 47 44 45 44 46 50 52 49 50 52 53 54 57 54 54 57 58 60 57 59 59 58 57 58 59 59 60 64 61 67 74 76 81 79 74 72 72 75 83 90 90 85 82 76 75 75 69 63 63 59 56 60 62 57 66 70 52 51 54 56 55 53 48 51 57 72 112 194 233 246 249 248 227 122 69 65 77 138 141 108 76 62 8 1 0 2 13 29 47 65 81 90 93 108 129 151 167 171 177 183 187 192 197 200 201 202 201 202 202 207 213 218 224 233 239 241 241 245 244 244 242 240 237 230 220 210 205 206 208 210 211 212 214 205 180 145 118 116 113 109 132 188 215 232 242 246 248 249 251 255 232 179 172 176 185 195 201 198 199 204 207 207 
95 168 201 192 188 192 197 197 199 203 202 200 197 195 191 180 165 152 126 81 40 9 0 0 0 0 0 0 0 0 2 0 0 9 51 159 195 204 201 194 187 183 177 171 170 175 185 193 196 193 190 190 192 194 192 196 202 206 209 210 211 209 181 161 178 181 183 183 181 180 179 181 177 173 181 185 186 190 192 192 189 190 198 205 205 204 207 208 206 205 207 209 212 214 214 222 220 217 213 211 213 214 212 213 220 222 226 232 237 238 238 232 228 225 225 222 224 224 220 217 225 232 162 74 46 45 49 53 56 57 55 55 54 55 58 60 65 72 83 108 156 192 217 234 245 245 245 238 220 189 135 87 63 56 54 51 50 48 48 46 43 46 48 50 52 47 51 52 53 55 55 55 54 55 57 60 56 60 63 58 61 60 59 59 59 62 62 63 67 73 75 74 77 77 71 69 80 84 80 79 75 69 68 68 64 61 59 55 55 62 56 68 71 64 54 55 54 53 54 55 53 53 59 86 141 202 231 244 249 249 246 158 90 69 88 141 151 113 74 65 13 0 0 2 11 28 44 62 81 97 102 107 126 149 163 179 181 181 182 183 190 194 197 201 201 201 199 206 214 219 224 228 233 239 241 245 245 245 243 241 236 230 220 212 208 204 207 209 208 208 211 193 161 123 96 118 130 171 217 234 242 245 248 250 250 250 232 205 178 162 176 181 189 195 198 197 199 201 205 211 
69 120 142 141 147 153 155 158 163 165 167 169 166 163 164 164 165 164 163 162 148 119 85 53 27 6 0 0 0 0 0 0 0 12 69 168 199 199 191 188 186 186 177 166 163 174 185 192 195 193 196 194 193 194 196 201 204 205 206 211 214 198 169 156 174 173 182 186 184 182 181 183 183 182 183 185 187 191 194 194 197 197 200 205 206 209 211 210 208 209 209 215 216 216 218 222 219 216 212 208 210 216 218 219 225 230 239 244 246 245 242 235 231 229 226 224 225 223 219 220 225 233 155 64 45 42 49 54 56 58 56 55 59 60 54 55 63 81 101 120 150 187 214 229 237 242 247 242 226 195 137 93 65 52 57 80 60 48 46 44 46 47 47 48 52 51 51 54 55 55 56 55 53 53 55 58 56 54 57 61 61 59 58 59 60 58 57 60 65 66 69 71 70 69 68 73 76 79 78 68 61 61 64 63 58 59 59 59 58 58 58 71 63 51 52 56 54 53 52 48 47 55 67 100 163 210 231 243 249 249 246 168 100 73 88 140 146 116 83 63 7 0 1 2 6 19 35 52 68 85 101 98 116 145 162 172 178 181 184 184 183 191 196 199 204 206 207 211 213 213 220 220 226 234 240 245 245 245 245 243 237 228 221 215 208 199 204 206 205 206 209 182 132 96 111 161 195 221 239 245 248 249 251 250 234 173 134 136 154 165 181 185 192 200 204 204 204 206 209 211 
59 109 141 144 141 140 142 146 150 149 146 155 161 161 159 167 171 170 172 179 180 181 181 174 150 110 66 33 12 2 6 2 0 21 86 173 196 196 191 189 184 185 181 170 160 171 183 192 194 193 190 189 189 191 195 199 203 205 208 213 213 190 163 151 163 170 178 183 182 182 183 182 180 181 184 183 186 192 197 196 198 202 205 207 209 210 211 206 203 209 213 214 214 215 217 219 218 216 214 211 211 211 213 217 223 230 238 245 247 246 241 234 229 225 225 225 225 224 222 222 222 227 140 49 46 48 51 57 62 65 58 54 58 60 54 53 60 77 105 134 145 177 205 224 236 243 247 243 233 214 166 119 80 59 55 53 51 53 52 45 41 44 48 49 49 55 54 52 52 54 55 53 53 55 55 56 54 55 56 54 58 59 60 60 59 61 59 60 62 61 65 64 64 67 71 70 66 65 66 66 62 64 66 65 61 60 59 59 57 55 66 60 52 47 49 55 57 55 51 48 48 65 86 122 181 218 234 243 246 239 227 166 107 81 95 130 126 100 72 50 6 0 0 3 14 23 36 48 60 76 95 104 119 134 149 167 176 178 180 184 189 189 194 199 201 207 205 208 212 213 212 211 216 225 237 241 244 246 246 244 239 229 223 219 212 206 201 203 207 210 203 129 97 131 198 211 224 235 242 246 249 252 239 198 139 125 133 149 160 163 177 191 197 199 200 200 203 205 208 213 
69 133 161 155 154 155 155 153 154 158 152 156 160 162 162 171 176 181 184 184 187 189 189 190 186 181 164 123 70 26 10 4 0 27 100 175 192 193 192 189 189 186 179 168 161 178 187 190 186 180 176 180 188 194 196 195 199 203 206 208 212 181 157 150 156 160 167 182 191 189 186 182 182 184 183 188 189 194 198 198 205 205 207 209 208 209 209 204 203 208 214 219 219 218 219 219 219 217 213 210 213 212 212 214 223 234 240 243 246 245 237 230 227 226 226 225 225 222 221 223 222 219 130 42 46 51 53 57 59 58 57 56 56 58 59 58 61 74 97 122 140 172 203 224 234 240 245 244 239 226 189 133 91 68 55 58 53 48 45 47 43 46 47 48 51 54 52 54 54 52 53 58 59 56 53 55 56 58 59 59 57 56 57 57 57 67 65 64 65 67 67 67 70 71 68 65 66 63 61 64 65 64 62 59 59 60 58 59 61 61 66 56 53 54 53 54 50 49 50 52 53 63 91 141 198 222 237 242 238 228 215 160 106 79 88 114 111 88 62 44 5 0 3 9 15 21 34 41 51 69 84 94 114 135 145 156 169 175 174 175 186 185 190 197 200 200 205 207 206 211 211 211 212 217 227 238 244 246 246 245 241 233 228 225 221 207 202 204 209 206 157 127 154 202 221 226 233 240 246 248 251 228 171 130 141 145 150 157 170 181 184 190 195 198 200 200 206 208 209 210 
78 145 172 165 169 165 162 164 164 161 159 161 165 169 172 171 177 184 188 187 190 189 191 192 189 184 177 155 113 54 13 0 0 28 104 175 192 194 193 190 189 186 177 168 164 173 178 177 172 169 172 179 185 187 193 200 202 204 206 208 213 179 155 147 150 161 177 189 195 194 190 186 182 180 183 185 188 190 194 200 205 206 210 210 204 209 207 206 208 215 221 223 222 221 222 221 220 219 216 210 212 215 217 218 221 231 237 242 243 240 236 229 226 226 225 223 221 221 221 223 223 209 117 36 47 55 54 56 58 58 56 54 55 56 56 57 62 70 82 105 151 173 196 216 229 235 244 247 243 233 207 142 97 72 55 62 55 49 46 45 43 45 51 52 47 54 54 55 54 52 51 54 57 56 51 51 54 58 59 57 60 60 57 58 62 64 61 62 64 66 66 67 69 70 66 63 66 63 58 61 62 59 58 61 64 59 60 61 63 64 55 51 52 53 54 55 54 52 48 49 56 66 110 169 210 230 240 241 233 219 202 153 94 67 85 98 92 76 56 35 5 0 1 5 11 21 38 44 48 64 78 92 119 140 145 156 165 169 169 172 178 181 186 192 196 199 205 203 201 206 204 208 211 215 221 235 240 243 245 245 242 237 233 231 225 214 209 210 192 150 143 155 189 221 230 234 240 244 250 249 213 144 119 130 144 157 165 170 177 190 191 191 194 197 199 205 210 210 209 212 
81 149 178 173 174 169 163 164 166 166 161 159 164 172 173 178 181 184 189 195 194 191 192 193 186 183 173 146 101 49 16 2 0 22 99 167 180 184 187 187 184 177 169 167 168 170 171 171 173 178 174 179 183 186 191 196 195 199 205 207 205 172 151 144 144 160 174 189 198 197 193 189 184 182 186 185 191 193 194 198 199 203 209 210 208 206 206 207 210 218 222 224 224 223 224 222 220 217 215 212 215 216 218 218 221 226 230 234 234 231 225 222 223 224 223 221 222 219 218 221 223 202 111 35 47 52 56 59 59 55 57 52 54 57 55 56 57 64 79 104 138 164 190 213 227 232 237 242 242 233 217 164 109 72 61 61 56 53 51 48 45 46 49 52 51 52 53 53 52 53 53 52 55 58 55 53 56 57 57 56 59 58 57 60 65 66 65 64 61 62 64 70 69 67 67 66 65 61 60 64 63 60 60 63 66 65 63 65 63 49 48 55 54 51 54 56 55 50 47 50 60 83 138 195 225 237 240 238 230 215 185 123 80 67 76 79 77 68 50 23 2 0 4 7 12 25 32 41 53 65 67 83 109 133 145 153 163 162 158 164 168 175 182 187 188 195 199 200 201 205 202 208 208 210 221 234 240 242 243 244 242 237 234 233 228 220 215 188 157 149 166 202 224 233 238 241 244 250 246 212 121 111 121 134 150 157 164 171 179 189 192 189 190 196 200 204 207 207 207 209 
79 148 176 169 169 172 165 161 159 160 158 156 164 171 170 174 178 182 186 191 196 195 192 188 183 179 163 128 77 24 3 0 0 20 97 172 185 182 178 179 180 175 169 167 171 169 172 174 178 180 172 176 181 185 188 193 191 193 196 197 199 167 150 146 143 160 167 183 197 200 199 195 191 187 186 187 192 193 194 198 196 200 206 214 218 208 203 208 218 221 223 223 222 222 222 222 220 218 214 211 211 212 216 222 225 226 228 227 225 223 221 222 223 223 222 222 220 219 220 221 222 207 119 39 45 47 55 57 55 55 54 54 56 58 56 58 57 63 79 102 123 155 183 206 224 231 234 236 237 234 223 188 131 82 66 62 58 52 47 44 42 45 48 50 53 50 46 50 55 52 52 52 53 56 57 55 54 57 59 57 56 53 53 55 59 64 65 63 63 65 66 67 67 67 67 65 66 63 61 64 64 65 66 66 66 69 66 59 52 50 49 58 60 56 53 55 53 51 50 54 65 115 172 213 232 236 234 231 225 206 155 94 67 64 67 68 61 61 46 9 1 1 2 9 19 22 35 44 50 57 59 73 93 114 136 143 150 156 160 164 164 170 173 174 178 191 193 195 199 206 208 208 207 213 226 236 240 242 242 243 240 237 233 229 225 224 201 160 143 176 203 221 234 240 240 241 249 245 199 115 102 117 129 137 150 158 168 173 177 183 184 187 192 199 203 205 206 207 209 210 
75 139 168 168 178 186 191 181 164 154 154 154 159 164 169 175 176 178 184 190 191 193 187 181 179 163 142 96 41 4 0 0 0 17 87 174 199 193 180 173 175 169 167 171 177 176 177 179 178 175 175 181 184 183 183 186 183 187 192 193 193 170 157 149 137 153 166 177 187 200 203 197 192 189 186 188 192 193 195 200 199 205 208 206 202 209 210 215 221 224 224 223 222 222 223 221 221 217 210 206 209 211 213 218 222 220 220 220 221 222 223 223 224 224 222 222 218 219 221 221 217 221 146 61 44 45 53 54 52 54 53 54 56 57 56 53 60 69 76 85 110 152 182 200 215 224 232 234 235 237 228 200 143 88 66 57 58 55 50 45 46 47 48 51 54 49 49 49 50 53 52 53 53 52 55 52 53 57 58 56 56 58 57 57 59 61 65 65 64 66 65 68 69 69 71 68 67 64 64 67 68 62 62 64 61 64 59 55 54 51 54 56 58 56 53 57 51 50 54 61 78 142 193 219 232 234 230 222 206 173 114 77 62 60 63 62 58 54 34 0 0 0 3 10 16 27 38 47 54 60 63 74 86 106 133 139 144 147 152 158 163 165 169 171 171 184 190 195 200 203 204 199 202 213 226 234 239 239 237 239 240 237 232 227 224 213 165 148 166 195 215 228 237 240 241 244 250 190 114 87 101 121 136 146 157 161 171 177 179 180 182 186 193 201 204 206 205 206 210 211 
72 128 156 166 193 212 228 223 202 175 159 153 153 156 162 166 170 175 179 183 184 185 185 181 173 158 127 73 21 0 0 0 0 11 64 154 193 197 187 176 171 163 166 176 184 185 186 184 176 169 177 179 180 179 179 180 180 181 182 183 187 173 164 156 145 153 163 170 179 192 203 199 195 194 190 190 192 194 196 197 197 206 207 203 203 210 212 216 220 222 223 223 223 223 222 220 220 219 214 208 212 211 214 217 218 219 220 219 220 222 222 224 225 224 223 222 220 220 222 222 219 222 169 90 43 45 49 53 55 55 55 56 55 53 55 55 60 63 68 82 98 132 165 187 197 211 220 226 230 229 219 197 146 94 69 65 60 57 55 52 47 45 42 42 48 48 54 56 56 55 55 54 51 51 53 54 51 55 59 54 57 59 57 56 62 65 68 66 65 66 65 66 68 70 71 68 70 71 70 68 66 64 61 59 59 53 56 58 59 59 56 59 58 54 55 56 55 56 63 78 113 169 205 220 231 225 214 190 158 124 86 68 59 56 56 56 58 44 19 0 0 1 4 8 16 29 34 42 51 55 58 73 87 105 129 132 136 143 148 148 153 156 167 174 172 178 185 193 199 199 200 198 201 211 224 232 237 237 237 237 238 234 229 228 222 161 158 167 184 212 224 234 238 240 241 245 205 120 70 103 107 121 133 145 156 161 166 173 178 178 182 186 195 201 201 204 206 207 210 214 
69 120 145 151 170 187 207 219 218 203 183 167 156 151 155 162 167 170 174 181 179 179 180 176 161 133 86 36 5 0 0 0 0 6 41 118 170 190 188 179 171 165 171 181 185 181 181 178 171 167 174 176 178 178 175 172 172 173 174 175 178 171 168 162 149 155 161 168 176 187 200 199 197 194 191 189 189 192 197 199 198 206 208 207 208 210 210 215 219 219 224 222 221 222 223 220 219 218 214 207 209 211 215 217 213 217 218 219 221 221 223 224 224 223 223 222 222 222 221 220 221 224 188 115 44 46 48 53 54 51 56 56 54 53 56 53 56 60 66 78 97 110 136 163 176 188 195 199 198 196 189 165 133 99 73 69 62 60 59 54 47 41 39 40 41 40 48 53 54 53 54 51 51 53 54 49 48 51 54 54 56 57 59 58 56 60 64 67 64 60 63 63 65 68 69 67 69 68 65 64 63 61 58 56 56 54 58 58 59 62 58 58 59 57 56 57 63 72 87 112 160 195 214 219 215 197 165 132 107 90 71 61 55 54 56 55 59 34 5 0 0 1 4 7 12 30 33 38 48 56 50 62 75 91 110 112 125 136 140 143 153 156 163 169 168 171 175 187 196 196 193 192 196 205 215 226 234 235 234 233 232 228 229 226 203 143 158 185 208 229 231 237 240 242 242 241 136 78 78 94 106 121 129 137 152 153 154 163 174 180 182 187 192 198 200 200 205 208 211 215 
62 108 130 125 123 141 159 183 204 212 208 194 172 154 152 156 160 163 168 176 174 177 174 159 131 92 43 10 0 0 0 0 0 9 48 85 139 175 185 180 169 168 174 180 180 177 174 170 170 170 170 172 171 169 168 165 164 164 165 168 167 158 163 167 156 153 158 166 176 188 197 197 196 193 191 191 189 191 196 199 196 201 204 207 210 208 207 212 218 216 218 218 219 220 222 217 218 217 213 209 208 210 214 216 215 217 220 221 222 222 222 225 225 222 222 224 224 223 220 220 219 223 206 142 47 51 51 52 53 51 53 54 55 55 56 55 56 59 62 71 102 103 112 124 128 130 136 139 141 147 158 135 109 88 72 67 61 62 62 52 49 45 43 44 44 37 42 46 50 54 50 48 48 52 54 47 46 50 52 51 53 54 55 57 59 63 63 64 64 60 64 64 64 65 66 64 63 62 61 59 59 61 59 57 56 56 54 54 56 59 59 59 57 56 59 64 76 107 137 156 195 209 217 212 187 150 116 96 83 70 63 58 54 53 54 55 54 24 0 0 0 1 2 4 8 30 39 43 47 53 50 61 71 82 93 96 113 124 129 134 143 149 158 164 161 163 169 181 189 189 184 184 190 198 206 213 221 227 230 232 234 230 211 182 157 164 174 198 224 236 238 239 240 243 241 209 95 47 58 76 88 98 108 118 130 139 147 157 166 172 180 185 189 193 197 198 202 204 208 215 
59 100 113 108 115 123 142 165 191 213 213 211 190 163 145 147 150 156 161 163 159 153 144 123 85 42 11 0 0 0 0 0 0 15 61 74 114 156 179 178 170 168 171 174 175 174 173 172 171 169 166 165 163 160 159 161 159 155 154 157 159 148 157 169 162 154 161 167 174 186 193 194 191 190 190 189 188 190 194 195 192 195 199 202 205 207 208 211 213 213 213 215 215 216 219 216 217 217 214 213 212 213 214 215 216 219 219 221 223 224 222 224 225 223 223 224 222 221 221 221 217 223 219 158 47 50 47 47 51 55 52 54 56 57 57 57 57 56 58 67 82 89 100 104 96 94 96 105 117 126 124 116 106 93 76 69 64 65 65 58 54 48 48 50 50 41 36 39 47 54 49 51 49 47 49 45 43 43 46 49 51 52 54 57 60 65 59 58 62 64 61 62 61 61 61 61 61 61 61 61 59 62 59 55 55 58 56 56 57 56 56 58 55 54 60 74 107 150 184 198 217 219 212 195 164 110 90 81 72 62 64 56 52 53 52 54 42 16 0 0 0 0 0 2 8 23 28 36 43 42 53 58 66 76 82 85 90 97 105 114 126 138 146 148 147 149 156 165 171 172 169 172 178 187 203 202 209 218 215 194 157 139 118 122 162 173 196 218 233 238 240 240 240 242 241 208 170 154 156 157 144 124 100 91 103 122 140 152 158 164 172 180 189 194 190 196 200 205 209 212 
63 106 118 106 108 113 131 147 161 174 186 195 182 156 135 139 139 141 143 141 135 119 95 63 28 7 0 0 0 0 0 0 0 19 61 83 117 157 179 171 159 159 162 166 170 171 172 170 169 168 162 162 157 154 160 156 157 156 154 150 147 137 157 179 170 159 161 165 170 179 188 190 188 187 186 186 184 186 191 193 193 196 198 201 205 209 209 210 210 209 211 211 212 215 217 217 220 220 218 215 214 214 215 216 217 219 219 222 224 224 223 223 223 222 226 224 222 221 222 221 215 223 224 163 44 45 44 48 54 55 53 55 55 53 53 56 57 58 60 65 68 73 88 96 88 91 87 88 99 111 100 104 102 91 79 77 69 64 63 61 55 56 57 54 47 44 36 34 40 48 47 48 47 45 44 43 58 71 77 72 47 51 56 58 60 62 58 56 60 65 59 61 61 60 61 62 59 59 60 59 63 63 61 58 59 60 59 58 58 59 57 57 57 59 69 103 154 187 202 214 225 220 203 173 136 108 91 76 64 60 57 53 52 53 52 51 29 9 0 0 0 0 0 0 4 16 15 25 37 41 46 54 60 64 65 65 62 67 75 84 102 106 109 111 110 118 127 136 144 150 152 155 162 147 109 132 157 143 112 92 75 91 124 159 181 175 205 228 237 240 243 241 242 244 244 234 231 234 237 236 230 221 205 178 142 112 117 135 151 159 172 176 181 186 190 196 199 205 210 213 
50 91 107 102 105 108 114 122 127 132 145 150 146 132 113 114 116 117 117 116 105 87 52 18 1 0 0 0 0 0 0 0 0 14 59 97 138 172 186 171 157 159 158 159 168 171 167 164 163 161 158 153 147 146 152 157 162 160 152 145 143 141 160 178 173 169 166 165 170 180 180 183 187 188 184 192 186 184 187 191 196 200 200 201 208 209 206 206 207 206 211 212 213 214 217 219 219 220 219 218 217 216 216 218 217 219 220 224 226 226 225 225 224 225 227 225 223 222 224 223 217 225 228 168 48 45 44 49 53 53 50 57 57 54 54 55 53 57 62 66 72 75 83 88 88 84 84 86 92 104 105 93 87 84 78 80 73 64 61 62 58 54 55 51 46 46 39 34 33 41 63 84 97 113 136 149 186 193 146 65 61 47 48 55 56 59 59 58 57 59 57 60 61 61 62 58 58 58 59 63 61 63 63 61 61 62 62 61 59 61 83 73 65 70 90 137 185 207 213 220 223 217 201 169 125 104 85 72 62 54 53 49 49 50 49 50 17 1 0 0 1 0 2 4 4 14 17 25 34 35 43 47 47 48 52 49 46 52 60 64 73 58 60 72 72 66 74 83 94 106 109 125 119 78 25 55 60 70 84 95 125 165 200 208 186 183 212 231 237 239 241 241 241 242 243 240 238 236 233 232 239 246 249 242 227 204 159 132 134 152 161 170 177 182 186 190 198 203 207 210 
18 53 85 100 105 97 94 99 98 89 82 90 88 80 76 65 71 71 68 67 54 35 14 1 0 0 0 0 0 0 0 0 0 13 66 132 158 175 184 181 162 158 161 165 170 165 163 159 154 148 146 141 133 133 143 131 114 96 76 57 45 92 149 180 175 172 170 168 170 178 179 181 184 185 184 181 183 187 189 192 196 200 200 201 206 207 210 209 207 209 212 211 212 213 213 218 220 219 217 218 214 214 214 216 219 222 222 223 224 224 225 225 225 225 226 224 225 225 225 223 217 223 227 167 46 44 40 43 50 55 51 55 55 51 50 58 56 53 55 60 58 65 68 69 75 79 82 82 84 89 87 86 86 87 84 79 72 68 65 60 56 53 52 54 59 72 103 136 160 173 188 186 190 196 198 202 219 212 176 134 159 88 48 45 47 52 54 56 55 55 56 59 58 55 58 56 59 65 65 58 59 61 65 65 62 60 58 58 58 58 67 62 66 84 112 149 176 200 215 219 218 207 183 147 109 83 70 61 55 54 56 51 48 50 50 43 11 0 0 0 0 0 1 3 4 10 10 17 21 22 34 36 37 35 29 36 35 42 52 52 41 33 31 31 30 24 37 72 115 148 171 181 177 140 75 68 63 78 112 157 199 223 229 216 193 204 225 236 240 241 243 242 241 242 243 241 240 239 237 230 226 218 216 223 237 243 237 217 183 150 156 166 174 178 181 186 195 200 203 209 
8 38 68 80 78 72 70 69 64 55 45 43 40 41 49 46 40 36 29 19 17 5 0 0 0 0 0 0 0 0 0 0 0 11 62 130 151 161 169 172 163 161 160 158 158 159 159 152 141 133 128 112 87 64 49 27 18 10 4 2 1 77 150 182 180 176 175 169 167 176 183 179 178 181 184 182 184 184 185 187 193 196 198 201 209 211 210 209 208 208 210 209 210 213 215 217 219 219 219 220 219 219 219 220 222 221 221 223 224 224 222 223 225 225 223 224 224 225 225 221 212 222 222 161 42 40 43 46 47 50 52 53 53 55 55 50 53 51 51 61 57 56 58 64 70 79 72 69 74 81 82 84 84 85 87 75 71 71 69 63 58 82 112 142 168 176 176 178 177 175 177 184 198 217 229 212 231 233 218 210 238 183 96 38 41 45 47 48 50 55 58 61 59 56 56 56 61 62 59 56 55 59 65 66 60 59 60 61 61 58 55 61 78 106 138 175 182 183 189 198 186 166 146 118 81 71 63 59 60 64 54 49 50 53 51 28 5 0 0 0 0 1 1 2 4 7 4 7 14 20 24 20 23 33 40 33 28 34 36 24 20 14 9 3 5 45 130 185 204 208 211 209 198 172 135 109 101 142 191 204 217 231 229 218 210 224 235 240 239 240 243 242 239 238 239 239 240 241 241 239 237 224 221 227 236 240 245 245 237 211 161 158 169 174 174 180 189 195 201 207 
9 31 44 47 53 55 51 42 31 23 24 23 27 30 29 21 11 10 10 5 2 0 0 0 0 0 0 0 0 0 0 0 0 10 56 124 143 152 157 153 134 114 104 108 122 140 149 142 121 93 66 49 31 16 10 6 5 5 3 0 0 88 160 184 181 180 178 174 174 181 186 186 183 182 184 186 189 188 185 185 186 192 197 199 202 206 208 208 206 205 210 211 212 213 214 218 220 219 220 223 221 225 227 228 227 225 223 224 225 224 220 222 223 224 225 220 222 224 225 223 212 223 221 155 37 40 44 46 48 51 56 56 52 48 48 54 56 54 52 53 57 56 58 62 64 66 62 68 75 75 71 79 82 82 81 70 70 73 71 66 65 104 125 130 141 149 149 154 157 158 169 181 190 211 240 226 231 239 228 204 240 240 147 52 42 47 47 51 54 53 56 60 60 58 58 59 59 60 60 57 58 56 57 58 59 62 60 59 61 64 67 76 99 133 169 192 197 195 191 184 161 129 105 89 76 68 67 61 55 56 56 54 56 58 49 21 2 25 73 101 15 0 0 0 0 2 5 3 3 8 12 15 19 21 21 32 26 22 22 19 9 2 0 12 69 168 204 215 219 219 220 216 196 176 171 160 176 202 215 205 205 225 228 221 223 234 240 240 239 239 241 244 243 241 241 238 238 239 240 239 238 235 233 235 241 241 242 243 244 241 215 166 151 162 172 179 189 195 200 208 
11 16 21 24 28 34 32 24 13 5 10 11 10 10 10 1 0 0 0 0 0 0 0 0 0 0 0 0 0 3 6 11 22 44 72 83 66 53 39 20 17 10 9 33 81 121 127 106 78 58 46 39 29 21 18 17 11 6 5 6 0 105 171 183 181 179 182 176 172 181 187 187 185 185 190 187 186 186 187 188 194 194 195 198 202 200 203 203 203 205 206 211 213 213 214 218 220 221 221 220 222 224 228 230 227 225 225 225 223 221 222 227 227 226 226 222 223 224 224 221 211 221 210 143 38 38 43 47 48 48 49 50 52 52 51 53 53 54 53 49 56 55 54 58 64 55 54 59 62 63 64 73 75 77 79 69 69 70 69 69 68 75 95 118 133 132 145 144 139 143 149 164 184 205 224 235 223 230 234 217 229 246 188 97 46 46 48 46 49 57 57 62 63 60 60 61 60 60 61 62 61 57 62 66 57 53 54 58 62 68 72 93 118 146 176 202 204 199 194 184 149 110 90 80 69 65 62 58 56 54 52 52 48 48 57 73 114 170 201 165 25 2 1 0 1 0 2 3 1 0 4 2 5 10 15 19 8 5 6 1 0 0 12 76 180 202 213 218 222 224 221 204 182 187 228 232 224 214 201 187 196 219 220 214 221 232 239 240 239 238 241 244 243 240 240 241 240 238 237 239 238 236 238 242 244 244 243 243 243 243 246 199 161 151 168 175 185 193 197 200 
4 4 16 24 21 21 20 13 5 5 5 2 0 0 1 0 0 0 0 0 0 0 0 0 0 0 4 12 30 72 107 125 105 68 37 20 7 1 0 1 0 2 36 81 106 109 89 71 60 51 37 30 24 18 15 11 11 9 6 4 1 118 181 184 178 179 180 178 177 180 185 189 187 185 185 186 187 188 188 187 192 196 199 202 201 201 201 201 202 204 207 210 210 208 211 216 221 224 226 226 225 229 229 227 227 223 222 223 223 220 224 223 222 223 226 224 222 220 220 220 211 220 205 137 36 38 42 44 44 47 53 53 51 52 55 55 54 55 57 56 55 55 53 53 57 57 57 60 65 68 60 67 71 70 70 69 70 72 69 63 68 67 75 91 105 108 116 122 120 116 137 142 157 182 208 236 227 230 232 216 222 242 225 148 47 52 50 53 58 60 59 59 58 58 59 62 62 61 61 64 59 58 59 60 60 62 61 63 68 76 77 91 109 133 163 186 196 194 175 138 107 94 85 74 61 54 54 56 54 48 53 53 50 54 77 148 190 211 184 99 16 2 1 0 1 0 0 1 1 0 2 6 6 4 5 9 4 3 3 0 0 2 70 162 198 206 213 218 221 221 213 205 207 215 218 217 217 203 192 204 222 225 208 196 210 225 238 242 240 237 240 241 241 241 238 233 236 234 232 235 236 234 238 244 243 243 243 243 243 243 244 237 184 142 156 169 179 188 196 197 
0 0 1 3 7 12 7 2 0 0 1 1 1 0 0 0 0 0 0 0 0 0 0 0 8 26 77 133 152 116 68 32 14 9 6 6 3 2 2 0 3 19 48 75 82 73 64 55 49 43 27 20 16 13 11 13 16 8 2 6 17 133 193 193 185 179 177 175 174 179 183 190 188 183 184 185 187 189 189 187 192 194 196 198 196 200 200 200 201 201 205 210 211 211 213 217 217 220 224 224 228 231 228 226 226 226 225 224 223 222 225 226 226 226 227 223 222 221 222 220 210 221 196 122 34 32 33 40 44 41 45 48 49 49 54 52 50 50 54 57 53 55 55 54 55 56 57 55 54 58 66 69 69 69 70 69 70 70 72 70 64 61 68 70 60 80 90 97 96 88 109 120 137 166 200 215 232 234 229 227 213 234 246 191 70 49 43 49 57 58 54 58 63 64 59 58 60 59 58 61 62 61 62 65 64 67 67 67 71 81 85 95 105 116 130 141 149 153 147 129 113 94 80 69 60 55 55 53 51 53 55 58 54 67 119 178 213 226 167 42 5 0 0 1 2 0 0 0 0 0 3 1 1 3 1 0 0 0 0 0 0 34 121 192 197 206 215 218 218 217 214 215 218 220 219 221 216 210 203 203 209 223 209 195 211 237 243 241 235 232 238 239 239 235 230 231 233 228 224 226 231 239 243 244 244 244 244 244 243 243 244 249 209 157 145 154 173 185 191 191 
1 0 0 0 0 0 0 0 0 0 0 0 0 0 0 0 0 0 0 0 0 0 16 49 96 165 154 114 71 38 22 19 15 11 12 7 7 7 6 6 22 44 66 74 64 55 54 50 39 24 15 14 12 12 13 14 15 10 5 9 37 149 197 192 188 184 181 176 176 182 183 185 184 183 184 184 186 187 187 187 191 194 196 197 198 198 200 200 200 203 205 209 210 209 212 215 216 219 221 222 228 227 225 224 224 222 224 224 223 223 226 227 226 225 225 224 224 224 224 221 209 222 181 100 33 31 36 40 43 47 49 48 47 47 51 46 48 49 47 47 54 54 55 56 56 55 55 59 61 59 64 68 67 67 71 72 73 69 66 69 66 65 65 66 70 61 58 72 86 91 110 120 120 135 179 202 229 234 232 235 211 225 244 217 127 54 42 45 48 53 53 55 59 63 62 59 61 61 59 59 58 59 61 63 66 73 70 67 75 96 106 119 122 121 120 123 130 138 136 120 110 104 89 71 63 59 57 54 52 53 57 53 51 80 150 180 215 233 170 26 2 0 0 0 0 1 0 0 0 1 1 2 2 0 0 2 1 3 3 0 1 88 158 191 202 208 212 213 212 213 217 219 222 225 225 227 228 228 226 223 217 212 198 194 213 230 237 237 233 232 235 237 237 234 229 229 234 232 227 227 239 242 243 243 244 243 244 244 243 243 243 248 222 173 133 148 167 177 182 188 
36 55 59 47 33 22 8 0 0 0 0 0 0 0 0 0 0 0 0 0 20 59 118 160 153 111 77 51 34 25 17 16 17 15 9 8 8 6 8 22 43 65 77 76 64 59 46 36 28 18 15 16 13 9 9 10 7 6 6 9 56 159 200 196 193 185 180 178 177 178 185 187 187 186 184 186 186 187 189 189 194 195 197 199 199 201 203 201 202 207 207 210 210 209 216 218 216 217 221 223 226 228 226 223 224 223 223 223 223 224 230 229 227 225 225 225 225 224 223 221 210 225 172 86 36 37 41 43 44 47 51 49 49 48 47 46 49 48 47 49 52 56 58 57 56 59 57 56 57 59 64 70 74 77 79 73 71 70 69 68 67 66 64 63 67 70 75 60 45 61 118 126 128 138 159 197 221 230 233 237 219 217 232 234 186 65 48 52 53 53 51 55 59 60 59 60 66 62 58 59 58 61 65 66 66 68 65 70 79 89 105 115 114 112 116 115 114 111 111 111 87 78 74 66 57 59 58 55 54 56 54 53 52 80 148 190 215 235 180 37 3 0 0 0 0 0 1 1 0 1 3 1 0 0 0 6 2 0 0 2 21 126 182 194 205 208 213 213 212 212 218 221 225 228 226 231 236 236 234 231 229 227 222 219 222 228 232 234 235 236 238 241 241 241 241 242 241 241 241 239 241 241 242 243 244 243 242 243 242 241 243 246 232 186 128 145 164 178 186 187 
84 148 177 163 140 121 91 64 40 19 7 0 0 0 0 0 0 0 17 66 123 169 159 119 86 53 29 16 11 10 9 12 16 15 7 10 11 10 22 49 64 75 79 74 59 47 38 30 20 14 18 16 11 8 8 7 6 4 1 9 70 160 196 196 196 188 179 177 177 175 183 185 182 180 181 182 184 186 188 191 194 196 198 199 197 201 203 201 200 204 204 208 210 213 217 220 221 223 223 222 225 228 226 224 225 226 226 225 224 225 226 228 228 228 228 225 224 223 223 220 208 227 166 74 33 38 40 40 41 44 44 47 48 46 45 48 49 48 50 55 57 56 57 57 56 55 56 56 55 56 60 65 75 80 75 74 70 67 68 71 69 68 68 68 67 68 66 63 56 54 102 137 146 145 159 191 207 225 238 236 234 218 226 243 227 110 58 47 49 48 57 54 56 56 53 54 59 58 56 59 55 58 60 61 65 65 62 69 76 79 94 97 94 94 100 99 94 83 78 82 65 62 65 63 52 56 57 58 55 52 56 58 46 64 134 185 217 237 189 62 8 0 0 0 0 0 1 1 1 0 1 1 1 0 0 1 2 1 0 5 55 143 187 196 206 206 210 211 211 215 220 222 227 231 229 233 236 235 233 234 235 235 234 233 233 232 233 236 237 237 239 240 241 241 242 242 241 242 243 241 241 240 242 243 243 242 241 242 243 242 243 246 231 182 119 140 156 168 177 183 
81 140 167 161 159 158 164 161 143 113 86 61 35 13 0 0 1 43 112 169 162 137 109 81 50 31 19 13 8 6 11 9 12 11 4 11 14 25 48 77 77 75 75 68 49 37 27 18 11 8 12 11 10 11 9 6 5 5 2 10 88 164 193 192 195 189 181 178 177 173 181 183 181 179 179 179 183 185 185 187 193 196 199 197 195 198 200 199 197 199 202 207 209 211 215 220 221 222 222 220 223 223 223 223 225 223 225 226 225 224 226 228 229 228 227 229 227 225 221 215 208 227 154 60 36 38 40 40 42 45 45 44 44 47 48 48 52 52 54 56 55 53 55 57 54 50 53 54 54 52 52 58 68 71 68 70 70 69 69 69 71 72 72 71 66 68 67 65 53 39 80 135 166 166 158 174 200 223 235 235 238 223 227 241 239 189 81 39 46 47 55 54 55 58 59 52 53 57 58 55 56 61 60 56 57 62 62 62 65 72 80 81 79 77 76 75 72 70 65 55 57 60 61 60 58 59 60 60 56 52 56 57 25 32 121 176 217 235 196 95 9 0 0 0 0 0 0 0 0 0 0 0 0 0 0 0 2 2 0 9 78 153 187 197 204 205 208 209 210 215 217 222 228 231 230 233 234 234 234 234 234 234 232 232 234 232 233 236 238 238 240 239 240 242 243 242 242 242 243 242 240 241 243 243 244 241 241 243 244 244 243 248 230 177 115 134 154 160 162 173 
83 145 171 164 161 158 154 155 159 157 149 141 121 90 57 31 60 123 160 140 120 105 82 54 33 28 21 17 14 13 15 12 10 8 6 6 13 39 67 82 77 65 54 44 35 25 21 18 14 9 8 11 9 8 9 7 7 7 3 15 131 179 193 195 196 189 189 188 182 174 182 183 184 184 183 185 185 182 181 186 188 192 198 198 195 199 198 199 200 200 201 208 210 212 218 220 220 222 223 221 223 223 225 227 227 224 225 226 226 226 228 229 230 230 228 230 229 228 222 212 211 224 136 40 37 36 38 41 42 44 46 40 41 45 45 45 47 50 52 53 53 54 54 53 52 52 50 53 56 55 53 56 60 63 63 63 67 68 68 70 70 67 67 68 65 63 62 66 57 37 84 139 167 167 158 159 188 215 230 235 234 225 224 231 240 238 114 47 39 43 48 50 51 53 56 51 52 58 60 55 58 55 55 59 63 61 64 60 58 64 65 64 66 66 63 61 59 58 58 59 58 60 57 54 60 69 72 68 62 59 56 35 7 14 85 160 182 183 173 142 43 3 0 0 0 0 0 0 1 1 0 0 0 0 1 0 0 0 0 8 97 161 187 193 198 203 205 208 210 212 215 220 227 230 230 233 234 234 232 232 233 232 231 231 233 233 235 238 240 240 241 240 240 241 244 243 244 244 243 242 242 244 242 242 244 242 243 243 242 242 244 249 225 166 104 128 146 158 165 171 
82 148 180 176 171 170 166 160 153 143 137 126 115 106 96 94 118 134 132 116 92 71 56 45 33 24 18 16 16 15 15 9 10 11 6 9 23 47 67 70 59 51 42 34 27 14 12 15 13 7 8 10 10 10 8 4 6 4 0 12 145 180 187 191 196 194 195 194 189 183 185 185 183 182 183 182 185 186 189 193 185 191 197 198 197 200 196 197 199 199 205 210 213 215 219 220 220 221 222 222 224 225 225 226 226 223 223 223 225 226 227 227 227 227 228 231 229 227 221 212 216 217 124 32 34 36 36 38 40 39 44 42 45 47 43 45 46 50 51 46 51 51 53 56 57 55 55 53 54 57 58 58 59 60 58 61 67 71 72 69 65 63 65 67 66 64 56 59 56 43 65 137 171 166 154 152 179 204 221 232 233 233 220 217 240 247 168 80 36 43 43 44 49 52 47 51 54 56 57 56 56 54 58 64 64 59 57 55 56 60 58 56 55 55 56 54 58 57 56 60 56 63 62 63 73 75 76 68 62 59 38 10 0 5 35 96 78 81 111 137 123 66 18 0 0 0 0 0 0 1 0 0 1 2 2 1 1 0 0 9 97 161 188 192 195 198 200 205 209 211 215 220 224 228 228 230 233 233 232 233 233 233 232 231 233 234 236 238 239 240 241 240 241 242 243 242 243 244 243 245 245 245 245 244 243 243 243 243 242 242 244 251 214 146 95 130 142 153 163 169 
83 153 185 177 173 172 170 165 160 153 134 113 88 81 102 127 129 122 103 79 67 57 46 36 29 23 17 15 16 15 17 16 17 16 14 18 36 51 55 52 43 41 35 28 21 10 9 11 11 9 9 12 14 14 9 5 5 2 4 37 162 183 184 189 193 198 191 191 193 189 185 180 179 179 176 178 179 182 185 187 184 187 190 193 197 203 198 196 196 200 205 209 213 217 220 219 220 222 222 223 224 226 225 225 227 223 224 225 225 225 225 226 229 229 228 232 229 227 219 207 215 212 120 31 34 33 34 35 37 38 43 42 46 49 47 46 47 51 53 51 52 49 53 56 52 49 54 56 55 56 59 61 64 65 64 66 68 72 74 71 74 71 66 63 64 58 54 55 55 50 43 120 166 166 153 144 175 200 214 227 236 239 216 206 232 241 222 122 37 45 42 42 45 50 53 50 55 56 55 55 56 55 60 63 61 61 57 56 55 53 57 54 53 51 49 56 57 57 57 56 58 63 67 70 74 73 65 60 55 42 9 1 1 2 3 14 8 31 76 118 138 110 69 29 0 0 0 0 0 0 0 0 0 1 1 1 0 0 0 9 96 161 186 189 194 199 199 202 205 211 212 218 224 227 227 230 232 233 232 231 233 232 232 232 234 235 236 238 238 238 241 242 243 244 244 243 244 245 244 245 245 244 244 244 244 243 243 243 244 245 245 253 206 132 92 124 133 142 154 161 
87 154 184 179 177 172 169 168 164 156 140 99 78 92 126 133 121 99 75 56 54 44 35 29 24 16 16 15 14 16 12 15 16 16 17 28 43 49 49 45 38 32 28 22 13 9 8 9 9 9 14 15 12 10 10 6 5 1 15 72 181 191 190 192 189 196 197 197 196 190 185 177 178 180 174 178 182 181 179 181 185 188 188 190 194 200 198 198 198 201 206 210 213 214 218 222 223 224 223 223 225 227 227 227 227 222 224 225 225 226 226 227 229 231 230 231 227 226 220 207 213 204 113 28 34 33 33 36 39 40 43 38 40 44 44 48 46 49 51 51 53 53 50 50 54 53 52 54 55 56 62 62 67 72 69 68 68 71 71 67 71 71 65 58 59 58 59 59 55 48 33 106 162 177 166 147 166 195 214 216 233 238 225 211 217 238 247 167 70 41 42 45 46 46 51 53 54 54 54 56 63 56 55 57 57 58 55 55 54 50 54 52 50 50 51 57 56 56 58 59 59 63 62 58 57 61 61 59 41 8 0 0 0 0 0 12 36 63 78 75 79 106 91 42 4 0 0 0 0 0 0 0 0 0 0 0 0 0 0 8 102 166 187 186 188 194 197 199 202 207 210 219 224 225 226 228 231 231 228 228 232 231 230 230 233 233 235 237 236 238 241 243 244 243 244 244 244 245 245 245 244 244 244 245 245 243 241 242 244 244 245 254 197 114 78 110 116 130 149 159 
89 155 185 182 180 173 173 172 168 159 118 84 88 116 137 123 98 74 56 44 40 36 32 25 19 16 13 11 11 11 14 15 17 18 16 31 47 48 40 34 28 23 17 13 16 9 11 14 15 10 18 14 12 11 10 8 7 2 25 100 182 191 192 195 192 197 201 204 201 196 194 184 180 179 177 177 182 183 181 178 180 182 186 191 194 195 195 195 197 201 205 211 213 215 219 221 223 225 226 226 223 225 228 229 226 223 222 224 226 225 226 229 229 228 229 228 226 223 218 211 214 192 101 25 32 32 32 37 41 41 40 40 41 43 44 43 49 49 48 50 48 52 50 49 56 60 55 56 59 60 61 64 65 65 66 69 64 64 65 65 61 62 59 61 68 65 58 56 54 50 44 101 153 178 173 149 152 182 207 205 229 236 231 216 206 234 250 203 115 38 37 38 43 48 47 55 53 51 51 53 57 53 53 54 53 50 53 52 50 51 50 46 49 52 48 52 54 55 56 58 56 52 51 51 48 49 52 31 7 0 0 0 3 20 53 97 129 147 151 143 135 133 127 100 53 34 18 8 1 0 0 0 1 0 1 0 0 1 0 10 112 166 186 189 192 190 194 198 201 205 209 213 218 222 225 225 225 224 224 225 227 228 229 231 230 231 235 236 237 239 241 241 241 241 243 243 243 243 243 244 245 244 244 244 245 244 242 243 244 245 245 255 182 93 72 87 111 126 139 156 
87 153 184 181 179 176 173 173 160 125 79 92 111 123 128 101 84 67 52 45 38 32 27 22 19 16 16 13 10 12 18 16 15 18 25 41 47 42 31 23 19 20 18 16 18 19 19 18 14 8 9 13 14 12 9 13 10 0 31 124 181 190 196 196 186 193 202 203 201 198 196 190 184 180 176 181 182 181 179 180 177 183 185 187 189 190 191 194 197 201 207 210 211 213 218 221 223 224 225 225 224 226 227 227 225 223 224 224 224 224 219 227 229 226 226 227 226 225 221 215 219 189 96 23 36 28 28 31 32 33 37 38 38 39 41 44 44 49 53 52 48 53 54 55 56 56 57 56 56 57 60 62 59 57 60 59 62 63 60 56 54 52 55 69 88 82 88 97 105 119 142 130 149 180 185 166 153 168 193 207 224 235 238 225 205 221 240 234 162 42 40 42 43 44 47 46 45 45 49 56 58 65 67 72 80 88 97 98 93 88 78 73 69 65 61 60 56 49 45 48 46 44 45 46 43 44 21 3 0 1 8 31 66 107 144 166 181 189 191 191 186 187 185 176 159 135 121 105 82 53 26 4 0 0 0 0 0 0 0 17 101 159 181 186 190 190 194 196 197 199 201 209 217 221 222 222 223 224 223 223 227 226 227 229 228 230 232 233 235 236 240 240 240 241 243 244 243 243 244 244 245 245 244 244 245 244 244 244 243 243 245 251 160 63 63 95 117 129 139 151 
90 155 183 175 172 170 172 164 124 67 89 113 122 120 112 91 78 63 50 42 30 28 25 20 18 20 15 13 13 13 17 15 18 24 32 35 35 31 25 20 17 12 11 15 19 18 17 16 15 14 15 11 11 13 11 10 6 0 42 162 186 193 202 203 190 190 199 202 198 195 193 192 190 187 182 179 177 176 177 176 179 182 183 183 186 190 189 193 198 202 207 210 211 212 214 219 223 224 224 223 223 224 225 226 225 223 222 222 222 222 224 227 226 223 223 225 226 226 221 213 216 184 97 28 29 29 28 30 34 38 33 37 40 41 42 40 44 50 52 47 53 56 53 48 49 54 56 55 52 51 56 57 55 56 58 57 52 52 51 43 50 65 84 101 110 124 144 154 163 180 195 167 159 171 182 177 166 166 181 202 214 234 241 229 209 206 234 250 196 74 44 38 37 38 43 45 45 51 60 66 88 94 100 108 118 127 134 128 122 127 132 142 156 169 180 183 166 136 99 62 48 45 46 47 41 14 2 1 3 9 35 80 128 164 182 190 198 201 201 205 201 197 199 199 193 185 176 166 155 136 105 72 31 3 2 0 0 0 0 7 84 146 172 176 182 188 191 194 196 196 200 207 214 218 220 222 223 222 221 222 227 226 226 227 227 227 231 233 235 238 239 239 239 241 243 245 245 245 244 244 244 244 244 244 245 245 244 244 244 245 248 242 141 43 56 95 117 128 136 146 
87 153 182 176 177 176 162 108 65 77 113 122 118 109 97 75 66 54 45 40 32 25 21 18 17 15 14 15 15 14 21 20 23 28 29 30 29 26 22 17 11 10 15 17 13 16 13 16 18 15 13 10 9 10 9 10 5 0 48 175 187 195 203 206 202 200 201 202 199 193 196 197 193 190 192 185 182 177 173 173 179 184 183 183 189 192 187 193 202 204 208 208 209 213 217 220 224 224 223 224 224 227 225 223 223 222 222 223 226 227 227 225 223 223 223 224 226 224 219 215 221 171 86 25 26 26 31 32 31 32 34 35 39 42 39 39 40 43 46 47 51 96 80 45 49 47 47 51 53 49 57 50 51 55 52 59 48 40 41 54 85 113 126 134 147 164 170 179 183 182 201 193 168 160 187 190 180 168 173 196 205 232 241 231 215 201 231 247 219 142 51 42 48 51 51 45 51 60 72 86 96 102 120 140 150 146 134 119 116 131 148 150 154 165 178 192 203 209 208 192 166 115 71 39 14 1 0 0 4 22 55 124 168 186 194 195 197 201 206 208 206 206 207 208 204 197 195 186 172 161 151 143 107 56 17 4 0 0 0 5 67 139 171 176 181 185 189 193 193 190 197 203 209 215 217 219 219 220 221 220 224 224 224 225 226 228 231 232 233 236 237 236 238 241 244 244 244 244 244 244 244 245 245 244 244 246 245 245 245 245 248 219 117 33 48 73 98 119 132 135 
88 151 179 171 164 157 97 69 79 104 123 118 106 97 89 76 60 45 36 31 34 26 21 18 14 18 18 15 14 17 16 16 16 19 24 22 20 18 17 16 14 14 17 18 15 15 13 14 14 9 11 8 11 13 10 11 5 2 62 183 188 199 205 205 202 205 207 204 199 199 196 195 194 194 194 193 195 195 192 185 180 184 187 188 189 189 188 193 199 202 207 208 211 213 213 218 223 223 222 223 224 224 223 220 219 224 225 225 226 228 228 226 224 224 224 225 227 225 218 215 226 161 75 25 33 26 25 28 32 32 34 35 38 38 36 37 36 39 44 47 46 48 47 44 45 51 51 49 46 47 54 52 50 47 41 32 30 36 56 83 110 136 152 155 153 171 182 193 197 194 199 217 188 162 189 194 190 184 187 198 200 228 238 231 224 208 223 238 237 203 92 67 59 50 47 48 62 74 85 101 117 128 138 144 139 124 117 108 107 123 136 153 167 176 183 184 186 189 190 188 194 196 193 154 71 16 4 1 11 40 85 147 181 188 189 194 196 200 203 205 206 205 207 210 210 208 200 197 192 182 175 166 145 108 60 19 2 0 0 4 57 145 178 175 182 187 187 189 193 193 194 196 202 208 212 215 218 219 219 220 222 221 223 224 222 225 226 229 230 231 233 235 237 239 241 244 244 245 245 245 246 246 246 245 245 246 244 244 245 245 250 182 85 20 21 48 74 91 105 119 
88 154 180 162 134 76 72 86 107 125 128 112 99 87 71 55 38 27 24 21 18 19 19 18 18 16 16 15 16 16 21 17 16 17 19 18 18 19 19 17 17 16 16 13 9 14 11 10 9 10 10 15 11 5 7 2 0 13 77 183 185 198 205 205 200 207 204 199 196 196 193 195 196 195 194 194 194 193 193 193 190 188 187 189 190 190 194 197 200 206 206 208 210 213 217 220 221 221 223 225 227 226 225 224 223 224 223 225 228 228 225 225 224 224 226 227 230 227 219 216 223 148 66 23 28 30 30 31 32 31 34 33 33 35 39 35 34 37 38 36 42 45 46 45 41 42 42 41 40 42 37 36 36 32 20 22 31 54 85 113 125 141 155 166 173 182 189 194 198 200 201 214 204 183 172 174 182 182 181 189 206 229 238 236 230 216 216 232 245 227 147 101 78 69 63 60 79 93 100 105 116 148 156 137 112 97 95 103 108 110 130 164 186 190 187 185 182 184 185 185 193 199 203 207 204 161 78 24 20 53 98 151 177 184 190 197 198 200 201 204 209 209 211 212 209 205 204 202 198 195 186 178 162 136 106 68 23 2 0 3 41 134 174 174 179 181 183 185 187 185 191 195 199 204 207 211 213 216 217 219 217 217 221 224 223 223 225 227 228 230 230 232 234 238 239 244 245 245 245 245 245 245 245 245 244 245 245 245 245 246 251 136 47 14 13 18 33 52 65 66 
93 163 174 124 74 71 95 112 116 114 113 101 79 59 53 38 29 23 19 18 15 17 17 17 18 17 20 17 15 18 17 18 18 21 25 22 20 17 15 16 16 18 15 11 9 10 8 11 13 10 12 11 8 5 5 5 0 30 106 185 180 194 203 204 203 205 202 199 197 195 192 192 193 193 194 194 190 188 188 188 189 190 189 189 193 191 194 198 201 203 207 207 209 215 218 221 222 222 222 223 225 224 224 225 225 227 226 227 228 226 225 226 224 224 227 227 227 221 217 222 227 138 58 21 21 23 26 27 26 26 43 30 26 29 32 32 34 33 33 34 38 36 32 32 32 25 25 27 30 31 25 25 22 22 32 42 64 100 134 148 146 153 162 170 178 187 195 199 202 206 211 219 208 179 153 172 182 175 168 174 196 218 230 236 234 213 210 224 241 238 210 126 78 74 84 86 94 102 108 114 134 145 132 112 100 88 93 101 113 131 163 176 187 190 183 182 187 191 195 202 204 208 211 210 208 212 214 157 89 74 112 149 169 180 191 199 204 205 205 204 207 209 211 211 208 207 207 204 201 199 195 183 172 160 143 113 65 23 1 2 34 123 164 167 171 176 177 178 181 187 188 193 199 200 200 207 211 212 211 213 214 216 219 220 218 221 222 223 224 225 229 230 230 233 238 239 240 242 243 244 243 244 245 246 245 245 244 245 245 244 236 93 15 8 13 19 26 31 38 48 
85 137 119 79 95 97 98 102 107 108 104 85 67 51 35 27 21 17 14 9 7 6 9 14 17 13 14 17 15 9 12 16 17 17 19 19 20 16 14 17 13 13 14 15 16 14 15 12 10 11 6 10 9 6 6 3 0 47 131 187 182 194 202 201 199 205 201 199 198 196 194 192 191 191 194 194 193 192 188 185 188 190 189 190 192 194 197 198 202 208 209 208 212 218 218 221 221 221 222 226 224 224 224 225 227 227 228 226 225 226 228 228 226 226 231 230 229 218 215 226 227 116 37 13 15 19 18 20 23 23 25 18 19 24 25 23 26 27 24 21 28 20 16 16 16 13 15 18 24 30 24 16 18 31 49 70 111 138 155 167 162 166 176 184 182 194 198 203 206 206 212 216 218 194 149 172 180 178 167 162 198 206 223 236 227 215 208 219 237 243 240 151 91 78 88 86 95 100 109 129 141 138 126 109 93 89 91 98 113 136 163 171 178 181 179 189 198 201 201 202 199 204 205 206 211 211 211 218 210 170 123 135 158 175 187 199 204 206 206 207 211 211 207 206 208 207 205 205 205 205 203 194 186 178 162 142 96 47 11 0 17 100 148 161 170 174 174 173 176 185 186 189 192 194 195 200 203 204 206 211 212 213 216 217 218 222 221 222 224 224 226 228 230 232 236 238 240 243 244 244 246 244 244 243 242 245 245 244 245 240 194 64 2 0 0 6 25 50 72 81 
62 79 88 97 110 98 97 99 98 93 88 65 50 38 21 15 14 14 13 10 9 9 10 12 14 13 14 10 8 11 9 17 16 15 17 13 15 14 15 20 14 11 12 14 13 13 15 11 8 10 8 8 10 11 7 3 0 73 168 187 185 195 203 204 201 204 201 199 198 196 194 196 196 195 197 195 195 193 189 186 191 192 191 191 193 195 197 202 207 207 209 208 213 218 219 222 221 221 222 226 226 225 224 224 226 225 224 223 224 223 229 227 225 226 228 230 226 218 219 225 219 87 17 9 7 9 13 15 18 23 20 16 14 13 15 19 16 13 10 10 12 10 9 9 13 16 24 31 31 21 1 13 28 49 78 99 136 158 169 178 183 185 186 184 180 187 192 200 205 207 213 211 211 195 158 172 181 179 166 157 175 193 223 240 228 229 217 217 229 239 240 192 121 75 80 81 95 102 114 136 142 133 115 100 95 99 94 104 129 153 160 162 169 177 182 192 194 197 199 196 200 200 203 206 207 210 209 210 214 217 200 164 152 162 179 190 200 204 206 211 214 213 212 211 210 208 208 206 205 206 205 202 196 187 174 161 124 76 30 2 2 75 136 163 166 170 177 178 178 182 185 191 191 191 197 200 199 199 204 209 208 210 213 214 214 218 218 220 222 222 223 224 225 228 232 235 237 239 240 242 241 240 240 240 239 242 242 239 242 232 135 35 0 9 40 87 134 168 157 108 
38 74 102 106 97 92 94 99 96 81 66 48 38 31 21 16 15 16 15 10 9 11 11 12 15 10 12 10 9 12 12 15 15 15 15 17 15 18 20 17 12 13 14 13 12 12 14 13 11 9 13 14 13 11 10 5 7 95 188 189 191 201 204 203 201 203 202 201 198 196 194 191 192 195 197 190 188 189 189 188 194 192 194 196 195 199 202 206 208 208 207 211 217 219 219 221 221 222 223 225 225 223 223 225 226 224 221 224 226 225 228 227 226 227 229 227 225 223 222 222 208 72 7 7 7 6 7 8 7 4 9 5 3 3 4 4 4 2 5 15 22 30 36 41 47 52 51 50 43 30 25 50 69 87 116 137 151 167 180 182 186 198 201 197 191 188 190 194 201 212 213 212 215 198 156 173 182 184 173 157 163 190 218 230 225 228 218 219 228 237 238 231 149 71 71 74 95 112 122 129 132 108 96 95 93 98 107 121 140 154 152 157 166 178 188 191 197 199 200 201 203 206 208 209 212 216 212 212 214 212 219 215 186 164 174 185 199 204 205 211 214 215 215 213 211 214 212 210 209 210 204 204 201 193 182 174 150 104 49 8 0 46 104 148 167 171 177 180 181 184 186 186 187 190 193 196 197 198 199 202 200 205 210 211 209 212 215 217 218 217 219 221 223 226 230 232 233 235 236 237 236 235 237 237 235 234 234 234 232 205 66 33 59 116 180 219 223 197 136 67 
44 84 105 102 98 100 104 96 80 68 51 37 31 25 19 16 11 13 14 9 16 11 9 10 13 17 6 8 15 15 17 15 16 18 17 18 18 17 14 13 10 14 12 9 12 12 11 13 13 10 12 8 6 7 8 5 36 122 190 188 196 206 207 203 203 201 196 195 195 192 192 191 192 193 195 191 190 190 191 190 195 195 196 196 196 201 207 208 208 209 211 212 217 221 221 223 223 224 224 225 225 222 223 225 225 223 223 226 226 225 230 229 229 230 230 227 223 220 221 222 190 62 3 2 0 1 0 2 4 2 4 3 4 5 7 13 20 29 42 58 64 74 79 80 81 86 97 98 93 88 88 108 138 161 163 159 165 172 179 187 186 196 202 202 200 197 189 192 201 207 210 208 215 202 161 175 186 192 184 165 167 187 207 220 225 223 223 224 228 237 240 246 181 99 69 81 95 103 107 114 122 105 93 90 91 98 118 138 151 153 143 156 172 182 188 193 191 195 201 205 207 212 213 213 216 219 218 220 221 219 216 218 212 196 181 188 198 201 203 211 212 215 217 216 213 217 216 214 216 221 213 208 203 199 193 181 162 128 76 17 0 14 65 117 142 157 167 170 175 182 182 179 180 184 186 189 193 195 197 197 195 200 204 205 206 207 210 212 212 211 217 219 221 223 225 231 231 230 232 234 232 229 230 232 229 225 224 226 202 140 85 135 200 237 234 215 167 108 63 45 
42 81 99 96 99 115 110 89 66 52 36 33 28 21 16 15 10 9 12 14 12 12 11 9 8 14 6 7 14 16 17 16 16 18 19 15 18 15 11 14 8 17 17 14 18 11 10 12 13 11 12 10 16 18 11 5 68 144 189 190 202 208 208 207 208 203 198 195 195 192 193 195 196 195 194 193 190 189 190 191 194 196 197 198 200 205 208 209 209 213 212 215 219 222 222 221 222 224 226 227 226 227 226 224 224 222 223 226 227 229 231 228 229 230 229 229 223 220 224 219 158 52 7 7 7 6 6 9 12 13 12 11 14 21 28 54 70 87 101 106 113 111 112 114 115 110 117 109 92 83 95 98 125 164 186 187 176 170 171 176 186 201 205 202 199 207 199 199 202 205 211 217 221 206 169 171 181 191 188 170 168 180 199 216 223 220 227 226 225 231 234 240 219 154 70 82 96 104 110 116 114 100 92 89 88 97 122 141 148 147 153 165 171 173 180 182 184 190 199 205 208 212 213 213 216 220 219 220 220 219 219 215 215 214 207 194 198 200 202 209 212 212 215 218 219 217 216 217 223 229 226 212 203 201 200 189 175 149 102 39 5 2 37 87 116 129 143 159 172 176 175 175 172 173 180 184 185 186 188 190 188 192 195 197 199 203 204 205 206 205 212 214 217 220 222 224 227 226 226 228 226 224 222 221 218 211 206 202 183 158 201 232 235 215 180 123 70 43 39 43 
47 85 103 104 112 110 91 74 59 44 32 30 26 20 16 12 13 11 9 11 7 6 8 10 11 10 11 12 12 12 14 15 16 17 20 18 14 13 14 14 8 11 14 13 11 12 11 10 10 11 12 10 14 15 10 1 100 166 186 192 202 208 206 205 207 206 202 200 198 195 192 194 195 196 195 193 192 192 191 190 195 197 199 201 201 207 208 208 210 214 212 216 220 222 222 223 222 223 226 228 226 226 225 223 223 223 224 226 226 228 231 229 228 228 228 230 224 222 226 214 123 44 18 22 22 18 17 17 19 21 12 21 41 67 92 111 121 132 142 150 153 154 155 158 158 149 138 124 106 87 71 64 71 93 128 173 191 178 162 165 174 177 176 167 156 173 206 220 218 218 221 225 229 212 169 159 179 190 184 168 161 173 195 215 221 219 230 225 220 232 231 236 244 198 93 87 82 91 134 190 141 91 81 90 91 100 113 130 142 145 161 166 170 174 174 179 188 197 202 204 205 208 211 215 220 223 222 223 224 222 219 215 217 221 222 210 200 198 202 209 210 211 213 217 222 226 228 232 236 236 235 228 216 204 200 195 186 164 122 65 16 1 14 52 93 110 124 134 142 150 171 174 171 170 177 180 177 178 182 182 182 186 189 189 190 193 194 195 194 194 201 203 207 211 210 213 215 216 215 215 212 210 208 205 199 186 187 194 207 223 224 210 171 121 77 43 38 38 39 40 
53 90 111 114 112 96 76 62 50 37 31 30 25 22 24 17 15 14 12 13 12 6 8 12 12 10 14 15 13 12 14 11 14 18 17 13 12 12 11 11 8 7 10 13 13 12 9 9 10 11 10 7 7 6 6 7 125 178 181 195 204 206 205 204 202 201 200 199 197 195 193 194 195 195 195 193 192 192 190 190 197 196 197 199 201 206 208 208 209 211 214 219 221 222 224 224 223 224 227 229 225 224 224 225 224 223 224 226 226 227 232 229 228 229 228 228 219 217 222 205 91 42 28 27 30 29 27 21 18 23 41 78 108 131 151 158 160 163 166 168 173 171 171 175 178 178 173 167 158 143 115 97 86 84 95 109 156 187 185 154 120 100 83 84 116 152 194 210 213 223 226 221 227 210 157 157 167 180 184 173 156 163 181 200 214 214 232 229 219 227 235 240 244 219 157 103 92 117 173 232 219 136 83 71 81 108 120 132 145 157 160 167 169 172 180 184 194 203 207 208 209 213 217 220 223 218 220 225 226 221 218 215 213 211 213 217 210 203 203 208 211 212 215 220 225 231 236 240 239 238 237 236 231 220 207 196 193 179 145 90 29 3 2 23 62 94 110 112 116 136 157 162 165 169 171 173 170 174 177 174 176 182 181 179 181 179 183 183 181 182 187 187 192 191 181 191 196 196 194 194 189 186 183 179 178 188 198 210 214 201 164 114 70 44 35 39 40 40 40 41 
50 94 111 102 97 85 68 56 46 33 28 29 26 23 23 14 14 15 13 12 10 9 11 15 15 10 14 13 11 14 13 10 13 15 11 14 15 15 14 12 8 7 9 12 15 14 11 9 10 14 12 9 10 7 7 32 140 186 186 196 206 206 204 203 201 198 197 197 195 193 193 192 195 196 195 194 195 193 193 197 198 196 199 202 201 207 209 209 209 212 218 220 221 223 226 223 223 225 228 229 226 227 227 226 226 223 226 228 229 229 233 230 231 231 228 228 216 216 219 190 66 32 27 29 31 26 23 21 40 85 124 145 155 163 174 177 182 183 182 184 190 184 182 184 186 194 193 186 175 163 149 140 122 110 112 90 100 141 178 166 81 42 28 42 86 146 169 185 199 206 206 213 225 209 159 165 163 173 184 180 167 166 178 193 205 219 231 236 229 219 233 240 241 237 213 109 123 178 208 194 206 203 138 75 82 107 121 140 156 161 163 168 167 171 186 190 191 197 204 206 208 219 219 216 217 217 217 214 208 205 202 200 197 194 195 198 210 211 207 209 212 215 218 222 230 234 238 240 240 240 239 238 235 231 225 207 196 185 165 126 57 10 0 16 46 77 95 105 113 127 140 149 158 163 159 162 163 166 168 168 170 171 172 173 172 166 166 165 165 163 158 163 168 170 169 174 170 164 162 162 157 149 155 173 187 193 198 190 165 123 78 48 40 42 40 44 43 42 43 45 
47 88 106 96 83 81 56 44 40 29 24 26 26 21 16 9 12 14 14 14 10 7 10 15 16 10 10 14 17 15 17 12 12 14 13 10 13 14 14 13 13 7 8 11 9 8 8 9 11 9 7 7 6 3 8 61 151 188 189 199 207 207 203 201 202 199 197 195 194 195 193 194 196 197 196 193 194 195 196 198 198 198 203 206 205 207 208 211 213 214 218 219 222 224 225 224 222 224 227 230 226 226 225 224 224 225 229 231 231 231 233 232 230 231 231 228 220 221 213 168 46 22 24 26 27 24 21 56 109 150 170 174 171 173 185 186 191 194 192 190 194 193 193 191 189 196 191 186 184 179 166 158 150 137 115 85 77 92 119 136 100 35 10 35 86 128 162 170 165 170 197 199 202 188 154 171 180 183 184 188 184 177 182 196 210 224 226 231 231 219 226 236 239 238 225 142 165 200 201 168 170 168 175 173 148 106 113 129 142 152 160 166 169 175 186 187 192 197 202 211 209 210 206 196 187 181 175 169 164 166 169 172 174 176 178 179 180 183 190 200 211 215 220 224 231 229 236 240 241 241 242 240 238 238 235 219 201 190 179 149 72 14 0 6 27 57 79 98 110 115 129 139 147 154 157 159 158 156 156 159 161 161 163 163 158 153 151 144 139 139 137 136 140 143 140 124 111 108 108 99 106 140 167 179 180 176 178 159 119 70 47 42 43 42 37 38 40 41 43 45 
49 82 91 80 74 64 49 42 40 35 30 27 23 19 17 10 15 17 17 15 11 13 14 15 15 15 14 15 16 17 17 16 14 13 15 16 17 16 13 13 15 14 13 12 10 13 13 12 11 10 14 13 9 4 12 74 151 185 190 197 205 203 205 206 204 202 201 197 195 195 197 197 197 195 194 195 197 196 195 198 196 200 202 203 207 209 209 211 215 218 220 221 223 224 225 223 222 225 229 230 230 227 225 225 224 226 228 229 229 233 233 232 231 231 230 225 214 215 196 134 35 19 23 26 26 22 73 128 161 171 179 182 183 185 191 189 196 194 190 193 187 191 196 195 190 196 196 196 192 188 185 183 175 161 141 105 83 61 61 92 92 30 7 49 126 148 145 129 118 126 137 160 165 160 159 179 188 191 194 198 188 177 180 195 211 218 227 234 233 222 226 232 236 236 227 205 194 213 210 157 133 97 103 145 188 187 154 96 72 119 151 169 179 184 186 191 197 205 211 208 195 182 169 149 127 129 115 115 121 127 151 159 166 171 174 183 175 171 174 179 174 182 195 213 235 230 235 242 244 244 245 244 242 241 240 235 212 197 186 161 100 27 0 2 10 32 69 89 101 120 133 144 150 149 148 151 148 148 149 148 147 152 148 143 144 135 122 118 120 119 113 119 114 105 98 87 71 66 72 89 127 147 155 150 137 139 129 99 68 54 45 45 44 42 40 41 40 41 42 42 
39 70 79 73 74 60 49 45 43 38 29 23 19 19 21 16 16 15 15 15 15 17 15 13 13 10 13 15 16 17 15 17 18 17 16 14 14 16 17 15 19 16 14 15 17 16 13 15 16 16 12 14 10 2 8 84 151 181 189 198 204 207 206 204 200 199 197 198 199 198 198 195 195 195 192 194 197 197 199 204 198 203 206 207 208 208 209 212 215 218 223 222 222 223 223 222 224 227 228 228 228 226 225 225 224 224 227 228 229 232 231 232 230 229 231 221 213 208 171 86 26 15 18 21 30 77 135 164 170 176 186 189 188 189 193 200 207 214 212 198 199 200 199 197 196 199 195 195 195 193 201 200 192 183 178 147 99 64 52 56 52 19 31 72 97 100 93 85 75 59 45 100 138 154 166 178 184 191 194 189 184 176 179 189 201 208 212 225 237 234 231 234 239 239 233 225 215 220 207 150 86 65 95 149 189 201 186 158 126 108 144 160 176 184 185 196 197 194 189 176 147 125 99 85 89 87 84 89 96 100 113 148 168 174 176 180 182 182 184 190 186 188 182 177 184 208 233 243 244 244 244 244 244 243 243 236 218 203 193 175 128 37 0 0 3 24 50 71 87 102 110 129 138 136 133 135 134 126 120 125 128 133 130 119 111 110 100 97 99 97 95 100 93 79 69 56 54 62 83 109 114 116 117 113 98 78 83 64 40 41 38 40 42 41 35 41 41 39 41 47 
40 57 67 65 60 50 45 37 31 29 24 20 16 17 23 17 14 14 15 14 17 19 18 16 13 13 13 14 16 18 17 16 17 19 19 16 16 15 16 20 20 21 21 19 17 17 16 15 15 14 14 12 7 0 12 102 158 178 187 203 204 205 201 199 202 200 198 197 196 194 198 197 195 195 196 199 197 197 199 202 201 201 204 208 209 211 209 211 214 217 221 224 225 225 225 223 224 226 227 228 227 226 227 227 225 225 225 229 232 232 230 231 231 231 230 218 211 193 142 56 12 9 9 23 67 136 164 174 180 186 186 187 188 190 193 206 206 208 207 199 198 204 206 206 209 208 204 201 200 198 196 197 201 205 205 185 150 100 55 30 20 44 50 38 24 22 20 18 12 5 28 110 157 167 173 179 186 194 196 190 187 183 184 193 206 208 221 231 238 239 234 235 238 239 236 235 221 203 171 117 47 89 162 203 195 193 182 173 172 177 171 167 166 169 178 189 175 150 125 106 82 72 68 67 67 70 69 77 90 102 127 150 165 173 181 184 186 192 194 190 192 195 195 194 194 190 189 210 236 242 245 245 243 241 239 232 216 203 194 183 152 52 2 0 1 7 25 51 75 89 92 103 109 111 112 115 113 109 108 110 108 101 99 98 94 92 82 85 88 79 79 77 68 58 53 51 65 78 87 93 88 81 64 46 34 34 72 62 37 39 35 38 42 40 36 42 41 41 42 43 
33 57 63 54 46 32 30 30 28 24 22 21 20 21 23 15 16 18 17 15 17 18 16 14 16 18 15 18 22 24 16 15 18 20 18 15 15 15 16 20 21 21 22 20 15 15 16 17 16 11 11 7 6 3 13 103 152 175 190 202 210 208 203 202 204 198 198 198 198 197 194 196 197 195 193 200 198 198 200 202 204 205 205 205 207 210 211 211 212 216 221 222 221 222 223 221 224 226 227 228 228 226 227 226 224 225 225 228 231 232 233 231 230 230 229 218 206 167 96 16 3 2 11 54 131 156 169 177 183 185 190 190 190 190 197 210 205 203 206 206 201 199 202 208 207 201 205 206 206 208 201 207 212 213 212 212 177 121 63 24 34 58 50 26 12 3 3 4 0 8 88 154 173 171 183 188 198 201 201 203 189 186 191 198 201 210 216 222 231 239 237 235 237 238 236 233 230 226 205 162 121 134 150 169 199 206 210 197 168 138 129 142 147 149 168 216 211 133 60 57 54 52 52 54 61 69 75 85 100 120 143 159 167 174 186 192 197 199 200 201 200 199 202 203 199 199 198 190 192 216 242 248 247 246 243 235 217 204 197 187 164 75 17 0 0 2 15 39 62 75 85 93 103 107 98 92 96 96 95 96 96 92 86 82 81 74 68 71 72 66 69 60 47 42 53 66 59 58 62 62 65 49 38 35 35 34 37 37 37 38 45 45 42 41 45 37 39 43 46 47 
26 45 47 37 34 31 28 29 30 26 26 28 24 21 25 18 20 20 17 14 14 13 12 11 15 14 18 16 13 16 12 13 15 18 21 14 15 16 17 19 16 14 13 14 16 14 19 18 12 10 11 12 8 0 11 111 158 180 190 199 204 205 204 201 201 200 201 200 198 199 198 200 198 196 197 200 198 197 198 202 204 202 203 206 210 205 208 211 214 215 219 219 219 221 222 220 224 226 227 227 228 226 226 225 222 226 226 230 234 233 230 233 234 232 226 206 186 136 63 2 0 0 40 106 155 165 175 178 179 187 189 192 200 205 202 201 204 204 203 206 210 209 208 206 205 207 209 209 209 210 212 211 214 220 224 223 203 134 63 50 89 79 56 41 40 25 24 8 7 56 152 167 168 174 180 191 186 189 198 200 192 197 199 204 215 224 221 218 225 240 238 239 239 238 236 233 231 227 227 226 185 108 113 170 210 222 209 168 122 96 90 98 135 172 185 210 189 118 56 47 47 54 59 62 66 80 89 101 120 144 150 162 167 172 184 184 193 196 199 204 199 205 206 204 202 198 197 198 199 197 210 237 249 250 245 236 217 203 199 196 178 82 16 0 0 0 5 24 48 68 80 82 87 90 86 87 86 85 87 89 82 78 74 68 63 54 55 59 59 53 53 46 44 48 55 51 53 56 59 57 41 33 32 33 33 36 39 40 40 42 43 44 44 42 41 42 43 43 44 46 
17 31 37 35 33 30 30 28 26 26 24 22 21 24 30 22 18 17 16 16 13 11 12 15 16 13 15 13 12 15 18 17 18 19 19 15 16 16 18 19 15 13 9 10 13 15 16 13 9 7 12 11 10 3 9 109 152 176 189 196 196 199 203 203 200 195 196 197 196 195 197 197 196 192 194 199 199 200 203 205 207 206 208 209 207 208 212 215 217 218 222 222 223 224 223 222 225 227 229 230 227 226 226 225 224 226 227 230 231 230 231 231 232 232 224 195 173 106 32 1 0 14 80 148 167 169 172 180 189 195 194 190 196 201 197 199 203 207 207 203 204 210 212 211 212 211 208 210 213 209 212 219 224 227 231 230 184 98 69 144 160 142 95 54 45 29 17 6 39 124 164 171 175 180 186 195 189 192 197 189 187 192 195 199 208 216 219 221 227 238 239 238 239 239 238 235 230 228 226 226 237 178 129 132 180 195 161 118 103 128 173 202 191 171 178 190 94 39 39 55 53 57 60 64 71 81 102 120 134 146 160 165 170 179 193 199 198 199 200 199 205 207 209 209 209 206 204 202 206 211 205 204 224 246 246 237 218 205 200 196 183 101 29 0 1 0 1 8 27 56 61 70 75 74 68 74 73 73 72 67 60 61 56 48 44 40 37 34 32 32 35 36 44 50 49 51 48 46 43 38 31 33 33 34 39 41 41 40 39 43 43 48 47 44 45 45 42 42 44 45 
18 32 40 37 32 31 32 31 27 26 28 23 22 24 23 26 21 19 18 15 13 16 16 16 17 14 15 16 16 15 12 15 16 18 18 17 17 19 20 18 13 16 17 17 15 11 15 12 8 10 9 8 7 2 13 117 160 177 188 195 202 201 202 202 199 198 197 197 195 195 195 195 195 196 197 200 200 202 204 204 202 205 207 208 210 210 213 217 219 218 222 222 223 224 224 222 223 226 227 227 226 227 227 226 225 228 228 229 231 231 232 232 234 233 222 184 132 61 8 0 0 66 128 161 171 173 182 183 185 189 193 195 197 199 201 201 203 203 203 203 205 206 208 210 213 212 211 210 212 217 213 219 223 226 224 207 122 103 151 206 200 177 139 88 38 18 14 15 58 151 167 176 180 186 193 176 177 195 205 192 190 196 198 201 209 213 214 222 232 236 239 240 238 237 238 237 236 229 223 225 228 221 147 100 152 175 187 186 181 182 208 215 184 146 140 165 54 29 61 61 60 66 69 73 84 88 117 141 155 164 173 181 188 195 199 201 205 207 209 211 214 211 210 209 210 211 207 207 207 205 207 202 200 217 244 234 217 207 203 200 186 112 36 0 0 0 1 8 24 42 43 57 65 63 56 55 58 63 65 60 53 46 42 40 42 36 30 30 27 21 33 44 48 47 45 39 35 37 40 38 37 33 35 38 37 46 45 44 42 41 44 43 44 45 48 46 44 46 47 47 
16 33 36 32 34 33 30 30 28 25 29 24 25 29 29 23 23 22 20 20 13 14 15 14 12 13 15 12 11 15 19 19 20 19 16 21 19 18 17 14 15 14 15 15 13 14 13 12 10 10 10 10 7 3 16 119 164 182 190 198 202 202 202 201 198 199 197 196 196 198 193 196 196 195 194 200 200 203 205 205 206 207 207 208 211 210 215 218 217 216 223 222 223 223 221 224 225 226 226 226 226 226 225 224 226 226 226 226 228 230 230 232 233 231 212 157 87 30 0 0 17 105 158 170 172 181 185 186 188 194 187 194 200 203 204 203 201 202 204 206 206 208 209 210 211 215 220 218 214 212 214 209 209 202 181 165 178 211 229 216 213 191 157 96 17 17 7 2 43 138 165 178 183 194 209 187 202 214 212 199 196 197 197 200 207 215 223 231 233 233 240 241 240 235 230 231 234 233 231 229 230 212 182 150 140 192 215 230 208 154 192 180 146 128 136 117 44 35 64 70 62 74 82 89 100 117 137 152 158 161 171 180 187 194 197 197 203 207 210 211 214 216 215 213 215 213 214 211 206 205 200 207 206 207 219 233 216 206 204 201 188 109 33 0 0 0 2 3 11 28 38 43 48 53 57 53 56 56 54 53 49 42 36 33 34 25 22 20 20 27 36 38 37 37 38 34 34 34 34 33 36 36 37 41 41 45 46 44 43 44 43 43 46 46 44 47 44 44 45 44 
16 25 33 35 34 34 35 34 32 32 36 34 31 29 26 26 25 25 22 20 18 16 12 9 10 13 12 13 14 12 17 21 21 20 20 24 21 18 15 12 14 13 13 14 14 13 11 11 12 13 11 11 11 10 24 118 160 181 191 194 198 200 201 201 198 199 197 195 195 198 195 195 195 195 195 197 198 202 206 206 209 208 211 212 210 210 215 217 218 221 223 222 223 224 223 224 225 227 227 225 223 226 227 226 226 224 225 227 229 231 227 230 234 227 190 111 49 13 0 5 61 130 166 173 175 187 192 190 189 195 193 198 200 197 194 192 192 192 192 190 193 196 197 199 205 203 206 210 210 205 198 177 150 111 71 104 172 219 236 235 224 216 192 145 92 85 58 26 28 84 134 158 182 196 194 193 211 218 215 208 200 200 203 204 201 209 215 216 218 228 239 238 237 232 225 219 223 229 234 237 239 234 206 158 118 164 187 200 193 170 186 144 127 148 167 86 56 55 65 76 84 101 113 122 132 133 139 143 154 173 170 174 175 180 191 195 201 207 211 210 208 209 211 212 214 216 220 216 211 209 204 204 212 213 203 212 210 205 201 197 187 98 24 0 0 1 0 3 10 22 36 44 42 41 49 45 49 50 48 44 40 38 35 29 23 21 18 17 24 33 36 33 31 33 36 34 33 31 31 36 39 38 38 40 43 45 41 39 41 46 47 44 45 46 46 46 45 46 47 48 
15 24 32 35 35 39 38 36 36 37 31 31 28 24 24 27 27 25 22 18 20 16 13 13 11 14 13 14 14 9 13 17 21 21 20 24 18 19 19 13 15 14 13 12 11 11 15 13 10 11 16 16 15 15 28 119 160 184 194 193 194 198 200 199 199 197 197 195 194 196 196 194 196 197 196 197 200 205 208 207 208 209 211 213 214 214 216 218 220 224 225 224 225 225 225 223 225 227 228 227 226 227 227 225 225 225 226 230 232 231 229 230 233 217 162 70 23 2 1 19 98 145 166 175 183 188 193 193 194 199 197 195 193 187 180 181 181 181 182 182 187 184 185 191 196 193 194 198 201 200 199 178 135 72 13 3 58 121 180 226 226 225 221 218 218 190 166 118 57 23 74 144 177 179 181 215 217 214 214 212 206 203 207 211 212 217 215 211 214 228 235 233 232 232 228 223 212 216 227 237 242 244 205 157 145 182 196 200 203 210 209 175 171 196 202 99 68 71 84 98 112 118 123 127 132 133 135 143 155 165 167 174 176 179 190 194 196 202 207 206 207 209 210 212 213 216 219 217 214 214 209 208 208 211 212 198 196 197 195 191 180 85 18 0 0 1 1 2 9 19 23 33 31 31 43 42 42 42 41 39 36 30 29 25 17 17 20 28 33 30 31 34 37 37 36 34 33 32 34 38 43 42 41 40 38 45 43 40 40 43 43 39 41 49 57 44 47 47 48 55 
14 28 33 32 33 33 35 35 35 35 29 28 27 26 27 23 26 26 23 20 23 19 17 16 13 10 12 13 14 12 14 18 23 23 21 22 23 23 20 17 15 15 14 13 12 12 17 16 12 14 19 14 11 10 28 133 168 184 193 197 195 198 200 200 200 199 198 197 194 194 197 198 195 195 198 199 202 206 208 209 210 209 212 214 214 215 217 218 219 223 223 223 224 226 225 224 226 227 226 226 226 227 226 226 226 227 229 231 232 230 230 230 232 205 129 35 6 0 4 36 123 160 177 186 188 193 193 193 193 194 192 192 189 182 177 180 176 174 174 174 186 183 183 189 197 195 194 195 197 199 198 206 204 173 107 35 0 6 66 151 193 207 208 208 209 197 202 189 147 88 41 134 178 177 192 219 207 200 202 201 198 200 207 213 215 223 220 216 221 234 236 236 235 236 234 223 218 223 228 220 192 170 178 195 200 210 210 212 211 198 198 189 208 235 215 75 62 85 104 113 125 130 134 138 144 147 147 152 158 160 169 177 182 188 197 198 199 202 205 206 207 207 209 210 211 214 215 216 217 219 217 211 209 208 207 213 196 190 191 185 166 66 9 0 0 0 0 0 4 11 11 24 34 37 34 34 36 36 35 36 30 26 22 15 11 16 26 31 30 28 28 32 37 38 35 35 36 38 40 44 44 45 43 41 43 43 45 44 41 44 41 41 41 47 56 44 44 46 48 51 
13 29 35 32 30 30 30 32 32 31 33 30 29 29 28 26 25 27 27 25 22 21 18 18 19 15 15 15 16 17 17 21 23 24 28 25 28 26 20 14 11 9 13 15 13 16 14 14 16 18 17 16 12 9 31 135 170 185 192 194 197 204 202 199 200 201 198 197 196 196 196 197 197 197 198 200 203 205 208 210 211 211 213 215 213 218 219 219 220 225 224 225 226 226 225 225 225 226 225 226 226 225 226 226 226 226 227 230 232 231 230 227 228 190 93 21 2 0 9 54 133 171 186 190 191 191 191 192 193 192 192 195 194 187 183 181 178 176 174 172 184 189 189 192 198 197 197 197 200 206 207 212 218 220 210 160 92 27 1 35 83 152 193 203 201 205 209 214 210 185 139 177 204 210 210 212 185 157 150 169 168 185 199 205 208 209 210 217 229 238 236 243 240 236 241 233 216 216 208 174 163 153 172 199 209 209 214 214 211 208 218 230 210 157 90 36 80 113 125 135 141 141 141 146 155 159 157 159 164 167 174 180 187 194 200 203 206 206 206 207 214 210 212 212 210 213 214 215 216 221 217 217 212 206 208 210 209 196 183 176 151 51 2 0 0 0 0 0 2 5 13 25 31 31 27 34 31 26 25 26 17 15 12 9 11 23 27 26 23 26 31 32 34 34 32 39 41 41 38 38 44 44 40 38 41 40 44 41 39 43 43 41 40 40 42 45 49 48 46 45 
13 23 32 33 30 27 27 28 29 31 34 37 34 30 30 29 26 26 24 23 27 23 23 25 20 18 18 16 15 18 22 21 24 28 30 25 24 22 17 12 12 11 15 17 10 16 14 13 15 17 11 13 8 11 43 133 168 185 193 196 201 204 204 202 202 201 197 195 197 199 198 197 198 199 199 203 204 206 208 209 211 210 212 214 214 219 221 221 222 224 225 224 224 224 224 224 225 227 227 226 223 225 227 227 227 224 226 228 229 231 230 226 216 163 61 13 1 0 15 79 140 176 190 192 194 193 195 195 195 196 197 194 194 191 188 190 190 190 189 186 193 195 193 191 195 199 203 205 208 212 209 216 221 223 224 231 207 141 59 1 5 38 95 148 171 180 176 179 188 196 212 216 217 218 212 200 181 140 130 180 189 207 213 212 215 215 207 202 207 217 216 230 233 234 245 243 199 146 127 154 164 168 168 177 197 217 232 240 238 223 176 124 70 24 3 39 100 133 144 154 158 156 150 144 144 146 142 146 156 168 179 184 188 193 202 205 206 208 208 207 215 216 216 217 217 213 217 216 216 219 216 217 217 213 209 207 212 203 184 165 128 36 0 0 0 0 0 0 0 1 7 10 14 16 19 24 28 30 27 16 11 8 8 12 19 27 27 26 26 28 31 32 33 37 41 41 42 42 41 37 37 42 41 37 35 40 40 37 36 38 41 39 41 41 41 46 47 45 47 56 
11 21 28 31 31 28 25 23 24 29 33 37 33 29 30 27 25 22 23 29 28 26 29 31 26 19 18 20 21 18 24 23 25 30 33 24 21 19 15 9 13 13 15 17 17 14 14 16 17 16 7 6 5 18 62 133 170 187 194 198 202 203 202 200 197 197 195 195 196 197 198 198 197 196 199 203 205 203 204 208 211 212 213 213 215 219 221 221 223 225 224 222 223 225 224 226 226 227 227 225 225 225 225 226 226 224 226 228 228 229 226 218 202 139 29 5 0 10 37 84 153 186 196 196 197 198 199 199 199 200 198 197 196 195 196 195 195 194 192 192 194 194 195 194 192 197 195 195 197 202 203 209 212 213 215 229 236 223 167 72 9 0 1 22 43 78 102 136 168 182 182 174 182 192 194 216 216 200 190 203 207 222 228 231 235 230 232 225 219 218 197 198 205 213 220 226 173 134 131 155 169 148 159 191 216 238 229 184 164 193 137 44 0 0 6 35 83 124 143 142 144 138 134 130 123 118 120 135 156 173 182 184 190 198 202 205 210 210 208 210 213 218 219 220 222 220 223 219 216 217 217 217 215 215 218 210 210 209 190 144 97 24 0 0 0 0 0 0 0 0 0 2 6 10 10 11 22 25 19 10 9 4 14 28 31 27 29 30 32 34 33 30 32 38 41 42 43 44 43 41 40 44 43 40 40 40 37 37 39 39 39 36 36 39 44 43 45 45 46 50 
12 24 28 27 27 30 23 21 22 23 26 32 34 31 30 28 24 24 29 33 31 27 28 29 24 20 16 17 19 18 16 20 27 31 31 24 20 18 16 13 20 18 17 18 18 11 14 14 12 10 10 9 2 21 82 137 168 187 197 200 206 204 199 195 195 196 197 196 194 195 197 198 197 196 199 197 201 203 204 207 211 213 216 216 217 219 219 220 224 226 222 224 225 224 225 226 226 229 229 226 227 227 227 225 226 226 228 227 227 225 221 210 184 113 7 1 0 35 91 133 173 191 196 199 201 200 200 199 199 202 201 204 200 197 198 194 194 195 194 192 194 188 187 190 190 187 184 180 182 189 183 181 179 178 182 178 174 175 171 155 140 142 145 146 152 156 150 140 138 136 90 60 77 125 172 211 234 233 222 218 217 216 213 212 221 227 227 216 208 208 197 199 208 218 223 226 200 177 170 182 212 215 223 225 207 181 102 79 88 96 195 154 63 5 10 15 45 85 111 112 113 101 98 99 99 109 130 150 168 181 186 184 190 198 200 203 208 210 210 214 218 216 217 219 219 220 221 222 224 225 221 219 218 218 217 211 208 214 198 143 83 20 0 0 0 0 0 0 1 2 2 1 2 4 3 6 5 9 9 4 1 13 25 31 31 30 33 35 36 37 33 32 32 34 35 40 46 43 38 41 45 44 42 39 37 37 40 39 40 44 41 40 40 43 44 42 43 53 62 63 
12 25 30 29 28 29 26 24 24 23 24 29 30 30 34 33 28 26 27 29 32 30 26 25 26 20 19 18 16 15 16 19 25 30 31 23 21 17 14 19 27 18 16 15 11 14 11 10 11 11 7 5 0 28 109 142 169 184 192 200 210 208 202 197 198 195 197 197 195 195 197 195 196 198 199 199 201 203 206 210 214 214 217 219 217 222 220 219 220 224 223 221 221 223 224 223 226 227 227 226 227 226 227 227 226 226 227 224 221 219 209 196 154 80 3 0 3 72 146 160 179 193 200 201 200 199 200 201 201 199 199 201 199 195 193 192 198 198 193 194 196 193 186 181 177 174 172 169 165 163 158 158 159 158 158 147 148 167 182 184 186 187 193 200 202 197 199 191 183 184 176 164 162 166 171 184 199 198 189 186 184 183 190 196 193 197 201 207 215 225 238 242 236 224 216 211 183 147 130 153 202 216 213 198 178 162 131 133 128 102 177 179 118 59 50 34 45 68 90 108 124 132 141 153 163 168 171 173 171 173 190 191 192 196 199 203 210 211 210 213 216 218 220 220 219 226 228 225 223 225 225 220 217 217 217 214 210 212 203 157 63 12 0 0 1 0 0 0 0 1 0 0 0 2 3 2 0 3 5 0 6 28 38 37 33 34 32 32 31 29 31 32 34 36 38 40 42 41 40 42 44 43 44 42 38 41 40 41 43 43 40 39 42 44 42 41 49 61 73 80 
12 24 28 26 26 32 29 26 27 29 27 25 23 24 29 28 30 32 31 30 33 31 30 30 27 21 18 21 21 15 17 20 23 25 27 20 20 22 19 14 17 11 14 17 11 13 16 8 2 7 5 6 0 33 127 146 169 184 193 200 208 204 199 198 198 196 197 197 196 196 199 197 197 198 197 199 204 205 205 206 210 214 216 217 218 220 220 222 224 221 220 222 223 223 222 223 225 226 226 225 227 226 224 224 223 223 223 223 223 216 194 181 126 49 0 0 24 101 164 166 189 198 198 196 198 202 201 201 199 196 195 195 192 189 193 189 195 197 196 194 190 190 190 187 180 174 162 153 147 146 149 147 147 143 136 141 156 170 179 183 190 189 188 189 191 193 195 195 192 186 185 184 184 183 182 188 186 190 199 205 204 201 176 126 79 121 134 115 95 103 118 153 165 161 159 154 143 157 181 189 186 164 149 149 158 163 172 178 180 179 183 192 196 193 191 194 189 187 188 190 193 192 189 182 176 179 184 185 185 188 192 196 197 197 196 198 200 202 204 211 211 213 221 226 224 230 231 230 229 227 222 220 220 218 214 214 210 210 209 183 54 10 0 0 0 2 6 4 0 0 0 0 0 0 0 1 0 0 0 2 27 43 46 41 36 39 35 33 32 30 33 31 35 40 39 41 40 39 41 45 43 40 42 43 39 43 42 42 41 39 44 41 39 38 39 63 59 56 74 105 
13 25 27 22 22 26 32 33 30 26 23 25 31 31 26 26 29 26 25 29 32 29 27 26 27 23 17 15 15 16 17 15 19 24 24 19 16 18 19 15 15 14 12 11 11 13 10 10 8 2 2 2 0 35 139 145 173 189 195 201 210 205 200 198 196 190 193 197 198 197 199 198 197 198 198 205 203 201 204 210 213 214 217 218 219 220 221 223 223 223 222 222 222 223 225 224 226 227 225 224 226 226 226 225 223 222 223 219 212 203 182 155 86 20 0 0 46 120 170 174 191 200 200 197 196 195 198 201 200 195 193 190 186 184 187 193 196 193 189 190 194 193 193 189 180 175 172 169 169 170 159 160 161 160 163 170 181 187 189 189 190 195 197 194 187 197 194 187 185 188 177 183 190 194 197 201 196 197 202 204 202 208 216 220 207 149 75 23 3 3 4 16 64 114 132 146 151 149 143 142 158 156 160 167 170 174 180 184 187 188 184 188 187 188 196 195 191 190 190 188 187 193 198 199 198 193 198 198 199 206 201 201 205 206 202 202 206 208 208 212 213 216 220 223 226 228 230 232 233 231 225 223 222 219 215 212 211 210 212 195 72 19 2 0 0 0 0 0 0 0 0 0 0 0 0 0 1 0 3 20 52 42 35 35 37 37 34 33 34 38 44 38 40 43 39 42 42 43 43 42 43 41 42 45 46 43 43 44 44 43 41 39 40 39 36 43 67 75 90 125 
14 26 27 23 27 22 26 28 25 19 20 28 27 24 27 26 27 27 26 23 28 25 27 29 22 17 19 20 17 13 15 16 18 19 20 21 18 17 17 18 16 15 15 13 11 11 6 5 6 6 1 1 0 43 152 147 173 191 199 206 208 203 199 199 200 193 194 197 198 198 196 194 197 200 198 201 205 208 209 212 211 215 218 219 220 223 223 222 222 223 222 222 223 226 226 225 227 227 225 224 227 226 225 223 220 220 220 214 204 193 175 123 50 1 0 0 77 137 165 182 198 204 204 202 201 194 194 196 194 187 180 183 184 188 194 186 185 188 191 194 192 190 186 180 176 181 182 181 178 176 172 179 180 183 190 185 186 185 186 188 193 195 196 196 196 197 194 190 189 192 181 186 193 195 194 201 202 199 197 196 194 198 203 205 209 218 210 130 36 2 0 0 9 55 123 125 112 114 127 137 136 150 159 167 177 185 188 188 194 207 205 198 194 197 202 204 200 199 202 205 204 199 203 210 210 202 207 203 197 202 202 203 205 204 201 205 205 207 209 213 230 220 215 219 222 226 231 233 233 233 228 225 222 219 215 211 212 211 212 197 94 23 0 1 0 0 0 0 0 0 0 1 1 0 0 0 0 3 20 49 55 39 33 35 33 36 40 41 38 36 40 38 35 35 37 41 44 49 49 45 44 42 45 48 45 45 46 45 44 45 39 45 44 40 45 55 78 98 119 141 
14 27 31 28 24 19 19 23 25 21 24 24 22 21 23 22 27 27 23 21 26 30 26 22 24 19 17 16 16 15 20 19 18 18 21 22 21 18 17 16 16 14 8 7 13 12 5 3 3 2 3 0 1 57 165 147 175 193 200 208 208 202 200 199 197 196 198 197 198 200 197 198 198 200 202 207 207 207 209 211 213 218 218 218 221 222 222 223 224 222 222 221 222 225 228 225 227 227 225 224 223 222 223 223 220 219 216 208 195 176 145 86 30 0 1 18 88 141 167 182 197 205 210 208 201 196 193 188 183 180 180 182 183 184 185 180 184 188 190 192 191 194 190 185 186 187 187 186 183 182 186 188 188 188 187 190 188 190 192 190 192 196 195 191 189 194 193 193 191 187 190 195 196 196 199 197 200 202 200 196 195 206 206 201 204 210 214 216 169 65 20 14 39 80 118 110 115 131 145 143 150 158 167 175 182 193 194 196 200 205 211 213 207 202 204 206 209 208 205 203 209 204 203 204 204 210 209 207 206 204 201 200 203 205 204 204 203 204 206 205 212 223 218 213 222 225 229 232 233 233 232 226 222 219 215 212 212 209 207 198 120 32 0 0 0 0 0 1 2 0 0 0 0 0 0 0 1 24 53 58 43 36 33 33 32 32 37 40 37 32 39 37 40 42 39 39 44 42 41 47 46 44 42 44 51 46 41 43 46 44 42 41 43 45 51 89 111 129 153 179 
16 24 26 22 20 18 18 20 20 17 17 23 24 21 18 19 22 26 26 23 26 28 25 22 22 21 17 18 18 16 21 18 15 14 17 23 21 19 17 14 12 14 11 6 4 9 10 6 3 4 4 0 12 73 164 147 173 191 201 209 206 203 204 203 199 197 198 198 196 198 195 196 198 199 200 205 207 209 210 209 211 218 219 219 222 222 224 224 222 221 223 223 224 225 225 227 226 225 224 225 222 221 222 220 218 217 206 198 187 167 126 64 17 0 3 48 107 149 172 186 198 206 208 206 202 194 187 179 173 173 175 182 185 181 179 185 188 190 188 185 183 184 187 189 189 186 186 187 187 184 188 187 187 187 185 189 189 188 186 184 191 194 196 198 196 198 197 196 197 198 199 202 203 200 200 203 200 199 199 198 205 209 205 203 209 209 206 209 209 195 161 109 89 98 117 138 145 151 157 156 155 159 168 177 181 187 193 197 199 205 209 208 207 205 205 205 206 208 209 208 207 208 207 206 206 207 207 209 209 205 209 205 206 208 206 198 203 206 205 207 206 216 220 220 222 225 229 230 226 223 231 224 220 218 217 215 212 206 203 197 146 39 0 0 0 0 0 0 0 0 0 0 0 0 0 1 15 45 58 42 39 36 33 32 32 34 37 40 41 37 37 41 41 40 41 35 41 44 44 45 54 52 49 48 48 49 44 43 43 44 40 45 48 53 71 120 158 179 192 202 
15 27 28 22 24 19 21 21 19 18 18 16 20 20 15 15 22 23 23 26 23 26 25 22 21 15 20 23 20 14 19 18 17 18 20 16 18 18 17 17 12 10 9 7 5 11 10 5 2 7 1 0 18 83 165 149 174 195 204 210 207 198 196 196 195 195 196 196 197 198 197 198 199 198 198 203 207 210 212 209 212 216 219 221 223 222 222 222 222 221 222 221 223 225 224 225 225 225 224 224 224 223 222 218 214 210 198 188 175 147 90 40 9 0 7 61 118 156 173 184 196 204 204 199 194 187 179 173 171 174 183 178 176 177 182 189 190 188 185 184 182 184 183 183 183 181 174 172 176 177 174 173 178 182 181 186 187 186 184 188 192 199 199 197 197 197 202 203 203 206 205 207 204 203 208 204 204 206 204 201 204 207 205 204 207 210 210 210 203 189 194 147 101 95 134 148 154 154 155 157 157 166 172 175 175 184 193 195 195 199 208 205 208 210 207 205 205 206 208 210 207 209 208 206 206 208 210 208 208 211 206 207 208 205 204 205 205 205 205 203 209 213 218 223 226 226 226 229 232 234 229 223 219 216 216 219 215 208 204 198 166 52 0 0 0 1 1 1 0 0 0 0 0 0 0 13 39 47 37 30 32 31 32 34 34 35 33 37 40 39 44 39 40 43 40 42 38 40 45 48 55 63 58 48 48 52 53 48 45 48 51 52 60 81 118 168 195 205 208 212 
19 29 31 25 20 19 20 19 19 22 26 21 19 18 19 18 20 21 22 23 22 25 24 22 24 21 25 24 18 12 16 15 15 15 12 16 17 16 16 17 14 11 11 11 6 6 4 2 3 3 0 0 26 95 164 149 176 197 205 209 204 200 196 195 195 197 198 197 196 197 194 199 199 198 200 205 207 209 211 210 213 217 219 220 220 220 224 224 222 220 223 222 223 224 223 224 226 224 222 223 222 221 219 218 213 206 192 179 158 117 66 20 0 1 18 73 129 162 176 183 193 202 204 197 185 180 175 171 171 176 175 174 176 179 182 189 188 185 183 183 180 178 173 170 170 167 166 172 176 173 173 175 180 182 179 182 180 177 182 195 199 193 192 193 193 196 202 202 201 204 207 205 204 204 207 199 201 205 207 206 209 207 208 210 210 208 211 211 208 201 185 145 97 89 136 147 149 154 159 161 161 164 174 179 175 176 186 195 197 196 205 204 205 209 210 206 206 206 208 213 209 209 207 205 205 206 208 210 212 213 216 215 214 212 211 214 212 212 212 209 207 213 217 221 226 225 226 227 229 231 230 226 221 218 220 224 218 211 205 200 183 57 0 0 0 0 0 0 0 0 0 0 0 0 9 35 40 35 30 31 28 27 31 33 33 40 36 36 38 38 37 41 40 39 44 46 44 43 42 43 44 50 54 52 52 52 52 49 48 53 60 60 79 122 173 201 214 223 227 229 
16 26 28 23 18 18 17 18 18 18 21 22 19 16 17 19 18 21 23 22 24 25 24 22 21 19 20 20 19 17 13 17 19 16 14 17 17 16 16 15 10 8 6 6 11 5 4 3 3 0 1 0 39 111 160 150 176 195 203 208 204 200 198 197 195 197 196 194 194 196 196 199 200 202 203 206 205 207 210 211 215 217 219 219 220 221 223 223 220 218 221 220 222 224 223 224 224 224 223 222 220 219 217 212 205 196 181 170 147 101 53 16 0 3 29 95 137 158 170 180 191 197 196 191 183 180 174 173 177 178 176 177 177 178 180 184 181 177 174 177 179 177 171 167 170 167 167 175 181 177 174 180 183 182 181 179 181 181 183 189 190 190 191 193 192 195 195 198 203 206 203 203 201 199 198 199 198 202 204 205 209 214 217 218 216 211 211 209 206 205 199 186 140 107 125 142 147 147 149 162 161 166 176 183 186 184 186 190 195 196 201 207 210 209 209 212 211 210 211 213 215 215 213 212 213 212 215 217 220 224 226 227 225 225 228 227 224 217 212 210 210 214 216 215 216 224 229 227 227 230 227 226 222 220 222 224 222 214 203 198 191 63 0 0 0 0 0 0 0 0 0 0 2 12 33 41 36 29 28 30 26 29 29 28 32 31 35 37 39 41 36 39 38 38 46 47 43 41 42 42 47 49 49 49 49 51 48 44 45 54 69 72 102 150 194 220 230 235 239 241 
16 22 26 25 23 19 20 21 20 20 20 18 19 20 17 16 20 23 23 22 25 25 22 20 19 22 19 17 18 22 17 17 18 19 18 13 15 15 14 15 9 6 7 8 9 6 3 4 3 0 1 0 54 133 157 157 180 195 202 207 204 201 199 197 195 198 196 194 195 196 200 200 199 202 204 207 210 210 209 210 218 217 218 219 221 223 224 222 220 219 220 217 219 223 223 224 223 222 221 220 217 218 213 204 196 188 172 154 128 87 39 10 0 8 49 108 143 162 172 178 187 188 182 176 177 171 173 175 174 171 175 179 181 181 176 177 175 175 176 176 175 171 168 168 170 168 171 176 179 177 181 184 182 181 184 181 183 188 190 193 193 193 191 189 190 195 193 197 203 206 201 204 200 196 195 197 200 202 203 207 213 222 228 231 231 223 219 216 212 210 199 193 159 120 108 130 142 142 143 156 166 172 174 177 186 190 190 189 190 196 198 204 207 208 211 217 216 213 212 213 218 222 227 230 230 228 230 232 234 236 236 237 238 239 238 236 232 226 219 213 210 211 211 212 215 221 230 228 225 228 226 226 223 220 219 222 222 211 200 198 193 66 2 0 0 1 0 0 0 0 0 0 12 32 40 33 31 31 29 28 25 28 31 34 35 33 36 39 40 40 42 39 40 43 41 42 40 38 40 46 44 43 44 47 48 52 48 49 54 63 71 80 127 180 203 226 237 240 241 243 
15 25 29 27 23 20 21 22 23 24 23 18 16 15 13 13 13 14 18 21 22 21 21 21 17 22 19 17 17 15 18 15 13 14 14 8 12 14 14 14 9 6 6 6 4 2 4 4 2 0 0 0 72 156 155 162 184 198 203 205 199 197 196 196 194 197 195 196 196 193 198 198 198 202 206 207 207 210 212 212 218 218 219 221 220 223 222 220 220 220 220 220 222 223 223 222 222 222 220 218 214 212 208 202 194 181 161 141 112 67 22 6 0 12 58 114 144 158 166 173 180 178 171 166 166 163 170 172 170 172 170 173 178 178 173 175 173 173 175 174 171 169 168 169 170 171 173 174 176 179 181 183 182 182 183 186 188 192 195 196 197 189 186 186 188 200 197 200 205 204 203 200 197 199 201 198 203 205 205 210 221 232 238 240 240 237 235 232 227 222 208 196 163 127 114 131 142 148 152 155 165 173 175 179 184 180 183 186 190 195 196 198 206 210 209 206 209 209 208 214 221 222 230 239 243 243 243 243 244 243 244 243 244 244 243 242 238 236 228 215 214 214 214 215 219 220 227 227 224 225 223 223 222 219 215 220 219 212 203 196 193 68 6 2 0 0 0 0 0 0 0 10 29 40 36 31 24 22 26 31 31 31 31 31 33 34 36 38 41 44 43 42 44 45 42 42 40 40 42 48 44 45 47 50 56 52 48 54 67 75 76 111 159 196 213 231 239 244 244 241 
17 29 30 24 22 23 23 22 22 25 25 20 17 17 18 17 8 5 10 14 18 21 22 20 21 21 22 20 15 13 18 15 12 12 13 12 12 12 11 12 9 7 9 9 6 1 2 3 3 1 0 10 94 169 155 165 185 197 201 205 198 198 198 197 195 197 196 195 194 195 199 199 200 204 207 207 206 209 213 213 218 217 218 219 219 222 222 220 218 218 219 220 222 223 222 222 220 220 218 216 213 208 202 195 187 170 149 122 88 51 18 4 0 17 70 118 148 157 159 166 173 171 167 165 166 166 171 170 169 174 174 175 173 170 171 171 172 173 174 171 168 172 171 168 173 172 175 176 176 174 176 181 182 181 184 191 188 190 193 195 197 193 189 185 187 199 196 198 202 202 202 199 197 199 202 201 203 202 206 217 228 236 241 243 245 244 243 241 239 232 225 214 175 133 121 135 142 147 151 156 160 167 172 176 180 172 174 181 187 192 200 199 202 205 206 203 206 204 202 206 217 222 227 233 244 247 247 247 247 246 246 246 246 245 245 243 242 239 231 220 213 212 213 214 215 218 224 225 223 224 220 219 218 216 214 218 216 210 202 197 196 73 9 2 0 0 0 0 0 0 9 24 35 37 32 30 22 21 26 34 32 26 27 32 33 33 36 39 42 45 44 45 46 45 43 44 41 43 47 48 47 47 46 48 49 49 46 56 77 96 98 146 185 206 219 235 242 246 244 239 
17 28 28 23 26 22 22 23 23 23 23 19 18 19 16 15 11 9 7 2 13 18 20 21 21 20 21 17 14 16 17 17 13 11 12 10 8 5 5 8 8 6 9 10 5 0 1 1 1 1 0 25 110 171 154 169 187 195 200 206 199 200 199 197 197 196 194 195 196 197 197 199 201 203 206 208 209 209 211 214 215 217 219 220 220 221 221 220 219 220 216 216 220 222 219 221 219 218 217 214 210 206 196 186 177 158 138 106 68 36 11 3 4 26 77 116 145 159 162 164 169 165 167 169 164 168 171 171 172 176 177 176 170 168 173 173 173 172 174 174 168 165 166 171 174 175 176 177 178 178 179 180 181 182 182 189 191 193 193 192 190 190 192 194 196 197 195 196 198 198 195 198 200 199 197 198 202 203 206 214 228 237 242 244 245 246 246 244 243 241 237 235 199 148 118 136 143 150 156 159 165 172 173 168 167 171 177 178 180 188 199 200 200 202 205 207 209 206 202 204 210 219 225 230 239 245 247 247 247 247 246 246 244 244 245 242 239 234 227 220 214 210 212 214 211 213 222 224 223 223 219 216 213 212 215 218 211 204 199 197 195 71 7 2 0 0 0 0 0 2 27 31 32 31 29 31 26 23 24 26 27 23 27 32 30 36 35 39 44 45 44 45 45 45 43 42 42 43 44 42 47 48 46 45 46 52 52 57 87 137 147 165 188 212 229 241 245 244 239 233 
14 26 28 25 24 22 25 24 22 22 21 22 22 21 18 15 14 12 7 0 2 12 19 20 17 19 18 18 20 22 19 14 11 11 11 6 3 1 1 3 4 4 4 2 1 0 0 0 0 0 0 44 124 169 150 172 186 193 200 207 201 201 199 195 195 196 198 198 197 197 198 200 201 203 206 207 208 209 210 212 217 217 219 221 220 223 219 218 219 220 217 214 216 219 218 216 218 218 216 210 206 198 187 179 172 153 125 92 60 29 3 0 6 34 85 116 136 145 150 158 160 151 155 162 164 171 170 171 175 177 174 172 171 171 173 175 173 169 168 169 170 165 165 170 174 175 175 177 179 176 181 179 179 182 183 190 190 193 196 196 194 192 192 192 192 194 197 198 196 195 194 194 201 204 200 201 208 208 209 218 226 236 243 245 245 245 245 245 244 243 242 243 211 154 108 140 145 149 154 160 160 165 171 169 159 168 174 178 180 185 192 191 197 204 205 206 209 211 210 209 211 214 220 228 236 244 247 246 245 245 245 244 243 240 239 234 233 228 219 211 209 205 207 210 213 215 216 221 224 220 214 216 213 211 213 215 208 200 198 198 193 70 6 0 0 2 2 0 3 14 28 31 29 26 23 28 27 27 26 24 29 29 29 30 34 37 37 40 45 46 45 47 47 46 43 44 42 42 42 44 51 47 44 45 48 46 54 67 95 141 180 192 200 216 237 244 246 242 232 219 
15 27 29 26 25 23 23 24 26 26 26 27 23 21 22 16 14 11 7 4 1 4 12 21 20 18 20 21 20 17 16 12 9 6 4 1 0 0 0 0 0 3 0 0 0 0 0 0 0 0 0 64 145 178 153 177 184 194 204 208 204 200 197 196 198 199 197 198 201 199 199 199 203 206 208 204 206 209 211 212 218 218 221 222 220 222 221 220 220 221 218 218 218 217 218 213 211 213 211 204 201 193 183 172 159 144 118 84 52 24 2 0 9 42 96 129 140 147 152 153 154 151 154 162 167 170 169 172 175 174 175 170 169 170 174 174 173 171 168 167 169 168 169 172 174 173 171 173 174 170 173 177 178 179 183 188 188 190 193 194 196 192 193 195 193 197 203 202 194 187 190 194 198 202 205 205 209 213 216 222 229 238 243 244 244 244 244 244 244 245 244 245 219 163 109 126 139 150 156 157 159 158 160 162 160 162 173 176 175 179 184 190 195 197 201 206 203 207 213 212 212 215 220 226 234 237 242 243 242 242 241 238 237 235 232 225 226 220 212 208 202 203 205 208 209 213 214 219 223 219 211 214 214 213 214 212 209 202 198 198 189 65 6 5 3 1 0 1 8 23 31 29 25 23 26 30 33 31 30 31 33 33 33 34 35 35 36 41 45 46 53 51 48 46 46 45 51 51 47 48 49 50 50 50 50 52 59 72 101 150 193 209 216 227 243 248 242 236 222 201 
15 30 33 30 27 24 21 22 26 27 23 23 25 26 25 23 14 11 10 7 3 1 1 7 16 16 16 17 19 19 18 16 8 1 0 0 0 0 4 11 23 35 57 74 70 78 76 54 22 0 0 81 147 165 156 182 187 192 197 199 202 201 199 199 200 196 197 198 199 200 205 201 203 208 208 204 204 208 213 215 214 216 219 219 218 219 219 219 219 219 217 217 217 217 217 211 210 210 207 199 194 185 177 168 156 135 101 68 39 15 2 0 19 55 95 126 140 149 153 151 155 157 162 168 171 172 170 171 172 169 169 177 175 171 176 173 174 173 168 164 169 174 175 172 170 168 167 168 171 172 173 175 176 179 183 185 188 189 191 196 190 188 187 188 191 196 197 196 194 189 195 195 194 197 206 212 219 222 225 229 228 235 240 242 244 244 243 243 245 246 244 243 224 175 115 120 134 150 157 155 159 155 156 158 156 163 170 171 173 181 183 188 188 189 195 200 201 203 208 212 212 219 221 223 229 232 235 237 237 235 235 234 233 229 223 217 215 211 208 207 204 205 209 211 210 210 212 217 220 219 214 214 214 213 213 210 204 204 203 195 186 63 4 5 7 3 3 8 17 24 28 23 25 27 24 28 27 31 34 31 35 33 36 38 34 35 37 38 40 45 49 51 51 49 47 48 46 46 47 47 51 49 51 54 51 54 56 67 98 145 181 212 226 233 240 242 236 227 204 172 
19 30 30 25 27 24 27 25 20 23 18 26 28 27 31 23 21 16 9 5 2 3 2 0 2 10 11 11 12 14 5 2 0 1 8 28 43 65 83 86 79 86 98 120 146 136 118 72 22 0 0 94 152 157 149 178 183 189 198 204 201 196 194 196 196 198 199 199 199 200 202 201 204 206 204 205 206 210 212 212 213 213 213 215 218 218 215 214 215 217 215 218 216 212 212 207 207 205 200 196 189 178 171 163 149 129 96 68 44 17 1 1 20 52 88 125 136 145 151 151 155 159 162 166 171 172 170 171 171 169 170 174 176 177 176 175 172 169 167 166 170 169 170 172 173 166 165 171 172 167 173 178 180 182 183 184 184 187 188 186 186 187 188 188 188 190 194 196 194 193 196 195 197 203 211 220 220 221 223 225 227 233 236 238 240 241 242 244 244 244 241 239 224 188 137 113 126 141 149 149 147 145 151 156 157 159 165 170 170 174 181 183 185 188 190 194 200 201 201 203 207 212 215 217 221 222 223 224 227 230 231 228 225 222 215 211 209 207 206 208 204 206 205 203 206 211 209 211 215 215 212 213 215 214 211 207 205 204 203 195 183 58 0 0 1 0 0 6 18 24 22 20 22 26 29 23 30 32 32 35 40 36 35 37 36 39 41 40 41 46 51 52 50 50 52 48 50 47 43 46 49 47 48 50 55 63 58 75 112 159 190 210 223 230 236 233 226 213 176 124 
15 26 30 26 22 22 27 28 25 23 24 28 31 32 30 25 20 14 11 11 5 2 0 0 0 0 0 5 9 9 7 24 33 41 66 96 88 86 89 86 86 83 89 93 80 40 23 11 1 2 32 121 161 159 157 180 185 190 196 200 196 195 190 189 196 195 193 195 199 199 201 203 205 206 204 204 206 208 210 214 214 214 216 217 217 217 215 213 213 212 215 215 215 213 210 209 208 206 200 189 185 178 165 152 140 122 97 70 42 16 1 6 23 51 85 119 139 143 143 149 152 161 167 169 169 166 167 175 178 170 172 175 176 176 175 174 170 163 159 163 167 168 169 170 171 169 171 172 172 172 175 176 180 183 180 183 187 189 188 187 192 188 183 182 187 190 190 191 194 197 202 199 201 208 214 220 224 224 223 225 226 226 227 230 234 237 235 235 237 239 239 237 225 197 156 126 132 139 140 141 142 143 144 147 155 159 159 158 162 176 176 178 181 186 195 197 195 195 195 194 198 203 208 211 210 211 217 219 219 221 222 221 216 211 210 205 200 202 207 211 207 206 205 204 205 211 209 209 211 212 213 213 210 209 211 205 202 203 204 197 170 52 0 0 0 1 0 15 27 18 18 21 23 23 24 27 28 28 30 35 40 43 41 38 37 44 43 40 40 43 47 47 49 51 49 46 46 45 45 46 50 55 52 51 60 57 81 96 119 167 194 211 218 220 222 216 206 169 119 83 
16 31 31 24 26 23 20 20 22 20 26 24 25 28 30 25 19 17 14 7 5 1 1 2 0 0 2 25 48 56 87 120 128 106 63 30 13 15 32 58 76 85 88 64 11 3 0 0 0 3 49 137 172 167 164 183 184 192 199 197 198 192 192 196 197 194 198 198 197 199 202 200 202 205 204 202 208 210 210 212 213 216 216 215 215 219 216 216 215 210 214 215 214 212 212 210 202 200 196 186 185 176 166 153 134 121 84 59 36 9 0 3 25 61 96 120 137 147 150 149 154 166 171 171 175 175 172 174 176 176 173 174 174 173 171 171 171 165 161 163 167 167 169 170 169 167 168 168 170 174 174 181 184 182 179 179 182 187 187 180 183 183 181 180 183 186 193 197 199 200 200 200 206 211 211 218 219 220 220 221 222 219 216 215 218 221 221 224 229 233 233 230 224 205 170 140 130 130 137 146 154 141 142 149 148 155 151 155 164 167 171 174 178 183 189 191 193 194 189 183 188 194 199 202 202 204 206 210 213 212 217 209 206 208 207 209 206 203 204 210 202 204 205 203 201 206 207 208 209 210 211 210 209 208 209 204 205 206 204 194 157 44 0 0 0 0 3 11 17 17 13 10 14 23 27 23 27 29 29 34 39 41 38 35 36 42 40 39 43 48 51 49 47 46 48 48 47 43 44 52 59 57 57 59 58 63 84 115 150 182 195 210 213 211 208 192 165 115 69 55 
16 28 28 24 25 22 18 20 22 21 20 19 24 27 26 22 17 16 13 4 0 0 1 0 1 12 45 66 76 92 109 115 93 55 24 14 7 11 25 42 67 86 65 27 6 0 0 0 0 4 65 138 166 164 167 184 188 193 197 200 201 198 198 200 201 197 198 196 196 201 202 205 206 207 206 205 208 210 212 213 213 212 214 215 214 212 210 211 211 208 209 211 212 211 207 201 199 196 191 186 183 174 165 152 135 113 84 54 27 4 0 5 31 63 88 108 133 144 147 154 159 160 164 170 172 176 176 175 173 172 179 177 175 174 173 173 169 167 168 169 168 167 164 164 166 163 163 165 168 170 172 178 180 180 182 181 180 182 183 179 176 172 173 178 182 184 192 197 198 199 199 202 206 208 210 207 211 213 213 213 213 209 207 208 212 212 220 224 227 229 226 225 221 208 181 141 130 127 132 140 144 138 141 145 146 156 152 152 156 160 164 172 176 180 185 179 183 187 188 186 187 191 193 193 194 199 197 196 202 208 209 208 208 206 205 206 203 201 203 206 204 206 204 202 202 207 206 206 207 206 211 207 205 205 206 206 205 207 209 195 131 34 0 0 0 0 9 16 18 17 17 17 16 16 21 20 27 30 31 32 34 42 42 41 45 40 40 41 42 44 44 46 48 46 47 51 49 47 49 55 54 52 53 56 60 78 107 141 169 185 195 205 208 202 187 158 111 77 58 49 
15 27 28 25 29 23 28 24 19 19 22 19 20 23 22 20 19 17 12 7 2 0 2 14 38 80 78 78 69 39 24 35 39 33 30 42 28 18 17 19 38 62 50 25 18 12 4 1 1 10 82 147 169 165 169 186 192 195 199 203 203 197 196 198 196 195 198 197 197 202 206 208 208 208 207 209 211 211 213 217 217 216 214 215 213 210 211 211 211 208 212 210 210 209 206 202 198 193 189 184 177 167 159 150 134 111 83 59 34 4 0 5 27 57 85 114 130 136 138 142 150 156 165 173 175 174 175 174 174 177 179 177 174 173 175 174 173 172 169 165 168 166 166 167 167 166 167 166 168 172 173 178 178 178 180 182 182 183 180 173 173 169 173 179 181 189 192 195 197 199 195 199 205 207 204 201 203 208 209 208 207 204 203 205 208 212 216 220 221 218 218 218 217 206 183 151 126 121 130 138 139 138 136 139 147 154 150 151 157 161 162 175 181 182 186 184 183 186 189 186 186 185 187 190 193 193 194 192 194 203 204 202 205 207 206 206 203 202 202 201 201 202 201 200 201 207 204 201 204 209 206 206 205 203 202 207 205 202 203 191 110 27 0 0 0 0 3 10 15 13 11 13 15 17 20 26 25 25 28 34 38 42 39 38 41 36 39 41 44 49 46 51 54 52 49 50 51 49 48 53 54 64 62 58 67 81 115 155 180 187 192 199 201 193 166 124 87 64 52 45 
13 24 25 22 23 26 25 22 21 22 23 18 20 21 17 14 14 14 10 4 0 13 53 99 109 56 55 38 11 0 0 36 73 100 118 121 75 45 43 57 79 97 87 58 34 25 8 2 10 36 118 157 163 161 173 188 191 193 195 197 197 198 197 196 198 197 195 195 196 199 201 203 206 206 205 206 206 210 213 212 213 213 214 216 214 211 206 205 206 205 211 210 210 210 205 198 194 191 186 180 173 166 154 143 133 107 86 62 32 2 0 2 28 59 79 109 130 134 135 146 150 148 152 161 170 170 173 173 171 171 174 175 175 174 173 172 173 172 172 172 169 169 170 168 162 165 165 167 168 167 171 175 176 177 181 176 177 179 177 172 169 169 177 184 185 187 189 189 190 197 194 195 199 200 198 194 193 199 202 199 199 202 204 203 203 205 210 209 207 209 205 205 203 195 175 149 134 133 134 128 137 133 133 139 146 146 153 151 151 159 167 171 172 175 182 181 183 187 187 185 187 186 185 186 186 191 193 193 195 201 203 203 205 207 208 203 200 201 202 204 203 202 201 200 197 205 204 205 207 206 201 204 203 202 202 204 204 203 202 188 92 23 0 0 0 1 8 12 10 4 13 17 19 21 23 24 27 27 30 37 38 34 35 38 37 38 40 44 47 48 52 52 54 52 47 46 49 49 48 48 48 51 60 67 73 99 134 163 182 189 191 191 189 174 137 85 61 52 51 51 
12 23 25 23 23 23 26 26 24 20 21 24 23 18 15 15 10 5 2 5 25 94 141 141 99 48 18 13 17 17 48 98 136 155 160 153 114 98 104 119 150 158 137 86 21 12 5 4 6 25 138 169 168 167 178 192 194 196 198 198 197 195 194 194 198 196 195 196 197 198 200 204 206 207 205 207 207 210 213 210 212 213 212 212 213 210 205 205 206 205 208 206 206 206 204 199 193 188 183 178 173 167 156 143 133 108 80 57 31 0 3 0 25 58 80 106 122 129 138 152 149 147 150 157 164 165 168 167 165 168 167 171 176 175 170 171 169 170 170 168 163 164 167 169 167 163 160 162 165 167 174 172 170 170 174 175 173 175 171 160 160 166 172 178 186 189 191 189 190 195 193 194 196 197 199 196 195 197 199 197 197 203 205 203 201 201 204 204 203 205 200 200 198 191 179 159 145 133 128 129 131 135 135 137 146 151 160 161 157 156 165 170 173 175 175 176 182 184 185 185 183 181 184 185 182 188 194 194 195 199 199 203 204 203 202 202 201 200 200 201 204 204 201 198 196 204 199 202 205 204 204 199 198 200 205 205 203 201 204 193 81 18 0 1 0 2 14 13 8 10 15 17 20 24 27 30 29 28 30 34 39 35 35 38 39 43 47 49 50 52 50 49 47 46 46 48 51 53 53 52 54 54 64 75 82 114 142 166 182 185 178 182 175 146 100 68 56 52 48 45 
9 18 26 28 27 30 25 22 22 22 22 24 22 18 17 14 12 9 6 23 92 126 109 71 47 34 15 13 30 67 144 148 127 102 82 82 68 55 65 103 125 113 97 64 9 7 4 0 0 28 149 172 167 167 182 191 194 197 199 199 199 198 198 199 199 200 196 197 202 205 203 206 207 209 209 212 211 214 216 212 213 214 214 213 214 209 209 207 207 209 207 206 207 204 197 196 190 183 179 174 169 163 156 144 128 110 78 45 17 1 2 1 29 62 78 103 118 127 138 149 153 146 147 152 156 156 158 157 158 163 157 161 170 174 171 175 173 170 169 169 167 169 169 166 163 164 162 164 167 164 169 167 165 165 167 171 171 171 168 159 156 158 166 174 181 187 186 188 192 191 187 193 197 197 198 197 196 198 200 199 196 197 197 197 200 199 201 203 203 199 200 197 192 183 168 156 142 130 126 130 131 143 144 141 148 152 155 160 160 155 160 167 171 174 177 173 178 182 181 179 180 181 185 188 186 189 191 192 194 199 197 199 198 199 201 201 200 201 199 198 200 199 195 194 197 197 196 199 203 203 202 200 200 203 206 207 204 202 205 186 60 12 0 0 0 4 13 13 11 15 17 17 19 24 27 30 31 30 31 32 36 33 38 42 38 40 47 47 47 52 52 51 47 44 48 49 49 49 50 52 52 55 65 78 92 120 142 163 178 179 167 159 138 105 73 57 49 50 50 44 
8 18 22 21 21 24 24 23 22 23 23 25 21 17 19 19 15 8 17 55 87 82 56 26 10 17 10 37 92 145 155 112 63 44 56 35 16 7 16 38 47 41 44 36 5 2 8 16 22 47 154 174 168 168 185 192 198 198 198 200 199 201 200 197 195 203 200 198 201 205 205 207 207 208 208 211 211 212 213 212 212 213 213 212 211 209 208 205 204 207 207 206 205 201 196 195 188 181 175 171 171 165 159 148 126 102 79 46 13 0 1 0 24 58 84 103 116 127 134 139 145 141 141 145 149 142 146 148 147 147 152 159 165 167 167 170 170 166 165 168 169 164 165 166 162 161 162 163 162 161 166 167 167 165 165 173 173 172 168 160 158 161 165 171 180 182 184 187 189 187 185 191 192 192 196 194 195 195 195 194 195 196 197 197 197 195 194 196 198 198 193 189 185 178 166 155 146 138 133 133 133 139 143 148 157 159 159 159 159 158 166 168 168 169 172 174 177 177 174 173 180 179 181 185 187 187 191 194 196 198 197 198 200 199 199 198 200 197 195 196 199 197 191 190 192 195 193 197 201 200 202 199 200 202 203 205 202 200 200 174 44 7 0 0 0 4 12 12 10 14 18 19 21 22 23 29 32 33 32 33 38 36 38 40 37 40 44 47 48 49 50 49 47 47 50 49 49 48 47 50 52 57 67 79 94 127 152 167 171 165 150 144 117 84 65 52 46 47 49 48 
8 18 22 21 21 20 22 19 17 17 19 18 14 13 17 11 8 20 47 74 60 45 22 5 3 0 19 91 154 146 95 45 51 100 140 95 37 17 22 27 32 25 20 14 1 1 5 17 36 70 157 174 164 165 189 194 199 200 199 200 197 198 199 196 192 195 198 200 202 204 205 207 207 208 208 208 210 213 210 206 210 212 213 213 209 204 206 204 202 204 205 205 205 200 194 192 184 181 178 174 173 166 159 145 122 106 82 41 7 0 2 1 18 45 70 96 113 125 131 132 136 135 136 140 142 137 136 136 138 140 139 142 148 156 163 160 160 160 162 164 163 164 167 165 159 162 162 161 161 163 159 162 168 170 167 172 166 162 160 157 154 164 166 166 174 179 184 184 185 190 181 188 192 192 192 187 191 191 188 188 190 193 192 190 191 191 192 194 194 192 188 184 176 166 157 155 147 138 133 135 140 136 138 146 155 159 157 154 151 151 160 159 162 169 174 173 175 174 172 174 178 177 179 183 186 187 188 193 195 195 198 199 199 199 199 194 196 197 195 197 197 194 194 194 192 192 194 198 202 200 202 202 203 202 200 206 201 198 194 161 29 2 0 0 0 2 10 10 10 16 19 22 23 21 20 25 29 28 27 31 32 34 36 39 42 42 46 49 48 45 49 47 47 50 53 48 49 50 51 53 54 58 66 80 100 136 157 162 157 144 127 127 105 76 63 53 49 48 47 45 
4 16 23 23 20 21 17 12 10 11 13 12 12 12 10 1 10 52 96 100 44 24 19 15 7 0 45 107 132 92 32 17 85 161 169 149 91 53 50 72 108 73 28 6 14 46 30 5 16 78 158 173 167 168 188 195 203 203 200 198 197 197 199 197 193 194 195 198 203 206 204 204 205 206 208 210 211 212 210 207 214 213 212 211 207 201 201 202 202 202 205 206 203 197 192 188 183 179 175 171 165 158 152 141 125 108 76 33 3 0 0 0 10 31 60 87 108 119 125 131 128 133 139 142 138 130 128 128 127 124 122 127 134 143 152 152 155 154 151 152 155 161 159 154 154 156 156 156 158 160 157 159 161 161 162 165 158 156 155 153 155 159 161 163 169 176 178 180 184 188 183 183 188 191 189 186 189 187 183 186 184 181 182 184 184 181 189 189 185 184 184 181 172 162 158 152 146 138 130 129 138 134 132 139 151 151 154 150 145 146 152 154 159 166 169 169 171 169 168 172 175 179 179 179 182 184 186 190 191 190 193 195 196 195 193 193 196 198 197 196 197 196 194 192 192 187 193 198 200 200 202 202 203 205 205 205 202 200 189 146 23 3 2 0 0 2 9 12 12 14 17 20 22 22 21 28 32 31 28 30 31 35 38 38 40 45 46 46 44 42 50 51 48 47 49 46 51 54 53 50 55 58 65 80 108 142 157 156 148 140 144 141 110 77 66 52 48 47 43 38 
5 14 17 17 15 19 15 13 12 10 9 12 12 9 7 14 52 90 108 92 40 19 21 18 2 16 87 128 114 56 8 34 103 156 158 159 134 99 78 86 110 58 18 14 38 68 30 4 15 85 161 173 168 172 190 194 204 205 200 196 196 198 198 196 195 195 193 195 202 207 206 208 208 207 209 209 210 212 213 213 215 213 212 210 208 201 200 200 200 199 203 203 199 194 191 188 181 177 171 162 157 153 147 137 124 101 65 25 1 0 0 1 4 23 58 82 104 118 128 137 132 134 138 137 132 132 126 121 117 112 108 121 126 129 137 141 142 144 148 147 142 147 148 148 149 148 149 151 150 151 152 152 152 150 148 156 152 156 159 154 155 158 158 160 170 170 171 175 182 186 187 179 182 189 189 184 191 190 183 181 187 183 181 181 181 179 184 186 183 178 182 181 175 163 155 157 148 138 132 129 136 138 135 138 152 150 151 151 149 147 148 155 160 162 163 167 169 166 165 170 171 171 171 172 176 178 178 180 184 186 187 190 190 190 191 191 195 197 196 196 194 197 195 190 185 189 194 198 201 203 200 198 199 203 204 198 196 198 179 116 19 6 4 1 0 4 8 13 15 15 20 21 23 24 26 32 35 31 29 36 34 39 41 40 41 43 47 46 44 43 46 48 47 45 47 50 48 56 60 49 54 58 64 77 104 135 147 150 153 155 157 147 110 74 60 49 45 43 41 40 
11 17 19 18 18 15 15 17 13 8 13 13 8 8 30 88 109 103 80 52 24 21 18 7 7 70 123 142 113 49 13 54 105 133 141 143 158 143 121 121 112 43 7 10 24 19 3 0 23 103 163 174 165 167 188 194 203 204 201 199 199 200 198 197 197 200 198 199 202 206 210 208 208 209 209 208 211 212 211 210 214 213 212 211 211 207 202 200 200 198 199 200 198 195 189 177 170 172 171 165 161 160 153 141 123 95 60 23 0 0 0 0 1 16 48 68 99 117 122 122 126 130 132 130 127 133 124 116 111 108 114 122 122 120 122 133 139 142 143 144 139 139 137 136 136 134 139 143 146 149 150 149 146 143 148 148 146 150 155 157 157 160 155 155 165 162 168 173 178 183 183 178 180 186 187 186 190 190 186 184 183 184 184 181 180 176 180 185 185 175 173 170 168 164 156 154 148 143 141 141 140 138 139 143 149 155 155 152 151 152 155 161 167 168 161 162 170 171 170 171 170 173 175 174 175 182 182 182 184 186 184 186 186 186 187 187 192 192 190 194 189 193 192 187 184 185 191 195 200 204 200 196 195 197 197 196 190 197 170 82 16 3 2 2 0 2 11 13 11 12 15 18 21 24 29 30 31 30 29 33 33 35 39 42 43 43 45 45 45 49 44 46 46 47 52 53 51 53 54 51 54 54 59 74 95 116 132 144 150 149 144 118 86 60 48 49 47 41 37 41 
15 25 34 35 28 24 20 18 16 15 14 8 7 10 23 59 49 31 22 19 11 8 3 1 18 99 148 155 122 69 47 65 101 119 105 136 152 147 131 123 136 101 56 36 43 14 4 0 35 143 163 173 168 169 186 195 203 202 199 201 197 197 198 198 196 195 196 201 206 206 208 206 205 207 210 208 211 213 213 212 211 209 209 208 206 203 199 198 201 201 200 201 198 194 191 183 179 178 176 169 163 160 157 146 127 107 67 25 2 3 0 1 1 12 38 68 83 98 115 125 120 127 134 134 128 126 124 111 101 109 107 110 105 103 114 114 120 129 137 137 129 127 126 131 136 129 133 136 139 146 143 144 145 147 148 140 140 149 154 149 151 160 159 156 158 158 166 171 173 174 176 173 180 187 188 189 188 187 186 182 184 185 183 183 184 181 183 183 181 176 173 169 162 160 163 155 149 149 148 142 136 142 152 156 154 154 153 150 149 150 151 154 164 171 167 163 164 163 166 174 174 174 177 180 180 182 181 185 189 187 186 186 186 188 188 187 194 196 195 194 195 192 189 186 186 190 194 196 199 202 199 197 198 198 197 200 192 196 157 47 5 0 4 5 0 4 7 9 11 16 17 20 22 24 24 28 28 30 33 33 35 40 37 35 41 44 43 44 46 47 45 43 44 46 49 50 46 49 54 55 54 52 58 71 89 110 121 136 142 129 119 89 63 51 50 46 46 43 41 43 
16 27 37 39 32 32 27 21 18 19 22 19 19 21 20 16 15 14 10 5 5 1 0 2 17 92 139 149 126 88 77 58 91 128 122 134 152 149 131 113 89 72 72 78 66 11 23 13 43 155 165 174 169 172 193 199 200 200 199 198 196 199 196 195 198 200 198 202 205 202 205 206 205 206 209 212 210 207 208 211 211 209 208 205 200 200 199 202 206 207 205 203 198 194 192 183 177 177 176 170 168 160 157 150 130 111 66 25 4 4 0 2 2 8 31 56 74 96 116 123 126 137 139 132 120 117 114 106 104 108 99 95 95 98 106 119 121 127 133 132 128 124 127 129 122 121 127 129 129 131 133 135 136 137 142 136 141 144 145 144 145 151 158 162 162 167 163 160 167 180 181 185 185 185 187 188 186 185 183 180 180 177 180 183 185 181 183 186 185 179 179 175 165 160 162 158 153 151 149 141 135 154 162 159 159 165 158 155 154 148 151 160 164 165 163 161 161 164 166 166 171 172 173 173 175 180 182 183 185 189 187 186 184 185 184 188 189 189 193 199 197 191 190 191 189 193 193 197 200 198 198 199 200 200 199 197 195 198 144 18 4 2 3 3 0 4 3 8 14 19 19 27 30 28 26 26 27 30 33 34 34 34 33 34 40 48 46 45 45 45 46 48 46 43 44 45 49 52 54 57 72 60 56 68 92 108 121 132 131 114 94 71 55 46 46 43 36 38 41 41 
14 27 33 32 26 23 25 20 18 22 22 24 21 19 22 14 25 42 40 15 6 1 0 4 25 78 98 107 101 75 58 35 56 95 116 130 147 143 123 104 98 106 128 121 63 10 34 19 46 162 166 175 171 173 194 199 201 201 198 192 195 194 192 193 195 197 196 199 202 206 209 207 208 211 211 211 214 211 209 211 215 212 208 206 204 202 205 208 209 208 203 200 198 193 188 185 179 177 173 167 173 169 154 142 137 106 55 20 6 1 0 1 0 5 23 47 70 93 111 124 132 140 140 135 128 128 115 109 108 102 95 91 98 103 97 109 117 121 122 122 126 117 114 115 118 124 121 119 124 132 124 132 134 135 143 136 139 142 142 141 143 154 157 151 148 157 159 162 166 174 179 182 183 182 182 184 184 182 179 176 176 176 175 176 179 184 183 184 184 176 171 166 162 161 164 159 154 151 152 154 150 149 153 161 166 160 158 157 155 152 150 157 162 163 163 158 159 166 169 163 170 173 172 171 172 176 175 178 183 185 182 179 179 182 183 185 188 189 191 196 191 188 185 183 184 192 196 196 196 195 195 198 201 201 198 197 198 195 129 3 2 0 0 1 0 0 3 12 20 20 28 22 23 28 27 27 30 32 33 35 40 36 37 40 40 40 43 45 44 40 45 46 42 41 47 46 46 49 54 56 60 56 57 66 84 104 119 120 105 79 62 54 51 47 40 36 35 38 42 45 
14 20 25 26 26 23 19 18 20 21 21 18 17 18 17 9 10 36 53 35 30 6 8 26 42 77 82 71 61 61 64 38 41 76 113 124 144 152 145 128 108 135 148 116 51 33 19 20 70 158 167 177 174 174 191 199 200 199 197 195 198 197 193 191 196 196 197 201 205 206 207 208 207 207 209 210 212 211 211 214 211 211 208 204 201 198 199 204 207 204 199 198 196 195 195 185 179 176 174 170 170 162 158 150 132 100 49 15 3 0 1 0 0 4 15 38 65 87 102 111 126 134 133 132 136 135 125 116 112 110 111 95 91 94 92 105 114 118 117 110 104 105 109 114 115 118 111 114 122 125 129 136 131 127 136 139 141 142 141 143 148 148 147 148 153 159 157 162 170 172 175 174 180 185 182 180 183 179 176 179 173 172 174 176 175 179 181 178 174 171 157 156 156 153 149 142 148 153 152 150 148 152 155 155 155 145 149 150 149 153 151 156 159 160 161 161 163 165 167 169 173 172 170 169 169 175 180 177 176 182 181 180 184 186 182 182 186 188 190 192 193 187 189 191 189 190 190 192 193 193 195 196 196 195 192 190 195 180 111 7 1 0 1 1 0 3 8 17 25 23 26 25 23 25 31 27 30 31 31 34 36 39 39 37 40 42 43 41 41 46 44 43 43 45 49 49 45 49 54 52 48 51 55 60 70 89 98 92 79 70 62 50 42 39 36 41 37 38 39 35 
6 14 20 23 22 17 20 20 20 22 16 16 15 13 13 7 9 17 28 34 24 10 4 5 11 57 70 44 26 52 84 57 60 89 112 125 137 129 111 104 117 154 164 117 33 22 3 17 79 163 171 177 169 169 189 201 204 202 198 195 194 193 192 193 195 193 199 204 207 210 212 207 208 209 207 211 213 214 212 210 209 206 205 202 195 198 200 199 198 199 201 197 196 194 188 185 178 176 176 174 172 163 158 153 140 108 48 12 1 0 0 1 1 1 7 33 57 79 97 107 121 127 128 129 133 130 127 116 109 112 108 95 92 95 97 104 113 116 114 113 117 109 108 111 111 107 104 109 112 113 127 131 130 131 137 140 136 133 137 145 150 145 140 142 154 157 158 160 162 167 171 175 181 185 184 180 180 178 177 179 177 176 179 178 171 175 173 171 168 164 167 153 149 150 149 144 142 144 146 145 146 147 153 160 160 143 149 149 151 160 159 157 157 161 168 158 154 156 159 159 163 171 174 174 173 172 173 174 177 181 183 182 185 186 181 188 190 189 190 192 190 190 191 192 192 196 190 193 198 197 197 195 193 193 192 192 196 170 97 5 0 0 3 4 2 0 5 13 18 19 23 28 29 28 29 30 27 30 33 32 37 34 34 37 40 40 43 42 40 43 44 43 42 43 46 46 45 45 48 53 48 51 58 66 72 78 81 77 71 68 59 49 46 46 41 36 38 40 36 30 
3 11 15 15 14 18 20 18 14 15 20 19 17 13 13 13 6 9 19 30 34 20 11 5 5 42 61 43 25 45 113 72 78 114 125 131 118 125 142 148 150 149 141 117 81 86 39 32 87 167 175 180 170 169 192 197 204 203 198 197 201 197 193 195 200 195 199 203 206 207 207 207 210 212 210 209 210 211 211 210 210 208 204 199 196 196 198 200 200 199 201 198 197 194 187 180 175 173 172 171 172 169 161 152 140 96 39 11 4 0 0 0 0 0 5 33 43 61 85 105 119 128 132 130 129 129 123 120 120 119 112 99 90 89 97 110 121 120 118 119 116 111 110 108 105 112 96 100 114 119 127 134 134 136 141 131 132 133 133 132 133 138 140 145 151 151 155 158 160 164 167 171 177 183 185 181 181 183 183 180 181 183 182 180 177 176 174 173 170 164 160 147 143 144 143 142 144 145 145 147 153 151 153 157 162 169 164 158 158 162 162 156 160 165 163 162 152 153 160 161 167 172 173 173 172 173 174 173 175 183 181 181 184 183 182 191 186 187 190 189 187 192 191 189 190 192 189 193 197 196 198 199 194 190 194 197 204 163 82 4 2 0 3 4 2 0 5 8 11 18 22 26 27 28 27 32 32 36 39 36 36 40 37 36 41 43 38 40 43 39 39 37 37 41 47 51 49 49 50 52 52 57 56 55 56 60 68 67 63 62 55 50 46 40 35 31 35 34 31 29 
6 13 14 12 16 18 17 17 18 18 16 21 20 14 9 8 6 5 10 24 36 24 21 20 13 22 42 39 20 16 68 99 117 124 119 126 137 151 161 160 155 111 70 68 112 146 90 80 120 162 167 175 170 172 190 198 204 201 196 193 199 197 195 195 195 198 201 204 206 207 209 207 207 209 207 210 212 211 210 212 209 204 200 197 197 197 198 201 201 196 200 197 193 193 192 184 179 177 176 172 167 164 161 152 131 85 37 8 0 0 0 0 0 0 2 6 26 51 74 89 102 120 129 130 133 134 130 127 127 127 124 112 104 103 103 104 120 130 131 124 121 121 115 105 96 101 103 109 116 117 120 124 130 135 136 135 128 129 131 131 143 144 139 138 146 148 153 158 162 164 161 165 172 177 180 185 183 180 179 180 179 180 178 178 181 174 174 172 169 166 152 143 141 140 139 134 138 143 147 149 150 155 157 160 166 161 159 156 157 160 165 162 165 165 158 161 155 157 164 166 167 171 175 173 171 172 181 181 177 176 180 181 179 175 174 181 182 184 186 188 189 188 187 186 187 186 186 189 191 191 193 196 193 190 197 198 204 153 68 5 0 0 4 7 6 4 5 9 12 15 21 22 29 34 34 34 31 32 36 40 36 43 44 42 42 43 45 45 41 39 41 40 41 42 42 43 50 51 48 49 54 51 50 52 55 54 58 59 56 55 52 50 47 43 40 36 33 30 27 23 
4 8 8 9 14 11 13 12 14 20 13 14 13 11 10 6 7 3 4 17 30 33 35 37 31 8 26 44 35 3 7 58 96 99 79 81 97 114 130 138 110 64 22 16 60 93 95 113 142 164 169 173 167 170 188 197 203 203 200 199 198 196 197 199 198 199 201 204 208 209 207 207 210 212 209 212 213 213 211 210 209 205 202 198 196 198 199 199 198 197 198 196 193 192 193 186 182 177 175 172 171 167 162 151 124 77 31 6 1 0 0 0 0 0 1 1 22 43 60 74 89 109 117 118 127 140 134 128 128 130 126 123 114 107 112 119 128 131 130 129 122 120 116 108 99 101 97 102 112 115 118 128 139 143 141 147 143 135 128 128 135 136 136 135 136 142 145 152 157 156 161 167 173 178 183 181 177 175 179 189 181 181 181 180 180 173 173 171 164 157 153 142 135 131 129 119 129 135 136 142 146 151 154 157 163 162 161 154 152 159 161 159 159 161 165 159 157 159 160 158 161 167 173 174 171 180 181 182 182 180 174 178 176 174 175 179 180 184 188 189 188 188 187 183 181 187 192 191 189 189 192 191 192 194 194 198 205 144 54 2 1 0 3 5 3 2 1 6 12 16 26 26 28 33 36 33 28 28 33 41 40 39 41 43 41 39 44 45 41 40 43 42 42 40 36 39 41 43 46 49 48 49 49 50 53 52 54 55 54 54 53 52 47 40 35 33 34 31 26 21 
0 0 6 11 8 15 14 10 9 16 8 7 8 10 10 4 1 0 0 0 5 21 20 12 8 1 14 31 35 22 19 44 59 59 52 43 54 68 84 96 74 62 32 21 54 46 40 80 139 172 173 177 170 171 190 196 204 202 197 195 197 198 199 200 199 201 202 204 208 211 209 208 210 211 209 215 213 212 213 212 208 203 197 194 195 195 193 196 199 197 200 198 197 194 188 182 178 179 178 174 172 164 161 152 123 69 29 9 3 0 0 2 1 0 0 0 9 34 60 75 83 94 104 112 119 128 132 130 125 123 130 123 120 113 98 110 123 132 134 132 128 119 114 107 98 99 102 103 107 117 127 134 140 145 147 145 144 141 134 127 134 135 133 132 135 142 146 151 155 157 164 165 170 178 181 176 173 178 184 186 180 180 182 183 180 175 170 165 162 159 148 133 129 130 129 119 129 134 135 137 141 146 153 158 160 156 154 156 159 160 163 161 158 160 165 161 159 158 158 160 163 166 169 171 171 173 174 176 178 178 177 177 176 176 177 174 177 181 184 184 189 186 185 185 184 185 191 191 191 192 193 196 197 197 198 201 206 131 39 5 2 0 3 8 8 0 1 4 11 22 22 27 30 31 35 37 33 31 31 32 33 35 40 45 47 44 42 42 42 43 44 41 40 39 36 40 42 41 41 48 47 49 50 51 51 49 51 54 55 57 54 52 50 47 43 36 39 35 28 24 
0 0 0 0 3 7 7 8 9 10 8 3 5 8 4 0 0 0 0 0 0 4 6 4 0 3 5 22 42 56 65 62 62 67 70 74 58 54 62 64 46 27 18 12 3 7 12 71 148 178 182 184 173 172 194 198 206 207 202 196 200 199 198 198 199 199 202 204 206 207 207 208 210 211 211 217 215 215 214 210 207 206 201 195 191 191 193 197 197 194 196 195 194 192 188 184 179 179 179 176 172 168 164 148 111 55 24 8 1 0 0 0 0 0 0 2 1 18 44 60 72 79 88 98 112 125 133 131 130 135 128 124 121 117 111 114 119 125 127 126 129 121 114 105 95 97 102 108 115 125 136 144 149 150 150 147 149 145 136 129 133 128 125 126 131 133 140 143 143 147 156 161 167 173 174 175 175 177 180 181 173 176 181 181 178 174 171 168 163 156 143 135 125 119 122 120 125 129 135 139 137 138 146 154 156 158 156 157 156 156 163 166 163 162 163 159 157 156 159 162 168 167 169 171 169 173 170 170 171 173 172 175 176 176 178 171 173 180 184 181 189 188 184 182 185 190 195 194 192 191 196 197 198 201 203 201 201 115 22 4 2 0 0 1 3 2 0 1 7 17 24 26 27 30 34 32 34 34 32 29 33 36 38 40 44 45 45 45 46 46 44 42 40 39 38 40 46 45 44 46 46 49 49 48 46 47 49 51 53 52 55 51 47 45 43 36 35 33 30 27 
0 0 11 17 3 0 1 2 2 2 3 0 0 1 0 0 1 1 1 3 9 15 17 14 9 13 18 37 52 47 39 40 47 54 59 61 61 73 68 30 27 17 5 0 2 1 0 66 158 174 179 180 174 176 193 197 202 203 200 198 200 198 198 199 199 199 204 207 208 209 208 209 211 211 210 215 212 212 212 209 209 208 202 198 198 193 195 196 195 194 194 192 191 191 188 184 181 182 182 175 171 170 162 142 103 38 17 6 0 0 0 0 0 0 0 3 0 10 33 51 56 73 78 80 96 116 129 131 133 141 137 138 136 128 121 119 122 127 130 128 127 125 117 104 94 93 102 102 105 121 130 137 143 148 154 149 144 140 136 133 135 132 124 122 132 135 133 134 139 147 150 158 165 171 173 168 170 172 175 177 173 173 176 177 176 172 170 169 166 155 134 128 120 114 118 115 127 129 129 131 136 136 143 152 158 161 161 155 154 161 164 164 163 163 165 164 160 161 161 161 169 167 167 169 168 175 168 167 172 176 172 176 175 173 178 171 174 178 181 182 184 184 182 183 189 192 193 193 192 191 198 197 199 204 205 199 195 106 13 0 0 0 0 1 3 6 1 1 7 16 24 30 31 32 35 29 32 33 33 34 32 34 37 39 40 40 40 41 43 45 45 43 43 43 41 42 47 47 45 47 47 48 46 44 46 44 43 46 49 50 53 48 41 39 37 33 32 31 27 23 
0 0 12 19 4 0 0 1 1 0 0 0 0 0 0 2 3 4 6 11 20 23 23 23 24 27 29 25 19 17 17 17 26 39 53 64 66 70 56 23 40 42 30 17 14 9 2 82 173 180 178 181 176 177 193 195 201 201 198 198 197 196 200 201 199 198 202 206 207 207 206 210 212 212 212 213 212 212 211 207 206 207 201 195 196 196 196 199 200 197 196 193 193 193 190 187 182 184 182 174 173 170 160 139 99 36 17 6 0 0 1 0 0 0 0 2 0 4 20 41 52 62 67 70 79 99 110 120 130 135 138 137 135 130 122 118 125 130 131 133 129 122 118 114 105 94 93 101 112 122 127 135 143 148 149 149 142 140 136 132 134 128 121 122 132 130 130 132 137 145 149 156 163 170 173 168 165 169 174 173 174 178 175 173 177 170 166 165 161 152 137 126 114 105 104 110 119 124 126 127 132 136 138 145 158 159 157 154 154 159 158 158 158 159 161 164 161 159 159 160 169 168 168 168 166 169 168 166 167 173 174 178 179 178 178 177 178 178 180 184 183 184 184 186 190 191 194 195 195 197 202 199 199 202 201 195 193 104 10 1 0 0 1 1 2 7 2 0 2 13 27 28 30 31 29 32 36 35 35 39 34 34 34 37 40 43 38 40 44 44 40 42 43 44 44 42 40 44 50 50 46 50 46 41 44 44 42 45 48 49 46 41 42 42 31 31 29 28 25 21 
0 0 0 0 0 0 0 1 2 1 0 0 0 0 1 6 7 8 12 17 15 17 19 21 22 26 22 16 11 10 20 27 29 33 43 31 39 35 22 19 28 29 20 11 8 2 8 99 185 185 179 179 175 176 192 196 203 202 199 199 197 197 199 200 200 199 203 207 208 209 206 210 212 211 212 214 213 214 213 210 210 205 200 195 193 193 195 200 202 197 198 198 199 196 189 185 186 185 181 177 175 173 165 137 87 37 13 2 0 0 0 0 0 0 0 2 1 0 8 28 49 60 67 71 76 82 95 106 117 128 135 140 140 136 127 124 124 123 125 133 139 128 120 116 111 101 96 102 113 123 128 140 142 141 146 150 146 141 138 139 138 123 119 122 124 118 121 130 138 140 145 152 165 177 178 178 173 173 175 175 179 181 177 173 173 170 167 162 156 152 141 127 111 105 111 107 109 114 120 123 129 133 130 131 144 150 150 151 150 150 154 153 157 158 153 157 154 155 157 158 163 167 168 165 162 165 164 163 164 171 175 181 181 177 176 178 179 178 178 183 188 186 183 185 192 193 194 194 195 200 207 205 202 200 200 198 193 101 6 0 0 0 0 0 1 5 2 0 0 4 18 24 27 28 27 29 31 33 33 31 37 36 33 32 34 37 35 37 41 43 37 40 40 41 47 41 37 40 46 47 43 49 46 40 39 42 47 46 42 44 43 39 38 36 33 33 28 27 25 22 
1 1 0 0 0 0 0 0 1 4 0 0 0 0 0 2 6 8 11 14 13 16 16 15 15 19 15 22 29 27 47 66 68 61 52 23 15 9 10 24 25 22 17 13 11 19 42 120 185 178 178 183 178 176 190 194 202 204 202 201 198 197 198 199 200 201 204 207 208 209 207 210 210 210 212 210 212 213 212 210 213 207 202 197 193 190 197 198 196 198 198 199 196 190 186 187 185 182 181 180 178 175 163 128 71 28 8 0 0 0 1 0 0 0 1 1 2 2 5 13 42 63 68 67 71 78 85 93 107 127 130 137 142 143 135 134 126 122 122 125 136 132 126 120 112 111 104 101 108 121 129 142 145 143 145 141 145 145 143 141 133 125 118 115 117 117 125 133 137 138 133 145 155 165 174 171 169 172 174 172 177 179 180 176 170 170 165 159 152 140 135 120 105 103 117 107 107 117 126 127 123 124 122 127 138 146 148 147 146 147 150 152 154 156 156 154 148 151 158 161 163 164 166 166 162 163 166 167 167 171 173 177 181 181 173 174 175 178 180 184 190 187 185 187 192 188 192 196 196 199 206 205 202 200 201 201 192 95 3 0 0 0 0 0 0 1 4 2 0 1 15 26 27 25 29 33 34 33 32 31 38 37 34 31 32 37 37 36 36 40 38 40 40 40 42 45 41 40 42 44 48 44 43 42 40 43 45 44 43 43 44 41 38 36 35 31 27 31 30 20 
6 5 5 3 0 0 0 0 1 1 0 0 0 0 0 0 5 6 6 7 15 13 11 12 15 17 17 19 30 51 79 106 101 85 76 50 17 3 6 15 18 12 17 20 11 18 57 133 186 179 182 184 175 174 193 199 200 202 204 202 196 198 200 201 201 205 205 206 209 209 208 208 210 211 212 210 212 212 211 212 212 208 202 198 194 194 199 199 196 196 199 199 197 194 190 187 184 184 183 177 180 173 160 119 48 16 3 0 0 0 0 0 0 0 0 1 3 4 3 4 21 51 64 65 68 75 71 79 97 113 116 131 142 145 142 136 127 124 124 126 137 138 136 133 128 120 111 104 105 116 125 136 143 146 145 150 147 143 143 146 143 134 126 121 120 124 125 128 132 136 134 144 152 155 161 168 169 170 168 166 171 175 177 174 169 170 160 156 150 134 124 110 101 97 100 103 107 118 126 124 124 119 116 123 137 133 138 141 140 139 145 150 149 150 156 148 150 153 156 163 163 163 164 164 164 169 171 172 172 172 180 177 176 175 175 180 176 180 186 184 190 185 183 187 193 190 197 200 199 199 201 208 207 204 205 204 191 92 0 0 0 0 0 0 0 2 7 4 0 0 5 18 20 19 24 33 33 31 33 36 37 35 35 35 35 37 37 36 36 39 43 41 41 41 41 46 43 41 41 41 43 46 45 43 44 44 40 43 46 42 39 38 37 35 33 29 28 26 23 23 
7 17 16 12 14 7 5 3 1 0 0 0 0 0 0 0 1 3 2 1 10 5 4 6 10 12 14 13 14 32 84 108 96 68 45 19 5 0 7 37 44 39 34 29 23 1 65 144 188 182 181 182 174 175 191 194 202 204 202 204 197 198 199 200 202 203 205 208 210 210 209 211 213 212 210 207 211 213 211 211 209 206 202 197 193 196 200 202 200 199 203 204 200 195 190 191 189 185 181 178 175 172 158 112 40 22 4 0 0 0 0 0 0 0 0 0 2 3 0 0 6 29 53 67 67 66 67 72 81 92 106 121 135 142 139 137 124 115 115 121 127 135 141 141 132 118 99 98 104 104 112 126 140 146 144 151 148 147 146 147 147 139 137 130 120 127 130 127 126 133 138 142 141 144 155 162 164 164 165 168 168 168 164 161 165 168 158 148 140 130 115 104 99 97 93 105 108 110 110 110 115 111 112 121 131 129 133 128 123 127 124 128 137 148 150 143 147 149 152 157 158 163 161 161 167 172 176 176 175 174 175 179 179 176 177 182 180 183 186 187 192 189 189 191 194 191 199 201 197 197 197 205 208 205 202 204 190 95 4 0 0 1 1 0 0 0 11 7 0 0 0 2 13 24 25 30 31 33 36 37 34 35 35 35 38 38 39 38 39 42 43 40 40 41 41 46 45 44 41 36 45 42 42 43 43 45 43 44 44 40 35 34 35 34 32 28 25 19 17 22 
15 21 24 25 28 22 23 20 16 13 2 0 0 0 0 1 0 0 1 4 4 3 4 5 4 8 11 10 8 16 42 52 34 11 7 7 27 48 73 96 86 59 45 42 41 26 105 166 186 184 183 182 173 172 190 195 200 201 202 205 199 198 197 199 204 205 205 206 207 207 211 211 210 211 213 211 213 215 213 208 204 201 198 196 195 193 197 199 201 202 205 205 203 198 194 192 188 188 187 180 174 172 151 101 38 15 6 2 0 0 0 0 0 0 1 0 0 0 0 2 7 25 48 64 67 65 81 83 81 92 96 112 126 133 135 127 122 115 107 104 114 122 126 128 128 114 119 112 97 97 111 115 128 142 149 150 149 147 146 148 150 148 140 132 128 122 126 123 119 124 131 135 140 145 151 156 159 165 170 173 167 167 167 166 166 163 158 147 136 129 115 98 93 92 86 99 101 103 104 106 114 117 118 124 135 137 135 131 125 121 120 126 134 140 144 142 145 149 154 157 152 160 162 160 164 163 169 174 174 169 173 180 181 179 179 177 177 180 185 190 190 190 193 195 195 192 197 197 197 198 200 205 206 206 204 198 189 101 11 1 0 1 2 2 2 3 15 18 11 0 0 0 3 14 28 32 36 36 34 34 39 40 40 39 40 35 39 41 40 41 35 38 41 41 40 42 42 43 43 41 41 44 43 40 39 42 39 35 35 39 40 37 34 33 29 24 21 20 21 23 
17 29 35 35 38 39 37 35 34 30 15 14 7 0 0 0 0 0 0 0 0 1 2 3 4 7 7 4 3 8 10 6 1 0 0 7 24 56 94 123 121 94 71 54 37 17 121 178 184 184 181 178 172 176 195 194 201 205 204 202 197 202 202 203 205 207 206 207 208 208 210 212 213 212 213 212 212 211 209 208 207 201 198 196 194 195 198 200 202 205 204 204 203 201 196 190 189 187 185 181 181 176 139 84 35 13 2 0 0 0 0 1 1 1 0 0 0 0 0 0 5 22 40 54 60 60 64 72 77 80 92 107 117 123 129 121 122 116 107 102 104 115 126 131 129 123 120 106 94 99 116 118 128 138 138 148 147 145 145 148 147 148 147 142 135 131 120 115 112 113 121 128 133 140 147 147 150 156 165 171 167 166 167 167 166 163 163 154 140 129 117 101 99 101 99 101 106 106 107 112 110 110 116 129 140 142 137 138 139 132 123 126 134 140 141 145 147 153 155 152 155 159 159 161 167 166 168 167 167 169 177 180 181 181 180 180 180 182 185 187 193 192 196 195 186 195 194 197 200 199 199 203 203 201 201 199 193 112 21 0 0 0 0 0 0 2 4 13 13 0 0 0 0 3 12 27 31 34 37 37 40 36 38 38 34 40 41 41 39 35 37 39 42 40 35 34 33 36 41 43 43 42 40 39 41 37 40 38 36 35 35 32 33 33 27 26 22 21 21 18 
18 31 43 46 47 52 58 54 47 45 43 32 23 15 9 1 0 0 0 0 0 1 0 1 4 5 2 4 7 7 3 1 0 0 0 0 11 27 38 42 53 61 47 21 6 13 128 182 182 183 184 179 173 176 189 195 195 196 198 204 197 197 198 200 204 206 206 207 209 210 210 209 211 212 211 211 213 212 209 208 207 203 201 200 200 201 201 204 206 204 207 205 202 197 194 192 189 185 183 184 181 174 127 66 26 3 0 0 0 0 0 0 0 0 0 1 0 0 0 1 3 11 27 42 50 63 66 67 69 78 90 96 103 115 126 118 119 113 105 103 111 109 116 124 122 120 128 116 100 99 103 106 118 127 129 145 146 143 143 148 145 150 151 148 146 145 127 115 117 123 117 119 124 135 145 143 141 148 157 159 161 158 160 166 169 166 163 158 152 142 121 101 97 97 94 109 105 111 118 119 117 125 126 128 137 140 147 147 145 142 132 122 126 135 141 139 145 149 151 153 158 159 160 166 173 171 168 169 172 175 188 185 181 180 182 177 181 184 187 192 190 188 192 195 193 193 193 197 199 196 196 202 203 203 205 201 195 113 23 0 0 0 1 1 0 5 7 12 10 0 0 0 0 0 0 6 25 34 35 39 39 42 43 43 44 43 36 35 38 40 37 37 36 35 34 37 39 38 36 37 41 38 35 35 37 36 39 36 31 31 30 25 23 24 26 24 21 18 18 23 
19 36 41 46 62 60 60 62 66 70 65 57 43 33 27 15 6 0 0 0 0 0 0 0 0 0 4 5 10 21 3 0 0 0 0 0 1 2 1 0 1 3 2 0 2 35 141 186 184 186 185 183 174 175 194 195 194 197 202 202 196 198 198 198 202 205 207 208 208 207 213 212 212 214 215 212 212 211 209 206 204 200 198 201 205 204 202 204 207 208 207 206 205 203 201 197 190 187 187 186 182 170 114 51 24 2 0 0 0 0 0 0 0 0 1 0 0 1 1 0 1 6 21 37 46 52 62 69 74 84 90 92 100 115 128 122 128 116 99 100 116 111 111 118 124 118 140 131 105 94 96 95 105 117 123 141 146 145 146 151 147 148 149 147 142 135 127 124 123 121 128 127 129 132 136 145 145 149 154 157 162 161 163 173 188 182 165 159 155 138 122 115 109 103 96 101 100 109 113 105 115 125 132 138 143 147 150 148 141 136 141 134 135 141 142 135 133 136 140 142 149 150 149 151 156 161 163 165 168 175 186 186 181 179 180 183 185 187 190 193 192 190 192 195 196 197 193 196 201 197 200 202 201 200 200 197 193 117 29 1 0 0 0 0 3 9 6 15 22 12 1 0 0 0 0 0 8 22 32 34 34 36 37 42 51 45 43 40 39 40 41 40 39 40 40 39 37 37 37 39 40 38 38 39 36 31 28 29 30 31 22 22 20 21 26 22 19 19 22 23 
18 33 49 58 61 64 64 64 71 81 65 64 59 48 37 34 26 16 6 2 0 0 1 2 0 0 1 1 0 0 2 1 0 0 0 1 0 0 1 2 5 11 12 4 3 58 154 188 183 188 187 179 172 176 194 195 193 197 200 198 193 197 199 200 204 206 205 208 209 209 212 211 211 211 210 210 211 210 208 207 201 200 197 198 206 209 208 209 209 207 206 208 207 203 198 198 195 191 187 182 180 169 106 39 13 1 0 0 0 0 0 0 0 0 1 1 1 2 2 0 0 5 11 23 47 58 61 71 83 89 88 94 103 113 123 131 131 117 102 97 102 102 104 111 123 124 124 124 118 106 99 93 97 109 123 121 132 140 145 147 144 142 148 151 139 127 125 126 125 121 127 120 123 132 136 145 147 151 154 151 155 166 170 166 160 168 177 174 165 156 139 127 123 115 105 111 109 103 101 110 120 129 136 141 146 150 144 144 145 143 137 141 144 146 146 146 141 142 144 139 144 143 148 156 159 152 154 162 170 173 175 174 178 181 178 176 181 184 185 190 198 194 192 192 193 196 195 198 200 196 200 198 198 199 198 199 194 115 25 0 0 0 0 1 5 11 7 17 31 26 8 5 4 2 0 0 0 1 8 18 31 34 39 43 43 42 42 43 43 41 34 35 39 42 41 37 38 36 34 37 37 31 30 32 30 27 23 20 21 24 22 24 23 25 28 24 21 20 20 21 
18 38 54 62 66 58 55 68 89 103 89 85 70 55 52 47 47 40 28 19 10 4 1 0 0 0 0 1 2 0 1 0 0 0 0 6 3 3 5 5 4 3 4 0 7 85 164 193 189 187 184 181 173 177 196 192 190 193 196 194 194 196 202 206 208 207 208 207 205 208 211 212 211 210 210 210 210 209 207 205 202 199 197 200 205 209 209 210 209 205 206 206 203 202 203 199 194 192 191 185 179 151 86 25 7 1 0 1 1 0 0 0 0 0 1 0 0 1 1 0 1 2 10 20 29 47 54 64 81 96 90 94 104 119 134 133 135 122 107 103 105 101 103 113 122 129 128 129 128 119 100 89 94 100 97 117 127 130 136 147 145 145 150 152 146 135 135 134 132 128 119 116 114 120 135 148 147 151 157 157 159 164 167 168 167 173 178 172 162 155 143 135 123 113 112 110 107 105 105 107 114 127 135 140 148 149 151 150 150 150 152 154 159 162 157 156 150 148 145 142 145 148 148 149 155 160 162 164 165 166 174 165 168 175 173 181 180 182 186 190 195 192 191 193 192 193 193 195 196 194 198 196 196 198 199 196 189 105 17 0 0 1 1 0 2 12 17 28 37 34 27 19 9 2 1 0 0 0 0 2 13 20 26 35 43 41 43 43 42 43 42 38 41 43 37 33 34 33 34 37 33 31 30 28 24 23 21 22 24 24 23 22 28 32 30 25 19 20 24 26 
19 41 56 60 59 68 68 84 101 103 105 98 84 73 66 56 52 53 51 41 36 25 12 3 0 0 1 1 0 0 0 0 0 0 0 7 4 7 8 3 4 3 3 3 17 115 174 193 192 189 185 179 173 177 193 195 191 194 195 191 192 195 202 207 207 207 209 210 209 210 214 213 214 213 213 213 215 214 213 212 208 203 203 206 210 213 211 209 210 209 209 207 205 201 197 192 193 193 190 185 180 139 74 19 0 0 0 0 0 0 0 0 1 2 1 1 0 1 1 0 2 4 8 17 30 53 54 52 62 84 97 97 104 114 122 130 135 129 115 103 106 103 108 117 123 130 128 121 119 124 107 102 96 94 102 108 117 124 133 146 145 145 147 148 146 139 135 132 128 125 112 108 112 118 124 141 141 144 149 153 161 162 170 174 166 167 165 164 158 145 135 124 114 111 115 111 102 100 106 112 116 120 132 141 143 150 149 149 152 158 155 160 163 160 158 164 162 162 162 157 159 157 161 163 161 164 168 165 167 174 172 167 171 179 181 185 186 184 183 188 189 192 192 191 191 193 195 197 199 200 198 199 201 200 198 195 191 101 10 2 0 0 0 3 7 15 35 47 49 45 39 26 21 17 7 0 0 2 2 0 0 0 4 15 27 29 40 42 41 42 38 39 37 35 35 35 35 32 29 29 27 26 24 23 25 22 24 23 22 23 23 24 29 34 30 26 22 21 23 26 
15 32 41 43 49 61 64 88 109 106 103 108 99 85 80 57 54 55 52 46 41 35 29 20 6 2 0 0 0 0 0 0 0 0 0 5 7 7 5 1 2 1 0 0 15 139 182 190 190 191 188 178 172 178 194 194 191 192 191 188 194 198 199 202 208 209 207 206 208 210 211 213 214 214 216 219 221 222 223 223 216 206 204 208 214 216 213 211 212 211 209 208 206 202 199 193 193 191 188 188 180 118 54 13 0 0 0 0 0 0 0 2 2 1 0 1 1 2 2 2 0 0 3 11 26 40 45 46 54 76 88 96 96 97 107 118 125 129 126 117 121 110 110 117 123 129 126 122 119 115 107 103 92 83 88 98 102 111 124 135 139 144 150 151 145 141 132 129 131 128 118 109 112 118 120 131 135 143 152 157 161 168 170 171 174 173 173 166 160 156 145 131 114 107 115 114 113 112 112 111 116 127 137 142 140 146 151 149 148 155 157 162 163 163 165 166 166 161 157 157 165 160 159 163 168 173 171 170 172 174 177 174 179 183 181 186 187 185 185 190 190 194 195 195 195 195 196 197 201 211 199 197 200 202 198 195 190 96 3 0 0 0 2 5 12 21 35 58 71 59 46 39 35 26 11 2 0 0 0 0 2 1 0 0 1 10 13 18 23 22 29 25 23 24 30 27 21 22 23 20 20 18 21 21 17 17 21 21 20 19 21 24 27 30 30 26 24 19 18 23 
24 41 42 36 42 42 48 58 65 66 76 94 95 87 82 60 51 53 55 50 53 48 39 31 23 10 3 0 0 0 0 0 0 0 0 0 1 2 3 3 1 1 1 2 26 154 184 191 195 197 188 175 173 183 198 194 194 195 193 189 194 196 197 199 207 208 207 207 208 208 210 210 210 212 216 219 217 217 218 216 210 210 210 210 213 214 212 211 212 210 209 209 206 202 199 194 194 192 189 187 173 95 32 4 0 0 1 1 0 1 0 0 0 0 0 1 1 1 1 2 1 1 4 11 24 38 48 48 53 72 84 104 105 102 110 108 110 113 116 117 120 115 110 113 122 129 128 129 127 118 110 93 83 80 81 102 99 110 126 134 134 143 142 136 138 136 132 130 126 117 121 118 119 123 126 128 133 140 149 155 157 164 166 165 168 171 168 169 171 167 139 129 114 106 113 118 115 111 111 112 112 121 134 139 134 142 141 143 147 149 158 162 164 167 167 165 167 167 165 164 173 165 161 160 160 166 172 174 174 174 175 175 178 179 175 183 184 183 183 187 190 193 196 198 197 200 197 196 195 191 197 198 202 203 199 193 186 89 0 0 0 0 0 3 15 21 36 58 74 75 66 63 54 41 27 7 0 0 0 0 1 1 1 1 1 2 0 0 0 0 0 2 6 9 11 16 16 17 20 24 26 23 27 29 23 20 21 22 22 23 23 26 26 24 25 24 28 23 19 21 
37 71 82 75 72 60 52 51 53 50 44 41 42 44 48 47 47 45 39 37 45 44 41 37 28 18 8 1 0 0 0 0 0 0 0 0 0 0 1 2 0 0 0 7 52 163 188 191 194 198 190 175 173 184 196 191 193 197 197 192 196 196 200 203 205 206 209 209 209 210 213 212 211 209 210 214 210 209 209 205 200 201 204 208 212 212 212 212 211 207 211 210 207 205 202 197 194 194 193 183 151 72 18 0 0 0 1 1 1 1 0 0 0 0 1 0 1 1 0 0 2 2 4 10 17 29 45 52 58 69 81 100 104 106 119 120 109 108 111 108 115 114 116 119 121 129 127 129 132 122 102 92 84 79 82 92 100 110 118 124 132 140 136 129 131 140 141 135 124 116 116 110 111 118 124 121 125 133 142 148 152 161 164 163 165 167 161 163 163 154 128 118 106 97 100 114 115 117 118 117 119 119 127 136 140 139 139 142 146 152 154 161 164 164 165 166 161 162 165 169 173 170 167 166 166 166 171 172 171 172 176 178 179 179 176 185 184 184 186 186 191 194 194 197 201 202 198 196 194 191 198 198 198 198 199 196 178 81 0 0 0 0 0 0 4 12 32 47 65 90 82 66 67 69 49 13 1 0 0 0 0 0 0 0 1 0 0 0 0 0 1 7 14 17 18 19 21 20 21 27 42 29 21 22 23 25 23 22 23 25 22 21 21 20 20 22 27 29 27 26 
54 99 116 112 113 98 87 86 88 82 70 63 56 49 44 36 33 27 23 24 22 25 30 32 30 21 10 4 2 0 0 0 0 0 0 0 0 0 0 0 0 0 0 12 72 175 191 188 189 192 189 173 171 182 191 188 191 195 195 196 199 197 202 205 202 207 209 209 209 212 212 213 213 211 211 213 209 206 205 203 200 200 201 205 210 210 210 210 210 209 213 210 207 206 205 200 197 196 193 178 122 53 11 0 0 0 0 0 1 0 0 1 1 1 0 0 0 0 2 2 3 1 2 5 8 25 42 56 58 52 76 92 97 101 111 123 119 118 113 102 112 110 115 119 112 123 130 138 137 120 106 96 87 83 86 87 96 104 111 118 134 140 138 134 133 142 145 138 127 118 111 107 108 112 115 118 124 129 133 140 152 159 158 157 160 158 150 149 150 137 110 101 93 88 93 106 114 116 118 123 128 119 124 138 144 133 139 141 144 154 150 158 164 164 161 162 163 165 165 164 166 167 170 173 175 171 175 176 176 177 182 182 181 180 180 187 187 187 185 183 196 197 196 200 205 201 197 195 196 196 203 201 198 197 196 198 163 67 0 0 0 1 1 0 0 2 20 37 55 78 87 71 76 95 91 34 5 0 0 0 0 0 0 0 0 0 0 0 1 6 8 16 19 23 30 22 21 23 23 23 42 26 20 24 27 25 26 23 21 24 24 22 20 19 20 22 26 30 30 31 
63 107 126 119 115 109 99 99 98 90 93 90 86 81 75 73 59 51 43 27 20 28 24 16 18 11 8 4 1 0 0 0 0 0 0 0 0 0 0 0 0 0 0 24 116 183 193 192 192 192 192 169 171 187 194 192 195 197 196 197 200 199 202 204 200 206 207 206 207 210 209 211 212 211 213 212 209 207 205 203 199 199 199 202 209 211 212 211 210 211 212 209 210 209 204 199 199 196 191 171 92 33 5 0 0 0 0 0 0 0 0 1 1 1 0 1 1 2 2 2 3 0 1 4 8 26 42 53 57 59 70 81 95 106 111 122 114 114 115 108 113 114 116 117 116 116 129 134 128 114 108 95 87 84 86 94 96 103 112 117 131 137 138 136 133 139 146 144 134 122 118 124 117 108 105 102 119 126 128 141 149 155 159 159 157 155 153 150 141 126 112 108 98 89 93 100 102 110 121 128 118 117 124 135 140 134 135 139 146 152 155 153 155 160 162 158 166 169 166 167 173 173 172 172 171 173 178 177 177 184 182 183 183 181 179 187 189 189 186 183 195 198 199 202 206 202 199 197 196 197 206 201 198 198 197 197 138 50 0 0 0 0 0 0 0 1 10 24 43 63 74 70 79 121 172 115 35 1 0 0 0 0 0 0 0 0 0 2 6 9 12 18 24 28 30 22 19 24 28 28 27 19 19 30 41 26 25 22 20 25 25 21 19 20 23 26 36 34 25 23 
57 95 107 96 88 85 80 83 86 76 76 72 72 75 72 71 65 58 50 43 39 43 35 24 19 9 8 9 9 10 13 13 14 14 17 18 18 21 22 19 15 10 3 41 148 181 190 193 195 194 190 165 171 190 193 196 197 197 196 196 199 201 205 206 201 207 206 207 208 209 209 211 212 211 211 212 211 213 211 204 200 198 200 204 207 210 211 212 212 211 210 209 209 207 204 198 197 197 186 149 61 14 0 0 0 0 0 0 0 0 0 0 0 1 1 3 2 0 1 3 2 2 1 4 16 32 46 55 59 60 65 77 90 101 112 122 121 114 106 102 109 117 121 120 117 121 129 126 119 114 101 91 86 83 81 86 87 98 111 118 125 129 135 140 140 140 144 142 135 129 125 123 118 112 107 96 112 122 128 139 150 156 160 160 155 151 149 144 135 127 114 108 96 89 96 93 100 108 117 126 119 120 123 131 143 139 135 140 149 153 160 158 158 161 166 165 166 166 166 171 178 176 173 171 170 178 179 180 182 183 181 188 189 184 181 184 185 186 187 190 196 198 199 201 201 197 196 195 194 195 202 204 202 199 196 195 116 35 0 0 0 0 0 0 0 1 3 12 27 45 50 55 66 106 177 197 71 3 0 0 0 0 0 0 0 1 6 9 9 8 13 18 24 26 21 20 25 27 27 30 25 24 22 23 32 27 24 21 22 25 25 23 19 17 18 25 28 27 23 19 
41 87 99 89 87 79 78 80 83 83 79 76 76 74 66 68 73 69 63 62 58 60 61 60 56 60 57 57 57 56 56 51 46 48 53 51 48 49 47 39 35 29 29 76 168 180 191 193 191 190 184 167 173 187 191 197 196 194 194 196 200 201 203 203 202 206 206 206 207 211 211 212 211 211 213 212 211 209 208 206 203 203 204 207 209 208 212 213 213 213 208 206 207 206 202 200 200 197 173 112 39 7 0 0 0 0 0 0 2 2 2 0 0 1 2 1 2 3 2 1 4 5 4 6 12 31 48 57 58 59 70 77 84 93 104 108 120 118 105 98 99 106 120 128 123 126 128 123 116 109 88 91 89 82 79 82 85 96 107 109 121 123 133 143 142 136 134 133 130 125 117 122 120 116 115 105 114 124 131 136 148 153 155 156 154 144 146 140 129 122 110 97 89 85 87 87 97 107 113 116 124 130 130 130 138 137 140 147 152 155 166 164 161 162 165 167 169 170 172 176 175 176 177 178 178 176 178 182 184 182 184 190 189 184 182 184 185 183 184 190 197 199 201 201 200 196 197 196 195 195 200 198 198 199 194 191 91 19 0 0 0 0 0 0 0 0 3 6 10 17 30 39 47 62 103 204 109 23 0 0 0 0 0 0 1 5 10 13 12 9 18 22 24 27 28 29 29 27 25 27 34 32 28 26 27 22 25 27 26 23 28 26 21 18 21 23 25 22 22 25 
57 99 118 113 107 100 107 107 102 100 96 93 92 88 82 87 80 77 77 76 78 72 71 72 68 76 78 78 72 64 69 66 61 59 61 63 60 59 55 48 49 41 54 105 176 187 194 195 193 191 183 169 175 187 187 189 195 196 193 193 197 200 201 202 204 204 205 206 207 207 210 212 212 211 212 213 212 208 205 203 204 205 207 208 212 210 216 217 212 211 209 209 210 210 207 203 201 194 152 71 24 4 0 2 0 0 0 1 1 1 0 0 0 1 2 1 2 3 3 0 2 4 4 5 10 22 40 53 55 52 73 71 74 83 93 100 102 105 105 99 93 104 116 121 121 125 131 125 114 106 88 84 84 85 85 87 81 93 106 103 109 120 133 144 148 138 138 142 137 122 123 116 111 112 117 113 125 131 135 141 147 151 151 150 150 143 138 140 139 125 100 87 81 83 93 85 90 102 107 103 116 132 133 130 136 138 142 146 151 155 162 158 159 161 161 161 170 174 173 175 170 173 178 180 180 181 177 178 184 184 183 183 184 184 184 191 190 189 188 187 199 202 202 201 198 200 200 199 196 192 199 194 193 195 193 186 67 3 0 0 0 0 0 0 0 0 1 1 0 2 10 15 19 19 34 121 137 63 0 0 0 0 0 1 3 2 4 12 18 15 14 17 21 23 27 30 29 32 34 30 30 32 32 31 28 27 27 26 25 26 27 26 24 23 24 21 22 23 22 23 
71 124 148 142 140 138 137 132 123 116 120 112 105 101 96 99 91 88 87 83 79 74 73 71 66 74 78 78 76 71 68 70 61 55 61 56 59 56 49 48 44 36 66 123 178 193 194 193 192 187 167 165 177 188 187 189 192 192 193 196 197 199 200 199 201 206 205 206 209 209 210 212 212 211 213 212 211 209 208 207 204 203 208 212 211 210 214 214 211 212 210 209 210 208 201 198 199 174 116 45 7 0 2 2 0 0 0 0 0 1 0 0 0 0 1 1 0 1 3 2 0 1 1 3 8 13 33 46 49 50 65 69 79 84 81 91 96 97 97 96 84 93 100 109 123 125 122 113 105 100 88 82 81 90 104 94 86 91 101 107 117 125 132 140 148 146 140 139 138 133 124 108 107 116 123 120 122 127 132 139 143 145 146 145 141 148 145 142 135 122 98 78 79 87 87 89 97 98 96 97 113 128 128 126 134 139 142 145 150 155 151 156 157 158 163 163 165 166 169 174 166 173 179 179 177 178 179 180 182 185 185 185 186 187 187 186 188 187 187 189 195 194 197 198 194 198 199 197 195 195 194 189 191 197 195 177 52 0 0 0 0 0 0 0 0 0 0 0 0 0 1 5 4 1 4 18 64 39 0 0 0 0 0 0 1 6 10 14 18 18 21 28 24 21 31 32 38 36 32 34 30 31 29 29 32 24 26 29 27 21 19 23 25 23 20 21 23 27 28 26 
82 148 178 170 164 163 159 158 155 147 146 132 128 125 114 111 102 98 96 93 86 89 87 79 72 71 69 72 74 72 70 67 62 61 65 58 60 58 54 51 43 39 84 146 182 194 193 193 191 181 161 165 182 192 187 190 194 196 196 193 193 196 197 201 207 207 208 211 212 211 210 210 209 209 212 207 210 210 208 207 205 205 208 211 213 213 216 215 212 213 209 208 208 205 198 193 195 154 84 25 1 0 2 2 0 0 2 1 0 0 0 0 1 1 0 0 1 4 6 6 4 7 6 4 5 14 28 44 51 47 56 66 80 86 79 89 94 91 86 88 84 91 100 106 108 121 124 120 113 101 81 77 83 93 104 125 103 93 101 114 131 132 139 147 149 144 136 129 123 123 116 115 112 110 111 118 115 125 136 136 136 144 152 155 152 145 145 141 130 118 105 95 84 81 89 87 96 97 93 94 108 121 131 131 121 131 133 141 152 157 153 151 152 159 169 170 171 171 172 172 169 170 172 174 176 173 172 171 175 183 183 181 184 188 187 183 186 184 183 189 196 195 197 198 197 194 193 194 194 190 194 188 190 196 189 133 33 0 0 0 0 0 0 0 0 0 0 0 0 0 0 0 0 0 0 0 7 6 1 0 0 0 1 3 6 8 14 16 19 25 24 28 31 33 33 32 34 34 34 36 38 36 34 32 29 29 28 27 25 23 23 17 18 18 16 20 20 24 27 22 
88 159 191 183 179 177 176 173 168 164 163 147 139 137 132 128 114 108 109 106 92 94 94 92 92 81 77 79 75 67 71 70 65 62 65 60 57 57 56 50 44 40 99 168 187 192 195 193 186 174 160 168 182 189 186 188 191 194 196 197 196 199 200 201 205 205 205 209 212 212 212 214 213 212 213 210 209 209 207 205 207 207 211 213 213 215 218 217 213 213 212 211 210 207 201 197 187 129 57 13 1 0 2 2 0 0 0 0 0 0 0 0 1 2 2 2 0 2 3 1 5 5 5 6 8 9 23 35 44 51 47 65 74 76 79 91 87 83 85 92 94 97 100 105 113 128 130 126 119 108 92 91 93 100 111 104 106 109 115 124 129 140 144 144 146 139 139 134 128 124 113 119 115 112 119 120 121 129 136 137 142 144 148 150 153 150 151 144 126 103 98 88 84 87 96 93 88 91 100 106 116 125 129 132 136 131 131 138 148 153 151 153 157 162 164 160 163 169 173 169 170 169 170 173 176 175 171 172 178 186 183 180 178 180 184 181 186 187 186 190 193 195 196 196 195 194 194 193 193 196 192 197 198 198 180 79 14 0 0 0 0 0 0 0 0 0 0 0 0 0 0 0 0 0 0 0 0 0 0 0 0 0 1 4 9 14 21 20 18 23 28 27 29 33 35 35 39 39 36 33 37 33 28 26 28 28 28 28 28 26 22 19 19 22 23 24 26 26 25 21 
94 168 202 196 195 192 188 183 181 178 171 168 161 156 156 149 143 137 133 129 112 107 104 101 96 86 84 80 78 78 69 73 71 67 67 68 70 71 67 57 51 62 117 171 182 189 194 193 182 166 160 173 183 185 187 190 189 195 199 198 196 199 203 204 205 208 209 210 209 208 212 212 211 211 213 210 210 208 205 205 207 209 212 214 212 215 216 211 208 214 212 212 211 208 203 197 175 108 33 0 0 0 0 0 0 0 0 0 0 0 0 0 0 0 1 2 4 3 1 2 8 3 5 8 6 13 14 27 45 52 39 52 70 76 69 82 86 86 89 95 95 100 101 103 113 119 129 133 129 119 105 95 93 102 112 107 114 120 124 131 139 144 147 149 150 145 137 132 129 128 123 122 117 112 115 123 127 132 134 134 134 153 158 153 150 151 139 125 113 103 95 76 77 86 88 98 98 94 92 92 94 102 112 118 119 113 126 137 143 147 149 150 149 150 156 158 160 158 160 170 169 175 178 175 172 180 177 176 178 181 185 182 181 178 174 179 180 182 185 187 189 199 196 190 192 195 197 194 190 192 192 194 193 190 160 29 0 0 0 0 0 0 0 0 0 0 0 0 0 0 0 0 0 0 0 0 0 0 0 0 0 0 0 3 12 22 19 17 18 23 24 29 33 36 40 39 39 35 33 36 32 30 29 28 26 32 28 26 28 29 24 22 20 20 20 24 25 28 31 32 
94 175 210 201 198 198 199 196 189 184 185 182 175 171 172 164 157 153 146 137 130 122 116 114 108 98 96 89 84 84 74 67 66 70 71 64 65 67 65 57 45 76 134 178 187 189 193 192 180 160 169 176 184 187 183 186 191 193 194 197 202 200 203 207 208 208 211 215 216 211 212 214 213 211 210 208 211 210 207 206 211 212 214 215 214 215 218 216 215 217 213 212 211 208 204 198 148 72 13 0 0 0 0 0 0 0 0 0 0 0 0 2 1 0 2 2 2 4 8 7 8 6 7 9 9 6 12 22 36 51 45 59 70 73 75 82 91 89 87 92 90 97 104 109 111 116 124 129 129 121 108 96 91 93 101 114 120 121 119 121 123 133 142 146 146 149 145 141 136 133 137 120 114 122 131 135 130 133 139 143 148 150 148 145 143 140 138 126 108 96 106 95 83 86 105 98 100 96 91 93 103 106 107 109 112 110 120 129 133 135 142 143 147 153 157 148 152 157 161 167 166 167 170 174 175 179 174 174 177 175 179 186 184 179 179 175 179 180 181 184 189 197 195 190 193 197 191 186 187 190 185 188 187 173 131 13 0 0 0 0 0 0 0 0 0 0 0 0 0 0 0 0 0 0 0 0 0 0 0 0 0 0 2 6 11 19 20 20 22 27 31 36 38 41 43 40 40 36 30 28 30 38 35 28 27 28 30 28 25 22 19 20 21 22 22 26 27 31 31 27 
98 179 215 208 207 207 201 203 203 196 195 187 180 177 178 172 171 167 159 151 144 132 125 124 123 108 109 102 91 83 80 76 75 74 67 65 60 60 61 56 48 99 152 179 181 190 189 182 167 153 168 181 190 191 185 187 188 190 191 194 199 203 204 207 212 211 211 213 214 214 211 212 214 214 213 211 212 211 209 210 212 212 216 218 216 218 217 216 215 215 217 216 211 206 201 192 121 42 0 0 0 0 0 0 0 0 0 0 0 0 0 0 0 1 3 1 3 8 10 9 6 5 5 4 0 4 9 18 32 46 41 51 66 78 85 92 95 91 86 86 87 92 95 100 109 117 119 125 125 111 107 94 90 94 101 101 108 112 116 127 131 135 144 151 154 156 150 137 128 130 123 127 128 125 123 123 130 139 143 143 154 155 151 146 143 137 133 130 118 98 117 112 94 88 105 97 100 98 92 94 111 110 112 114 113 107 118 127 126 122 121 127 135 141 144 154 158 161 162 158 167 164 167 172 174 175 172 173 175 175 182 181 179 177 174 176 175 175 180 190 190 194 196 194 190 192 190 190 190 188 185 184 180 152 89 7 0 0 0 0 0 0 0 0 0 0 0 0 0 0 0 0 0 0 0 0 0 0 0 0 0 0 1 3 6 12 16 19 20 24 29 32 43 50 44 36 38 38 35 32 31 35 33 28 29 22 26 27 24 21 18 17 20 21 17 22 24 25 28 31 
100 184 218 208 209 208 207 206 204 201 197 196 192 187 185 180 178 172 166 161 156 152 145 137 133 124 116 107 99 92 89 80 71 67 67 68 63 60 59 55 47 115 161 173 175 183 185 172 159 158 169 185 191 189 184 188 186 187 189 193 197 201 206 208 209 209 210 212 211 211 211 213 214 213 213 212 213 212 211 212 213 217 219 219 217 218 217 216 217 218 216 215 212 207 199 181 82 16 0 0 0 0 0 0 0 1 0 0 0 0 0 0 1 2 1 3 2 4 5 5 6 8 9 10 7 11 8 16 31 42 37 47 60 71 83 96 94 93 91 86 84 88 97 105 107 120 126 128 122 111 116 107 96 91 94 107 118 126 127 126 135 141 145 148 149 152 147 139 133 130 125 126 127 126 128 136 136 140 143 144 153 154 151 149 149 141 124 113 103 90 85 69 73 85 89 94 99 96 86 81 85 87 94 100 101 111 117 121 118 110 117 125 129 130 134 143 144 150 157 161 164 163 169 175 173 173 172 177 179 176 180 178 175 174 173 180 179 179 183 190 194 201 201 194 190 192 191 185 183 187 181 168 185 149 25 1 0 0 0 0 0 0 0 0 0 0 0 0 0 0 0 0 0 0 0 0 0 0 0 0 0 0 1 3 9 17 18 18 23 28 30 32 41 47 42 35 36 39 41 41 35 31 29 29 29 21 27 26 21 22 21 20 21 25 27 28 32 34 34 33 
103 188 223 214 214 211 211 211 208 207 203 197 196 194 188 182 183 181 175 168 164 163 157 151 152 149 141 126 114 106 91 77 74 69 55 56 52 51 51 50 60 134 167 166 171 181 180 168 157 159 171 182 186 184 183 186 186 187 190 195 197 199 202 206 208 208 212 214 213 211 212 212 213 212 212 209 210 209 211 215 214 216 218 217 215 219 218 218 218 217 214 213 210 204 194 162 55 3 0 0 0 0 0 0 0 0 0 0 0 0 0 0 1 4 4 1 3 5 6 7 3 4 7 11 16 14 13 14 23 35 41 45 53 63 77 88 89 90 92 88 83 90 96 101 110 114 125 130 124 112 106 107 101 95 98 100 119 128 129 130 137 135 140 148 153 158 153 147 142 138 131 133 134 133 134 142 142 144 146 147 152 159 156 149 143 135 121 111 103 91 83 65 64 72 75 84 88 84 76 72 83 83 78 76 84 90 102 101 97 102 106 110 118 123 119 131 133 141 152 157 163 168 169 169 170 170 172 176 176 172 179 177 178 179 179 181 182 185 190 197 198 197 194 191 189 190 190 188 186 182 174 146 129 82 0 0 0 0 0 0 0 0 0 0 0 0 0 0 0 0 0 0 0 0 0 0 0 0 0 0 0 0 1 4 8 16 19 23 26 26 33 32 32 33 35 33 36 39 41 40 36 31 26 26 32 25 25 25 25 24 21 25 26 25 25 28 33 34 33 32 
103 188 224 214 216 214 212 211 210 207 208 200 195 193 189 189 185 182 180 177 171 167 162 160 160 158 149 131 114 105 93 85 79 69 60 57 57 50 41 45 89 146 170 172 179 180 180 167 155 161 176 184 186 184 183 186 184 186 191 195 197 200 203 206 210 209 212 213 211 212 215 214 213 212 211 208 207 209 213 216 215 217 220 219 217 219 219 218 216 214 213 213 209 203 188 124 30 0 0 0 0 2 1 0 0 0 0 0 2 3 0 0 1 3 5 4 5 7 7 5 5 2 4 8 14 11 12 16 21 26 32 45 53 55 62 83 87 88 89 87 85 91 97 99 104 113 119 125 125 116 109 92 85 93 106 108 114 120 127 133 135 133 141 150 156 155 153 149 146 143 139 136 135 133 130 131 137 141 143 145 151 148 150 149 138 134 129 111 97 98 84 66 68 76 75 85 87 80 74 72 67 78 75 68 73 80 88 86 85 94 96 97 103 112 118 129 133 141 148 152 156 161 165 166 165 167 171 174 172 168 178 178 175 174 178 181 181 184 191 199 197 196 194 190 186 189 181 182 185 175 163 115 50 3 0 0 0 0 0 0 0 0 0 0 0 0 0 0 0 0 0 0 0 0 0 0 0 0 0 0 0 0 0 2 8 15 17 20 23 24 31 29 32 35 30 36 34 32 31 28 33 31 28 27 28 26 21 21 24 23 23 26 25 26 30 31 33 34 31 31 
102 187 222 213 214 213 213 213 210 208 210 208 204 199 192 191 190 187 183 182 174 168 163 159 158 156 151 134 116 109 103 90 76 67 66 64 60 52 41 47 121 153 164 171 180 182 179 164 156 167 178 186 187 184 184 183 183 186 191 194 196 203 206 208 212 210 210 212 212 211 215 214 214 213 211 212 212 212 213 214 216 217 219 220 220 219 218 217 216 213 208 212 209 204 184 76 13 0 0 0 0 3 2 0 1 0 0 1 2 3 1 1 2 4 6 7 5 5 6 5 9 6 8 9 7 9 16 18 19 25 28 37 44 48 56 75 82 87 88 83 81 88 95 99 102 107 114 126 132 123 116 98 89 89 92 107 113 118 125 131 131 140 145 149 153 150 151 146 141 143 141 137 131 128 128 126 131 141 145 142 150 149 150 152 147 136 131 126 120 107 87 71 67 68 69 80 80 77 73 71 67 73 72 68 72 75 85 88 87 92 81 85 92 101 114 128 130 138 148 149 154 157 163 166 163 165 169 172 174 175 178 178 177 177 179 180 183 187 194 198 193 196 193 189 188 187 182 184 184 169 142 130 59 0 0 0 0 1 4 5 7 7 6 5 2 0 0 0 0 0 0 0 0 0 0 0 0 0 0 0 0 0 0 1 3 11 17 18 18 20 28 29 30 31 32 33 30 29 30 32 29 29 25 25 30 29 28 25 25 28 29 27 26 29 33 32 33 35 33 30 
103 186 223 217 216 213 213 213 212 212 210 211 208 203 196 192 195 192 187 182 177 173 169 165 158 157 155 144 129 119 115 101 86 74 70 69 61 54 51 65 139 160 167 174 175 176 167 160 161 170 179 186 185 181 181 179 182 186 189 192 195 202 206 209 211 212 213 214 214 213 215 213 213 212 210 213 213 213 215 216 217 219 219 219 220 220 217 217 218 216 212 213 210 200 163 38 4 0 0 0 0 0 0 0 0 0 0 0 0 1 0 3 5 5 5 3 4 6 6 4 12 9 10 12 8 6 9 12 14 17 21 33 43 47 52 61 71 78 78 74 76 86 98 105 105 101 115 124 130 134 121 102 91 87 87 100 112 120 124 127 134 146 148 148 153 155 153 151 148 144 144 142 134 129 132 131 136 137 136 141 148 150 150 149 147 144 128 129 129 108 87 79 67 59 65 63 62 69 74 66 66 65 64 66 72 68 72 82 87 87 87 91 96 105 114 122 128 139 148 147 152 157 163 164 160 166 168 172 175 174 179 176 178 179 175 176 185 192 195 195 194 197 195 191 192 189 184 182 178 160 96 83 36 0 4 22 27 32 36 35 38 38 39 40 37 29 23 17 11 6 0 0 0 0 0 0 0 0 0 0 0 0 0 0 0 6 10 11 13 20 24 27 29 30 29 27 27 29 32 34 27 28 25 24 27 28 31 30 29 29 27 27 27 29 32 31 33 34 36 35 
102 187 226 218 216 214 213 212 212 213 213 210 209 206 204 199 198 197 195 188 182 179 177 172 164 161 157 150 137 122 123 110 100 90 78 67 56 50 56 84 145 167 172 175 175 172 159 155 164 176 185 188 186 182 181 183 185 187 189 193 196 200 205 208 210 211 214 214 215 217 216 214 214 213 210 211 212 213 216 217 217 220 220 219 218 220 219 218 219 218 217 212 210 185 113 16 0 0 0 0 0 1 1 0 0 3 0 1 2 0 2 2 3 4 7 4 6 5 6 9 10 9 10 9 6 8 11 12 11 13 24 31 39 43 45 60 66 68 70 73 75 80 89 97 99 102 114 120 127 137 123 102 87 83 90 94 103 117 123 118 130 145 150 149 154 160 162 159 153 146 144 139 138 138 132 125 139 139 133 138 144 147 149 147 139 139 129 127 122 105 85 74 60 53 59 57 57 63 66 58 64 64 63 67 76 69 69 73 82 93 92 91 97 104 110 127 136 137 133 134 143 148 153 157 161 163 163 165 169 172 179 177 172 171 176 183 185 189 193 191 190 189 190 192 194 189 181 175 159 116 35 0 10 30 35 51 59 65 67 62 57 54 57 64 69 60 54 48 43 38 27 18 9 1 0 0 0 0 0 0 0 0 0 0 0 3 6 11 15 19 22 22 28 31 27 25 27 29 27 24 26 30 29 28 30 31 29 29 29 27 29 31 35 37 33 29 33 36 37 38 
104 188 225 218 218 216 216 213 212 213 214 212 211 210 208 207 200 196 194 193 186 182 179 175 169 162 156 147 139 130 119 111 102 89 75 63 60 52 63 107 150 166 169 171 174 172 158 157 168 181 186 190 186 182 185 186 187 189 191 190 194 200 205 209 211 211 213 214 215 216 216 214 214 213 209 211 212 213 215 217 215 219 219 218 220 220 216 216 218 218 219 212 211 164 56 7 0 0 0 0 0 0 0 0 0 7 3 2 2 0 4 3 1 3 9 5 8 6 5 8 7 9 9 8 7 9 17 16 12 14 18 21 29 40 48 56 61 67 67 63 70 71 79 89 95 104 116 121 124 128 125 109 95 90 93 92 98 109 117 117 126 138 142 145 157 165 163 160 159 157 151 141 137 135 129 129 141 144 140 139 147 144 144 141 134 134 134 130 118 100 86 72 61 54 54 59 53 56 59 53 52 58 65 72 74 68 74 82 87 90 95 95 94 99 109 115 127 131 132 139 145 145 149 156 161 162 164 164 166 170 180 179 176 177 182 188 182 185 192 192 193 189 189 193 191 186 180 161 111 37 5 9 32 50 48 58 62 63 62 59 55 56 57 59 66 61 55 53 53 55 53 52 44 31 19 6 0 0 0 0 0 0 0 0 0 0 2 6 11 18 20 25 25 25 29 23 24 26 25 24 29 29 30 31 28 31 33 33 31 30 31 35 36 36 34 30 39 43 41 41 
104 189 228 220 219 219 219 216 212 212 213 211 212 211 210 211 206 200 195 193 188 186 182 177 172 166 161 153 144 136 119 106 97 87 72 60 56 50 69 127 152 164 169 168 166 167 153 157 172 182 186 185 184 184 185 184 186 188 191 193 195 199 204 208 210 212 213 215 216 216 213 212 215 213 208 212 214 213 214 218 215 219 220 219 219 220 217 216 218 218 216 212 198 130 12 1 0 0 0 0 0 0 1 2 0 3 2 2 2 2 2 1 2 3 3 4 3 3 4 7 9 10 8 5 5 8 10 10 13 17 16 25 29 34 47 46 55 62 60 55 60 70 85 96 96 94 105 119 124 120 116 109 100 91 85 93 97 104 111 114 123 134 137 142 157 168 161 159 161 162 157 148 139 135 137 136 137 143 148 145 148 143 141 139 133 140 133 119 108 104 87 75 64 53 50 61 54 55 60 56 52 61 66 65 66 64 77 84 88 95 108 103 107 111 103 115 117 124 134 144 156 162 161 159 160 173 172 170 169 168 177 175 175 178 182 187 181 186 194 195 193 190 190 189 184 172 154 98 35 9 11 33 43 44 46 51 56 62 65 67 68 75 75 73 77 75 72 72 67 56 60 58 57 52 43 41 34 22 8 0 0 0 0 0 0 0 0 0 3 8 15 21 23 24 27 24 23 26 27 26 26 28 30 30 29 30 32 34 33 30 34 32 36 38 35 35 40 39 35 37 
106 189 229 222 219 218 218 217 215 213 213 213 214 214 214 214 211 206 202 198 190 189 185 179 173 170 162 151 143 141 121 102 91 82 68 61 53 52 79 134 155 164 169 168 160 158 149 156 171 182 186 181 183 185 183 181 184 186 188 191 199 201 201 203 207 211 213 215 216 217 213 214 214 211 210 213 214 213 214 218 218 219 219 218 218 218 220 219 218 218 215 212 165 81 0 0 0 0 0 0 0 0 0 0 1 4 3 5 4 1 4 3 4 3 2 2 1 5 9 6 7 8 6 4 4 5 7 7 10 15 9 15 25 32 36 44 55 64 64 56 63 69 78 86 93 94 102 107 115 127 118 110 97 85 85 95 90 98 110 111 113 127 137 144 151 158 164 163 158 157 149 148 141 137 141 134 130 138 149 148 146 138 139 140 134 142 131 115 100 89 78 73 59 49 56 55 55 58 60 56 60 59 57 58 61 65 84 87 87 101 115 104 97 98 102 117 119 129 143 148 153 160 166 167 165 175 174 173 176 179 179 179 180 181 181 188 185 189 192 190 193 191 187 183 176 144 82 27 1 5 24 35 42 43 42 53 59 71 85 92 92 98 101 101 99 94 103 101 89 80 78 71 64 58 54 56 50 48 45 35 24 11 1 0 0 0 0 0 0 0 7 15 15 17 25 26 26 27 30 29 28 30 31 32 35 31 31 33 34 35 38 36 36 37 35 40 39 37 36 37 
105 191 229 221 219 222 223 226 229 229 223 222 222 222 220 219 214 207 202 197 195 190 186 181 174 169 161 156 151 143 127 104 83 75 75 59 42 52 93 148 161 168 169 166 162 158 149 158 174 182 190 181 176 179 185 182 184 188 190 190 197 199 204 209 209 209 211 213 213 214 217 218 217 213 213 211 211 214 217 214 215 218 219 218 220 220 222 221 220 219 213 211 130 32 1 0 0 0 0 0 0 0 0 0 0 1 2 3 2 0 1 1 1 2 4 6 5 6 7 5 6 7 5 3 5 10 9 8 9 9 7 12 15 21 35 46 41 45 52 53 66 72 76 83 94 93 101 102 106 116 114 107 99 94 89 82 77 85 100 110 106 120 131 139 148 158 166 165 161 158 149 142 141 143 140 134 141 145 145 143 145 144 139 132 128 131 123 113 102 87 73 60 54 53 53 48 52 50 48 53 58 59 59 61 66 61 68 78 86 92 90 94 96 96 101 117 130 141 148 149 154 159 170 175 170 171 173 175 176 178 179 180 178 176 178 184 188 191 193 192 193 191 186 179 159 91 24 1 0 2 25 31 38 46 53 56 70 88 100 103 108 114 117 119 120 125 130 122 111 105 100 85 75 70 65 60 54 52 54 55 47 49 43 27 9 0 0 0 0 0 1 2 3 9 18 21 22 23 26 28 22 26 28 30 32 29 28 30 32 32 37 37 37 35 34 38 36 35 35 37 
109 194 236 231 230 232 236 236 237 240 235 236 233 229 229 223 214 210 205 196 192 191 188 182 173 168 158 149 138 122 110 106 88 69 64 49 32 57 109 149 157 163 163 162 162 155 150 161 177 183 185 176 172 177 181 182 187 189 189 194 198 203 209 211 209 211 213 213 212 214 215 215 216 217 215 213 211 214 218 218 219 220 221 222 222 222 220 220 221 217 210 187 87 2 0 0 0 3 4 0 0 0 0 0 0 4 1 2 3 1 2 3 4 4 4 3 7 6 4 4 6 13 9 3 7 9 10 11 11 9 10 12 16 23 36 48 52 53 52 49 61 66 70 79 92 92 97 104 107 107 113 107 97 91 86 83 82 87 92 90 98 114 130 142 145 145 153 158 158 154 141 144 144 141 137 125 127 140 146 133 130 133 139 145 141 123 125 111 95 89 72 57 48 46 48 39 42 43 46 51 46 51 56 58 58 65 68 73 79 81 81 90 101 109 115 125 132 138 145 153 154 161 166 169 174 175 177 176 177 182 183 177 177 182 185 185 186 191 195 192 193 185 174 146 90 19 1 0 0 0 2 8 29 50 57 60 75 88 96 106 128 137 148 156 152 164 172 163 144 128 118 107 98 89 80 82 69 64 65 64 60 58 60 58 52 51 39 21 7 0 0 0 1 2 6 16 21 19 17 22 27 26 30 33 27 33 32 34 37 39 36 39 39 38 40 34 38 40 39 42 
113 206 249 243 243 241 243 242 239 240 237 236 236 235 232 222 212 211 209 200 196 192 182 175 175 166 151 135 123 118 102 87 70 61 62 38 23 64 122 145 146 159 155 150 155 144 146 163 177 176 173 173 177 180 179 182 186 187 188 193 199 205 207 208 209 212 214 214 215 217 214 216 216 214 213 213 214 215 215 215 219 221 223 223 223 220 221 221 218 212 210 137 48 0 0 0 0 0 0 0 0 1 1 0 0 1 2 4 5 4 1 4 3 3 7 3 8 7 5 5 7 7 8 10 10 3 11 12 8 8 5 8 17 21 20 35 46 47 47 52 57 62 67 75 87 101 104 101 102 113 110 106 102 96 85 79 73 79 86 86 98 101 114 128 132 133 142 149 152 154 147 141 139 139 139 132 132 138 137 124 134 128 130 135 131 129 99 90 89 72 61 48 41 43 47 38 33 35 38 42 48 46 50 54 52 60 59 59 67 79 77 82 90 92 90 105 126 143 152 151 148 156 162 166 174 184 183 180 177 174 179 182 181 179 182 187 189 192 193 192 186 178 139 76 17 1 0 0 8 24 20 31 40 48 57 65 69 78 93 111 128 144 158 164 162 170 173 173 168 156 150 129 119 112 101 89 79 77 76 72 69 69 67 65 65 62 58 57 53 40 27 13 3 0 0 3 6 13 19 19 29 29 28 29 33 31 34 37 39 36 33 39 40 40 42 41 35 36 40 42 
115 209 252 244 244 245 244 244 244 245 244 244 240 235 232 224 214 211 207 197 194 188 179 171 168 161 146 125 110 104 88 75 64 54 47 32 29 75 125 133 143 147 148 147 148 145 152 162 171 176 170 171 173 174 175 181 180 182 185 189 197 203 206 208 211 212 213 214 216 219 217 216 214 215 217 214 214 217 219 218 220 222 224 224 223 222 220 219 217 209 194 67 2 0 0 0 0 1 1 0 0 0 0 0 0 0 0 0 1 4 2 0 0 0 0 2 4 7 6 2 0 1 4 8 10 5 5 5 6 7 10 7 8 12 15 29 43 42 41 52 59 55 63 74 80 85 94 103 114 124 113 112 103 94 89 85 78 78 84 92 91 93 102 110 113 136 142 146 146 141 146 145 140 131 122 129 136 128 122 131 128 130 129 130 130 107 86 74 69 65 59 50 40 34 33 26 30 31 30 32 44 42 40 45 54 53 54 55 57 65 65 76 80 81 85 96 104 124 143 150 148 152 155 161 176 185 190 189 184 178 172 177 180 181 187 192 190 191 191 181 162 143 84 21 0 0 0 16 49 78 62 49 43 44 49 56 65 80 100 123 138 148 165 180 186 189 193 193 182 163 160 160 151 137 129 114 96 86 82 81 84 81 74 68 67 67 65 63 61 64 65 59 48 33 15 6 2 3 8 15 20 27 29 29 31 35 33 34 36 35 36 41 41 39 39 39 36 39 40 34 
114 207 249 244 245 245 245 245 244 244 245 244 241 237 232 224 215 212 209 201 195 188 177 169 169 161 137 114 98 89 78 66 53 41 34 21 29 73 115 122 138 147 149 147 143 142 151 163 172 172 169 162 166 173 174 174 180 181 181 187 196 201 205 208 211 211 212 212 213 217 217 218 216 214 215 218 218 219 220 220 223 223 223 223 222 222 221 219 216 200 137 37 0 0 0 0 0 0 0 1 1 2 2 1 2 0 1 2 1 2 6 3 1 1 5 3 6 4 1 4 2 7 5 2 6 1 5 5 6 10 4 4 10 15 12 13 25 37 49 57 49 54 59 62 69 86 98 106 112 118 122 124 109 93 87 83 69 71 79 81 83 93 97 97 100 119 118 123 127 123 127 112 116 126 120 124 124 122 124 126 128 125 124 126 126 99 83 86 83 64 62 50 39 33 29 27 29 30 31 28 38 33 36 43 42 42 45 48 52 58 65 68 68 70 78 83 87 105 120 125 132 142 151 160 170 173 183 186 186 184 181 177 178 183 189 192 192 187 177 157 119 52 10 0 0 0 13 72 126 121 72 46 40 42 45 50 65 85 112 143 169 178 183 189 197 196 203 213 217 208 203 196 185 167 145 131 107 103 104 92 100 96 90 84 82 80 80 75 66 63 69 66 64 63 65 51 38 20 10 14 15 19 26 31 34 28 34 36 36 40 36 35 32 33 42 40 40 41 39 34 
113 202 244 239 239 240 242 243 243 243 244 242 241 239 232 223 215 210 203 195 192 185 178 169 158 141 113 96 88 76 62 57 45 31 23 14 18 52 87 103 124 133 133 130 130 129 140 156 165 167 165 159 161 167 171 171 179 180 179 187 196 203 209 210 207 211 212 212 213 216 212 214 215 215 217 215 215 217 221 221 222 221 220 220 221 221 223 218 209 181 57 7 0 2 0 0 0 0 0 0 0 2 1 0 0 0 1 2 2 3 3 6 5 2 5 3 4 4 3 2 4 6 5 6 9 5 7 8 7 7 9 4 9 11 5 13 19 28 37 44 52 57 60 62 67 82 92 101 110 118 128 122 104 89 83 74 71 68 65 68 79 90 94 95 102 119 112 105 109 118 97 93 97 102 103 116 118 121 127 129 115 108 108 109 104 96 95 82 67 65 61 46 44 45 31 23 27 34 35 33 27 30 31 31 37 41 45 45 47 57 61 54 53 61 70 68 78 88 100 119 130 133 144 159 168 168 175 177 177 179 182 182 185 186 184 179 169 159 137 92 33 3 0 0 3 22 81 132 139 99 60 45 39 38 46 50 76 100 129 166 176 182 185 185 184 195 205 214 219 217 226 228 225 223 215 178 146 134 128 116 115 116 114 108 102 92 100 94 84 89 85 75 75 74 66 66 55 53 54 46 28 21 23 23 21 28 30 31 34 38 39 36 34 35 37 39 37 38 38 35 
112 200 242 237 236 236 236 236 236 237 238 237 235 232 230 222 212 206 199 188 188 180 173 161 139 123 106 95 83 65 53 41 29 17 8 0 11 44 72 81 112 117 118 113 102 109 132 152 158 156 155 153 154 157 160 161 173 176 177 187 196 200 205 210 210 209 211 214 213 212 211 213 214 216 217 217 218 220 221 219 221 222 222 221 221 221 218 215 194 131 13 0 0 0 0 0 0 0 0 0 0 1 1 1 0 1 1 2 2 0 1 2 1 1 3 3 5 5 4 4 4 3 2 3 5 7 6 7 7 6 4 7 7 5 3 9 12 18 29 40 47 53 60 66 68 85 93 100 107 112 122 124 109 93 85 74 72 66 63 70 73 79 87 90 85 91 99 95 94 102 93 85 86 92 99 108 113 105 99 106 112 112 110 109 105 93 85 72 61 59 58 40 25 22 33 28 26 25 28 33 29 30 33 33 30 35 39 40 41 44 55 52 49 52 61 58 66 74 84 98 103 117 128 143 160 166 159 159 162 165 169 166 163 159 151 140 128 102 58 7 0 0 10 28 62 103 137 142 124 98 67 49 41 41 47 56 82 108 133 159 166 167 172 179 182 185 220 225 220 234 235 240 244 246 246 242 221 203 193 186 164 142 130 122 113 115 130 136 139 144 123 112 108 104 96 84 72 63 58 60 58 46 33 24 24 27 28 28 30 34 34 34 35 36 34 33 34 35 35 34 
109 197 239 233 233 231 229 227 227 228 225 227 227 223 220 214 211 205 197 191 188 178 165 147 125 105 88 75 66 56 34 26 18 7 1 0 6 32 56 62 84 90 94 90 80 82 103 128 142 143 136 144 150 152 154 160 165 170 177 185 189 195 201 207 206 208 211 212 211 210 209 211 212 212 212 214 216 219 220 219 221 220 220 221 221 219 213 207 155 43 2 0 0 0 0 0 0 0 0 0 0 0 0 0 0 0 0 1 1 0 4 1 0 2 4 1 1 3 4 4 2 2 2 3 4 2 3 4 3 3 2 7 8 5 5 9 10 13 21 28 32 46 51 52 61 83 91 99 110 121 120 118 111 99 83 75 76 73 70 73 67 66 75 83 82 85 86 83 83 90 89 88 84 86 99 105 108 105 103 105 107 105 101 101 102 85 89 73 57 57 30 30 23 14 18 23 18 18 24 30 31 35 32 28 31 34 33 32 32 35 43 51 56 56 52 47 53 61 71 78 82 87 97 114 132 139 142 135 125 120 118 123 119 120 132 130 118 87 58 50 58 84 122 160 183 172 159 129 107 112 104 78 53 45 54 68 84 101 119 134 138 144 156 169 177 179 220 230 223 231 236 244 247 244 241 247 245 235 226 224 225 210 195 184 176 164 175 182 188 194 177 173 179 186 182 147 112 103 105 96 71 62 56 48 40 30 24 23 25 28 32 31 31 31 32 32 35 38 38 32 
106 193 233 227 228 227 224 224 225 223 220 220 218 214 214 210 208 204 196 187 179 168 150 126 100 77 64 49 36 25 16 7 0 0 0 0 0 22 46 51 60 67 75 76 66 62 70 94 115 116 107 116 127 133 134 144 153 161 167 176 183 189 195 200 202 208 206 206 207 208 207 207 207 208 211 214 214 217 221 220 221 220 219 218 218 213 212 174 91 1 0 0 0 0 1 0 0 1 1 0 0 0 0 0 0 0 0 1 1 1 3 1 0 1 1 0 1 0 0 3 1 2 3 3 2 2 3 4 3 4 3 6 7 3 3 5 10 13 16 23 29 35 37 39 48 72 86 93 102 111 112 114 109 98 88 77 70 68 68 67 70 61 61 69 76 77 74 75 80 82 83 86 83 81 89 95 98 96 96 102 104 101 107 103 77 74 85 70 47 42 31 32 24 12 8 14 20 22 22 22 21 29 29 27 32 26 24 28 31 28 34 39 43 40 33 32 34 43 51 51 63 61 62 68 74 77 79 66 68 105 116 133 147 169 205 222 229 229 223 216 223 238 239 226 209 192 132 102 111 135 133 98 66 53 57 66 82 96 106 115 130 136 145 161 177 181 199 221 232 229 232 241 247 247 245 245 247 249 245 237 240 240 242 245 246 244 237 232 225 217 213 224 233 240 239 197 189 194 192 166 122 85 68 58 47 48 44 35 25 20 25 25 27 30 32 31 32 35 37 34 
107 193 230 223 224 225 223 222 221 219 219 216 213 211 210 206 205 199 189 178 165 148 124 105 97 91 86 81 80 84 84 85 87 87 87 87 95 107 120 134 144 148 157 159 145 141 133 141 152 150 145 145 149 147 139 142 148 150 151 157 165 175 184 190 193 200 199 199 201 202 200 202 204 206 210 213 215 217 218 216 218 216 215 214 212 206 196 110 20 0 0 0 0 0 0 0 0 1 1 0 0 0 0 0 0 1 0 0 0 0 0 0 0 0 0 1 2 1 1 2 2 1 0 1 2 1 3 1 2 6 2 4 6 5 6 3 3 7 12 14 23 35 36 37 48 57 67 82 96 103 109 109 109 103 88 73 67 66 64 59 55 57 58 61 66 67 68 73 75 70 80 79 83 84 78 84 86 91 96 95 100 95 106 105 76 87 56 39 27 8 19 21 12 4 8 15 14 17 21 19 19 25 31 31 31 27 29 29 26 23 28 24 28 34 31 23 28 29 29 36 35 32 30 26 16 11 8 14 64 155 187 233 254 253 250 247 247 244 241 239 236 235 227 213 200 195 139 98 95 117 108 91 70 55 56 64 84 98 109 121 130 140 150 163 178 181 194 209 224 234 233 242 248 249 246 243 247 248 247 246 236 236 238 241 243 247 246 245 242 239 240 245 247 247 245 229 239 244 237 215 152 124 109 96 80 57 53 49 40 30 27 23 22 24 27 27 29 28 28 31 
106 194 232 224 226 223 220 220 220 219 217 213 212 210 207 199 194 183 169 163 161 156 154 157 166 173 179 186 193 200 209 214 216 217 217 219 220 221 221 223 227 228 225 225 229 226 228 226 222 221 221 220 213 205 199 196 192 187 184 183 182 185 188 189 189 188 189 187 186 188 192 196 198 202 206 208 210 213 214 213 213 213 213 212 204 193 123 39 0 0 0 0 0 0 0 0 0 0 1 0 0 0 0 0 0 1 1 0 0 0 0 0 0 0 0 1 0 0 1 0 2 2 1 1 2 1 4 3 2 4 2 4 6 6 6 6 3 3 7 12 18 20 26 34 38 43 52 68 84 91 101 99 106 107 88 73 64 58 56 60 57 59 64 65 61 64 66 67 68 67 72 71 76 77 69 79 75 83 91 85 85 78 74 71 74 101 58 25 13 10 9 4 2 3 4 9 11 11 13 14 18 21 24 26 24 21 27 31 30 24 25 20 17 16 16 7 14 15 12 12 14 10 4 0 0 0 1 60 118 128 185 232 248 246 246 247 247 246 246 244 242 240 222 199 189 192 161 114 86 95 107 109 91 64 50 60 75 81 85 95 108 123 142 164 181 195 205 213 219 227 236 239 244 248 247 247 248 248 246 245 241 242 238 235 241 240 238 237 238 241 246 246 246 240 230 241 246 248 236 200 151 156 167 165 142 101 84 64 46 42 41 38 31 23 20 20 25 25 25 31 
105 194 232 224 226 222 220 219 218 217 217 213 209 205 201 194 191 190 188 188 193 201 211 217 217 220 219 219 218 217 215 215 214 214 215 216 214 213 214 214 215 217 218 219 221 218 220 221 218 216 218 219 220 221 221 222 223 224 224 220 216 214 211 210 212 207 203 199 193 188 185 186 186 189 194 197 201 205 207 208 207 206 204 198 180 132 40 1 0 0 0 0 0 0 0 0 0 0 1 0 0 0 0 0 0 0 0 0 0 0 0 0 0 0 0 0 0 0 0 0 0 1 0 0 1 1 1 1 2 5 0 2 3 3 2 12 6 3 3 2 11 12 19 27 28 34 40 54 70 82 90 96 102 99 82 68 54 54 55 51 56 59 62 60 53 61 67 64 61 66 68 74 72 68 70 72 69 77 83 79 77 70 62 58 56 49 26 8 1 4 0 1 1 0 1 7 12 9 8 17 19 13 14 17 16 20 22 22 21 17 20 18 14 11 10 4 3 3 3 1 3 0 0 0 0 0 2 83 133 89 198 233 243 245 238 236 231 230 232 233 237 238 229 215 205 194 144 118 106 89 88 97 99 81 49 60 77 79 75 77 93 110 127 141 154 174 197 211 213 213 229 233 238 241 241 244 246 248 248 247 241 241 239 238 241 238 241 243 240 240 246 248 248 242 233 243 247 247 226 175 126 119 162 185 142 118 138 117 78 62 51 45 40 36 32 25 23 19 20 26 
105 192 229 221 223 222 218 217 216 214 215 209 204 201 204 206 206 210 213 215 215 215 217 217 216 221 221 221 219 215 216 217 216 215 216 218 216 217 217 216 213 216 218 219 221 220 223 222 220 219 219 220 221 222 220 219 219 218 219 219 217 218 220 222 224 223 220 218 215 212 210 207 204 203 203 202 201 200 200 200 198 192 188 175 132 40 0 0 0 0 0 0 0 0 0 0 0 0 0 0 0 0 0 0 0 0 0 0 0 0 0 0 0 0 0 0 0 0 0 0 0 0 1 1 0 0 1 2 3 4 1 0 3 6 5 12 14 14 9 1 5 8 11 13 17 30 30 35 48 65 73 83 89 86 72 58 46 45 46 41 47 54 54 52 55 54 61 61 62 71 63 67 68 69 77 76 77 79 76 71 70 65 53 41 32 23 9 4 4 2 2 2 1 1 3 2 6 6 8 16 14 10 9 13 20 21 16 13 10 11 20 19 13 10 13 14 6 3 2 0 1 0 0 0 0 0 0 43 88 94 191 226 240 246 240 234 228 215 200 188 173 169 153 144 162 171 152 132 119 107 89 85 86 74 47 60 75 78 80 90 100 111 115 119 132 154 170 189 200 202 214 223 228 229 230 232 233 236 240 241 240 241 243 245 245 241 245 248 250 249 248 249 249 250 251 249 249 245 225 175 98 84 117 134 104 95 122 146 138 96 68 54 47 44 44 40 38 27 14 9 
104 190 228 222 224 220 218 215 212 209 207 206 207 209 211 214 215 214 214 217 217 218 218 218 217 221 221 220 219 218 220 220 219 217 217 219 218 219 218 218 218 218 220 221 220 222 223 222 220 221 221 221 221 221 222 222 221 220 220 220 218 221 222 221 222 221 221 221 222 221 222 221 219 218 218 214 215 214 211 210 214 211 208 201 185 157 146 141 142 144 145 142 140 137 133 124 117 104 87 73 65 54 39 21 3 0 0 0 0 0 0 0 0 0 0 0 0 0 0 0 0 0 0 0 0 0 1 2 2 6 3 1 1 4 10 4 12 15 13 11 7 6 4 2 8 16 22 30 37 42 49 59 65 61 52 48 32 30 33 32 36 40 39 41 48 53 49 53 59 60 58 64 64 65 75 72 78 78 69 61 62 48 33 23 15 8 3 1 2 1 1 0 2 4 1 0 2 2 7 19 18 8 6 12 19 14 15 13 11 14 17 13 9 9 10 5 4 7 6 1 1 0 0 0 0 0 0 7 34 100 194 238 247 230 201 200 220 232 232 221 194 129 64 30 40 54 95 103 95 101 103 105 92 63 38 62 80 80 79 89 92 110 116 116 125 146 130 146 180 197 195 209 216 217 220 220 222 222 224 227 232 232 228 226 227 229 234 237 241 246 243 243 244 247 250 250 250 244 230 203 145 108 109 106 76 82 92 107 109 90 74 65 61 56 49 46 46 41 32 23 
103 188 224 217 221 217 213 210 208 206 208 208 211 214 216 219 219 218 217 218 219 221 222 221 220 221 221 220 220 220 221 221 221 220 219 220 221 221 220 220 221 220 219 219 219 220 221 220 219 221 219 220 220 219 219 222 220 219 219 219 220 220 221 221 221 221 220 219 219 219 222 220 221 222 222 218 220 221 221 219 219 217 215 216 216 217 214 214 214 213 211 213 213 211 210 207 206 202 197 192 190 185 181 174 162 147 121 94 66 39 12 0 0 0 0 0 0 0 0 0 0 0 0 0 0 0 0 0 0 1 2 1 0 0 4 3 4 4 6 12 15 8 1 1 7 6 15 22 26 28 33 36 38 36 32 31 23 18 19 25 28 38 39 35 38 47 50 52 54 57 62 68 68 66 67 66 66 68 63 47 45 25 19 17 6 3 1 1 1 0 2 4 4 2 0 0 0 3 6 8 6 7 8 10 12 4 13 13 10 9 9 13 13 9 3 3 5 6 6 4 1 0 0 0 0 0 0 0 2 19 45 75 66 42 34 35 41 75 115 128 136 94 55 25 0 0 39 55 49 43 57 85 86 59 31 54 69 89 103 104 104 110 110 115 130 149 135 136 152 168 178 185 189 189 192 201 202 203 204 206 210 215 212 205 201 194 199 208 216 224 229 233 234 237 243 246 249 241 232 229 199 137 118 109 75 81 76 74 68 61 66 70 65 58 57 51 52 50 46 45 
101 185 221 215 215 213 210 203 203 212 214 213 216 221 221 222 223 222 221 224 224 224 223 222 222 224 224 223 223 223 223 224 224 224 224 221 222 223 221 220 222 221 221 220 219 220 222 222 220 222 219 219 220 220 220 221 221 222 222 221 222 222 221 222 225 220 221 221 219 218 221 219 220 222 221 221 221 221 220 220 219 218 218 218 214 217 214 212 213 212 216 214 212 214 218 214 213 215 215 215 219 217 218 220 217 211 208 201 193 188 176 155 124 85 47 5 0 0 0 0 0 0 0 0 0 0 0 0 0 0 1 1 2 2 1 2 0 0 1 3 7 3 2 4 6 1 8 10 10 17 26 28 25 23 24 22 19 13 14 24 25 29 36 38 34 40 47 56 58 52 64 66 63 63 65 60 62 59 51 45 32 22 14 9 2 0 0 0 0 0 0 1 2 2 0 0 0 1 2 1 0 2 6 8 8 9 13 11 8 8 8 8 6 2 1 2 1 3 4 1 2 1 0 1 2 0 0 0 0 0 0 0 0 0 0 0 0 0 7 10 14 11 13 13 4 0 4 8 14 23 14 13 18 25 29 51 55 66 83 93 104 118 113 106 118 124 122 125 143 170 158 172 187 193 189 186 191 198 201 198 200 205 210 212 207 200 196 187 187 206 212 220 224 228 229 229 233 227 226 236 216 163 124 96 74 91 75 60 54 58 55 58 63 65 65 56 51 53 53 51 
98 180 217 210 206 199 194 195 201 211 218 220 223 223 223 222 224 226 227 226 226 227 226 225 224 224 225 225 224 223 223 224 224 223 222 222 223 222 221 221 220 220 221 222 222 221 221 220 220 222 221 222 223 223 221 222 222 223 223 223 222 224 224 223 223 221 220 220 221 221 219 219 220 221 219 219 220 219 218 220 219 221 220 218 217 220 218 217 219 218 218 220 220 218 217 215 217 219 219 217 219 220 220 219 218 217 218 219 219 219 216 214 209 203 193 180 148 103 57 20 3 0 0 0 0 0 0 0 0 0 0 0 0 0 0 1 0 0 1 3 3 1 0 2 3 0 1 2 1 2 7 8 12 16 17 16 12 5 2 10 10 14 22 29 30 32 41 54 62 59 58 59 59 61 62 48 47 45 36 25 27 15 7 3 0 0 0 0 0 1 2 1 0 0 0 0 0 0 0 0 0 0 4 5 1 1 7 6 1 2 3 1 0 1 0 0 1 1 0 0 2 1 0 0 0 0 0 0 0 0 0 0 0 0 0 0 0 0 0 0 0 0 0 0 1 0 0 2 6 13 28 9 2 15 41 59 60 63 66 67 68 76 77 76 81 79 77 77 85 104 116 132 150 168 178 186 190 196 202 203 200 201 202 204 208 207 201 200 206 215 217 220 224 224 215 214 215 216 218 224 210 157 121 106 99 88 64 51 47 47 46 49 49 49 51 55 56 58 58 57 
92 173 206 197 195 187 183 194 210 219 219 220 222 222 221 225 224 224 225 226 224 226 226 225 226 226 224 226 226 224 223 224 225 225 223 220 222 221 220 221 220 220 221 222 221 221 223 223 221 222 222 225 224 222 223 225 223 224 225 224 224 224 224 224 224 221 221 221 220 218 221 221 221 220 219 220 221 222 222 222 222 221 220 220 220 220 220 221 221 219 218 219 219 220 221 215 218 221 221 220 220 218 219 219 217 218 219 219 219 219 215 217 217 215 213 214 211 206 200 187 161 124 96 70 36 15 7 3 0 0 0 0 1 1 0 0 1 1 0 0 0 0 0 2 3 0 0 0 0 1 2 8 10 12 15 9 4 2 2 3 4 7 10 16 25 34 36 41 45 46 57 62 60 54 51 48 45 36 26 19 12 2 4 8 6 5 4 1 0 1 1 0 1 2 0 3 1 0 0 0 2 3 3 2 0 1 3 2 1 1 0 0 0 0 0 2 1 0 0 0 0 0 0 0 0 0 0 0 0 0 0 0 0 0 0 0 0 0 0 0 0 0 0 0 1 1 7 21 37 44 43 50 53 53 55 53 54 54 54 55 49 49 52 56 57 57 54 50 48 49 49 49 51 54 54 57 61 61 71 99 112 118 120 121 125 134 144 157 165 170 185 197 203 206 205 199 206 211 211 207 191 152 130 123 111 89 67 53 49 51 46 46 44 44 47 46 53 58 57 54 
95 170 202 194 191 176 177 198 217 217 219 221 223 223 221 225 225 226 226 226 226 229 228 225 225 228 227 226 224 222 226 225 223 222 223 220 221 222 222 220 220 221 222 223 223 224 221 220 221 222 222 223 222 222 224 225 223 224 225 223 224 223 222 222 223 221 223 222 221 222 223 221 221 223 222 221 222 223 223 222 222 223 223 222 221 221 221 222 223 221 222 223 222 221 222 218 221 222 221 220 223 222 220 220 220 219 221 220 218 220 220 220 219 216 215 218 218 216 213 212 211 208 203 201 199 187 158 120 76 36 14 4 1 0 0 0 0 1 1 0 2 1 4 5 0 0 0 0 0 0 0 1 2 2 2 7 5 3 2 1 0 2 10 14 10 18 28 32 37 48 51 58 58 53 45 41 34 30 20 5 0 0 2 4 5 9 8 7 4 0 0 2 5 4 0 1 0 0 0 1 1 4 2 0 0 0 0 0 0 0 0 0 0 0 0 0 0 0 0 0 0 0 0 0 0 0 0 0 0 0 0 0 0 0 0 0 0 0 0 2 3 9 26 46 55 62 69 65 59 59 56 58 57 55 57 53 52 55 57 56 58 56 55 56 58 64 61 55 51 51 46 40 44 49 47 43 46 45 43 41 41 42 39 37 41 41 39 38 39 44 48 56 64 72 82 93 105 107 105 109 118 117 109 104 103 87 65 50 45 45 43 44 44 45 49 48 44 44 49 56 
87 159 192 183 171 145 159 194 219 219 221 222 223 223 224 226 226 226 227 228 227 229 229 227 228 230 228 227 227 227 228 225 224 223 222 222 222 221 222 223 221 222 222 222 221 224 221 221 223 226 222 224 222 220 221 224 223 224 224 223 224 224 221 221 224 223 224 222 222 224 224 221 221 222 222 222 221 221 222 222 220 221 220 220 222 222 222 222 222 222 223 223 222 223 224 221 221 222 223 221 220 222 224 224 223 224 224 223 222 222 219 222 221 218 218 219 220 217 215 217 217 216 213 212 211 208 208 210 210 202 169 116 64 28 13 3 0 0 0 0 0 1 1 0 0 0 3 3 1 1 1 0 0 0 1 1 4 3 0 0 0 2 5 8 10 13 31 37 38 45 47 45 43 40 30 19 15 10 7 7 5 4 4 3 1 6 5 10 11 3 1 0 0 0 1 1 2 2 1 1 1 2 2 1 0 0 0 0 0 1 0 0 0 0 0 0 0 0 0 0 0 0 0 0 0 0 0 0 0 0 0 0 0 0 0 1 2 5 17 41 70 89 83 67 58 56 57 57 56 55 48 53 54 52 56 51 53 56 56 51 55 53 55 56 56 59 59 57 56 57 48 53 51 48 52 52 47 46 45 41 41 41 39 40 42 41 44 40 37 41 45 47 49 48 48 45 44 46 47 45 47 46 47 49 52 56 55 48 42 43 43 46 46 44 40 41 39 43 46 45 
78 136 159 143 127 102 142 195 225 222 220 223 223 223 227 228 228 229 228 228 228 227 227 228 231 229 228 228 227 225 227 226 224 224 223 223 222 221 222 225 222 222 222 222 221 224 222 222 223 224 224 224 224 225 226 225 224 224 225 225 221 223 225 225 223 225 225 224 222 224 223 221 222 223 221 223 223 223 223 222 221 222 222 220 222 224 223 222 222 222 225 224 222 221 221 222 224 224 223 222 222 222 223 223 222 224 223 222 223 223 222 224 223 221 221 221 220 219 219 219 222 220 218 219 219 216 216 214 213 214 213 216 214 190 135 87 44 20 8 0 0 0 0 0 1 4 2 3 3 0 1 0 0 0 0 2 2 2 1 2 4 5 10 11 7 12 27 31 30 33 29 29 26 18 11 12 9 7 9 15 7 10 8 5 4 5 4 4 7 9 3 1 0 1 5 1 1 1 2 4 5 5 2 0 2 2 1 3 3 0 0 0 0 0 0 0 0 0 0 0 0 0 0 0 0 0 0 0 0 0 0 0 2 4 6 15 26 46 63 69 67 57 50 51 56 52 52 51 49 48 44 50 48 46 51 47 48 47 45 44 51 47 48 52 55 53 51 49 49 52 57 61 56 49 49 55 56 53 48 47 47 48 45 41 42 44 47 45 42 45 50 44 47 50 45 43 48 47 45 48 50 52 53 51 48 49 55 60 59 61 77 86 81 68 56 49 45 41 40 43 
53 98 106 85 73 66 146 205 225 225 223 224 225 225 227 229 230 231 229 228 232 230 230 230 231 227 227 228 227 227 227 226 226 225 225 226 225 223 224 225 223 224 224 223 223 225 225 224 225 226 226 225 225 225 227 226 225 226 226 225 225 225 224 224 225 227 225 224 225 227 226 225 225 224 222 224 222 223 225 224 225 225 223 223 225 224 222 222 223 224 222 224 223 223 222 221 222 222 222 225 223 224 225 225 224 224 223 225 226 225 224 224 223 222 221 222 222 222 222 222 226 222 220 220 221 220 219 220 219 217 216 217 219 219 217 220 198 156 107 64 36 16 4 0 0 1 3 3 3 3 1 3 2 0 0 0 0 1 1 2 7 10 14 16 18 21 25 24 22 23 18 21 19 15 17 22 19 19 21 21 18 17 17 15 9 13 9 9 10 7 6 4 2 1 1 0 0 1 2 2 0 0 0 0 0 1 0 1 2 0 0 0 0 0 0 0 0 0 0 0 0 0 0 0 0 0 0 0 0 0 3 8 19 31 38 34 43 48 50 50 50 46 49 52 50 51 50 46 44 47 47 49 47 42 42 40 45 49 48 44 46 45 44 44 45 48 46 45 47 50 53 56 57 54 52 51 52 53 55 59 58 53 52 52 50 49 52 54 54 54 56 50 48 51 51 46 46 48 49 51 53 53 56 58 57 60 67 75 85 105 144 169 166 147 127 109 87 67 55 53 
33 56 63 49 36 50 154 213 223 226 224 226 227 228 229 231 230 230 232 233 233 232 231 232 234 232 231 230 230 232 229 228 227 227 227 227 224 224 225 226 224 224 225 225 225 230 226 225 226 224 224 225 226 227 228 226 226 226 225 224 225 223 224 224 224 225 223 223 224 224 223 224 225 224 223 223 222 224 225 222 226 226 225 224 226 224 222 223 223 221 223 225 224 222 222 222 224 226 225 225 226 226 228 229 227 228 225 225 226 225 225 226 225 224 225 223 225 225 224 223 224 223 222 223 224 223 222 222 220 220 222 221 222 221 220 220 218 219 219 208 178 134 91 52 20 4 3 3 4 6 1 3 4 5 6 4 3 3 4 5 20 17 13 12 17 19 30 31 31 35 35 35 34 35 36 34 35 35 31 29 36 39 40 40 40 45 47 46 43 40 32 28 25 22 19 15 14 14 11 8 8 4 3 2 0 0 0 0 0 0 0 0 0 0 1 0 0 0 0 0 0 0 0 0 0 0 0 1 7 13 23 29 36 41 42 39 40 44 46 46 49 45 48 52 48 47 47 44 44 49 46 49 48 43 41 36 42 47 46 44 45 46 46 44 43 47 45 43 43 47 46 48 48 47 46 46 49 49 48 51 50 48 50 53 57 56 57 60 61 56 51 50 49 50 53 47 48 48 51 52 47 53 55 55 58 63 75 89 110 135 146 164 168 164 159 142 144 142 127 109 
19 39 43 29 27 100 171 209 222 227 225 227 228 229 232 231 231 231 233 233 234 234 235 235 234 233 235 234 232 233 231 229 227 227 226 228 226 226 227 227 223 224 225 225 225 226 225 226 225 222 224 225 224 225 227 227 227 226 225 226 226 225 224 222 222 227 225 224 224 225 225 223 223 225 223 223 223 224 225 224 227 227 226 225 226 223 224 224 223 221 221 220 222 222 221 223 225 226 226 229 229 230 231 232 232 231 228 229 229 227 225 227 227 227 227 227 229 227 226 227 228 225 224 225 225 225 226 225 224 225 225 225 225 225 223 224 222 221 221 220 220 225 218 189 133 67 25 11 11 11 10 13 17 22 26 20 18 19 23 26 34 27 26 32 35 32 39 39 38 43 48 47 48 49 49 52 47 47 49 52 55 61 63 63 61 68 73 68 63 66 65 71 67 60 61 63 56 52 49 45 42 34 30 27 25 18 22 20 14 12 11 5 1 0 0 0 0 1 1 1 0 0 3 6 4 7 6 14 25 31 32 31 34 38 40 36 39 46 48 45 51 51 51 51 48 43 42 45 45 41 43 45 46 46 42 37 41 44 42 37 43 43 46 46 40 32 35 39 42 42 42 39 39 39 39 43 40 43 47 46 47 43 42 45 50 48 51 53 53 51 50 49 50 50 43 53 55 54 54 55 52 59 61 61 63 69 84 100 141 207 208 190 191 189 166 145 154 170 175 167 
12 23 25 31 74 189 193 196 212 224 226 227 227 229 233 231 230 231 231 231 233 233 232 233 233 233 234 231 230 232 232 230 229 228 227 230 228 228 227 226 225 225 226 226 225 226 226 227 226 224 225 225 227 226 225 227 228 227 226 227 229 228 226 223 222 226 226 225 225 226 224 226 225 224 224 224 224 224 224 224 231 229 227 226 227 226 226 226 225 224 223 223 224 224 224 228 228 228 230 233 233 234 235 235 234 232 232 234 234 233 233 234 235 235 235 232 233 231 230 233 234 231 230 229 228 226 226 226 226 226 224 226 227 225 223 224 223 225 225 223 223 223 222 221 214 177 81 25 14 21 21 26 27 30 40 35 33 36 41 42 42 44 46 44 39 41 38 38 42 45 48 53 54 51 49 53 48 46 48 51 51 53 62 63 53 60 63 62 59 56 63 61 60 60 60 67 60 58 62 61 59 60 62 63 60 55 57 57 50 43 42 36 32 30 27 25 28 31 31 27 27 28 34 42 47 57 58 62 63 59 53 38 33 33 33 41 42 46 49 50 49 51 53 51 45 48 47 48 48 44 38 43 45 43 40 39 44 42 37 37 43 44 48 50 41 10 21 31 34 39 38 35 36 37 37 39 39 41 42 42 46 39 39 46 48 43 45 45 45 46 44 45 45 45 44 54 53 53 55 59 60 65 70 73 72 83 96 126 166 200 211 206 216 225 213 199 183 185 184 165 
5 8 10 53 150 208 195 186 197 215 223 226 226 226 229 230 231 230 229 231 230 230 232 232 232 233 232 230 229 232 231 231 230 228 226 229 228 227 225 224 226 226 225 225 227 227 227 226 224 224 226 225 227 226 225 227 228 226 224 228 230 227 225 224 223 227 225 224 224 225 222 223 225 225 223 221 224 225 226 225 232 232 230 229 227 228 232 232 229 228 227 230 231 231 233 234 236 238 239 238 238 239 241 243 242 240 242 242 242 241 244 244 243 243 243 241 239 237 234 234 240 238 235 234 236 234 231 229 229 230 224 225 225 225 228 224 223 224 226 227 228 229 229 229 224 215 123 50 23 29 30 34 34 37 46 45 43 46 51 54 57 52 43 37 35 39 38 43 50 48 48 49 49 49 49 50 49 47 48 52 48 48 56 59 51 57 58 60 60 55 60 59 59 59 60 63 57 55 58 60 57 57 58 57 57 59 56 59 59 54 57 60 59 56 57 53 53 55 56 51 56 59 64 77 97 103 112 116 122 134 136 116 88 64 47 41 44 50 53 52 54 51 50 51 53 56 50 49 49 47 46 45 42 41 41 39 40 39 37 41 45 46 44 43 41 26 27 30 32 34 35 35 37 38 38 42 42 42 42 42 43 41 41 46 50 47 46 46 47 49 46 46 47 48 47 50 52 56 60 59 66 75 78 79 86 100 114 137 157 168 187 186 178 192 233 235 196 175 177 180 
4 5 40 107 179 208 200 184 186 205 220 224 224 225 227 228 230 229 227 229 230 229 231 231 229 232 232 231 229 231 229 229 229 229 227 227 226 225 225 225 224 225 225 226 228 227 226 226 225 225 226 226 227 226 224 224 226 226 226 227 229 228 226 224 222 224 223 222 223 223 222 223 224 224 223 221 227 227 227 227 232 232 231 228 227 226 232 236 236 236 239 239 241 241 243 243 244 246 248 247 246 245 244 243 240 237 234 231 230 231 233 238 240 241 243 245 245 245 243 239 240 239 238 238 238 242 239 237 237 237 230 230 228 227 232 231 230 231 233 235 239 240 242 241 237 225 160 81 34 34 34 35 32 32 38 39 39 41 45 53 56 43 33 34 39 39 41 45 48 49 46 46 50 50 45 50 50 51 52 52 52 52 51 51 52 59 57 56 56 58 59 57 60 62 58 62 59 54 53 58 57 58 59 57 53 58 53 53 51 45 53 53 47 44 48 44 43 45 48 52 50 58 69 82 96 114 129 127 130 154 181 181 162 138 113 82 57 44 43 48 54 55 54 55 60 52 50 50 50 50 51 48 43 41 44 42 39 39 42 43 44 46 44 42 44 42 84 90 62 34 39 39 40 42 42 40 41 45 46 44 42 43 44 44 50 50 52 53 54 55 46 44 46 48 50 51 52 56 60 62 69 74 80 89 106 130 152 180 201 209 214 163 105 121 223 227 203 187 184 184 
24 73 128 166 187 201 157 145 165 191 217 222 222 224 227 225 226 227 226 228 233 228 229 230 229 231 230 228 228 227 227 227 227 228 228 226 225 226 226 224 223 224 224 225 224 224 224 223 224 225 225 225 224 224 223 224 225 227 227 227 227 231 230 225 221 221 222 222 222 222 222 223 223 225 230 230 232 230 228 227 231 231 233 233 232 230 234 238 239 240 245 246 248 248 248 247 241 236 231 222 214 211 206 202 203 204 204 204 205 205 210 212 214 215 214 217 217 218 220 219 220 225 232 235 235 240 240 239 239 242 240 240 237 235 237 240 242 244 243 242 242 237 230 222 215 208 141 72 36 37 31 24 19 17 15 13 9 8 11 14 15 24 35 41 41 38 41 43 44 45 41 45 48 48 49 57 57 58 58 52 49 48 53 56 53 54 58 58 58 64 62 59 59 59 57 59 59 54 51 56 53 54 55 54 52 53 47 46 47 49 47 48 47 45 47 45 48 49 51 56 58 67 78 90 106 133 134 127 130 150 167 185 198 193 170 152 119 75 41 34 43 48 55 58 53 47 48 47 48 49 47 47 49 50 49 50 44 45 50 49 46 53 55 52 51 33 119 179 153 62 47 41 44 46 43 41 45 46 47 47 49 51 53 53 52 54 57 57 55 56 51 55 55 54 56 58 57 57 60 64 67 70 91 136 182 143 159 200 233 242 238 158 125 148 189 224 218 219 218 206 
72 138 170 173 189 196 159 149 161 175 217 222 222 224 228 225 226 226 227 228 229 227 228 229 228 230 226 225 225 224 226 226 226 225 226 225 224 224 225 222 222 223 223 223 224 222 223 223 223 225 225 224 223 223 224 224 227 228 227 227 228 231 229 225 223 223 221 222 223 224 223 223 226 230 234 237 234 230 227 225 229 230 232 234 236 235 234 235 238 242 242 235 227 219 207 203 200 196 193 192 194 195 194 195 199 205 204 205 208 209 211 213 214 214 213 213 213 213 213 215 212 211 213 217 218 221 223 226 230 232 232 232 231 229 228 226 226 224 219 216 213 207 204 203 199 202 183 168 164 165 162 152 145 134 114 87 57 22 0 0 0 6 23 36 37 37 38 37 39 46 48 52 56 57 55 58 61 62 61 59 53 50 53 56 56 60 57 56 56 58 62 60 61 61 59 55 58 58 59 60 53 55 56 54 48 46 45 48 50 47 45 44 45 47 47 48 53 54 55 65 66 79 94 105 118 136 134 135 154 190 198 202 211 218 213 181 164 139 92 36 34 37 39 41 47 47 49 46 43 45 45 51 51 49 52 52 49 49 50 51 54 56 55 49 42 65 94 153 194 164 74 53 51 50 49 50 48 46 47 52 58 54 55 57 53 63 59 54 54 58 53 57 57 58 61 55 56 61 64 66 77 84 96 133 185 167 136 180 240 244 237 190 192 208 191 208 219 225 227 226 
82 137 150 150 184 185 168 155 160 182 217 220 221 224 225 225 228 228 226 226 225 226 227 227 227 230 228 226 225 225 226 225 225 226 226 222 220 221 223 221 222 222 220 220 223 224 223 222 223 225 218 220 223 225 224 225 226 226 226 228 227 230 229 227 226 221 221 223 225 224 222 222 226 231 235 239 238 234 229 224 227 227 228 230 233 233 234 231 224 212 205 201 198 195 193 195 195 195 196 198 204 207 207 210 212 211 212 212 213 216 219 221 220 221 223 223 224 224 223 224 222 220 219 220 220 217 210 208 207 204 201 201 201 201 204 201 202 204 204 204 204 204 207 209 208 211 214 217 220 223 223 218 219 217 211 204 197 185 158 116 71 31 14 17 25 32 34 34 37 42 43 53 58 59 64 59 61 64 66 63 61 56 55 55 56 58 59 58 57 60 62 58 61 65 61 57 54 56 58 55 52 52 53 52 47 48 49 45 43 46 52 47 47 51 53 57 57 61 66 70 71 81 92 106 120 131 152 165 176 193 210 229 224 216 221 187 178 175 149 92 40 34 37 37 38 35 39 40 43 50 43 47 46 42 40 47 47 46 47 49 52 57 47 51 86 85 102 137 179 195 117 62 47 49 48 47 48 46 48 53 56 53 54 57 54 57 55 56 57 54 58 57 58 61 62 57 59 63 72 84 89 94 96 114 157 188 181 173 193 237 217 189 203 225 219 203 216 227 231 230 
72 131 133 119 159 190 185 174 177 197 220 220 220 223 224 226 227 225 223 226 226 226 227 227 226 231 228 227 227 225 223 226 226 224 226 223 220 222 224 222 222 222 222 222 223 222 224 223 222 222 223 221 223 225 224 228 228 225 223 226 227 227 227 226 223 223 221 222 224 224 224 224 224 226 229 232 235 231 226 225 225 224 223 223 224 221 208 195 188 188 189 191 196 199 201 205 205 208 209 207 212 213 213 214 213 214 217 217 217 220 222 221 222 224 225 225 226 225 224 224 225 225 226 226 225 226 221 220 217 211 214 215 213 210 211 210 211 214 216 217 219 220 220 221 220 222 221 221 221 222 223 223 223 225 227 228 228 227 224 216 210 193 155 112 79 47 29 30 38 37 37 44 50 54 61 67 67 67 70 71 69 67 66 64 62 56 56 57 59 61 77 71 66 65 61 58 59 62 62 58 51 52 50 47 47 49 47 46 47 49 49 51 55 59 59 64 72 77 77 79 82 95 110 124 140 164 181 184 163 117 64 118 175 203 198 170 162 171 165 126 75 43 33 36 38 38 39 39 42 50 44 41 41 42 42 43 45 45 43 44 57 49 59 82 102 124 160 173 179 176 77 49 48 51 52 58 53 51 52 50 52 48 47 51 54 56 57 57 59 60 59 54 56 60 57 56 65 74 80 84 95 104 117 132 152 195 227 221 202 195 141 185 223 234 232 220 226 228 226 227 
68 133 143 121 137 190 201 193 188 202 220 222 222 222 222 226 227 226 227 231 226 224 224 225 227 230 228 226 225 226 227 228 226 224 226 226 224 225 224 222 224 224 223 223 224 222 221 221 223 224 223 224 226 226 224 225 224 223 224 223 226 228 227 225 224 221 221 224 225 224 220 220 220 220 219 220 222 222 220 216 220 219 217 211 201 196 189 185 188 193 196 200 203 206 206 209 211 213 214 213 217 215 214 214 215 215 216 217 219 223 224 224 224 224 223 224 225 225 227 229 228 231 232 231 230 231 230 230 228 226 225 224 223 221 221 221 223 225 225 226 226 227 227 226 225 226 227 227 226 226 223 224 224 226 227 227 227 228 228 228 232 229 222 215 207 191 158 108 62 38 35 42 44 42 43 47 49 54 61 65 68 69 70 72 73 69 75 71 65 67 64 63 64 65 64 63 60 57 57 61 59 50 50 53 53 51 55 55 55 53 52 54 57 65 75 82 84 85 89 94 99 115 136 155 174 192 204 209 198 167 125 140 163 181 194 195 180 184 181 147 109 51 29 35 43 42 41 38 39 44 42 41 42 43 44 45 42 42 45 51 58 31 46 80 105 174 176 183 161 86 52 50 52 50 50 53 51 48 45 44 47 42 44 49 49 49 53 54 55 58 60 58 58 58 56 59 78 84 81 83 92 111 133 155 172 193 230 247 239 219 182 201 225 236 234 228 234 234 228 223 
51 120 146 126 112 162 192 195 191 200 216 220 222 221 219 224 225 223 222 225 221 224 225 225 225 228 227 226 225 224 225 227 226 225 226 225 223 225 225 222 224 225 224 223 223 223 224 223 223 226 223 227 228 226 224 225 223 224 225 224 224 226 225 224 223 221 221 221 220 219 218 217 217 216 214 213 218 217 212 211 212 212 207 200 196 196 192 195 201 204 200 204 206 207 209 208 208 211 212 213 214 214 216 217 217 213 218 220 219 221 223 221 222 224 223 225 224 224 225 228 226 231 232 231 233 232 231 229 227 226 227 227 227 227 226 230 229 228 228 230 231 229 229 229 226 225 227 228 227 226 226 228 227 226 227 230 228 229 229 227 227 228 228 228 227 225 221 214 194 150 73 48 38 38 46 46 50 53 55 58 58 64 66 70 77 77 78 73 68 67 58 67 69 66 66 61 66 66 62 59 62 58 59 58 53 53 56 56 57 61 59 64 67 72 78 92 96 97 102 110 117 138 154 170 191 205 218 229 227 206 188 209 208 198 206 217 215 212 200 167 122 75 44 34 39 34 38 37 38 45 44 44 43 42 43 48 40 53 58 35 45 29 43 103 180 193 180 136 81 44 48 46 49 51 46 41 42 45 44 39 39 42 46 49 49 48 51 52 53 57 59 58 58 58 60 69 78 79 79 83 87 107 127 147 169 175 210 241 236 199 210 218 225 228 228 231 233 228 219 210 
