P2
# Output
640 480
255
42
82
118
126
94
78
80
80
72
60
64
64
60
64
74
74
82
84
68
64
68
62
62
60
62
64
68
74
76
76
70
64
60
62
66
74
80
72
72
76
72
68
88
76
66
68
72
70
68
64
60
66
72
70
76
76
68
64
60
74
74
72
74
60
64
76
76
70
66
72
74
82
90
72
60
72
68
64
64
70
72
70
64
50
50
50
56
64
56
48
56
68
70
64
66
64
60
64
62
56
68
94
126
150
172
176
176
178
174
178
176
176
180
178
178
186
176
198
254
255
255
255
204
110
48
16
20
42
36
26
36
34
26
22
20
20
22
26
32
30
64
114
166
198
202
182
152
120
140
140
132
132
158
168
174
176
168
166
162
160
164
168
176
172
166
168
168
168
168
166
170
170
172
168
170
172
172
168
168
172
174
180
170
180
176
172
172
174
172
174
170
170
178
178
176
182
176
168
168
168
168
172
176
176
174
174
172
172
170
168
168
168
168
164
168
172
172
172
168
168
162
154
156
162
160
164
160
164
162
162
168
170
160
140
118
148
158
160
162
168
158
154
160
160
160
156
160
168
164
164
174
182
190
198
206
208
210
200
178
152
132
120
114
110
118
116
116
122
118
142
160
170
172
176
176
176
182
188
190
194
190
192
196
194
188
180
172
168
168
176
174
168
164
154
148
152
152
142
134
130
130
136
136
128
122
110
100
106
118
138
136
114
106
100
88
94
88
84
82
84
84
90
96
130
176
208
228
228
208
194
174
168
174
172
172
168
168
168
168
172
172
168
164
164
168
174
176
176
168
176
176
172
176
168
172
174
172
174
166
172
174
166
178
178
168
164
168
176
172
164
166
170
172
168
174
176
170
174
172
174
172
172
172
176
176
176
176
180
176
176
176
174
176
176
180
184
210
206
255
255
255
178
58
74
70
102
154
184
190
194
202
206
194
172
176
176
168
192
196
192
186
182
186
184
182
172
172
184
184
192
226
255
255
208
126
74
72
76
66
84
76
54
74
72
92
84
60
74
76
66
72
72
64
60
60
52
52
56
52
50
52
54
68
88
114
128
114
90
114
130
144
154
140
124
100
72
60
54
48
62
64
52
52
52
50
52
54
66
72
84
102
118
130
128
120
120
132
148
154
148
160
180
184
180
176
168
168
172
164
162
160
158
166
168
168
168
168
172
168
164
164
164
164
164
168
168
168
168
168
170
172
168
164
164
166
168
168
168
168
172
174
172
168
168
174
172
176
190
192
192
196
200
212
228
244
232
188
132
76
60
62
82
92
78
90
96
84
78
84
92
92
74
78
88
96
94
84
68
72
98
114
126
146
156
166
168
156
146
134
128
128
136
144
138
132
132
136
138
136
140
142
144
150
148
146
144
146
156
160
168
168
160
156
158
164
168
172
172
166
162
164
164
164
168
168
168
168
162
160
162
164
168
172
168
162
158
166
176
174
168
96
164
234
255
218
208
198
186
178
168
172
170
166
176
194
190
200
200
178
166
176
166
170
162
160
170
182
196
196
202
192
170
162
168
172
178
190
186
166
174
172
164
186
186
168
162
166
172
172
162
160
164
166
164
172
178
176
168
158
162
172
174
162
156
170
186
194
192
180
174
194
200
186
156
154
160
164
162
158
162
172
174
162
146
136
132
142
148
142
136
140
152
164
164
158
150
148
152
156
144
136
166
214
255
255
255
255
255
255
255
255
255
255
255
255
255
255
255
255
255
255
255
255
255
234
136
94
88
76
84
86
78
72
62
50
50
56
62
72
80
132
216
255
255
255
255
255
255
255
255
255
255
255
255
255
255
255
255
255
255
255
255
255
255
255
255
255
255
255
255
255
255
255
255
255
255
255
255
255
255
255
255
255
255
255
255
255
255
255
255
255
255
255
255
255
255
255
255
255
255
255
255
255
255
255
255
255
255
255
255
255
255
255
255
255
255
255
255
255
255
255
255
255
255
255
255
255
255
255
255
255
255
255
255
255
255
255
255
255
255
255
255
255
255
255
255
255
255
255
255
255
255
255
255
255
255
255
255
255
255
255
244
222
226
232
236
236
246
255
255
255
255
255
255
255
255
255
255
255
255
255
255
255
255
255
255
255
255
255
255
255
255
255
255
255
255
255
255
255
255
255
255
255
255
255
255
255
252
252
255
255
255
252
232
226
214
194
188
192
202
208
242
255
255
255
255
255
255
255
255
255
255
255
255
255
255
255
255
255
255
255
255
255
255
255
255
255
255
255
255
255
255
255
255
255
255
255
255
255
255
255
255
255
255
255
255
255
255
255
255
255
255
255
255
255
255
255
255
255
255
255
255
255
255
255
255
255
255
255
255
255
255
255
255
255
255
255
255
255
255
255
255
134
180
202
238
255
255
255
255
255
255
255
255
255
255
255
255
255
255
255
255
255
255
255
255
255
255
255
255
255
255
255
255
255
192
172
176
168
172
160
154
160
180
196
172
162
162
162
180
190
186
180
154
138
136
136
142
140
128
112
88
88
114
160
202
220
212
216
254
255
255
234
218
204
184
174
156
126
142
148
136
136
136
124
136
164
200
222
238
255
255
255
255
255
255
255
255
255
255
255
255
255
255
255
255
255
255
255
255
255
255
255
255
255
255
255
255
255
255
255
255
255
255
255
255
255
255
255
255
255
255
255
255
255
255
255
255
255
255
255
255
255
255
255
255
255
255
255
255
255
255
255
255
255
255
255
255
248
170
182
186
210
202
206
212
202
202
216
226
218
208
208
202
198
204
204
186
182
226
255
255
255
255
255
255
255
255
255
255
255
255
255
255
255
255
255
255
255
255
255
255
255
255
255
255
255
255
255
255
255
255
255
255
255
255
255
255
255
255
255
255
255
255
255
255
255
255
255
255
255
255
255
255
255
255
255
255
255
255
106
198
255
255
224
228
210
186
176
168
170
164
162
170
192
182
196
198
172
164
188
180
194
188
162
154
160
170
162
176
180
162
156
162
164
162
174
180
158
158
154
148
158
172
168
158
166
176
168
154
156
158
158
152
148
146
152
168
172
178
178
176
180
184
196
186
174
182
176
188
202
184
184
168
156
154
164
170
164
172
170
176
178
170
160
158
160
158
152
142
140
146
148
152
148
140
130
130
144
148
126
150
188
218
252
255
255
255
255
255
255
255
255
255
255
255
255
255
255
255
255
255
255
255
255
255
254
174
104
74
66
62
70
66
54
52
58
62
60
86
158
255
255
255
255
255
255
255
255
255
255
255
255
255
255
255
255
255
255
255
255
255
255
255
255
255
255
255
255
255
255
255
255
255
255
255
255
255
255
255
255
255
255
255
255
255
255
255
255
255
255
255
255
255
255
255
255
255
255
255
255
255
255
255
255
255
255
255
255
255
255
255
255
255
255
255
255
255
255
255
255
255
255
255
255
255
255
255
255
255
255
255
255
255
255
255
255
255
255
255
255
255
255
255
255
255
255
255
255
255
255
255
255
255
216
178
148
132
114
94
70
42
20
26
8
4
4
18
32
68
94
92
80
72
64
74
86
104
124
132
140
148
160
172
188
208
222
232
240
250
255
255
255
255
250
236
232
244
255
255
255
254
250
244
242
238
232
222
204
202
206
208
214
212
212
198
166
144
156
188
250
255
255
255
255
255
255
255
255
255
255
255
255
255
255
255
255
255
255
255
255
255
255
255
255
255
255
255
255
255
255
255
255
255
255
255
255
255
255
255
255
255
255
255
255
255
255
255
255
255
255
255
255
255
255
255
255
255
255
255
255
255
255
255
255
255
255
255
255
255
255
255
255
255
255
255
255
255
255
255
255
255
98
212
226
228
240
255
255
255
255
255
255
255
255
255
255
255
255
255
255
255
255
255
255
255
255
255
255
255
255
255
255
255
255
200
164
160
148
148
144
148
148
146
136
124
130
130
142
164
162
160
172
154
128
134
136
144
154
144
120
86
42
78
124
156
160
130
84
158
194
196
180
170
172
176
188
184
150
150
148
130
130
136
130
154
198
238
255
255
255
255
255
255
255
255
255
255
255
255
255
255
255
255
255
255
255
255
255
255
255
255
255
255
255
255
255
255
255
255
255
255
255
255
255
255
255
255
255
255
255
255
255
255
255
255
255
255
255
255
255
255
255
255
255
255
255
255
255
255
255
255
255
255
255
255
255
255
255
244
178
166
172
184
202
208
204
210
220
218
198
204
218
214
192
184
186
178
208
255
255
255
255
255
255
255
255
255
255
255
255
255
255
255
255
255
255
255
255
255
255
255
255
255
255
255
255
255
255
255
255
255
255
255
255
255
255
255
255
255
255
255
255
255
255
255
255
255
255
255
255
255
255
255
255
255
255
255
255
255
58
152
218
196
80
104
86
58
52
46
40
40
38
40
60
42
58
76
50
56
84
80
88
102
82
36
18
44
26
16
30
28
34
34
32
26
34
46
36
28
24
20
16
30
38
48
54
52
34
24
32
36
40
40
26
6
22
60
80
74
54
48
82
100
76
48
26
26
44
68
62
44
62
58
50
50
54
66
64
52
40
50
66
84
90
84
76
68
62
54
46
38
30
34
36
34
16
6
16
34
42
36
84
182
255
255
255
255
196
136
86
68
68
72
86
102
102
124
150
210
255
255
255
255
255
255
255
255
182
94
48
38
48
46
34
32
20
18
18
52
136
236
255
255
244
162
94
50
80
72
44
34
62
88
100
108
118
124
118
114
102
92
92
86
80
74
74
76
82
84
84
86
88
90
92
94
98
104
106
102
100
98
96
98
98
90
88
88
78
90
94
88
94
96
92
88
94
90
78
82
86
86
92
88
80
80
84
92
104
110
108
96
84
82
88
90
86
82
84
92
92
80
62
48
38
28
24
42
76
94
82
64
82
120
174
180
156
128
108
108
114
116
114
104
98
102
106
94
84
72
60
182
255
255
255
255
255
255
255
255
255
255
255
255
255
255
255
255
255
255
255
255
255
255
255
255
255
255
255
255
255
255
255
255
255
255
255
254
228
226
218
196
174
164
170
180
172
154
130
110
94
86
90
84
70
64
72
80
72
66
60
52
56
64
70
62
42
12
40
114
212
255
255
255
255
255
250
210
170
144
126
112
118
112
96
92
90
100
112
114
112
104
108
110
114
116
114
104
96
100
102
100
96
92
92
90
92
94
94
102
102
96
106
104
96
96
106
112
100
102
102
94
100
96
104
102
94
88
86
90
92
98
98
92
86
86
98
100
94
94
94
92
96
106
112
112
78
62
255
255
255
255
54
132
96
52
60
114
216
255
255
254
150
86
112
110
86
92
64
14
14
30
22
48
68
80
96
116
126
158
242
255
255
255
212
132
100
90
64
64
66
64
44
16
10
20
6
20
40
36
12
16
34
36
26
34
48
50
70
80
66
56
22
68
148
226
255
255
192
194
188
142
80
28
10
30
66
94
84
60
46
30
32
44
66
100
136
160
162
162
168
180
172
138
124
142
180
216
220
210
194
172
152
130
112
100
104
112
104
98
98
102
106
102
106
108
104
102
98
98
96
92
92
90
88
88
98
104
100
98
96
90
94
98
98
92
88
88
88
88
88
90
100
96
106
102
88
94
94
104
118
138
170
206
255
255
255
255
255
255
120
36
26
52
68
74
78
80
74
54
30
42
72
94
78
48
30
58
134
188
210
206
186
160
140
112
78
66
70
86
102
106
100
86
78
72
78
88
86
86
84
82
92
94
88
84
84
88
86
80
72
66
66
82
94
84
72
70
78
90
94
90
84
94
96
98
104
102
90
86
84
78
82
92
98
102
102
94
84
78
70
158
218
194
78
110
88
44
32
34
38
40
32
34
58
50
54
66
36
42
68
60
20
30
50
62
46
74
76
52
46
30
34
38
46
46
56
56
40
32
34
38
42
42
40
34
24
38
52
58
52
38
22
32
46
40
56
66
34
46
58
52
56
20
36
70
60
42
46
40
34
34
42
24
4
4
8
24
38
46
44
32
18
26
30
22
10
8
8
20
24
16
18
26
38
54
54
48
48
44
22
42
68
162
255
255
255
255
255
255
255
255
222
176
150
128
98
78
70
68
50
148
255
255
255
255
255
255
255
255
188
132
106
68
32
20
28
28
42
58
154
244
255
230
170
136
104
68
78
84
80
72
118
152
166
176
180
172
152
130
108
100
100
92
88
88
88
90
88
90
98
102
102
98
90
84
82
80
78
78
76
78
74
74
80
80
78
90
92
94
90
82
88
92
88
88
94
100
92
96
94
86
96
96
86
86
88
86
82
88
90
92
96
96
98
94
92
102
114
126
134
140
148
156
166
180
200
220
224
198
138
60
40
60
70
44
34
50
68
90
96
80
58
42
32
44
116
226
255
255
255
255
255
255
255
255
255
255
255
255
255
255
255
255
255
255
255
255
255
255
255
255
255
255
255
255
255
255
255
255
255
255
255
255
255
255
255
255
255
255
255
255
255
255
255
255
255
255
255
255
255
255
255
255
222
202
198
194
178
158
146
142
148
160
162
138
90
64
88
186
255
255
255
226
156
92
46
50
50
52
62
74
88
86
82
82
74
80
74
66
72
72
64
60
66
78
86
86
84
88
90
88
84
80
82
82
84
86
80
86
84
78
82
86
84
80
86
88
76
78
80
74
76
72
80
84
86
90
94
90
86
84
84
88
86
86
94
98
92
84
82
78
78
80
56
46
146
255
255
255
255
255
146
196
142
108
128
182
255
255
255
242
144
100
116
110
98
104
114
144
152
164
192
196
180
158
142
166
194
238
255
255
255
255
244
216
206
198
156
118
100
88
86
86
80
58
32
34
24
6
44
72
76
56
42
42
42
24
36
64
68
56
22
26
72
144
208
248
238
212
194
146
92
62
60
56
34
22
24
14
24
30
34
24
66
108
140
156
140
114
92
74
58
40
44
68
92
100
84
60
60
74
82
80
78
76
82
86
76
68
70
80
94
102
104
94
80
80
80
86
84
82
88
90
86
86
92
94
90
92
94
88
90
84
82
90
92
90
86
82
82
86
84
80
86
84
82
90
88
84
80
90
96
74
54
148
255
255
255
255
222
92
16
58
62
46
34
28
30
34
46
44
48
74
100
92
40
64
106
124
112
84
112
128
142
130
98
82
82
92
90
72
60
62
70
74
86
92
80
74
78
82
92
92
82
76
78
90
96
104
114
116
110
108
116
124
122
114
102
96
102
106
102
92
84
78
80
84
82
80
84
84
84
86
82
84
92
96
96
94
52
138
200
186
84
92
64
22
18
24
22
8
18
36
36
16
20
52
54
18
34
68
58
26
48
70
46
34
32
20
16
14
8
14
14
14
20
16
2
12
14
10
6
12
24
26
18
36
38
32
36
30
18
28
64
58
38
38
42
58
40
38
66
50
40
46
42
16
20
28
12
10
26
20
14
12
16
42
52
42
24
26
38
20
16
26
24
14
10
16
8
14
22
34
44
44
24
6
10
24
18
28
16
24
106
208
255
255
255
255
255
255
240
184
144
106
68
38
14
10
34
64
124
208
255
255
255
255
255
255
255
255
255
212
146
116
96
54
68
154
254
255
255
254
166
82
42
26
36
66
62
30
24
72
98
108
106
94
76
58
36
28
30
20
10
6
4
10
8
6
12
14
22
32
30
20
16
16
18
18
14
10
6
6
16
20
14
6
2
8
8
4
8
14
12
14
16
20
10
14
14
8
18
10
6
10
2
12
26
34
32
30
28
22
28
32
36
48
58
74
88
102
112
112
116
122
124
112
76
18
52
106
130
126
98
64
44
42
56
82
104
108
92
72
44
86
254
255
255
255
255
255
255
255
255
210
132
82
46
30
40
52
54
48
38
20
32
42
38
36
50
56
54
56
56
52
46
76
110
138
150
144
150
182
236
255
255
255
255
255
255
255
255
255
255
255
255
255
255
255
255
255
255
255
234
196
162
154
126
88
72
76
92
116
110
58
44
174
255
255
255
255
242
164
104
66
46
34
18
12
10
14
12
12
10
6
18
36
34
16
10
12
12
10
6
2
12
18
20
22
20
18
16
12
10
6
6
8
8
14
10
10
10
10
10
10
18
16
2
8
8
2
4
2
6
8
12
14
16
20
20
16
10
6
6
8
14
24
30
30
32
26
28
52
38
56
242
255
255
255
255
120
78
172
158
116
106
144
224
255
255
168
62
24
36
30
20
6
6
28
32
10
40
94
122
122
130
178
226
255
255
222
186
255
255
255
255
255
255
255
252
230
248
255
255
255
218
180
166
164
156
128
76
18
26
36
30
22
42
38
78
96
86
76
70
54
20
48
74
78
68
52
38
26
22
36
46
32
14
22
18
12
50
94
144
184
210
214
180
136
100
82
90
100
116
128
126
112
90
72
60
50
34
16
10
14
26
34
28
18
8
2
16
26
34
34
24
26
20
24
18
18
26
22
20
20
22
26
30
34
30
26
28
20
20
24
22
22
16
8
8
12
12
16
22
14
4
12
12
10
12
20
24
30
48
98
182
255
255
255
255
255
158
40
26
40
30
14
6
8
10
18
44
84
92
42
42
116
138
122
92
64
70
80
94
86
56
38
36
48
50
32
14
26
30
30
38
48
40
38
44
48
56
64
54
34
14
12
12
20
28
34
38
34
30
32
32
32
26
18
24
34
40
36
28
20
14
20
18
12
8
10
6
14
22
34
40
34
24
16
68
136
178
150
48
44
28
4
0
10
10
12
24
30
28
20
22
42
60
54
24
22
50
36
42
30
32
32
36
24
16
14
18
14
6
6
12
14
8
12
6
8
16
6
18
16
8
20
14
2
20
26
26
14
32
44
22
4
18
28
10
20
38
36
12
24
38
24
6
28
22
2
16
16
10
16
28
30
22
14
28
30
34
34
38
28
10
14
18
22
8
14
24
26
54
64
50
26
24
14
4
14
30
40
56
68
146
238
255
255
255
255
255
255
208
148
92
52
18
18
22
24
46
78
146
254
255
255
255
255
255
255
255
255
255
255
255
255
252
255
255
255
255
232
150
82
56
42
26
54
56
32
12
58
90
100
114
106
82
58
34
26
32
28
24
22
20
24
24
26
28
22
20
28
32
28
20
14
12
20
28
30
26
20
26
32
34
34
28
28
28
24
24
20
16
18
24
32
30
28
26
20
26
22
30
28
28
32
24
18
16
18
22
14
20
26
24
32
44
66
88
108
116
106
92
70
40
10
62
118
158
166
148
120
88
66
64
78
106
136
154
148
96
54
170
255
255
255
255
255
255
255
255
154
52
48
78
102
108
104
102
106
108
104
96
80
92
100
88
84
94
92
88
90
98
104
104
96
88
70
44
16
6
26
48
76
116
136
134
120
116
132
146
144
160
154
138
160
170
176
196
212
220
216
204
188
162
136
118
108
84
84
88
74
24
106
238
255
255
255
255
246
170
112
78
60
46
38
30
30
30
32
32
28
34
44
54
60
50
34
36
36
34
28
26
26
20
12
8
10
12
16
18
16
18
20
20
18
16
22
26
30
32
30
26
26
28
24
26
34
34
28
30
24
20
20
24
24
18
18
20
20
22
22
18
14
14
14
10
10
22
24
22
48
30
112
255
255
255
255
180
172
84
44
130
170
180
194
232
255
255
188
76
38
46
52
64
60
58
68
68
66
48
8
22
36
88
150
198
210
164
60
80
226
255
255
255
255
255
255
255
255
255
255
255
255
255
255
255
255
255
255
255
158
22
50
60
72
72
46
10
28
48
52
58
54
46
34
16
32
44
56
56
44
32
34
48
54
32
14
22
70
128
176
204
210
206
186
140
100
78
90
124
140
144
132
112
96
82
74
68
56
46
38
34
44
54
50
38
26
20
20
32
36
30
20
4
6
6
16
14
14
18
10
22
24
14
12
4
2
6
18
26
22
22
26
22
28
28
18
18
20
16
20
30
30
20
32
30
22
20
28
40
42
48
68
112
186
255
255
255
255
255
172
54
26
40
36
32
20
8
26
58
86
70
8
70
130
132
98
62
46
54
52
60
62
46
32
28
40
44
30
16
26
26
20
22
26
14
18
28
26
24
32
34
42
36
30
24
28
30
30
36
38
40
44
46
44
30
14
14
6
8
12
10
10
2
14
22
22
18
18
14
22
26
26
22
18
18
20
84
144
170
152
56
52
34
16
12
20
12
14
42
48
34
14
4
4
22
40
46
26
8
30
52
40
22
18
14
10
18
18
10
12
12
10
10
12
6
8
22
34
32
18
24
16
6
26
32
28
36
26
20
26
36
38
18
0
14
20
8
22
34
30
8
22
38
30
10
26
30
16
38
40
34
28
20
22
40
46
36
8
22
38
32
10
32
40
42
42
18
24
36
8
30
50
46
26
22
24
20
24
26
32
46
40
34
104
194
255
255
255
255
255
255
255
182
124
76
48
28
6
20
38
58
94
162
255
255
255
255
255
255
255
255
255
255
255
255
255
255
255
255
180
104
50
30
18
34
76
92
84
52
82
118
126
112
96
66
40
18
14
22
16
8
2
0
4
8
10
10
12
22
28
24
14
4
4
8
20
20
14
4
4
6
4
8
14
14
16
16
12
10
10
10
14
14
20
22
12
8
6
8
2
10
8
6
18
22
22
20
16
20
32
48
54
52
64
82
106
128
136
126
96
54
30
42
90
134
156
150
124
92
68
54
54
66
86
118
136
124
70
62
255
255
255
255
255
255
255
168
92
40
28
18
10
10
6
12
20
26
34
36
28
18
4
20
30
14
12
20
16
12
10
10
14
20
22
14
6
6
22
34
30
14
14
26
26
16
10
14
20
16
14
20
14
2
10
10
26
30
54
92
116
128
138
138
138
138
140
128
112
88
62
70
196
255
255
255
255
224
156
118
88
68
52
36
28
20
20
20
22
30
30
34
36
36
36
26
18
18
20
16
10
10
14
14
8
2
2
4
6
8
8
6
2
6
4
4
8
12
16
20
16
12
18
22
16
18
22
16
12
16
12
8
8
12
12
8
4
8
8
8
6
8
10
10
8
2
4
16
20
16
28
44
222
255
255
255
174
124
198
232
164
40
94
188
242
255
255
255
176
64
30
34
50
58
62
60
52
36
32
42
42
44
54
66
84
102
80
42
74
154
208
222
202
214
255
255
255
255
255
255
255
255
255
255
255
255
255
255
255
255
255
198
70
18
56
56
62
76
72
50
32
18
4
24
38
46
50
42
68
80
70
42
36
44
58
56
38
50
120
186
214
204
172
144
112
70
52
64
106
140
136
118
94
76
70
64
60
52
38
32
28
28
36
34
22
16
16
8
6
24
24
16
6
6
8
8
18
18
10
8
6
14
12
6
14
8
4
8
14
16
12
6
16
16
18
10
6
10
6
4
14
18
12
4
14
10
6
12
16
24
28
36
46
66
108
160
236
255
255
255
255
158
48
30
50
64
58
26
44
68
76
50
30
72
114
102
62
44
52
62
54
52
56
54
50
46
56
62
58
44
48
42
28
36
36
18
26
32
12
22
44
46
36
26
18
14
16
16
18
28
32
34
34
30
20
10
6
6
6
6
12
16
20
20
18
12
10
10
10
12
14
12
22
22
16
10
8
54
134
194
172
52
56
30
8
6
20
20
6
22
40
42
34
28
34
38
28
12
24
22
20
22
10
16
22
16
4
8
12
22
22
18
8
4
16
28
32
18
20
6
18
28
20
14
20
34
38
36
24
10
8
24
24
12
12
10
24
12
32
56
42
32
40
44
18
12
22
14
4
18
22
22
18
22
20
36
32
36
30
20
4
24
40
38
20
30
42
28
8
30
12
20
32
26
10
14
20
26
22
14
16
30
24
12
26
72
170
255
255
255
255
255
255
255
226
164
114
68
32
10
6
14
20
42
86
142
202
254
255
255
255
255
255
255
255
255
255
255
255
226
144
74
28
8
14
54
82
86
66
22
62
108
130
118
94
64
44
30
26
28
18
6
2
2
6
12
14
16
20
22
16
12
10
8
12
18
20
16
8
2
6
2
2
8
16
22
28
26
22
20
18
20
18
14
16
22
18
14
18
20
12
8
4
2
10
10
12
14
14
28
34
50
66
80
106
132
150
148
118
74
20
38
82
112
132
140
132
104
72
44
32
26
44
68
92
124
118
38
124
255
255
255
255
255
255
160
84
58
44
30
28
10
16
22
20
14
6
2
16
32
40
46
36
50
54
34
38
36
18
16
18
18
14
8
6
4
10
20
32
36
30
32
44
48
48
42
38
36
36
40
46
64
64
52
42
36
42
40
32
40
22
34
52
66
82
94
104
102
86
90
110
154
222
255
255
230
170
154
136
114
78
58
34
18
16
16
18
20
28
38
32
26
20
18
24
20
14
10
8
10
10
10
10
10
12
8
6
6
4
4
6
8
10
12
14
10
12
10
10
16
12
8
12
18
16
14
14
8
8
12
6
2
4
6
6
4
2
4
10
8
2
6
10
10
16
12
12
26
30
18
18
130
255
255
255
255
64
110
166
255
255
255
186
204
255
255
255
255
156
54
22
22
36
34
32
50
60
54
36
32
46
48
76
110
156
192
192
148
132
134
116
102
54
24
74
106
112
120
128
100
98
128
134
110
122
148
142
255
255
255
255
255
255
255
230
126
38
32
72
84
82
66
40
32
30
36
42
36
40
56
44
20
24
32
54
68
76
74
142
190
190
164
126
98
74
50
58
92
126
132
110
88
68
56
56
52
50
44
32
26
20
18
18
12
14
14
16
16
18
22
14
4
4
8
4
2
10
16
10
6
6
10
8
2
10
10
12
16
18
16
12
8
8
8
8
2
14
10
6
14
20
16
4
8
10
8
6
4
2
10
16
24
32
46
72
94
142
226
255
255
255
255
150
50
30
44
54
32
50
68
64
30
22
74
112
100
62
36
42
68
78
76
68
60
54
48
56
66
74
66
50
42
40
54
62
46
40
26
12
44
50
42
32
24
24
20
20
24
30
38
38
36
32
22
8
10
6
4
2
2
6
6
4
4
18
26
32
30
26
18
8
8
12
12
10
6
2
74
156
200
156
24
58
42
20
20
28
20
6
16
18
24
32
44
50
42
34
28
22
20
22
24
20
12
12
12
6
12
20
18
18
24
16
12
30
28
54
54
28
14
22
18
16
16
18
16
16
12
12
20
28
30
20
8
16
10
20
2
38
54
18
36
54
28
14
36
32
20
12
26
40
42
18
20
28
20
4
22
32
38
32
42
32
18
24
44
40
26
22
36
12
20
32
18
4
18
28
30
32
26
10
22
18
14
28
16
58
134
190
254
255
255
255
255
255
255
216
142
78
44
20
12
2
10
16
32
54
72
96
130
176
234
255
255
255
255
255
255
236
178
122
78
46
20
26
52
60
48
38
32
80
116
116
118
104
78
56
42
38
40
34
16
4
4
8
14
16
18
14
4
6
8
8
12
16
12
10
8
2
4
6
8
12
22
32
30
34
32
26
28
28
26
24
18
12
16
18
18
24
30
24
14
10
10
12
16
20
24
26
34
40
62
88
112
140
154
146
108
48
12
70
116
132
130
120
100
82
56
28
20
22
36
68
86
78
62
38
188
255
255
255
255
255
218
80
34
30
26
22
12
4
8
10
20
40
36
24
20
18
26
38
48
36
30
26
6
18
26
12
14
12
14
12
2
4
14
24
30
44
54
46
28
22
16
16
10
2
10
22
22
10
24
32
26
22
16
20
24
26
38
28
18
14
6
12
30
44
42
32
50
92
176
255
255
255
255
255
255
138
50
26
10
20
30
32
30
26
26
32
32
16
10
4
6
20
18
6
2
4
8
14
14
8
2
8
10
8
6
4
4
8
12
16
22
18
10
10
6
8
14
8
6
6
8
10
8
8
4
4
12
12
10
10
8
6
2
0
2
10
10
6
10
10
8
14
16
14
32
48
20
70
228
255
255
255
192
38
110
166
194
255
255
255
255
255
255
255
255
148
48
20
2
22
28
18
24
52
70
54
36
32
26
46
80
134
190
218
200
138
54
82
158
158
104
52
44
26
34
54
84
116
132
122
104
116
158
148
84
104
255
255
255
255
255
255
255
255
172
92
26
34
64
68
52
26
30
46
24
20
54
46
10
24
34
36
54
78
106
154
178
160
130
96
74
66
64
88
114
116
100
78
64
50
44
48
44
42
36
24
16
8
12
16
16
14
6
4
10
20
30
24
12
10
8
2
0
2
8
10
8
12
14
10
6
4
6
12
16
16
12
8
10
8
4
4
10
12
2
12
22
20
8
6
6
2
4
4
4
6
4
4
10
16
32
56
62
86
146
224
255
255
255
254
144
60
24
26
18
50
70
64
24
30
68
104
112
86
48
34
56
82
92
80
68
60
50
50
56
70
72
52
40
38
50
66
62
42
18
40
54
46
36
30
26
28
24
24
30
32
34
32
28
24
14
4
2
2
2
8
6
8
14
16
18
24
34
38
34
38
32
20
20
30
28
20
12
10
52
134
180
146
28
68
54
30
34
42
28
20
18
18
6
24
32
24
20
12
14
20
30
26
10
0
8
6
8
18
32
40
36
34
26
4
18
26
10
30
54
44
8
28
44
40
24
12
8
20
22
24
12
10
24
20
6
18
20
18
8
32
46
26
66
56
8
42
52
30
12
14
22
12
30
42
48
38
16
2
18
28
26
14
10
24
28
36
34
16
16
32
32
12
30
44
40
32
38
42
36
38
44
28
40
34
26
44
38
8
36
72
118
184
255
255
255
255
255
255
254
160
96
52
32
18
6
8
10
12
12
24
42
68
104
132
146
160
178
206
220
214
196
162
130
98
66
40
50
38
42
46
52
84
104
102
100
88
64
46
38
36
38
42
30
14
6
8
10
12
16
14
10
10
14
10
8
4
4
6
4
0
2
6
14
20
26
24
12
16
22
16
18
18
18
24
24
16
12
12
10
12
22
22
16
12
10
26
26
26
30
36
54
74
100
122
132
132
110
66
10
46
86
118
136
134
122
104
74
50
22
8
6
30
78
108
86
20
124
255
255
255
255
255
255
182
64
18
16
20
24
16
8
4
6
16
30
36
22
16
32
24
18
16
34
30
4
26
28
36
24
4
22
18
22
18
4
4
12
16
14
10
18
14
6
8
10
6
6
14
10
16
24
18
26
40
32
16
8
20
26
20
20
10
10
20
30
26
18
34
34
18
10
18
58
168
255
255
255
255
255
255
255
255
168
54
70
68
60
36
18
18
12
6
8
4
12
28
22
4
4
6
10
10
10
6
0
2
6
10
12
12
14
20
24
24
18
14
8
8
8
12
12
4
4
4
4
8
10
12
10
12
18
12
4
10
12
8
2
2
2
8
14
8
10
12
6
2
6
10
24
54
26
134
255
255
255
255
112
70
108
128
122
138
210
255
255
255
255
255
255
160
46
36
16
18
26
22
8
32
58
56
44
36
32
28
32
56
94
138
172
174
114
24
102
144
112
48
16
28
30
26
26
36
48
50
50
50
74
114
134
98
80
182
255
255
255
255
255
255
255
255
255
138
32
62
92
78
38
42
26
30
48
24
14
32
16
30
74
122
164
194
206
174
128
86
64
70
84
106
110
92
74
60
52
42
42
48
46
44
36
24
16
10
8
8
14
22
18
10
6
10
20
16
6
4
2
2
4
4
6
8
8
10
12
10
8
10
14
14
10
8
2
4
12
14
12
10
8
6
6
16
18
10
4
6
6
2
0
4
8
6
4
2
4
6
18
42
46
56
92
150
232
255
255
255
238
130
38
8
18
50
84
84
42
70
84
96
104
98
78
52
42
48
58
56
56
62
56
44
32
36
46
42
36
26
20
26
32
34
56
66
66
52
38
30
26
32
32
30
24
14
12
20
28
36
28
10
14
12
12
12
2
12
14
8
16
26
24
20
18
28
40
34
38
44
34
26
24
18
60
144
188
150
32
80
70
44
42
42
38
42
34
14
16
18
12
4
16
6
6
18
32
28
26
18
10
14
16
20
32
38
42
14
16
26
30
26
12
16
50
68
46
20
38
46
28
14
38
48
44
50
50
32
40
38
34
24
26
20
20
36
46
46
60
32
20
50
42
10
28
40
36
26
26
48
42
36
14
18
22
34
26
40
32
30
20
10
2
18
30
32
26
22
34
48
50
44
44
44
34
34
44
38
44
36
30
46
44
32
32
38
28
50
128
234
255
255
255
255
255
255
220
146
104
66
30
18
4
6
18
32
38
40
52
56
50
50
56
78
108
140
162
156
142
124
102
74
48
16
24
36
54
74
90
96
92
78
52
30
22
22
22
28
30
18
12
8
4
10
16
20
16
10
12
12
6
4
6
8
6
4
10
16
24
30
28
22
14
16
28
34
38
38
38
46
52
46
32
24
16
10
16
18
16
14
26
40
36
36
48
68
100
128
144
144
124
86
30
36
88
116
126
128
124
112
96
78
54
38
28
28
54
84
84
30
78
228
255
255
255
255
255
255
126
54
22
12
8
14
20
14
2
12
16
20
22
28
26
12
18
32
26
10
24
32
28
26
28
26
16
14
26
16
26
20
12
6
8
26
28
28
42
32
16
14
10
8
18
10
6
22
20
8
44
56
32
30
20
20
26
14
6
14
12
18
24
34
30
44
38
24
30
46
40
10
114
255
255
255
255
255
255
255
255
255
174
70
28
10
34
36
24
14
12
12
26
32
20
8
10
6
6
2
10
10
6
12
14
16
18
16
16
22
26
24
20
20
8
8
12
14
10
6
8
6
6
6
12
14
12
18
24
16
14
20
20
18
8
2
4
6
12
10
12
12
4
2
2
8
16
52
26
202
255
255
255
148
42
66
80
76
164
190
176
255
252
242
232
255
252
140
32
52
26
4
10
12
10
14
32
38
40
46
46
36
28
24
28
46
102
158
166
106
34
68
88
74
72
58
80
80
90
116
132
138
134
116
92
50
32
114
130
70
40
152
255
255
255
255
255
255
255
255
255
146
24
54
76
86
60
64
76
62
44
32
10
72
130
180
218
240
238
186
122
78
68
90
108
114
98
74
60
50
42
34
38
44
44
40
28
20
18
16
14
14
24
30
20
14
10
12
24
16
0
6
6
6
6
4
4
6
8
10
4
4
6
8
16
22
24
18
10
10
10
12
16
14
6
6
8
12
12
14
10
2
6
4
0
6
12
14
14
6
4
4
8
26
36
48
66
98
162
242
255
255
255
212
94
16
22
60
104
96
56
96
106
102
96
88
84
68
42
72
76
46
22
38
44
40
24
16
12
20
24
26
32
40
58
80
84
76
70
52
38
34
34
42
42
34
20
10
10
10
16
26
26
24
20
12
16
18
8
10
10
16
22
18
30
36
24
6
24
32
34
32
18
18
20
16
62
142
178
134
26
88
76
42
26
16
18
36
34
14
12
28
28
12
10
4
8
22
34
30
48
64
64
58
68
78
68
66
96
100
80
70
64
74
82
80
90
120
132
106
86
76
28
20
40
38
28
32
46
46
62
60
46
34
32
32
34
40
36
24
18
8
30
30
26
34
48
34
12
18
40
26
8
28
12
22
22
36
48
48
16
18
14
22
28
34
36
30
24
24
24
22
20
28
34
34
26
26
28
18
6
6
8
28
46
50
48
30
4
30
32
62
140
255
255
255
255
255
255
255
236
168
104
70
46
36
28
20
14
12
16
12
12
16
20
26
42
72
106
118
114
104
94
80
48
12
16
30
48
66
84
90
84
76
54
36
34
36
36
30
26
16
10
10
6
8
10
14
20
14
12
16
12
8
12
18
20
16
16
14
14
16
12
20
24
32
38
46
52
50
54
58
66
62
42
28
16
4
12
14
18
30
44
56
54
64
88
118
150
166
160
130
84
24
44
104
134
142
140
130
110
82
54
34
26
34
64
108
126
76
60
244
255
255
255
255
255
255
192
96
58
58
28
14
16
22
28
20
6
8
12
12
14
22
26
24
26
24
16
20
38
38
18
10
18
20
18
26
24
4
24
34
24
22
12
12
20
30
28
6
14
16
4
22
22
14
20
18
14
14
34
28
10
36
30
8
16
12
4
22
40
36
24
30
20
18
12
8
2
24
40
36
10
60
122
204
255
255
255
255
255
255
255
255
255
134
60
56
66
46
20
20
26
20
8
10
10
8
4
0
6
12
18
24
24
22
20
18
12
16
20
20
22
30
18
10
12
10
10
12
16
14
6
6
8
6
4
14
22
12
8
8
8
14
14
4
4
8
12
12
16
16
14
18
16
16
22
58
92
255
255
255
255
70
38
42
46
50
74
164
232
182
84
88
100
186
178
76
12
50
40
16
14
18
10
2
10
12
20
36
46
48
50
56
54
40
62
110
154
158
104
52
88
114
84
38
56
46
30
24
48
78
98
106
116
110
52
58
108
108
46
22
76
138
208
255
255
255
255
255
255
255
255
148
114
140
132
134
120
94
64
46
38
92
158
214
254
255
232
160
96
70
82
112
120
110
86
64
52
36
22
18
28
34
32
24
12
14
20
14
4
4
18
22
8
8
10
12
24
18
12
18
14
12
2
4
4
8
16
14
4
2
6
6
8
16
24
28
22
14
12
14
16
18
10
6
2
4
8
10
12
8
4
4
4
8
6
4
10
8
6
6
6
8
18
36
54
72
110
164
246
255
255
255
178
62
42
82
110
74
28
78
110
120
110
88
74
66
84
88
70
38
16
6
10
26
30
18
18
30
46
54
58
62
76
90
84
70
60
46
42
44
44
44
38
32
30
32
38
44
46
48
42
30
12
4
10
8
4
2
16
20
14
12
10
28
34
24
8
8
12
10
2
6
10
8
62
134
162
130
22
72
50
22
28
44
60
62
48
30
26
40
56
50
36
44
54
62
78
90
114
130
126
118
128
150
158
198
230
214
188
180
168
192
200
182
186
204
226
230
206
170
144
120
90
60
32
12
20
42
58
52
38
38
30
30
40
48
36
10
12
10
18
34
30
40
40
20
4
18
40
42
44
50
22
42
32
42
64
38
12
38
36
32
28
24
20
12
6
10
18
20
12
14
22
18
16
16
14
12
24
24
22
14
28
32
36
32
24
16
18
38
24
66
186
255
255
255
255
255
255
255
252
188
132
100
76
50
34
20
14
2
14
22
22
26
32
48
76
94
96
102
108
90
56
30
34
44
36
50
68
74
72
74
58
48
44
42
42
34
26
14
6
8
4
4
6
8
18
20
16
18
22
28
32
30
28
26
26
20
14
12
16
22
22
32
46
60
72
70
72
68
70
62
42
22
12
18
30
34
38
40
36
58
70
94
126
156
170
156
118
58
16
54
102
132
138
134
124
102
70
46
40
46
54
48
38
48
62
220
255
255
255
255
255
255
226
98
48
48
52
36
28
24
26
30
42
42
22
8
14
16
10
8
12
16
16
10
10
28
30
16
12
36
38
38
24
16
20
12
32
36
20
18
24
10
4
8
10
18
18
10
10
20
12
2
20
28
20
6
38
42
28
38
18
8
18
8
22
38
42
24
10
14
12
16
28
36
32
16
14
30
44
40
34
44
50
98
224
255
255
255
255
255
255
255
255
146
38
26
40
48
34
20
6
10
6
4
8
8
12
20
24
28
26
18
14
16
12
10
16
16
12
26
22
8
8
6
10
10
12
14
8
4
2
6
6
16
20
12
8
16
16
16
14
12
12
14
18
20
22
20
22
24
20
18
36
86
216
255
255
255
156
22
86
80
78
98
136
178
186
230
154
60
44
116
128
88
22
30
42
28
16
14
6
0
4
12
24
28
38
48
66
76
70
72
68
74
104
142
134
48
78
158
156
110
114
88
80
58
38
24
20
38
68
94
84
62
66
62
48
22
26
10
16
66
136
238
255
255
255
255
255
255
255
84
98
170
192
168
124
90
70
152
220
255
255
240
178
108
72
70
90
112
102
78
54
40
34
20
12
16
26
26
26
20
10
20
24
8
4
6
22
30
14
8
8
10
16
16
16
18
12
16
12
8
8
12
18
12
6
6
6
2
2
6
12
20
22
14
8
8
12
18
12
6
4
4
6
6
8
8
4
4
4
2
6
6
2
6
8
8
6
2
8
16
36
58
88
116
170
252
255
255
236
118
74
98
102
52
16
54
98
128
128
110
88
80
86
66
46
28
26
30
32
36
36
32
36
50
64
68
70
72
80
84
70
54
46
42
44
46
44
40
36
36
42
44
48
54
52
46
32
14
6
12
14
8
6
12
16
8
4
2
2
16
30
34
30
16
12
12
10
6
2
4
46
124
170
132
32
82
98
88
102
98
94
90
88
86
86
86
94
112
124
140
140
132
130
140
164
180
178
176
180
206
250
255
255
255
255
255
255
255
255
255
255
255
255
255
255
255
255
255
240
186
130
90
62
44
34
14
14
26
18
26
32
54
52
24
12
34
32
42
22
20
28
22
24
40
52
46
42
44
32
60
64
68
68
26
24
40
26
12
4
12
20
24
24
32
38
28
22
32
26
10
16
18
14
12
20
16
12
24
30
28
30
24
32
30
44
30
28
30
6
84
200
255
255
255
255
255
255
255
255
206
156
108
74
44
28
24
26
22
10
18
26
36
58
86
112
128
126
108
90
78
68
100
102
78
62
62
74
84
76
60
40
28
28
20
10
4
8
12
8
6
10
14
30
26
16
22
36
46
46
42
40
30
10
14
24
38
64
106
162
210
250
255
255
255
255
255
255
242
180
124
76
38
20
32
50
50
66
90
106
128
150
160
140
90
22
52
100
124
134
130
116
102
82
48
20
16
50
74
52
38
172
255
255
255
255
255
255
255
242
148
84
52
48
46
40
34
26
16
12
8
20
36
40
32
30
32
18
8
6
10
16
24
28
20
4
16
28
24
0
24
26
18
30
24
26
26
30
8
14
22
24
20
12
12
8
6
6
16
18
12
14
18
26
18
30
18
6
18
18
10
4
16
26
22
16
18
22
26
26
26
26
32
38
26
6
20
42
46
26
36
34
16
32
82
158
255
255
255
255
255
255
255
255
148
44
38
40
30
22
6
4
14
22
24
26
26
24
26
20
16
12
12
10
6
10
14
6
12
14
8
2
6
12
10
10
12
8
4
4
6
10
18
22
22
16
14
20
28
34
36
32
32
32
30
28
24
22
18
16
40
112
230
255
255
255
240
110
138
178
160
138
126
124
136
144
150
116
78
80
110
114
76
30
10
32
32
22
8
2
4
16
30
38
40
36
36
44
40
38
64
66
46
44
80
112
132
90
136
146
96
52
36
26
28
12
8
16
14
16
46
62
50
42
32
54
48
24
16
16
10
32
62
122
206
255
255
255
255
255
255
220
108
184
216
184
136
174
255
255
255
255
172
104
62
62
74
86
88
60
30
12
8
16
12
20
28
32
24
18
24
20
24
20
8
8
10
20
26
16
12
22
30
22
8
6
10
16
26
18
8
6
8
10
6
8
12
10
8
8
4
0
6
10
6
0
2
12
18
12
4
0
0
4
6
6
10
8
2
6
10
10
10
8
6
8
8
6
2
8
4
10
34
70
92
128
194
255
255
252
164
98
106
102
62
50
62
84
114
130
134
120
102
90
72
56
30
26
32
38
50
60
58
54
58
68
74
82
84
80
72
52
40
38
36
34
34
34
36
38
38
36
26
26
26
16
6
2
6
6
8
10
8
14
14
4
8
14
12
12
18
26
32
34
26
16
8
6
8
6
4
58
134
196
202
148
138
162
170
168
154
152
160
164
162
156
158
170
190
214
220
204
186
180
188
210
222
218
216
222
246
255
255
255
255
250
255
255
255
255
250
255
255
255
255
255
255
255
255
255
255
255
228
178
130
98
54
10
16
14
28
18
48
66
44
44
56
36
50
30
18
32
32
34
42
58
56
44
44
40
46
56
56
42
10
22
32
28
20
16
20
24
30
32
32
30
16
18
28
32
32
44
38
24
10
12
24
12
20
36
46
32
8
14
18
4
22
16
12
48
48
20
100
210
255
255
255
255
255
255
255
255
255
210
146
98
70
60
52
30
22
32
54
90
124
148
156
146
126
112
102
78
116
140
122
92
72
90
100
82
56
28
18
28
18
4
6
18
26
22
30
38
48
60
40
6
34
78
120
166
202
236
255
255
255
255
255
255
255
255
255
255
255
255
255
255
255
255
255
255
255
255
255
255
254
238
242
226
190
154
124
94
60
60
58
110
152
160
150
132
110
92
78
64
48
54
38
16
70
210
255
255
255
255
255
255
255
255
152
114
82
80
82
62
34
38
30
14
12
12
14
16
14
20
22
28
28
16
18
18
26
30
30
18
10
16
22
12
10
36
46
32
18
22
16
4
14
30
26
10
12
20
18
8
4
10
14
14
18
16
14
16
8
8
22
24
12
6
12
12
8
14
22
14
6
16
24
24
18
14
14
12
8
24
30
24
10
10
24
8
12
16
8
18
44
48
40
88
255
255
255
255
255
255
255
255
160
62
12
52
58
42
32
30
26
24
22
22
22
12
16
14
12
8
2
8
16
16
20
14
10
12
10
16
16
14
12
8
6
8
10
16
20
24
22
14
16
28
36
38
38
32
32
32
32
32
34
28
28
54
124
242
255
255
255
250
46
116
182
178
144
108
82
80
108
152
152
98
58
70
110
108
68
28
4
12
26
28
20
8
12
22
26
28
28
18
10
10
16
54
106
124
104
102
138
164
124
34
40
62
42
44
78
98
88
72
74
48
16
12
8
10
22
18
12
42
50
22
2
10
16
18
4
16
8
86
228
255
255
255
255
255
255
80
94
160
192
255
255
255
255
176
96
62
50
64
72
68
54
26
12
8
14
24
32
24
22
22
18
18
26
24
18
14
10
14
22
26
28
22
22
30
30
28
26
16
20
24
26
14
6
6
8
10
6
8
10
10
10
10
8
12
14
12
6
0
4
14
16
10
4
0
0
2
6
10
12
2
10
18
16
10
12
10
4
6
6
6
4
10
12
12
18
50
70
104
158
220
255
255
198
124
120
108
72
76
86
86
100
120
136
126
100
78
62
62
54
34
30
38
58
72
68
64
66
76
80
84
76
60
48
30
26
28
24
20
22
24
26
26
24
18
10
18
16
14
20
18
16
12
10
10
10
14
6
4
8
8
4
6
10
16
22
26
24
16
8
6
2
4
2
120
224
255
255
255
226
222
210
204
204
220
230
220
208
206
220
234
242
244
230
214
218
208
212
230
234
222
216
214
216
212
194
170
154
146
144
146
142
136
142
148
152
158
162
176
206
254
255
255
255
255
255
255
240
176
112
50
10
16
18
6
32
62
60
56
42
26
48
46
36
44
38
34
36
44
58
62
50
34
24
20
20
20
22
34
46
44
36
22
16
16
20
18
16
10
2
12
20
32
58
66
54
56
44
24
20
32
40
26
26
22
12
16
38
50
46
38
42
12
26
42
26
18
84
180
255
255
255
255
255
255
255
255
255
254
194
156
132
104
78
102
134
170
194
208
198
166
128
104
90
56
92
132
134
110
94
104
100
70
44
24
20
28
20
12
12
16
20
16
22
40
54
38
22
118
230
255
255
255
255
255
255
255
255
255
255
255
255
255
255
255
255
255
255
255
255
255
255
255
255
255
255
255
255
255
255
255
255
238
128
34
44
88
130
158
160
140
120
96
74
64
54
46
48
48
58
182
255
255
255
255
255
255
255
255
152
142
128
116
102
104
84
58
18
30
44
44
28
18
22
26
26
22
16
14
8
8
14
18
18
14
8
6
12
14
12
10
24
30
22
8
6
16
20
10
6
14
22
20
20
26
18
8
6
16
14
12
14
6
10
12
16
18
8
4
14
18
14
10
16
20
14
2
10
14
14
10
12
14
28
28
14
12
20
32
38
26
4
22
22
12
4
2
16
42
50
62
22
70
208
255
255
255
255
255
255
255
160
42
54
70
44
18
12
12
16
20
18
14
16
18
18
10
8
12
14
20
24
22
22
18
12
10
8
10
8
8
12
16
20
24
22
20
16
18
26
34
34
26
22
18
20
26
28
30
36
42
84
160
255
255
255
255
232
54
120
160
124
70
32
12
14
52
110
162
148
82
42
56
110
116
78
38
18
8
14
28
28
18
12
36
36
32
28
16
12
14
44
124
218
255
236
190
142
84
94
110
142
122
86
80
94
102
90
80
116
114
82
38
10
16
12
12
6
30
42
28
8
6
4
8
16
10
12
14
46
122
255
255
255
255
255
255
226
250
255
255
255
255
170
82
48
56
58
62
56
44
32
18
6
2
4
14
34
50
42
24
18
24
24
16
24
22
14
22
24
22
20
18
16
14
8
10
20
14
12
12
12
2
10
10
8
10
4
4
8
14
14
8
14
14
8
2
2
4
6
12
12
8
4
0
0
0
4
14
16
12
18
18
10
10
14
12
4
8
6
8
10
6
6
4
12
32
42
76
130
190
250
255
216
162
142
110
62
66
90
92
94
106
120
140
136
128
118
110
82
46
38
42
56
64
62
64
68
78
74
64
48
32
22
10
12
18
18
22
30
26
16
10
8
6
6
16
18
18
18
18
26
26
26
14
8
8
4
10
16
20
20
20
12
6
12
20
20
16
12
8
4
12
14
166
255
255
255
255
246
242
212
206
214
222
214
198
194
206
220
220
210
190
164
154
164
168
174
190
188
174
166
156
142
122
102
82
70
66
58
52
48
50
54
60
58
64
70
78
92
130
180
230
255
255
255
255
255
255
230
152
84
24
12
8
22
34
42
38
28
32
48
50
40
42
38
38
40
36
30
38
44
44
38
26
20
30
42
54
60
58
54
42
26
20
20
20
20
22
18
20
40
60
70
56
46
54
54
48
56
62
50
24
36
40
38
76
84
66
44
48
64
58
58
44
20
24
20
48
96
200
255
255
255
255
255
255
255
255
255
255
255
255
238
254
255
255
255
255
214
150
92
62
50
18
52
108
134
130
106
102
84
52
34
22
18
24
18
14
20
28
26
8
70
144
226
255
255
255
255
255
255
255
255
255
255
255
255
255
255
255
255
255
255
255
255
255
255
255
255
255
255
255
255
255
255
255
255
255
255
255
255
255
255
255
220
144
76
78
114
126
132
116
92
68
26
44
98
180
255
255
255
255
255
255
255
250
90
12
50
42
64
72
80
78
90
86
48
60
72
50
24
16
16
22
22
20
28
30
24
16
8
8
6
2
4
10
12
12
10
2
18
28
24
14
12
20
14
6
12
12
16
24
40
38
28
22
20
16
8
10
12
4
8
6
8
24
24
14
14
12
10
16
26
22
12
10
14
12
6
10
20
8
18
18
10
14
14
4
14
30
24
8
8
8
10
10
22
24
10
42
78
78
50
74
222
255
255
255
255
255
255
255
190
46
36
46
42
28
20
12
6
10
16
22
26
22
12
12
10
12
16
14
12
10
10
4
2
4
8
12
18
18
18
16
10
12
16
24
30
30
26
16
14
18
26
36
32
28
48
104
204
255
255
255
255
255
60
116
182
142
58
38
30
42
54
64
96
140
124
66
34
46
96
116
86
46
24
18
8
24
32
28
12
30
44
46
38
20
12
28
82
188
255
255
220
192
144
62
116
156
156
120
92
86
80
64
40
20
56
96
106
84
40
12
8
8
22
42
46
36
22
12
8
6
2
18
24
4
12
20
60
198
255
255
255
255
255
255
255
255
255
176
92
38
38
56
52
44
34
30
32
22
18
14
16
8
8
32
40
34
34
28
16
6
16
28
24
18
16
14
12
12
10
14
14
6
4
4
4
8
8
2
8
8
8
10
4
2
4
8
12
6
12
10
4
2
2
2
6
12
14
12
6
0
2
2
0
10
12
10
8
10
6
2
12
16
8
10
12
8
6
6
8
6
14
34
48
78
118
164
216
230
216
192
148
98
38
38
58
66
74
106
140
154
148
144
132
114
80
48
44
46
54
56
46
36
32
38
36
30
32
24
16
12
12
18
14
14
28
32
26
20
18
16
14
18
18
14
14
22
32
28
34
30
18
12
12
14
22
28
30
32
30
18
18
24
16
14
18
20
16
16
12
170
255
255
255
255
208
200
174
168
164
152
134
132
142
160
158
138
116
92
82
70
72
80
100
112
108
100
92
82
70
58
54
48
44
46
38
28
24
24
24
20
16
20
28
36
38
50
70
96
148
210
255
255
255
255
255
255
212
110
34
10
22
14
16
24
36
46
54
50
36
36
46
54
44
18
8
4
26
42
62
62
58
72
70
74
74
66
68
68
56
44
34
40
40
46
46
60
74
70
54
26
26
32
38
60
78
72
50
48
60
72
100
110
80
62
52
42
46
62
66
64
58
60
68
64
52
42
96
162
222
255
255
255
255
255
255
255
255
255
255
255
255
255
255
255
198
114
54
30
48
34
32
86
128
144
138
110
82
54
40
26
14
18
20
20
24
24
44
152
255
255
255
255
255
255
255
255
255
255
255
255
255
230
164
110
108
96
90
92
86
70
54
50
48
46
42
50
74
86
76
74
154
242
255
255
255
255
255
255
255
255
255
255
255
255
214
118
56
38
24
48
148
255
255
255
255
255
255
255
255
114
28
48
76
82
68
48
20
6
14
12
44
66
54
72
68
30
24
12
8
14
8
2
8
20
24
26
22
10
4
4
4
10
12
14
16
16
22
34
32
22
4
24
26
14
12
10
26
36
40
28
28
30
34
28
14
6
10
6
8
16
10
8
22
16
6
18
12
20
26
18
14
14
22
20
12
14
32
20
32
26
8
18
24
30
30
16
22
34
34
20
4
6
12
26
32
28
18
18
22
16
26
66
184
255
255
255
255
255
255
255
134
26
38
32
20
14
4
10
16
24
30
34
24
16
12
12
16
12
8
10
10
2
8
10
10
16
18
12
8
4
4
16
24
30
30
24
22
18
24
38
50
56
44
40
88
196
255
255
255
255
255
134
108
140
152
88
26
62
38
26
54
102
132
136
106
58
26
34
82
112
94
58
32
22
8
16
30
34
20
8
30
46
46
24
12
52
126
226
255
226
70
114
172
168
138
112
86
90
92
70
48
24
68
78
52
50
52
76
68
56
52
38
40
54
60
50
30
20
22
18
14
16
6
10
10
8
16
38
110
255
255
255
255
255
255
255
194
116
62
32
36
40
28
24
24
30
34
26
22
14
20
22
22
34
42
46
42
24
12
14
12
16
32
32
18
8
6
4
10
12
10
8
12
14
12
12
14
4
10
14
14
12
4
2
8
10
6
4
12
12
8
6
8
8
8
8
14
18
14
6
4
4
6
6
2
2
6
12
14
8
10
14
10
6
10
14
12
10
6
4
18
46
62
86
126
178
236
255
252
208
148
86
16
38
78
98
108
120
140
146
136
130
108
84
58
40
44
50
56
46
18
22
40
60
64
54
48
38
26
22
20
20
14
8
24
34
32
22
18
26
30
32
26
20
20
30
32
24
30
38
36
30
24
24
28
28
26
32
36
34
26
28
14
2
8
20
26
18
8
150
255
255
255
198
148
128
96
98
96
90
88
82
92
100
88
66
52
54
50
38
36
40
50
52
48
46
42
36
30
26
26
24
22
26
24
16
12
12
12
8
8
12
18
20
18
22
32
36
54
96
160
252
255
255
255
255
255
246
134
42
18
34
38
42
44
40
48
50
48
56
66
64
42
42
32
22
38
42
46
64
78
76
56
66
72
64
68
76
70
60
46
42
50
54
66
82
72
48
34
40
42
38
44
68
72
54
58
44
52
80
92
80
58
58
46
32
60
74
78
78
78
72
62
40
14
26
22
24
60
114
164
216
255
255
255
255
255
255
255
255
255
255
255
255
226
188
140
74
50
22
24
76
102
122
136
126
106
76
58
42
24
16
14
18
64
154
255
255
255
255
255
255
255
255
255
255
255
208
110
50
10
50
76
110
114
96
90
90
80
74
80
86
80
70
60
68
92
112
126
124
124
86
24
60
94
152
236
255
255
255
255
255
255
255
255
255
255
255
255
255
255
255
255
255
255
255
255
174
70
96
96
84
70
52
38
26
20
26
26
22
28
22
20
40
34
12
26
18
6
12
14
12
10
6
16
22
22
12
10
14
14
8
6
12
12
8
4
16
18
20
12
4
10
6
2
12
22
22
16
8
12
16
26
24
10
6
14
12
10
16
20
10
12
26
18
8
16
16
14
8
8
6
12
16
20
6
12
12
14
6
14
24
18
12
26
26
14
18
18
18
16
12
4
22
42
46
50
30
22
16
32
66
50
72
238
255
255
255
255
255
255
255
170
68
18
40
34
22
12
12
20
32
30
22
14
12
14
10
8
8
4
6
14
12
12
18
18
14
14
14
20
32
34
34
30
26
28
32
50
68
74
72
60
74
152
255
255
255
255
246
142
84
142
194
194
136
58
70
58
30
28
80
128
152
122
50
8
28
86
122
114
86
54
32
18
14
18
38
42
24
2
36
62
52
30
88
166
242
254
144
46
206
244
182
106
52
20
22
34
50
60
44
18
42
64
58
46
16
36
54
66
56
38
50
52
36
14
16
20
22
18
14
8
14
16
14
16
16
6
52
194
255
255
255
255
190
114
66
40
30
28
26
24
26
26
28
34
28
20
14
6
22
34
42
44
40
30
16
2
4
4
6
22
32
28
14
2
8
14
18
12
14
14
10
6
6
10
8
2
4
4
4
4
6
8
4
4
10
12
12
8
4
4
4
4
2
8
16
18
14
12
6
2
6
4
6
8
8
12
8
10
12
6
12
16
16
10
8
12
22
42
70
76
90
130
190
255
255
255
246
182
100
36
56
78
94
112
138
170
178
162
140
100
70
48
36
40
40
34
14
12
28
32
54
60
52
42
32
24
20
24
30
24
18
26
36
38
28
32
44
38
46
44
34
34
34
30
24
24
36
46
52
46
44
42
36
30
36
38
42
36
38
26
24
18
20
24
12
6
120
255
255
255
112
92
64
24
34
38
48
58
54
52
52
42
28
34
40
44
42
38
34
32
28
24
24
22
16
14
12
6
0
10
20
20
8
0
0
4
8
16
18
24
20
12
12
20
20
20
42
72
130
186
255
255
255
255
255
255
146
44
70
68
58
38
32
32
42
62
76
72
54
42
56
62
48
40
38
52
66
60
48
30
28
40
44
54
66
66
62
50
38
58
72
82
74
54
38
34
56
72
66
52
66
60
40
56
38
46
56
48
30
42
54
44
42
70
74
66
52
54
46
32
20
14
6
22
26
12
36
64
76
90
106
116
180
254
255
255
255
255
255
255
255
252
228
206
166
122
92
80
90
96
108
120
122
118
96
78
64
48
34
42
110
234
255
255
255
255
255
255
255
154
60
48
34
34
14
28
34
30
30
36
40
26
10
18
30
32
24
28
30
20
10
6
4
14
20
26
28
24
18
10
6
16
22
32
42
102
174
254
255
255
255
255
255
255
255
255
255
255
255
255
255
255
198
104
36
20
8
14
20
16
8
12
4
6
8
6
8
20
22
20
36
30
4
22
24
14
2
6
8
8
4
10
18
20
8
10
18
16
16
6
20
24
24
30
36
22
6
22
30
32
22
8
10
22
26
20
18
20
20
28
32
24
12
18
18
10
8
18
18
10
26
34
20
12
18
26
24
24
30
28
12
12
24
22
16
22
34
34
20
10
20
6
16
32
32
34
40
28
12
18
26
26
12
26
20
12
16
22
16
8
22
12
42
164
255
255
255
255
255
255
255
156
34
16
30
16
10
16
26
30
24
12
8
12
6
4
4
8
14
16
14
16
20
22
24
28
32
38
42
36
36
38
40
46
58
80
90
86
80
76
112
198
255
255
255
186
94
36
58
128
196
224
204
154
114
90
44
40
76
128
146
106
54
28
36
90
138
142
122
84
46
26
16
4
30
48
44
22
32
74
90
66
138
212
254
218
78
104
226
222
142
66
24
10
18
24
12
36
74
80
54
18
32
40
42
32
14
34
48
34
38
32
16
4
4
6
10
14
14
12
16
18
16
18
12
6
12
34
90
176
255
255
252
152
38
32
52
44
28
22
22
24
28
34
26
18
24
32
26
32
30
24
20
24
20
12
8
6
6
16
22
22
18
16
22
20
24
14
14
8
8
6
10
10
8
12
16
16
16
6
6
8
8
10
8
6
8
6
2
0
0
0
0
2
8
14
18
20
18
10
4
4
4
2
8
10
4
8
10
4
24
38
36
32
26
30
44
64
82
78
90
134
198
255
255
255
255
210
108
88
102
112
110
118
170
212
220
196
156
106
78
58
40
32
24
12
12
20
14
10
34
42
38
30
26
24
18
24
36
40
36
34
38
40
34
48
50
38
48
54
46
40
36
32
34
40
48
52
58
62
58
54
48
46
48
46
46
44
50
48
54
48
32
30
20
10
96
250
255
255
66
76
52
12
20
22
24
28
30
26
30
24
14
20
22
26
34
38
38
32
34
30
26
18
12
14
10
2
4
4
18
22
10
2
4
4
12
18
14
24
22
14
12
18
16
6
16
28
58
84
142
234
255
255
255
255
255
160
72
54
60
56
40
32
52
60
58
44
40
32
32
34
38
38
56
70
50
24
32
40
28
8
12
18
38
48
54
50
50
74
82
72
50
62
42
50
58
70
78
56
72
62
46
68
56
56
52
36
18
36
52
48
50
60
48
26
14
22
34
44
48
50
48
38
26
42
54
46
44
30
30
32
32
60
84
94
96
98
102
118
154
180
196
206
196
192
190
190
196
178
158
138
120
112
98
84
74
66
78
172
255
255
255
255
255
255
255
164
56
84
86
70
52
50
48
44
30
12
22
28
32
32
28
20
14
12
10
14
24
24
20
20
20
24
28
28
24
26
26
18
8
8
36
52
50
68
56
50
108
176
252
255
255
255
255
255
255
255
255
255
170
84
30
12
22
44
48
38
36
26
18
16
16
20
14
6
6
14
14
6
28
36
18
6
14
16
10
4
4
4
6
22
30
28
16
24
22
12
20
10
10
8
8
20
18
10
16
22
26
18
24
18
6
16
26
26
22
22
22
26
28
16
2
18
18
10
10
20
22
10
8
14
12
18
18
22
14
14
24
22
28
16
14
22
14
28
36
26
32
20
10
8
2
14
16
28
28
18
12
26
38
36
24
36
38
26
16
10
2
4
22
50
70
60
46
198
255
255
255
255
255
255
255
184
34
28
36
36
26
20
18
10
16
18
6
2
4
8
14
16
18
22
26
32
34
32
32
32
30
30
42
54
60
70
86
104
104
88
78
80
116
174
220
222
186
146
86
38
28
74
138
180
192
176
138
114
106
110
120
134
160
128
48
22
42
64
126
148
140
100
46
20
26
24
18
32
38
64
78
72
116
128
216
255
255
158
8
160
224
182
100
36
34
36
20
16
42
30
18
42
68
72
48
14
36
60
46
10
22
30
26
22
10
4
2
6
6
6
8
12
14
18
20
24
26
24
18
4
16
28
94
180
232
216
136
42
28
44
48
46
42
38
38
42
32
14
14
30
40
28
10
4
12
20
18
10
2
2
10
18
20
14
8
22
22
22
24
14
8
8
14
16
18
18
16
24
24
24
26
18
4
2
4
4
2
4
8
10
8
4
2
0
2
2
0
6
12
18
20
16
10
4
2
2
10
8
2
8
10
10
28
32
16
20
18
26
42
58
74
74
94
146
214
255
255
255
255
188
86
120
130
138
142
154
196
214
204
174
142
112
98
76
44
26
30
26
14
14
14
20
26
38
46
44
40
34
20
16
22
28
32
36
38
34
36
46
40
26
30
34
32
34
42
42
50
52
52
48
40
42
42
42
46
54
60
60
50
42
50
46
60
58
44
24
18
12
88
242
255
255
70
76
40
24
36
22
10
8
12
18
24
20
18
18
10
16
22
22
30
36
42
36
28
16
6
12
16
10
2
18
28
24
8
6
6
10
12
10
2
10
12
10
12
16
12
4
4
10
24
30
56
116
208
255
255
255
255
255
176
56
24
58
54
46
52
44
32
24
32
26
16
6
12
36
56
34
26
82
106
100
78
78
76
52
16
12
28
32
66
82
72
44
30
50
40
52
48
42
60
52
66
60
50
74
74
70
60
46
34
46
56
56
58
54
30
4
4
16
44
62
70
74
70
66
70
80
72
54
56
38
36
36
14
20
42
56
76
110
138
130
92
50
104
142
152
180
214
246
255
255
220
168
122
98
86
78
74
94
214
255
255
255
255
255
255
156
68
56
36
14
10
22
12
4
10
14
8
2
14
16
12
8
8
6
0
4
6
4
4
6
6
10
10
6
10
14
12
12
18
20
22
26
16
6
28
34
22
8
14
34
56
60
36
2
30
40
34
26
20
22
22
20
12
20
20
22
32
32
28
18
18
14
12
8
2
10
12
8
16
18
22
16
18
12
14
18
14
0
10
4
12
28
30
24
14
24
30
24
18
2
22
22
22
26
14
16
18
10
8
14
20
16
10
6
10
12
16
16
16
14
18
20
16
18
14
12
14
20
18
8
20
34
36
28
18
20
22
22
28
4
22
30
14
14
4
18
20
6
20
30
20
6
8
14
12
18
12
6
4
20
32
38
36
44
38
20
10
12
22
32
28
14
8
6
38
42
26
186
255
255
255
255
255
255
255
96
10
24
24
22
22
14
22
30
18
8
4
6
16
18
20
24
28
34
30
20
16
14
16
30
52
68
76
88
104
116
102
70
54
56
84
120
142
186
198
176
132
88
42
16
68
112
146
158
146
144
156
172
182
166
182
150
58
70
64
48
116
158
172
146
96
52
36
40
64
84
98
104
98
82
84
132
208
232
158
28
124
210
208
144
86
32
24
54
62
34
28
60
76
60
30
36
68
54
16
52
62
38
14
18
20
20
14
14
14
10
6
4
8
10
10
10
10
14
22
26
26
22
22
24
40
90
162
212
204
138
56
4
44
64
64
54
46
42
34
18
20
28
30
36
26
14
14
16
12
10
6
4
8
18
22
20
12
24
14
20
20
14
6
12
18
24
28
28
20
24
20
22
26
22
14
8
4
2
0
2
4
8
10
8
4
4
6
4
6
4
4
8
12
14
14
8
2
4
8
6
4
10
14
10
20
32
24
18
8
16
32
50
72
74
98
156
232
255
255
255
255
146
60
112
134
144
156
206
220
200
166
140
130
118
108
78
44
40
42
42
30
22
16
2
26
50
60
58
52
42
24
10
6
8
14
24
30
24
32
32
24
16
14
10
18
34
42
50
54
48
42
30
20
16
14
24
38
48
56
68
56
34
42
34
46
48
40
28
16
12
92
244
255
255
66
72
48
42
44
18
12
10
14
22
22
18
22
28
22
22
22
20
28
36
36
30
28
26
18
12
10
12
16
22
20
12
2
8
4
10
10
12
10
14
4
8
14
14
6
2
2
8
8
2
14
46
104
202
255
255
255
255
255
146
32
46
64
52
50
48
42
42
46
40
38
28
40
30
10
80
146
186
202
196
170
176
176
146
92
40
14
36
64
66
44
20
18
24
18
34
28
16
24
12
30
36
32
44
52
54
50
46
44
54
62
66
78
74
66
58
34
54
76
74
68
82
72
62
66
58
42
44
44
30
42
46
30
34
62
94
122
142
136
94
50
32
18
52
76
114
156
200
236
238
216
170
122
92
86
86
112
244
255
255
255
255
255
230
86
62
44
12
26
24
24
28
14
18
18
8
6
12
24
24
20
20
20
12
6
6
12
16
18
20
24
20
20
24
18
10
4
4
12
12
8
4
16
16
14
12
6
4
26
46
72
104
124
120
94
82
78
66
50
38
22
6
8
18
18
12
12
16
26
28
26
14
14
20
22
22
16
12
6
8
14
12
2
16
28
30
20
14
18
14
22
22
16
16
14
6
4
6
14
22
20
6
10
14
8
8
12
14
16
28
30
26
16
2
10
12
6
10
10
6
8
14
10
4
8
10
6
8
16
10
22
22
10
12
30
28
10
12
18
16
26
18
12
4
6
14
20
20
14
18
22
22
22
16
14
18
12
6
12
18
8
2
18
28
16
10
18
20
22
14
10
20
28
24
16
30
46
10
108
255
255
255
255
255
255
255
255
134
28
36
56
38
20
24
16
10
10
16
28
28
26
26
28
32
22
12
12
16
30
52
74
86
92
102
114
118
90
50
26
16
62
116
130
140
174
192
178
142
92
32
60
88
134
164
162
154
160
172
180
204
206
130
18
96
134
100
130
188
230
240
224
202
186
206
206
186
150
108
64
18
30
64
130
190
194
180
228
226
182
130
88
54
38
46
72
70
56
86
92
106
102
64
70
80
48
50
60
40
30
20
20
22
20
24
24
22
20
16
18
14
8
2
6
10
16
28
30
26
26
28
32
50
98
166
214
204
138
60
12
46
56
48
36
26
24
26
28
26
24
20
18
20
22
20
14
6
8
10
14
18
26
34
34
36
20
26
26
24
18
22
18
20
24
24
16
14
10
14
20
16
12
8
6
4
2
4
4
4
6
8
8
6
4
2
4
6
6
12
12
8
14
14
8
12
16
14
10
10
14
12
12
12
16
16
10
26
44
64
88
84
106
168
250
255
255
255
224
132
56
94
132
152
220
255
255
222
178
154
144
116
86
48
42
44
50
50
34
18
16
12
8
22
34
38
36
32
26
20
14
8
8
12
14
18
20
16
8
14
14
12
32
50
54
54
48
38
26
18
16
16
16
24
32
36
28
52
54
38
36
24
36
42
36
30
24
20
96
248
255
255
88
82
54
46
40
20
22
22
26
28
22
18
18
28
30
24
22
24
32
28
20
16
20
26
26
26
20
22
18
12
10
10
8
4
4
8
6
6
10
8
4
10
10
4
4
4
2
6
6
4
6
14
44
112
206
255
255
255
255
236
98
38
44
40
32
46
44
50
54
42
38
52
40
36
124
204
252
255
255
255
244
255
255
254
196
126
82
70
54
32
12
42
56
62
54
70
66
62
76
64
82
78
52
28
14
10
18
22
36
48
60
72
82
78
92
96
70
70
76
56
44
64
54
36
28
24
22
28
30
20
50
50
50
80
82
80
96
92
66
30
38
54
46
32
50
48
88
128
162
182
182
144
102
74
76
106
236
255
255
255
255
255
160
56
16
26
40
20
24
14
14
22
16
2
10
14
30
40
40
32
26
22
16
10
10
12
18
20
24
26
22
12
14
24
34
36
24
12
18
26
34
34
28
22
8
12
12
12
22
26
24
14
18
26
20
12
24
30
26
16
6
6
10
12
8
8
18
18
8
10
26
40
34
28
24
18
14
16
18
26
18
8
14
32
36
26
20
18
20
22
14
8
24
30
28
20
20
32
38
26
8
16
26
24
10
10
12
12
14
22
24
22
18
18
18
22
18
10
6
8
2
4
6
10
10
10
8
6
16
8
10
14
24
38
34
8
24
24
12
20
22
12
10
8
12
8
6
16
30
38
40
28
14
6
18
26
14
4
24
26
22
24
26
18
10
28
32
24
42
38
22
18
14
22
30
38
38
36
26
4
84
230
255
255
255
255
255
255
255
122
26
22
32
22
14
14
16
24
36
34
26
22
26
30
20
18
24
36
60
82
98
104
108
110
106
96
60
62
56
54
148
202
176
104
72
138
180
186
158
82
118
150
166
188
204
198
190
182
228
246
208
100
36
128
154
122
112
184
234
250
248
254
255
255
244
226
182
108
32
70
104
140
206
255
255
246
216
178
140
114
86
58
34
16
46
70
74
70
60
56
96
98
92
92
38
52
60
44
26
14
14
20
22
28
28
28
30
28
22
16
16
8
8
18
12
24
26
20
18
26
36
38
46
90
162
212
200
140
60
26
48
52
40
26
20
28
28
24
28
30
26
20
18
16
6
8
20
20
24
16
20
32
40
34
34
36
34
30
26
24
18
14
16
18
12
8
6
12
20
16
12
8
8
8
4
4
4
4
8
8
6
4
0
0
4
4
6
12
8
2
8
12
8
20
22
16
10
8
10
12
12
10
10
16
24
50
66
84
104
94
120
188
255
255
255
255
204
124
42
72
132
222
255
255
255
238
188
158
136
88
44
12
22
32
48
58
46
24
20
2
14
30
40
40
28
26
26
28
28
20
14
12
6
14
12
8
8
18
22
30
42
52
46
38
28
32
26
20
12
16
16
18
18
20
8
18
30
28
24
22
26
32
26
20
16
12
92
244
255
255
98
84
52
40
34
18
22
28
32
32
26
22
20
20
24
24
26
36
42
28
18
16
16
18
20
24
22
14
12
8
6
4
2
2
4
4
4
2
2
4
6
8
10
14
10
8
16
20
22
10
10
12
12
62
132
230
255
255
255
255
176
66
10
8
4
22
18
22
34
16
24
18
42
136
218
255
255
255
255
255
255
255
255
255
255
244
184
150
122
96
96
132
160
182
184
196
204
184
174
154
166
172
156
130
104
88
76
54
40
22
30
38
40
28
44
60
50
42
46
28
18
36
32
22
18
20
30
42
42
40
54
36
32
64
86
90
86
88
88
78
92
90
66
64
58
32
72
142
204
224
204
150
82
46
92
212
255
255
255
255
255
124
34
12
14
24
20
6
6
8
12
14
8
8
26
42
44
36
26
20
10
8
14
10
2
8
10
8
10
6
2
2
8
22
20
34
28
8
2
10
14
24
22
8
4
10
14
16
10
16
28
36
42
36
26
16
8
12
22
22
12
10
20
26
12
30
48
44
54
40
48
42
20
8
12
6
4
8
10
10
16
30
48
50
28
14
10
2
6
6
18
26
20
28
22
10
18
32
30
16
24
22
12
10
6
10
16
20
12
10
18
14
20
24
8
24
28
18
8
12
6
4
10
14
8
10
14
6
6
10
10
6
14
16
6
18
24
8
24
22
10
8
12
14
12
10
10
14
16
14
10
2
10
18
22
14
10
12
14
14
12
16
14
20
18
18
24
20
14
10
10
6
12
20
20
22
16
10
38
56
38
20
118
255
255
255
255
255
255
255
255
134
10
60
44
24
22
30
38
30
18
20
34
42
36
38
46
66
94
112
124
130
136
126
98
66
32
56
116
232
255
255
222
116
76
14
114
192
228
188
152
198
216
196
250
255
255
254
252
255
222
132
102
180
188
104
102
130
168
136
88
140
148
136
134
132
124
94
88
98
100
102
120
136
172
180
146
92
78
64
44
28
26
32
52
58
78
96
86
44
28
22
16
34
20
42
66
74
66
46
26
18
24
28
24
22
24
28
28
22
26
26
24
26
12
20
26
24
22
30
40
36
18
22
76
160
220
218
146
36
50
78
62
38
26
30
32
24
20
16
16
24
34
32
16
26
28
22
32
24
24
26
24
22
32
38
34
24
20
22
22
18
16
18
20
20
18
24
32
28
24
20
18
18
16
18
16
10
10
8
8
8
4
4
6
8
12
10
2
2
6
6
4
16
14
6
4
6
8
8
8
10
20
30
44
70
80
92
104
102
148
228
255
255
255
255
180
100
10
104
216
255
255
255
255
204
148
122
106
64
26
8
14
22
38
60
66
52
32
14
16
16
26
46
58
52
38
28
32
36
32
28
20
24
22
22
26
28
30
30
32
32
20
14
2
16
24
24
8
6
8
6
8
16
14
14
8
0
8
18
22
30
26
20
18
16
102
255
255
255
94
82
50
36
32
20
22
26
32
30
26
28
24
20
22
26
32
42
44
28
28
24
20
14
12
14
14
8
12
14
16
16
14
8
4
4
8
10
14
18
12
6
6
10
8
26
28
22
32
30
18
8
10
40
84
156
255
255
255
255
232
116
46
20
24
34
40
34
32
8
24
12
100
202
255
255
255
255
255
250
210
254
255
255
255
255
255
254
226
198
210
240
255
255
255
255
255
255
255
252
250
255
255
255
240
216
202
178
152
118
80
54
38
20
20
22
24
18
22
12
6
18
22
16
8
8
22
44
46
38
36
10
28
68
86
88
96
122
138
110
140
136
94
82
48
30
94
172
222
228
190
118
68
64
192
255
255
255
255
234
106
34
22
32
34
30
24
10
10
4
10
10
6
30
44
44
30
16
8
12
18
26
20
24
10
4
10
18
24
18
14
10
14
16
2
20
24
12
6
14
10
4
14
14
4
12
20
14
4
10
14
20
22
14
6
14
20
24
34
34
30
24
22
30
12
38
50
40
48
44
26
12
24
16
12
12
20
30
28
24
18
44
52
36
24
20
14
6
10
16
24
20
6
20
22
12
20
24
16
4
14
22
22
18
8
8
14
20
16
2
16
22
24
10
18
34
32
16
10
12
2
6
6
10
8
4
14
18
14
10
12
16
28
30
20
18
20
10
14
28
28
22
20
18
16
16
10
8
8
16
18
18
20
22
12
8
14
12
4
24
26
22
8
8
10
4
18
32
32
20
8
4
10
8
8
14
26
34
26
22
30
36
34
46
76
242
255
255
255
255
255
255
218
42
40
28
18
22
30
24
18
28
46
58
58
60
68
88
110
124
138
146
150
136
100
74
74
148
255
255
255
255
156
156
148
76
42
156
240
250
198
154
116
38
116
184
236
255
255
255
246
158
122
212
255
228
112
52
150
152
98
124
80
84
120
140
140
124
100
74
54
40
30
14
18
54
74
62
20
30
54
52
38
44
48
40
54
82
98
90
96
104
100
110
82
18
56
112
140
136
102
58
28
24
14
12
14
20
30
28
30
34
30
22
10
14
20
20
20
30
42
42
24
14
14
70
162
234
224
120
10
70
78
62
46
36
34
30
30
26
22
28
40
46
32
34
28
22
32
32
22
18
12
12
18
30
30
18
10
12
16
18
16
14
20
22
20
22
30
28
24
22
20
18
16
20
22
18
16
14
16
16
10
8
8
12
10
4
14
10
16
14
8
18
14
8
8
10
10
8
10
16
28
40
54
76
82
86
100
114
168
246
255
255
255
238
144
74
16
140
255
255
255
255
240
164
114
92
80
48
20
14
14
18
26
48
62
58
46
28
8
16
36
54
72
72
54
30
26
38
42
38
30
32
38
44
46
40
36
24
22
18
14
20
18
4
14
26
20
10
12
10
12
6
12
16
14
14
8
14
26
34
32
28
28
26
92
255
255
255
90
78
50
38
36
22
20
22
24
18
20
24
32
34
34
32
30
32
30
18
24
24
22
16
14
16
18
14
22
22
20
20
22
24
16
20
28
32
30
28
28
30
30
28
32
36
22
8
22
32
32
28
28
36
50
98
200
255
255
255
255
140
54
14
6
10
22
16
34
46
44
50
116
226
255
255
255
255
204
146
110
148
208
255
255
255
255
255
255
255
255
255
255
255
255
255
255
255
255
255
255
255
255
255
255
255
255
255
255
240
186
136
94
54
20
16
8
4
12
16
6
10
22
26
24
24
16
10
20
10
14
10
38
70
84
90
122
148
128
50
106
140
120
66
30
40
116
186
228
220
154
80
76
180
255
255
255
255
248
122
54
32
34
40
32
22
18
12
18
20
26
32
34
38
30
18
6
8
6
10
28
26
10
22
10
10
20
20
28
20
8
8
18
22
10
14
26
26
18
14
12
6
10
18
12
8
28
32
26
16
2
12
12
0
8
10
18
44
68
66
50
26
22
22
6
26
36
32
20
26
26
22
30
24
2
12
26
28
16
28
34
42
34
6
22
36
26
8
6
12
30
32
24
32
24
12
20
32
36
36
38
28
14
8
14
26
20
6
10
12
4
2
4
4
12
16
14
2
22
24
12
12
10
16
18
8
10
18
30
22
8
6
8
14
14
8
8
8
8
14
22
24
18
6
0
4
12
14
16
8
4
10
12
10
6
16
14
16
22
20
8
14
12
4
8
6
14
14
16
12
12
16
12
2
14
14
18
18
12
10
34
46
40
50
26
42
108
252
255
255
255
255
255
255
134
6
38
38
36
34
32
40
58
74
80
84
92
104
118
132
146
152
154
150
132
140
178
244
255
246
164
58
44
74
126
142
88
132
208
230
226
252
255
255
255
255
255
255
255
255
224
100
46
112
192
234
202
208
255
246
174
226
192
136
132
122
114
96
70
62
56
44
30
20
10
12
36
46
40
36
64
68
46
28
22
18
30
42
50
52
86
100
92
124
126
86
120
152
188
234
210
136
56
26
18
10
14
14
24
26
26
28
30
28
18
10
10
10
10
18
34
46
46
30
6
20
64
168
244
216
112
28
54
68
56
38
32
34
34
24
14
12
18
30
30
28
22
18
22
24
20
16
14
12
8
18
24
20
10
8
12
10
6
6
2
12
18
18
20
14
8
8
10
8
2
6
10
6
10
14
20
20
14
12
12
16
14
26
30
20
28
28
20
30
26
18
16
16
14
12
18
26
38
50
58
72
72
78
108
126
162
222
255
255
255
192
102
56
16
144
255
255
255
255
214
154
110
80
60
30
10
12
12
18
24
38
44
36
34
32
28
38
40
28
42
52
50
32
22
28
34
30
22
32
44
50
46
44
46
32
24
24
16
4
10
14
0
20
34
30
26
24
10
10
22
12
10
8
12
24
34
32
26
20
12
4
100
255
255
255
86
68
44
36
34
16
14
16
16
14
20
24
28
28
30
26
20
18
14
8
12
16
18
18
20
26
32
32
38
30
22
22
22
32
36
48
54
52
44
40
44
44
44
44
42
32
16
6
14
22
26
32
36
42
40
74
166
255
255
255
250
140
56
32
24
38
54
48
46
56
40
70
144
236
255
255
226
160
90
36
12
36
96
144
184
224
255
255
255
255
255
255
255
255
234
212
194
208
232
254
255
255
255
255
255
255
255
255
255
255
255
255
230
172
112
68
42
26
18
10
8
10
24
34
22
22
30
12
10
2
10
8
38
76
96
120
154
148
82
24
112
144
116
58
20
36
120
200
240
212
110
44
164
255
255
255
255
248
134
66
52
48
36
20
12
6
12
18
26
26
22
24
22
20
12
6
12
20
22
4
22
32
18
20
2
24
24
14
22
16
4
6
18
24
20
10
12
18
22
18
12
4
6
14
18
16
30
40
38
28
16
14
26
20
10
18
36
40
58
42
54
44
32
8
16
12
26
42
44
48
38
24
30
28
8
18
26
14
8
16
26
50
66
46
4
34
34
14
8
10
18
24
16
20
12
6
2
14
32
38
38
32
22
10
10
24
26
18
8
6
10
12
14
6
12
26
24
14
32
24
16
16
10
12
20
22
14
2
20
24
16
8
6
4
2
4
8
12
12
8
8
18
20
10
6
8
16
20
26
30
28
16
4
6
16
12
6
10
22
32
32
34
26
16
4
10
26
34
32
26
26
22
12
12
10
2
8
20
24
14
8
24
12
18
40
28
54
46
86
255
255
255
255
255
255
250
96
74
42
36
38
50
76
94
98
100
108
120
140
156
164
176
202
232
236
228
212
176
106
100
138
138
158
174
200
190
96
150
228
234
212
242
255
255
255
255
255
255
255
255
146
52
96
150
142
126
136
222
248
190
122
188
202
154
74
68
64
70
80
88
82
62
34
12
6
8
26
46
48
34
34
56
44
18
8
28
36
36
30
52
72
76
52
80
110
126
138
122
80
170
200
158
78
22
16
6
12
12
16
20
20
20
26
32
26
16
8
4
4
6
14
30
46
44
20
12
4
76
180
232
200
106
12
60
62
42
30
34
36
28
24
18
14
20
24
26
24
24
24
18
14
14
14
10
12
14
10
14
14
16
16
14
8
8
10
26
32
30
30
22
16
12
8
8
8
14
14
4
8
10
14
16
12
12
12
14
20
30
28
16
24
24
16
28
24
14
12
14
18
22
30
34
44
54
58
68
68
84
120
132
158
222
255
255
255
168
84
52
18
172
255
255
255
255
170
126
88
54
36
16
4
8
8
12
24
36
36
24
22
36
48
42
20
14
34
32
42
40
34
30
32
30
26
36
44
42
28
28
38
32
30
30
32
32
18
14
12
14
30
34
28
16
12
24
24
18
16
10
24
36
40
32
20
22
18
12
96
255
255
255
90
66
40
32
28
8
8
12
18
22
22
14
6
4
4
8
14
16
8
2
6
4
8
20
30
34
38
48
50
44
38
26
30
46
64
74
72
64
54
50
54
50
44
42
36
36
30
24
22
16
12
12
16
30
32
62
150
255
255
255
230
154
84
48
28
34
42
32
20
10
44
120
190
240
238
210
178
128
84
56
52
46
50
60
90
110
120
132
140
148
156
164
182
188
176
154
130
118
124
138
150
154
158
186
226
255
255
255
255
255
255
255
255
255
255
222
164
118
74
30
8
22
38
26
22
20
24
12
10
10
12
2
28
66
110
144
152
112
54
68
132
156
140
88
34
50
154
246
255
198
54
116
255
255
255
255
238
118
48
28
36
30
6
16
20
10
4
24
32
24
18
20
18
10
10
12
28
30
44
32
6
14
8
12
26
28
14
8
20
14
6
14
20
24
22
14
12
10
8
4
4
6
2
2
14
28
26
12
26
32
24
8
8
20
20
12
42
78
88
58
56
52
24
18
24
10
10
8
14
12
4
10
22
30
20
24
18
14
10
10
4
14
38
46
26
24
28
20
14
26
36
30
22
20
10
10
14
26
24
16
14
20
18
16
8
8
12
12
14
12
10
8
12
10
4
16
18
14
26
14
8
10
4
2
12
28
30
18
24
20
14
10
8
6
6
8
12
16
14
8
2
16
26
24
10
10
14
14
12
22
30
22
6
18
16
8
2
4
4
14
22
20
30
36
26
14
14
12
6
12
14
8
10
18
14
6
4
10
22
32
28
6
18
36
24
14
30
38
16
40
150
255
255
255
255
255
255
216
84
44
58
82
114
126
124
128
140
162
198
212
214
242
255
255
255
250
200
76
148
198
216
206
174
172
176
150
66
154
255
255
218
182
144
102
88
138
198
236
218
154
122
54
106
132
106
30
44
78
78
60
40
58
122
144
112
46
30
64
94
120
126
104
70
44
30
20
26
40
62
56
22
30
28
28
24
32
52
58
62
82
80
50
16
92
142
130
126
142
134
212
224
164
72
28
10
4
12
14
16
16
16
14
20
30
30
28
18
6
4
10
18
26
32
22
14
6
0
22
92
168
204
166
62
42
60
48
32
32
34
36
48
48
40
36
26
24
26
32
36
22
10
2
10
24
28
22
20
20
24
22
16
16
10
12
8
20
26
24
22
18
14
10
8
8
6
8
10
8
4
8
16
18
10
6
8
10
16
16
10
4
14
16
8
20
16
8
6
12
26
32
32
30
40
50
56
70
78
98
126
142
192
255
255
255
255
170
88
42
62
255
255
255
255
202
102
72
44
16
10
8
8
16
14
6
18
38
42
32
30
42
46
26
2
16
32
40
46
50
50
46
42
38
36
38
36
20
0
6
18
22
26
22
26
36
34
18
16
8
12
12
8
10
22
30
24
22
32
32
42
42
42
38
34
28
12
4
96
255
255
255
92
68
44
34
28
8
8
12
20
20
12
4
6
12
10
6
14
14
18
12
6
12
24
40
48
46
50
54
46
50
50
40
48
68
78
76
68
60
56
52
54
48
38
30
16
20
22
22
18
14
14
16
24
32
18
30
118
240
255
255
255
168
92
46
22
12
16
18
14
40
86
148
198
232
226
186
164
124
80
46
40
36
38
22
22
30
28
28
36
46
56
80
106
116
104
84
72
62
64
66
66
64
60
70
94
136
184
240
255
255
255
255
255
255
255
255
255
255
220
126
54
40
30
6
20
26
22
8
2
4
4
8
28
66
102
132
144
120
66
90
134
160
154
94
42
114
240
255
242
110
66
236
255
255
255
226
102
34
34
22
24
8
18
30
24
18
16
18
22
22
32
32
44
34
6
22
34
24
42
44
22
10
14
20
18
4
12
22
22
10
8
10
8
16
16
12
18
20
20
16
18
20
18
16
18
30
22
4
20
26
24
18
18
20
20
18
18
58
86
84
60
48
14
12
10
4
14
18
14
12
12
12
12
22
18
16
8
10
4
6
8
26
34
28
32
32
36
32
32
38
36
30
32
26
8
20
26
38
56
50
24
30
24
18
6
6
6
2
6
14
20
20
16
8
12
18
10
8
18
14
12
16
6
6
6
18
26
20
20
18
12
6
6
10
8
8
10
22
24
16
6
6
16
20
12
4
14
26
20
16
22
22
10
28
18
18
12
4
8
10
12
10
20
32
36
20
4
22
20
8
2
6
6
12
14
12
8
6
10
18
30
20
30
40
16
32
28
14
16
30
52
58
168
255
255
255
255
255
255
144
114
134
158
164
168
184
200
228
255
255
255
255
255
255
200
200
210
255
255
234
194
206
174
120
118
100
56
108
220
246
184
110
76
122
108
182
214
210
192
172
132
54
72
86
76
56
82
134
154
138
98
38
32
92
114
82
28
42
82
124
152
146
114
80
56
34
4
34
62
72
56
42
42
40
34
32
44
60
70
64
34
22
90
134
122
66
108
152
228
248
206
120
44
30
10
12
16
18
20
18
18
16
16
24
28
34
30
16
14
16
20
24
26
14
10
14
6
18
34
102
168
182
116
14
54
66
48
32
22
40
48
54
48
42
24
14
14
20
28
18
18
20
30
38
32
24
22
22
26
22
18
20
12
18
14
24
28
22
14
10
10
8
6
8
6
2
4
6
4
10
18
14
4
4
6
8
8
4
6
20
28
30
20
32
28
18
14
18
28
26
20
22
34
44
52
72
84
96
118
152
232
255
255
255
255
158
78
42
130
255
255
255
255
146
54
38
38
20
20
14
10
14
12
2
18
40
50
52
46
42
48
40
20
2
24
38
40
44
48
52
46
34
22
16
8
6
10
4
10
16
12
10
8
18
26
20
6
14
22
20
22
30
36
38
30
28
36
44
46
42
44
44
38
26
20
16
102
255
255
255
94
66
50
38
28
10
8
12
18
14
6
8
12
8
12
16
14
8
16
24
20
34
42
54
56
50
50
42
34
38
46
46
60
68
66
54
44
40
46
46
46
38
28
20
18
20
24
34
44
38
30
26
32
46
44
64
152
255
255
255
252
164
86
30
18
8
18
22
32
56
92
146
204
255
255
226
160
92
44
16
8
10
22
24
22
16
10
22
44
52
52
58
62
56
40
30
42
42
44
44
48
46
46
52
56
70
92
122
160
194
234
255
255
255
255
255
255
255
255
255
174
82
38
20
18
12
6
16
18
20
8
18
44
84
126
166
196
192
134
112
148
164
132
28
114
252
255
255
142
78
216
255
255
255
236
98
24
8
36
28
16
6
20
18
14
14
24
32
20
6
14
4
28
40
22
28
28
14
14
34
28
8
16
30
24
24
30
22
14
6
6
12
12
12
6
14
12
8
10
12
28
30
28
28
20
28
18
0
16
22
16
12
22
26
24
14
8
16
16
26
30
40
38
42
30
16
16
16
10
6
4
6
14
18
10
4
2
4
4
6
10
18
22
24
28
28
32
30
24
12
10
26
34
24
4
22
18
12
40
60
44
26
24
28
20
24
18
4
10
12
8
8
12
14
10
10
8
6
12
14
14
12
4
8
4
4
10
8
2
8
12
12
10
6
12
14
8
8
20
18
12
16
24
24
14
8
10
20
22
22
20
10
18
30
18
24
22
14
10
12
12
12
10
18
24
24
18
14
16
8
6
10
6
8
4
10
16
12
8
20
20
4
30
30
4
16
18
10
22
36
52
26
30
52
206
255
255
255
255
255
204
192
208
224
248
255
255
255
255
255
255
255
255
140
106
255
255
255
236
132
98
132
146
104
70
74
52
48
110
126
98
120
152
118
60
144
194
192
166
148
118
50
30
84
98
76
66
114
152
142
104
56
28
50
96
102
70
58
42
90
134
156
148
124
96
64
24
22
48
58
52
38
38
38
36
34
34
34
20
14
54
94
114
90
50
60
110
132
130
98
60
30
22
22
18
20
20
22
20
12
12
16
16
18
18
24
28
22
24
26
22
22
28
26
18
18
4
12
6
58
128
172
152
70
36
86
76
36
22
30
20
26
24
24
14
2
10
28
40
38
30
28
34
36
28
20
16
18
24
22
24
26
18
24
30
36
38
30
14
6
6
6
10
16
16
16
16
8
10
6
8
8
8
6
4
4
4
2
8
16
20
20
8
20
18
24
28
26
20
16
12
24
34
40
48
74
86
88
112
164
255
255
255
255
202
134
52
66
198
255
255
255
252
112
36
30
26
12
14
14
10
20
22
14
20
36
50
64
70
68
70
62
46
32
14
10
16
22
28
38
40
24
16
14
14
8
8
18
16
6
6
14
10
10
16
28
40
38
36
34
40
48
50
48
42
42
42
38
36
36
40
38
24
24
18
12
100
255
255
255
100
56
38
26
22
12
12
14
16
14
12
12
18
18
18
16
12
10
14
22
28
36
40
44
42
36
32
26
30
28
28
32
44
46
46
36
24
18
24
28
30
28
34
38
30
26
32
42
48
36
26
22
26
48
58
100
202
255
255
255
252
158
72
10
26
18
16
24
50
84
134
204
255
255
255
232
148
82
44
16
6
8
12
12
6
18
38
54
68
66
52
42
40
36
24
16
18
26
34
38
44
40
38
46
42
38
42
50
64
82
110
148
198
255
255
255
255
255
255
255
255
226
134
72
22
18
26
18
8
28
44
42
60
104
144
180
220
248
222
152
184
158
56
108
255
255
255
230
36
142
255
255
255
255
132
32
36
16
38
24
18
16
14
8
16
16
20
14
16
12
12
6
22
24
16
18
20
16
10
18
24
16
10
26
24
20
18
8
8
12
16
18
18
10
10
10
2
4
0
14
24
22
20
24
8
12
18
6
14
24
20
20
28
26
16
10
34
42
34
24
14
22
26
40
40
26
22
22
16
14
8
8
14
18
10
8
12
10
4
6
6
18
22
20
20
22
24
18
10
14
24
22
16
12
12
14
12
10
4
26
30
22
24
34
24
34
34
18
12
6
0
2
10
22
26
28
20
8
8
6
6
8
8
12
8
4
8
12
10
6
4
6
8
10
6
6
10
6
8
14
12
14
18
18
12
8
8
8
8
14
10
6
14
20
12
20
26
18
8
6
14
16
6
12
12
16
20
18
14
6
4
8
8
8
2
10
10
20
18
16
4
24
30
12
8
18
16
12
14
12
10
14
22
52
54
96
255
255
255
255
255
240
255
255
255
255
255
255
255
255
255
255
160
126
255
255
255
255
120
22
10
34
80
88
52
48
12
50
112
140
142
144
140
84
50
144
196
188
152
130
104
58
36
90
126
106
90
92
162
164
124
76
44
24
74
110
106
64
22
42
88
124
144
156
158
138
88
26
18
30
26
22
26
32
32
18
16
24
50
78
94
94
68
30
40
74
70
46
20
24
22
16
20
24
20
20
20
18
10
2
2
8
14
16
12
12
16
18
22
24
24
24
28
26
20
20
8
8
6
26
84
152
182
140
46
66
88
46
18
14
14
34
38
32
22
18
28
42
50
46
32
24
24
22
12
4
4
14
24
24
24
20
16
22
30
32
32
24
12
14
10
8
14
18
14
14
20
18
10
6
2
2
4
4
2
2
2
2
8
18
20
16
4
16
30
36
32
24
14
10
20
26
26
32
46
76
88
92
130
198
255
255
255
250
200
134
28
108
255
255
255
255
216
92
32
36
36
16
6
8
18
22
16
4
10
20
36
56
70
74
76
68
60
54
38
16
6
8
18
30
40
34
32
18
14
12
12
8
4
16
24
26
16
16
26
48
58
46
40
40
44
48
46
44
46
46
40
32
28
28
28
22
12
22
24
20
100
255
255
255
100
56
40
28
20
12
12
14
20
24
22
18
16
14
10
8
12
16
22
20
16
18
18
18
28
24
8
4
14
14
4
6
18
22
24
20
10
16
32
44
52
54
50
42
28
22
26
32
34
22
18
16
20
48
76
144
250
255
255
255
255
154
60
4
28
20
22
46
90
154
234
255
255
255
255
170
86
38
30
22
14
10
10
18
30
54
66
66
64
54
36
30
36
42
30
14
8
10
18
24
26
20
16
24
20
12
14
18
24
36
50
74
98
128
150
184
254
255
255
255
255
255
255
190
78
22
44
52
62
82
80
64
60
98
136
166
198
244
255
212
190
96
82
255
255
255
255
112
90
172
255
255
248
164
68
28
42
34
26
18
16
18
12
4
14
32
36
22
30
28
22
16
24
22
14
16
20
12
6
18
24
16
10
12
10
6
14
10
12
20
20
12
14
18
16
4
4
4
10
16
12
12
8
16
12
16
28
22
4
14
24
26
24
10
14
40
46
34
26
30
32
30
16
10
20
22
14
8
8
6
2
4
12
20
16
18
20
18
16
6
2
6
8
6
6
12
12
8
6
8
6
24
40
36
16
6
8
12
20
30
16
4
20
22
6
16
30
30
16
4
2
8
14
22
32
40
34
20
20
22
20
22
16
14
10
12
16
24
30
24
16
16
10
8
12
8
0
4
0
8
12
4
10
20
18
10
10
6
4
8
4
10
26
24
14
4
18
16
8
6
16
26
22
10
6
10
10
6
2
8
10
14
20
22
6
8
4
16
32
26
34
36
16
8
16
14
6
20
28
22
16
12
12
26
24
30
44
194
255
255
255
255
255
255
255
255
255
255
255
255
255
214
255
255
255
255
255
140
30
34
44
36
24
38
42
20
58
100
120
112
102
120
118
94
74
200
255
244
172
156
126
72
34
78
126
140
120
68
172
204
176
130
84
26
42
100
120
100
54
10
38
68
94
136
186
210
176
102
34
26
6
8
16
24
16
14
46
68
84
86
70
44
18
22
30
22
14
20
24
20
16
20
22
18
16
16
14
8
2
0
2
2
6
14
12
10
12
16
18
12
12
12
16
18
16
18
12
2
2
6
42
118
192
198
112
42
62
44
6
8
34
48
44
36
26
22
32
42
46
38
20
10
10
16
12
8
8
18
28
24
16
10
12
18
20
18
12
8
4
14
14
10
10
8
6
4
4
12
12
12
12
12
14
12
8
10
8
6
8
22
30
26
14
18
26
30
24
18
16
18
26
24
20
34
54
86
102
114
164
238
255
255
255
255
214
122
4
168
255
255
255
255
186
76
28
36
38
14
18
6
20
24
20
14
16
8
8
26
42
54
62
58
56
58
54
38
16
14
14
30
46
44
24
4
8
10
20
26
28
32
28
24
14
12
22
44
50
40
34
32
30
28
28
34
44
42
32
24
20
20
18
16
18
22
30
32
104
255
255
255
90
72
36
26
28
10
4
8
20
24
16
10
10
12
10
8
12
14
14
6
0
4
14
22
36
46
40
32
34
38
40
40
52
62
58
54
46
56
62
68
74
72
60
48
36
30
28
28
26
14
18
22
34
78
136
226
255
255
255
255
242
140
54
8
32
32
34
84
162
252
255
255
255
255
190
102
48
24
18
12
12
8
10
30
48
66
72
64
54
38
24
28
36
42
26
14
10
8
20
24
18
12
10
22
20
12
14
18
22
30
34
34
50
68
72
86
128
208
255
255
255
255
255
255
244
108
36
70
104
104
90
80
76
82
102
124
142
180
218
212
182
150
246
255
255
255
92
42
124
194
248
248
186
96
30
16
28
30
8
18
20
12
12
8
4
18
30
26
26
22
16
16
30
36
16
16
20
8
18
26
20
10
12
12
12
8
10
18
16
10
10
24
34
28
12
6
4
8
18
12
4
16
28
28
18
12
22
30
30
18
6
8
4
12
30
38
24
10
16
16
20
24
26
24
10
4
8
8
14
8
8
16
20
26
16
6
6
6
18
14
6
2
8
10
10
12
8
10
10
2
20
22
20
30
24
8
6
16
26
18
16
14
12
14
14
10
6
14
14
6
6
10
12
8
8
22
28
22
18
16
12
16
18
6
6
14
22
22
34
32
20
14
14
12
10
12
6
2
6
6
8
10
4
10
22
18
6
4
8
12
16
22
36
40
30
14
14
16
16
14
12
18
20
12
2
6
12
8
4
10
12
10
14
20
12
10
8
12
22
16
14
10
16
22
14
8
6
6
20
24
18
18
28
38
18
20
38
26
110
252
255
255
254
255
255
255
255
255
255
255
226
178
255
255
255
255
142
64
36
68
84
80
88
68
50
76
100
100
96
88
82
120
144
104
20
164
255
255
255
214
112
42
18
80
146
162
108
26
116
190
210
196
162
98
28
68
104
104
82
50
20
8
32
60
138
212
228
172
88
22
20
14
4
16
30
58
72
70
66
52
28
8
16
18
8
14
24
30
34
30
24
20
18
16
16
16
16
14
8
6
8
12
14
16
12
12
16
20
18
10
8
8
14
22
22
22
16
10
6
14
20
74
162
206
154
50
60
32
14
26
48
48
36
30
24
28
38
36
28
16
6
4
8
12
8
8
22
32
34
22
10
10
16
20
16
8
2
4
4
6
10
10
8
4
2
8
6
0
4
4
6
8
8
6
4
8
10
10
10
14
28
28
18
20
24
28
30
14
18
26
36
42
48
64
78
110
128
136
176
234
255
255
255
252
160
62
48
214
255
255
255
255
158
64
22
26
22
6
14
2
16
20
14
12
14
14
12
6
12
30
46
50
50
52
60
62
48
28
6
18
44
56
44
22
10
2
10
16
18
18
16
12
10
8
24
38
42
32
20
14
12
12
20
32
38
30
16
8
6
8
12
20
28
28
20
18
106
255
255
255
82
82
50
38
30
4
4
8
16
12
4
4
2
6
10
6
4
12
18
16
12
10
12
16
26
42
52
56
62
64
64
58
62
80
80
76
70
72
68
68
68
64
54
50
44
36
30
28
26
18
28
38
66
132
214
255
255
255
255
255
204
118
54
20
32
44
80
160
255
255
255
255
255
182
96
54
36
26
20
8
10
16
26
38
46
56
58
46
32
18
12
16
24
26
14
12
14
14
30
28
16
12
12
22
28
24
20
20
20
22
20
16
22
48
58
64
76
108
172
254
255
255
255
255
255
255
146
82
104
88
78
78
74
70
62
66
68
88
116
140
164
222
255
255
255
94
102
168
176
218
255
248
156
54
10
10
16
32
36
22
26
16
16
4
8
6
2
4
4
4
4
6
24
42
34
16
16
18
30
24
6
6
10
4
6
10
4
14
24
26
38
42
34
18
8
8
6
18
20
10
12
26
28
18
8
6
8
18
36
40
30
22
20
26
26
22
30
28
22
14
6
2
4
16
22
14
8
12
14
2
20
28
22
30
16
16
20
16
4
14
14
8
10
8
8
14
22
20
8
6
16
30
32
22
10
14
12
14
4
14
16
6
14
16
18
22
30
32
20
4
6
4
12
22
26
16
4
16
14
4
0
2
12
10
6
20
16
6
16
24
18
14
6
28
44
38
26
8
8
6
6
12
20
14
8
20
12
6
10
6
26
30
26
42
36
22
14
20
20
14
4
10
14
8
8
18
18
10
10
10
6
8
16
12
6
8
6
10
20
24
28
32
30
16
4
4
12
20
12
2
10
14
18
26
30
24
20
32
18
60
152
168
122
150
162
150
174
166
136
126
62
150
255
255
255
218
48
62
58
86
114
114
110
138
114
100
86
68
76
90
100
106
120
132
84
50
238
255
255
255
228
110
84
146
176
138
90
56
54
104
170
212
214
166
74
52
64
74
70
64
50
46
52
28
40
136
210
214
150
56
42
36
24
50
72
76
60
36
24
10
4
6
12
6
18
18
8
8
24
32
30
26
20
20
18
12
14
18
16
16
20
20
18
16
14
16
18
18
14
8
6
8
14
26
30
28
18
12
10
18
18
40
116
176
158
84
52
40
34
44
50
38
28
28
30
40
42
26
8
20
18
10
12
18
22
34
42
38
30
16
10
16
22
22
12
4
4
6
4
0
2
6
8
10
8
6
4
2
6
8
10
8
4
4
4
8
10
10
10
4
12
20
16
20
24
24
24
22
24
36
52
68
78
88
96
126
140
142
172
218
255
255
252
174
92
26
98
255
255
255
255
244
130
54
14
12
22
24
22
12
14
16
8
6
8
8
14
14
16
22
30
44
50
50
60
74
78
68
44
28
22
42
46
32
18
10
14
20
16
10
6
4
8
18
32
34
34
32
18
4
2
8
20
30
26
12
4
8
6
8
16
28
26
12
6
10
100
255
255
255
90
82
54
34
24
4
6
10
20
16
8
8
10
4
6
8
4
8
18
20
18
14
10
16
24
32
40
50
52
50
48
38
38
52
60
58
54
52
42
38
34
32
24
24
22
18
20
28
36
34
38
46
86
166
255
255
255
255
255
224
150
92
48
12
32
94
170
255
255
255
255
255
174
92
40
26
18
8
4
6
18
30
38
44
46
48
42
26
14
12
16
20
20
16
8
8
12
24
40
34
20
14
12
10
16
20
22
24
24
22
16
12
8
24
38
44
44
56
84
126
206
255
255
255
255
255
255
168
82
50
38
36
30
26
22
26
22
26
32
72
232
255
255
255
212
78
200
204
178
222
255
246
138
40
4
10
20
32
28
8
22
26
16
6
2
6
8
10
8
4
4
2
12
26
28
16
8
22
28
16
12
12
14
16
6
6
8
8
14
20
22
18
8
6
6
6
14
22
10
8
14
24
22
10
4
6
6
2
16
26
26
22
24
26
18
4
12
18
18
10
4
2
2
4
6
8
8
14
8
10
26
20
8
26
28
16
12
22
18
2
12
14
14
12
8
18
26
28
30
16
12
18
16
16
2
16
14
2
14
16
8
4
8
10
20
36
40
34
28
16
6
12
24
30
24
30
18
12
22
16
6
4
14
24
18
18
18
18
20
20
20
20
32
44
32
36
36
14
10
12
10
6
14
24
10
14
14
8
14
6
30
36
10
18
28
22
8
14
12
6
10
18
16
6
6
10
6
8
18
12
2
12
10
4
4
6
14
32
36
34
26
16
16
18
10
18
24
28
30
18
2
8
10
16
32
48
42
20
10
14
58
94
66
48
168
255
255
172
46
18
80
255
255
255
255
120
62
88
64
86
102
88
70
84
104
72
48
42
58
72
76
78
80
96
100
52
120
255
255
255
255
192
152
170
136
62
76
82
76
54
44
124
184
188
124
62
82
58
28
30
28
36
56
62
34
40
146
226
222
134
32
42
66
72
68
50
26
10
8
12
8
6
12
16
26
42
44
38
44
42
36
30
26
22
16
6
6
12
14
16
18
16
16
16
18
22
18
14
12
8
6
2
2
14
26
30
22
12
8
16
12
22
82
142
150
104
54
32
38
48
44
32
32
36
38
38
28
18
16
14
18
22
26
32
36
42
38
26
16
8
10
14
14
8
4
6
8
8
4
2
4
6
4
8
8
6
6
6
4
4
8
8
4
4
4
8
8
6
10
8
4
8
12
16
22
26
32
36
40
44
52
60
66
78
86
108
124
146
204
255
255
255
234
134
106
56
158
255
255
255
255
202
102
44
8
4
10
14
6
10
20
18
8
10
12
4
2
8
16
18
12
26
38
44
56
72
80
80
70
52
30
22
18
26
24
14
14
20
24
20
14
10
16
26
28
24
22
30
26
14
6
8
18
26
22
14
6
6
2
14
26
28
10
12
24
20
96
255
255
255
98
80
52
24
18
10
8
6
14
14
8
8
14
14
2
6
8
12
12
18
20
18
16
22
24
24
22
22
20
16
12
8
6
8
16
16
10
12
8
10
22
42
50
52
42
26
14
26
42
36
28
40
96
188
255
255
255
255
246
172
122
80
32
28
100
186
255
255
255
255
255
170
86
36
14
16
16
10
6
16
36
50
52
52
48
40
28
14
10
16
22
22
16
10
6
6
14
30
40
28
14
14
10
2
4
8
14
20
18
12
6
4
6
4
8
18
18
26
40
54
92
150
246
255
255
255
255
255
152
36
4
0
6
6
2
8
4
6
34
178
255
255
255
255
84
132
220
190
162
210
255
218
114
32
16
10
14
16
24
20
16
22
30
20
6
6
12
10
14
12
4
4
10
14
14
14
16
22
20
12
20
18
10
22
18
14
22
14
8
2
12
14
18
16
6
14
22
16
8
10
8
26
44
34
12
8
0
8
16
16
10
4
14
12
6
6
6
2
6
12
6
2
4
20
24
18
12
8
12
20
16
16
18
14
30
38
22
2
18
14
4
14
20
22
26
30
18
6
26
26
8
10
20
16
2
14
16
12
14
6
4
10
10
8
18
30
20
20
28
20
10
18
22
14
6
28
30
14
22
26
16
12
18
26
32
24
10
22
20
12
14
36
38
20
12
36
30
20
12
8
4
14
16
10
16
18
8
12
12
6
24
40
36
18
14
14
6
8
16
12
14
16
12
6
14
18
16
18
22
10
10
12
8
8
8
16
28
36
26
10
10
22
20
12
10
32
30
26
32
28
16
6
0
4
18
36
46
42
34
30
42
64
78
44
54
188
255
255
220
92
244
255
255
255
255
82
80
92
70
78
84
92
68
18
32
50
36
32
54
68
66
68
80
88
104
82
30
168
255
255
255
234
192
142
82
34
10
18
46
50
46
52
94
142
122
60
68
42
18
12
14
18
32
54
68
48
40
160
222
180
84
82
82
58
36
12
14
12
8
10
14
14
28
38
38
44
54
58
60
56
48
36
28
20
12
4
0
2
4
10
8
6
10
16
22
22
14
12
12
8
6
4
6
2
16
26
26
16
6
10
10
10
54
106
130
110
70
26
34
46
40
34
38
38
32
22
12
14
30
40
40
36
34
38
34
30
20
10
6
4
8
8
8
8
8
12
10
8
8
8
4
4
4
6
4
4
6
8
12
8
6
4
0
0
2
8
8
4
2
0
8
12
8
12
20
30
42
46
44
38
36
36
46
70
78
90
118
178
255
255
255
255
216
108
62
62
202
255
255
255
255
164
76
42
12
6
12
16
12
18
18
14
8
4
14
14
14
14
10
6
4
6
14
26
42
60
66
62
64
62
56
42
26
14
14
12
6
6
14
18
18
18
18
16
10
10
16
22
24
18
12
12
20
28
22
14
8
2
14
22
22
16
12
28
26
16
96
255
255
255
96
78
52
20
18
12
12
8
10
4
4
6
14
22
14
8
8
10
8
8
16
18
20
24
16
8
4
12
20
14
12
18
16
14
24
36
44
54
58
56
52
62
74
80
74
62
48
44
36
10
4
42
126
230
255
255
255
255
224
174
136
80
48
88
186
255
255
255
255
242
160
82
22
2
8
34
50
50
50
56
70
78
70
60
48
40
32
22
22
22
18
12
6
8
12
18
24
28
24
8
4
4
6
6
6
6
6
6
4
10
10
10
12
12
4
8
8
10
14
16
42
66
104
228
255
255
255
255
255
86
10
8
14
12
12
6
2
6
90
255
255
255
255
186
54
204
238
198
168
190
212
164
80
20
18
16
12
6
18
30
28
8
24
36
18
16
16
8
18
16
8
12
14
20
20
16
24
22
6
14
24
20
6
16
18
22
26
14
18
14
8
6
10
8
14
24
26
16
28
20
16
12
16
24
20
6
6
8
16
16
10
8
12
10
6
2
2
6
4
10
18
18
22
28
20
22
32
32
22
12
16
24
22
18
8
26
34
26
16
16
14
16
18
22
32
42
38
26
14
16
16
10
4
6
10
6
14
18
12
6
6
10
14
20
28
34
28
26
26
10
6
6
14
14
24
36
30
14
12
24
20
16
14
8
8
20
22
16
8
18
22
18
4
22
36
34
20
16
22
16
28
30
20
16
4
4
2
10
6
2
8
18
28
26
20
20
14
10
14
6
6
14
14
6
4
12
12
12
14
6
8
14
16
18
18
16
20
24
18
22
34
34
28
22
20
24
10
8
22
34
34
16
8
10
12
18
28
38
36
22
24
38
64
68
34
40
170
255
255
236
255
255
255
255
200
58
94
98
80
76
62
62
68
48
12
32
40
54
94
112
106
114
140
154
130
42
92
190
174
232
240
242
250
220
150
130
146
154
144
72
16
42
74
78
66
30
14
22
36
48
58
56
46
54
82
108
92
150
152
134
82
68
58
32
12
8
18
22
24
26
30
38
50
54
44
40
44
48
48
44
40
34
28
20
12
4
0
2
8
12
10
12
20
24
22
16
10
10
10
8
6
4
6
2
10
20
24
18
10
8
4
8
28
70
102
106
84
42
38
48
40
34
34
26
14
10
12
22
34
30
26
26
30
36
30
24
14
8
8
6
8
4
4
4
4
12
12
8
4
8
4
2
2
2
2
4
4
2
6
10
6
2
2
2
8
16
18
16
16
16
18
16
10
16
24
34
38
34
34
30
34
44
68
102
108
120
166
246
255
255
255
255
178
94
22
62
204
255
255
255
255
142
62
32
16
14
18
16
16
12
8
14
16
10
0
8
14
24
26
18
8
6
12
12
14
34
48
44
46
48
48
40
26
16
12
8
8
6
8
12
18
18
12
12
14
18
20
24
30
28
26
26
28
34
28
20
18
14
14
14
10
12
16
22
14
4
104
255
255
255
88
72
48
16
16
8
8
6
10
4
4
8
10
22
22
14
16
16
14
10
14
16
20
22
14
10
12
22
30
34
30
30
26
30
46
62
70
74
76
70
60
60
68
78
80
78
64
60
58
34
24
58
154
255
255
255
255
255
232
186
122
86
84
198
255
255
255
255
248
154
90
40
16
8
24
60
78
70
60
62
72
74
60
46
36
36
34
28
26
18
10
10
10
14
18
22
22
16
6
10
12
12
6
2
4
2
10
14
20
20
16
14
16
16
10
4
4
8
14
8
24
30
32
108
248
255
255
255
255
134
16
6
12
8
12
0
2
38
172
255
255
255
255
26
162
234
226
182
148
146
150
110
52
20
28
28
10
14
28
22
40
32
6
34
28
8
8
10
16
20
8
4
12
22
28
24
28
14
12
28
24
12
8
4
10
18
16
6
14
18
16
16
22
18
12
16
16
6
20
26
6
20
40
36
12
8
12
10
14
10
4
8
12
14
12
10
8
6
10
14
20
30
34
26
12
8
10
12
24
38
32
14
10
12
10
2
20
30
26
22
18
12
8
12
22
32
36
36
32
22
10
12
22
18
8
12
18
14
18
10
6
8
10
18
26
32
36
34
20
6
4
14
20
24
26
26
16
14
6
10
16
20
14
16
20
10
18
30
32
20
8
18
28
36
28
18
12
2
14
30
34
26
18
18
8
2
4
6
4
2
6
8
6
10
20
20
12
12
14
10
6
14
18
12
4
4
4
4
10
8
6
14
14
20
18
18
30
44
40
34
34
24
26
32
26
16
18
20
12
8
24
20
18
10
8
8
10
18
22
6
14
18
34
50
54
50
42
124
196
255
255
255
255
252
88
32
86
94
94
94
90
86
86
84
54
44
46
84
132
146
130
138
180
188
102
72
190
202
88
122
176
208
240
236
170
164
178
190
218
158
66
56
88
96
70
36
30
50
66
68
90
96
82
70
80
106
146
172
144
66
44
30
26
12
6
14
24
32
34
38
44
50
54
50
34
28
26
24
26
24
24
24
24
18
10
4
2
4
12
16
16
20
26
24
16
14
12
8
8
4
4
8
8
8
12
20
22
16
12
4
4
10
12
38
74
94
88
54
32
40
34
26
18
6
4
8
14
18
18
10
6
12
20
26
20
16
10
10
12
8
8
6
4
8
14
14
10
8
2
6
8
6
4
2
0
2
4
4
4
6
8
6
4
6
14
20
22
20
20
22
22
18
16
24
28
30
26
22
28
34
56
82
110
138
142
164
222
255
255
255
255
206
146
80
52
82
212
255
255
255
222
98
38
30
20
18
14
6
8
4
8
12
16
18
14
8
8
16
28
24
12
4
6
10
8
12
24
26
26
28
32
26
20
22
26
26
12
2
8
14
16
20
14
14
18
24
28
28
32
30
28
32
30
32
28
20
22
26
26
22
14
6
6
12
16
14
100
255
255
255
82
76
52
20
20
6
4
2
6
14
18
16
12
16
22
22
30
32
34
26
22
20
20
20
20
24
16
28
30
38
42
40
36
42
50
52
50
50
54
48
44
40
40
50
60
70
56
42
38
22
30
88
172
255
255
255
255
255
228
144
52
110
240
255
255
255
255
255
178
102
68
44
28
36
46
56
46
20
14
26
40
38
22
14
12
18
20
14
10
10
16
22
26
26
18
14
12
8
6
6
4
2
8
6
4
6
6
8
8
4
2
4
10
14
14
4
4
12
18
12
18
8
2
60
166
255
255
255
255
172
30
10
16
6
12
6
16
116
255
255
255
255
144
100
220
212
162
118
120
130
132
102
52
24
46
34
18
24
28
10
30
36
10
22
30
28
26
20
2
22
34
28
14
8
24
32
26
10
26
28
8
6
14
12
10
8
4
10
12
12
14
14
16
14
8
24
38
42
28
20
22
24
20
4
18
28
28
22
10
10
8
2
4
6
4
4
8
12
12
8
10
14
22
24
26
44
96
122
102
62
32
22
30
22
14
6
2
6
10
8
2
10
12
12
10
10
14
16
18
14
14
26
16
16
18
20
12
4
16
12
8
10
10
18
16
6
20
22
26
10
8
18
20
16
14
4
20
30
26
10
18
22
32
26
8
8
14
18
22
24
14
8
10
12
16
16
12
10
12
18
18
10
22
44
42
32
24
10
8
6
12
14
12
14
10
4
4
8
18
20
14
14
18
16
8
8
6
2
10
14
14
14
18
24
12
4
10
16
24
20
22
12
22
36
38
20
26
28
42
50
54
34
10
6
12
12
12
8
24
16
10
12
8
18
30
42
32
10
68
170
230
240
248
190
104
40
74
100
122
136
140
142
144
134
92
82
64
88
118
112
84
102
168
168
62
186
255
198
102
114
136
144
190
178
78
34
68
106
178
174
134
112
106
92
60
32
30
38
40
34
46
72
84
80
82
106
122
108
72
30
14
12
10
4
12
22
34
38
36
38
38
36
32
30
26
28
26
22
22
18
16
16
18
18
12
8
4
6
16
18
18
22
22
18
14
14
18
20
18
12
8
4
4
8
16
28
30
22
16
6
8
8
4
24
56
82
84
58
14
20
30
20
8
4
8
16
16
16
20
18
18
12
12
12
12
12
6
6
6
6
10
12
12
14
14
8
4
10
8
10
16
14
8
14
12
12
8
4
6
2
8
8
6
10
14
14
12
10
14
20
22
22
24
32
32
32
32
32
42
60
96
124
138
152
158
194
255
255
255
255
250
188
130
54
58
132
255
255
255
255
140
34
14
28
26
18
6
18
26
26
20
20
18
20
20
14
8
4
18
16
8
4
4
4
2
6
14
18
18
24
36
34
26
30
26
32
22
6
8
14
16
16
10
10
16
24
30
26
20
14
16
22
20
20
18
10
12
22
24
18
12
4
2
10
14
12
96
255
255
255
84
88
60
28
30
14
6
8
16
22
20
14
8
8
10
26
36
36
32
24
18
12
14
16
20
30
30
38
40
42
48
48
48
44
38
30
26
28
30
16
18
20
18
24
36
56
52
40
34
32
68
134
212
255
255
255
255
255
190
60
92
242
255
255
255
255
255
184
118
74
62
54
50
52
44
32
30
38
36
26
26
24
16
12
8
16
18
10
8
16
30
34
30
20
8
6
8
8
8
12
14
10
0
6
8
6
2
2
6
8
8
10
8
8
12
8
4
10
18
18
22
24
26
78
158
244
255
255
255
210
66
6
12
10
20
20
90
242
255
255
255
255
48
160
222
162
98
84
114
124
130
94
36
26
40
18
26
28
22
12
44
38
2
40
54
46
34
38
24
36
38
44
30
12
24
28
26
8
28
16
10
12
8
18
10
10
20
24
22
24
30
28
26
24
22
28
32
46
50
34
24
12
12
24
32
30
24
30
18
4
10
6
8
14
10
8
6
8
4
4
16
34
44
28
90
192
255
252
228
202
144
84
32
28
38
28
8
14
16
18
26
26
22
18
8
8
16
16
12
18
22
14
10
26
26
14
8
24
30
18
22
16
18
34
24
30
28
8
18
16
12
14
10
4
16
22
20
30
34
26
18
22
26
16
16
20
16
10
6
16
22
28
28
28
28
30
24
10
14
16
12
10
42
62
44
42
38
24
10
16
14
10
2
14
18
14
8
4
8
16
14
16
20
16
6
10
12
10
4
8
14
18
26
24
12
14
20
14
6
2
4
4
14
26
34
24
22
36
58
62
52
34
12
12
8
8
12
4
18
26
12
12
16
10
6
12
10
18
70
164
255
255
255
255
255
150
138
156
170
182
182
180
174
150
116
120
98
98
110
90
58
78
128
118
140
255
255
180
214
156
76
66
148
196
178
162
192
252
255
234
162
114
86
62
34
16
14
16
28
28
14
30
46
58
62
68
56
28
18
12
6
2
2
2
14
24
34
32
28
28
24
18
14
20
24
26
24
20
18
12
10
10
12
12
12
12
10
10
20
20
20
20
12
10
12
12
18
22
24
22
16
14
8
4
8
24
30
26
22
14
12
8
6
20
44
72
84
68
30
10
34
30
10
2
2
12
16
14
12
12
18
16
10
12
12
14
10
12
16
8
10
10
10
12
8
2
2
10
14
12
12
18
18
16
8
10
14
14
4
6
8
6
8
10
8
8
10
14
24
28
24
24
24
32
34
40
44
48
64
88
126
144
144
154
174
234
255
255
255
255
236
170
104
16
84
202
255
255
255
234
126
52
32
38
24
8
10
30
30
24
20
20
16
18
22
20
12
8
26
24
14
4
4
8
8
10
12
16
16
22
34
34
26
16
16
24
20
10
10
18
20
14
6
6
6
8
18
22
28
34
34
32
30
26
16
6
10
24
32
26
14
4
4
4
10
8
96
255
255
255
92
90
60
28
30
18
12
10
8
8
8
4
6
6
8
26
30
14
6
22
24
14
12
8
12
26
46
52
48
48
50
50
52
48
32
26
28
28
24
18
26
26
24
32
44
58
50
44
46
52
124
214
255
255
255
255
255
234
122
48
182
255
255
255
255
255
174
100
68
44
40
38
36
34
28
24
16
24
40
38
34
26
22
32
34
36
32
24
22
26
32
22
10
6
4
4
8
8
8
8
12
12
6
2
4
6
4
0
4
4
4
4
2
4
8
8
6
10
22
34
46
50
60
112
182
248
255
255
255
250
118
40
44
56
66
116
230
255
255
255
255
240
106
180
204
124
76
112
166
188
168
104
30
20
26
26
36
28
16
18
34
34
22
48
44
30
16
38
44
38
20
30
18
16
32
34
18
6
14
10
10
12
14
12
12
30
32
20
12
2
10
6
8
14
20
20
10
12
20
22
18
10
6
22
20
4
12
24
14
8
20
14
16
20
10
4
16
20
12
12
24
48
78
146
255
255
255
255
255
255
255
255
182
88
6
32
28
26
22
22
26
16
14
12
6
12
20
16
10
10
18
20
28
24
10
12
30
30
22
12
24
30
28
22
12
14
20
14
6
14
14
6
12
26
30
18
6
24
16
28
56
80
66
48
20
26
26
18
14
8
8
16
24
28
28
34
40
36
32
22
10
10
36
50
28
42
48
32
8
20
22
22
20
12
10
8
6
2
14
22
18
12
8
10
8
6
18
26
24
8
8
10
12
10
4
6
10
12
10
12
18
12
12
12
18
18
18
36
40
14
22
26
18
8
18
18
16
16
6
18
20
12
4
12
6
22
18
12
18
82
180
255
255
255
255
255
248
222
210
208
202
190
164
124
122
128
128
132
132
112
90
86
84
134
255
255
255
188
255
196
40
182
255
240
182
148
152
170
168
122
76
50
38
32
22
16
16
14
16
22
28
28
24
24
24
24
12
4
4
10
14
18
12
6
10
20
24
18
18
20
18
16
16
20
14
10
8
4
4
6
4
6
6
8
12
16
18
18
24
22
18
12
2
4
8
8
8
2
10
12
8
10
12
12
8
10
16
18
20
22
22
12
4
14
34
62
86
86
62
24
26
28
16
10
18
22
20
12
8
14
24
22
10
10
10
8
6
8
12
10
10
8
6
8
8
8
4
8
16
14
10
18
18
16
22
28
28
16
14
10
6
6
6
10
8
20
34
42
46
36
22
20
18
28
36
46
50
62
82
102
134
144
144
170
220
255
255
255
255
255
196
128
64
26
116
234
255
255
255
228
108
36
24
42
26
10
14
18
14
8
16
22
16
12
16
24
20
14
22
14
8
8
10
6
2
8
8
10
12
16
20
18
12
8
20
36
36
20
16
22
26
24
14
4
12
22
30
34
32
32
30
26
30
26
14
10
18
32
42
36
20
16
10
10
10
12
100
255
255
255
96
82
54
22
24
14
12
8
4
4
12
8
2
2
8
20
18
16
36
42
30
26
28
16
16
32
42
40
32
32
34
34
30
42
36
20
22
14
16
20
28
26
26
38
46
54
42
32
48
100
200
255
255
255
255
255
255
168
78
128
254
255
255
255
255
174
84
44
38
24
22
22
22
26
30
38
44
60
66
50
42
38
36
42
38
32
26
22
20
18
18
8
0
4
6
6
14
16
14
8
8
10
6
6
10
8
6
6
4
6
10
10
10
14
20
18
14
22
38
48
60
68
84
130
188
248
255
255
255
246
150
72
58
78
116
204
255
255
255
255
255
160
162
220
206
118
86
146
202
196
146
76
26
24
40
40
32
18
14
16
26
34
26
30
34
38
18
42
46
28
26
36
4
28
36
28
6
8
8
6
10
26
24
18
12
26
18
10
22
24
28
30
20
10
8
6
20
26
22
10
2
6
12
22
14
22
32
22
6
18
18
8
10
22
26
16
8
16
18
18
74
160
230
255
255
255
255
255
255
255
255
255
255
232
148
72
48
28
12
14
14
4
10
12
10
18
14
8
2
4
12
20
18
4
14
28
32
14
2
6
6
18
16
2
16
14
4
10
8
8
8
12
28
36
26
20
26
28
8
38
80
88
74
82
56
38
30
30
26
10
6
6
8
20
20
28
40
46
48
36
22
20
40
60
54
60
48
24
6
12
18
20
24
22
14
16
10
14
22
22
24
26
18
16
16
14
18
16
26
22
14
8
10
8
2
2
4
6
12
14
16
16
6
8
14
14
12
18
32
28
40
30
12
16
26
20
20
16
10
16
24
26
22
16
8
22
18
24
34
14
40
112
196
255
255
255
255
250
212
208
190
152
96
84
74
72
114
130
126
126
116
70
42
214
255
255
248
160
255
188
80
255
255
176
112
86
74
58
42
38
40
34
28
22
18
14
14
16
22
26
26
22
22
18
8
6
4
4
6
8
6
12
14
6
8
18
26
22
18
18
16
16
16
16
6
10
10
6
8
10
10
6
2
4
4
8
20
30
34
26
14
6
0
4
6
10
14
14
20
16
8
2
8
10
10
14
18
8
12
22
30
18
2
6
22
46
72
82
72
44
30
36
24
18
22
20
16
6
4
12
26
28
16
12
14
12
14
14
12
6
8
10
12
10
4
10
6
4
10
14
12
14
10
24
32
26
18
6
14
12
8
6
4
6
18
40
54
54
42
22
12
14
24
36
48
58
64
82
100
110
130
140
158
216
255
255
255
255
255
214
134
74
28
34
122
242
255
255
255
220
116
48
24
32
26
14
8
12
18
20
30
26
12
4
10
22
20
8
10
16
12
12
8
4
12
12
12
4
2
10
14
14
16
22
34
44
36
20
20
26
26
30
28
18
22
32
36
30
24
24
26
16
22
16
6
8
18
32
40
32
18
24
18
18
18
16
106
255
255
255
88
68
46
18
16
8
10
12
16
18
12
2
8
10
10
22
26
28
32
20
4
12
22
18
14
20
46
62
66
60
50
32
10
12
18
6
6
14
24
26
28
26
30
42
44
56
58
62
108
186
255
255
255
255
255
255
182
68
76
216
255
255
255
255
200
102
50
26
24
16
18
26
34
46
52
54
52
54
48
34
30
28
20
16
20
14
6
6
6
2
8
6
2
6
14
16
22
28
28
22
12
10
2
8
10
10
14
22
26
26
14
6
26
28
38
38
28
24
40
50
68
84
100
142
208
255
255
255
255
170
126
72
38
70
134
240
255
255
255
255
248
62
150
255
228
130
96
138
164
128
78
42
24
30
26
26
16
6
16
18
8
10
12
8
22
38
22
36
34
30
32
24
10
32
24
4
14
18
20
24
32
34
26
32
30
30
18
24
32
20
16
22
18
16
20
24
28
24
20
24
24
26
24
14
8
18
8
12
16
8
8
20
16
6
14
26
12
48
54
52
206
255
255
255
255
255
255
166
214
240
246
255
255
255
255
255
162
48
4
12
8
10
14
20
26
18
6
10
10
6
6
6
8
26
28
24
12
8
12
16
16
8
4
14
8
6
6
6
14
14
24
34
38
28
16
32
36
22
16
38
48
30
24
60
62
40
10
14
22
20
10
16
6
12
22
34
36
30
38
36
30
26
30
38
36
34
24
12
4
4
6
8
12
14
8
2
6
12
30
34
16
6
16
16
14
16
24
20
12
16
22
14
14
14
8
2
6
10
10
6
6
12
12
14
16
20
12
6
18
16
14
6
12
10
10
8
12
16
20
22
26
30
32
30
32
32
20
8
20
20
22
20
34
74
150
224
255
246
190
178
144
80
36
36
18
30
68
74
70
82
68
84
130
236
255
172
142
255
255
136
146
244
170
90
72
82
74
56
44
34
34
28
24
26
20
12
10
14
20
26
32
26
24
24
16
14
8
6
8
4
8
10
10
2
14
26
30
28
24
16
12
14
16
14
4
6
8
12
16
16
12
6
6
14
26
38
44
42
38
24
10
6
4
6
4
4
10
14
12
6
2
0
4
6
4
8
10
6
10
16
28
22
2
4
6
26
46
58
58
40
22
28
18
10
6
6
4
2
8
10
16
24
22
22
20
14
10
8
6
6
4
4
10
14
6
4
6
4
0
4
4
2
8
16
10
2
2
8
18
16
12
10
14
22
38
54
50
32
12
8
12
32
48
58
68
76
82
100
118
124
142
168
214
255
255
255
255
255
224
142
68
28
8
34
130
255
255
255
255
178
84
24
12
28
14
4
4
4
6
14
10
4
12
14
10
16
12
4
8
8
6
8
10
14
10
8
10
8
8
8
10
18
20
20
32
34
22
14
14
26
24
26
30
32
24
24
22
10
10
22
30
30
24
12
6
12
20
26
30
28
10
12
20
20
16
12
96
255
255
255
94
74
52
20
14
2
2
8
14
14
18
12
6
10
10
14
18
18
12
12
12
12
8
10
4
10
30
54
72
78
78
68
54
40
42
40
44
48
52
50
52
52
56
58
52
66
80
112
186
255
255
255
255
255
255
192
80
42
164
255
255
255
255
246
144
80
48
28
24
16
16
24
34
48
52
50
42
34
26
16
14
10
10
18
26
26
18
10
12
6
12
12
2
12
18
18
12
22
28
26
16
6
14
30
38
44
50
48
50
52
44
28
30
32
32
44
42
40
64
76
92
106
122
178
255
255
255
255
255
156
70
42
34
100
196
255
255
255
255
255
170
20
194
255
234
124
70
86
118
120
94
58
28
18
4
12
16
16
18
18
22
18
8
4
8
20
18
18
20
20
16
2
18
22
18
18
26
26
28
22
10
16
28
24
12
26
24
22
16
12
22
24
6
10
14
18
14
10
10
10
18
22
20
10
14
4
14
16
4
18
26
24
20
24
16
22
2
34
32
180
255
255
255
255
255
238
144
58
140
200
242
255
255
255
255
255
255
180
54
22
4
8
16
22
18
22
18
0
8
2
10
8
14
26
18
4
6
14
8
6
12
12
4
12
14
14
10
6
14
28
38
40
28
6
6
20
42
48
26
22
56
66
56
64
50
54
34
28
28
18
4
6
8
14
22
24
18
14
22
24
26
26
20
16
10
6
8
12
12
6
2
4
8
12
8
6
4
12
24
40
44
28
2
16
18
14
18
22
18
6
18
16
14
16
14
10
4
2
4
8
10
16
22
20
10
16
18
12
4
8
14
18
18
12
8
18
12
10
20
22
22
26
28
34
40
42
32
14
10
4
6
2
16
26
20
52
104
142
142
110
74
50
44
42
18
36
72
80
72
76
64
100
144
194
234
250
255
255
212
36
134
158
114
72
66
82
62
52
46
36
34
36
24
18
20
18
18
22
28
34
38
28
20
20
14
12
10
8
2
10
8
4
2
12
26
32
30
28
20
12
10
12
18
20
14
12
8
16
18
14
14
12
14
26
38
42
36
30
26
14
4
4
4
4
2
4
6
4
2
0
0
0
4
8
6
12
14
10
6
12
22
22
8
4
4
20
34
44
48
32
16
24
20
12
4
4
6
4
4
4
8
20
24
24
20
20
20
12
8
6
4
4
6
12
10
2
4
6
4
0
4
4
2
14
18
16
14
16
18
14
12
14
26
36
50
56
36
12
2
2
28
54
64
68
74
84
90
104
122
132
168
224
255
255
255
255
255
224
158
80
22
6
4
30
144
255
255
255
255
142
68
24
12
32
22
10
8
2
8
6
14
20
18
12
14
20
16
4
8
4
4
6
8
18
16
10
8
4
4
4
12
20
30
38
38
30
20
16
8
18
24
28
30
36
38
36
22
4
14
20
22
24
20
14
12
14
16
16
26
30
24
10
10
10
8
4
104
255
255
255
100
82
54
14
12
8
10
16
20
12
12
14
10
10
8
8
10
10
8
4
4
6
6
4
2
2
6
22
44
64
80
84
84
70
70
70
74
78
82
84
88
88
84
76
72
90
118
180
255
255
255
255
255
255
200
96
24
138
244
255
255
255
255
176
106
78
54
32
26
16
12
16
22
32
34
32
24
18
12
8
2
6
8
10
20
18
8
6
6
0
8
16
12
18
14
12
8
4
10
16
14
32
54
76
84
86
84
72
74
74
68
56
46
26
14
26
40
68
102
114
122
136
172
255
255
255
255
255
250
154
74
10
90
194
255
255
255
255
255
222
104
56
218
255
218
96
38
74
116
108
86
54
32
26
28
18
10
16
14
16
20
28
20
8
6
4
4
2
10
10
4
10
16
12
16
22
24
24
20
6
44
72
68
58
34
6
10
6
8
18
22
14
2
6
6
6
6
4
6
12
18
16
24
32
20
18
16
10
34
36
22
12
2
10
24
34
40
86
210
255
255
255
255
182
126
82
38
18
96
222
255
255
255
255
255
255
255
255
150
46
14
2
10
8
10
12
16
14
18
8
8
8
14
32
28
12
8
8
12
18
16
12
6
8
6
14
16
20
28
32
30
24
8
14
8
12
26
48
50
22
14
40
26
14
52
72
56
26
16
10
10
16
18
16
12
8
10
16
22
16
10
16
14
20
20
16
8
8
18
12
4
6
8
16
16
16
12
20
10
6
26
40
22
8
22
16
6
20
18
6
4
12
14
16
16
18
20
20
16
16
22
30
26
8
6
2
16
28
22
18
18
18
20
26
12
14
16
8
4
12
14
12
12
18
24
30
28
18
8
10
14
18
22
18
12
16
24
38
52
54
56
64
78
88
70
24
38
112
172
190
202
146
100
146
218
218
216
158
68
52
80
110
116
96
70
60
54
56
60
58
56
48
26
12
8
6
8
12
16
22
30
30
20
16
14
12
14
12
10
6
10
20
26
28
28
24
16
18
14
12
8
8
18
24
28
26
18
20
18
10
12
12
20
30
32
22
10
10
12
6
0
0
0
0
0
4
6
4
4
2
4
4
4
8
10
6
6
8
8
14
20
20
14
6
2
16
34
44
50
34
18
30
30
24
24
20
16
6
6
8
10
14
18
18
12
12
18
18
18
12
2
2
8
12
10
2
4
4
4
4
4
4
10
10
12
12
10
8
6
10
12
14
32
44
52
50
28
14
14
26
52
68
66
64
68
84
94
106
130
158
222
255
255
255
255
255
228
160
98
36
4
2
2
58
206
255
255
255
238
124
56
20
18
32
20
10
16
10
4
8
14
8
4
4
16
24
22
12
10
2
8
8
8
16
18
16
14
20
22
20
22
22
28
38
46
42
30
24
12
4
16
26
26
26
30
32
24
18
32
40
40
36
26
20
16
12
12
18
28
28
18
16
14
6
4
0
102
255
255
255
90
78
50
4
10
8
8
10
16
18
12
6
4
10
14
24
28
28
26
12
2
6
8
8
6
6
6
10
22
38
54
64
72
68
66
68
74
76
74
74
76
74
68
68
90
136
204
255
255
255
255
255
255
212
110
32
130
240
255
255
255
255
190
114
66
58
44
28
24
14
10
18
26
32
32
26
16
14
14
18
14
10
18
30
30
16
4
0
2
6
4
6
12
16
10
2
6
10
16
30
54
82
100
114
110
102
92
86
94
98
94
82
70
52
24
28
46
72
102
106
118
160
238
255
255
255
255
255
188
108
84
74
166
255
255
255
255
255
220
112
8
126
252
255
202
86
40
88
148
142
100
52
14
20
20
22
10
16
26
18
10
22
16
14
14
8
4
4
8
12
10
10
8
6
12
16
16
16
8
24
60
64
30
48
36
18
12
24
24
12
4
12
12
6
10
16
20
14
10
14
20
20
24
24
8
18
24
28
42
26
20
18
8
30
22
14
52
174
255
255
255
255
180
100
44
34
16
88
210
255
255
255
255
255
255
255
255
255
164
54
22
6
12
18
18
14
12
16
12
12
12
6
4
22
32
26
18
8
12
12
6
4
2
8
2
12
16
18
20
16
8
6
10
24
32
42
32
30
48
52
38
16
22
28
28
56
56
36
12
4
12
14
12
6
10
18
26
34
34
22
10
10
18
24
14
16
16
6
16
16
2
8
6
6
16
22
18
6
8
14
10
20
32
18
8
22
28
22
4
10
12
6
6
8
8
14
20
22
18
8
16
18
6
10
8
12
16
18
26
24
24
20
20
30
30
18
6
14
18
14
10
6
10
22
22
14
20
24
20
26
30
34
40
38
40
32
24
16
18
24
38
58
80
102
106
96
76
98
146
166
182
230
204
124
40
58
66
78
90
102
120
128
126
114
88
68
56
52
58
62
62
60
40
18
6
0
0
4
12
18
20
22
16
12
12
12
14
10
6
8
20
22
20
18
12
10
10
18
18
12
2
8
14
16
22
22
18
16
14
8
12
14
24
28
24
12
6
12
14
10
6
6
4
2
0
2
4
8
10
8
6
4
4
12
18
18
10
8
12
20
20
16
10
8
6
16
32
40
44
32
12
24
24
20
20
22
18
16
6
8
14
18
20
18
12
8
10
12
16
14
4
4
8
8
6
6
8
6
4
4
4
6
6
4
4
6
4
0
2
8
14
22
38
44
40
36
24
24
36
50
68
72
70
72
74
86
92
112
166
228
255
255
255
255
255
230
160
94
44
10
0
2
12
92
250
255
255
255
202
104
54
30
24
28
18
2
8
14
6
8
2
6
10
4
18
32
36
32
20
12
10
8
8
14
16
16
16
18
12
12
14
16
20
22
30
32
26
20
12
4
12
24
28
28
28
26
24
30
40
42
38
30
24
22
18
18
20
24
28
20
10
10
14
14
10
8
102
255
255
255
80
80
58
12
16
8
10
8
6
2
4
6
6
12
24
34
28
28
36
28
12
14
16
18
16
18
22
22
22
24
26
30
36
38
44
48
52
48
40
34
34
34
34
70
132
224
255
255
255
255
255
255
228
132
26
102
216
255
255
255
255
210
116
52
22
34
38
30
24
16
18
30
38
42
38
28
18
20
26
24
32
32
34
28
14
2
4
4
6
6
10
8
8
16
14
16
12
10
34
66
104
126
128
124
104
86
74
78
96
110
114
104
84
60
44
52
58
66
86
92
132
216
255
255
255
255
255
208
100
44
76
142
252
255
255
255
255
198
84
44
96
194
255
255
194
112
98
146
178
140
80
30
4
6
6
16
16
10
28
20
4
30
30
22
14
8
4
4
6
16
24
22
14
10
12
12
12
10
4
20
54
66
50
68
42
4
26
30
12
12
28
30
28
26
4
28
34
22
34
18
4
8
12
22
12
6
18
24
22
8
10
24
30
34
12
8
78
254
255
255
255
208
126
84
46
62
124
228
255
236
110
58
42
116
255
255
255
255
184
82
34
18
10
14
6
18
16
4
28
28
10
6
12
6
14
28
32
30
24
14
16
16
16
8
6
16
14
6
10
12
12
12
30
56
68
46
26
10
18
42
54
42
30
16
8
26
32
36
26
12
6
4
4
10
22
34
38
38
32
22
18
6
18
30
22
20
14
8
12
14
18
20
24
16
18
20
18
8
6
4
4
6
16
30
38
40
20
2
18
16
14
16
18
14
8
8
4
6
10
2
12
18
12
14
4
12
22
14
14
24
22
16
12
18
30
34
24
14
18
28
26
16
14
28
20
4
10
22
28
28
28
28
26
18
26
32
40
42
42
38
40
46
56
76
92
120
158
192
196
144
104
160
254
255
255
248
118
18
76
100
112
134
148
140
108
76
60
52
54
56
56
62
52
34
18
8
4
4
14
20
22
22
16
12
10
12
12
10
18
16
10
16
22
20
6
6
8
16
22
16
14
16
12
12
12
10
10
16
18
16
16
22
26
30
28
20
20
26
24
20
16
18
18
14
4
2
6
6
10
14
8
4
12
22
16
24
22
12
8
26
28
18
8
4
10
18
28
32
32
24
12
12
16
12
4
6
10
18
18
26
28
28
22
14
10
10
10
8
12
14
8
6
8
12
16
16
10
12
8
2
4
8
10
8
4
6
4
0
4
12
24
34
42
42
34
34
32
40
56
66
76
78
86
96
94
96
108
162
255
255
255
255
255
255
230
158
94
38
10
6
4
0
22
108
252
255
255
255
164
80
50
38
24
18
18
12
4
10
12
8
6
4
8
20
24
30
36
38
34
30
28
16
4
6
12
12
2
10
18
18
18
22
26
32
42
44
40
28
16
4
18
34
38
32
28
28
28
32
32
26
18
10
12
16
18
24
26
22
16
16
14
6
2
6
12
12
104
255
255
255
98
86
60
16
20
10
12
12
14
16
14
10
18
30
34
30
16
18
28
32
24
32
30
24
18
14
14
18
18
18
18
16
14
16
22
24
24
22
22
18
22
32
60
134
226
255
255
255
255
255
255
255
170
64
46
148
244
255
255
255
202
106
44
22
18
24
32
30
24
20
26
34
38
36
26
18
16
24
32
28
24
24
22
14
2
4
8
8
4
2
6
8
12
22
18
22
22
42
76
114
140
136
120
102
74
56
48
54
76
98
110
108
92
74
76
84
90
92
118
148
222
255
255
255
255
255
224
108
30
32
136
255
255
255
255
255
200
96
60
60
128
202
255
255
198
144
128
144
146
98
46
20
2
10
16
12
14
26
36
14
16
34
24
10
4
12
8
8
8
10
24
32
28
20
12
12
10
2
8
12
32
54
62
56
30
26
22
10
22
38
36
20
24
32
10
26
22
2
26
28
18
22
16
22
14
16
14
12
8
6
14
18
12
18
16
66
234
255
255
255
218
124
90
76
74
128
218
255
222
88
62
124
100
132
255
255
255
255
180
54
12
12
10
6
12
16
14
26
40
22
18
12
6
14
18
16
30
38
38
32
24
18
14
12
14
20
16
6
2
6
12
22
40
46
22
24
44
34
26
8
14
24
18
16
30
26
14
24
30
18
6
4
4
12
20
18
12
8
4
8
12
6
14
24
16
2
12
14
18
22
26
18
22
26
16
12
16
10
8
12
10
6
6
20
26
14
10
16
14
6
6
14
18
16
20
20
12
4
14
10
2
6
12
8
4
6
18
26
24
16
14
18
10
10
4
18
28
24
12
14
18
10
12
28
12
14
30
30
24
14
12
18
16
12
16
22
34
46
54
50
48
46
46
58
66
94
148
206
255
255
255
164
68
122
250
255
255
216
122
98
48
114
172
182
144
94
62
48
48
48
48
56
56
50
36
24
14
4
10
18
26
26
18
10
4
8
10
16
18
6
6
14
24
28
14
6
6
14
22
20
20
20
18
24
24
20
16
22
22
22
26
30
28
30
28
18
16
18
14
12
10
10
18
24
16
8
8
2
6
12
10
6
10
14
6
12
18
18
4
18
34
30
14
12
8
18
28
32
34
32
24
8
10
16
6
6
12
16
22
28
32
30
18
10
2
10
12
10
8
12
10
6
4
8
12
12
12
14
14
8
2
2
6
8
8
8
6
4
8
20
36
50
56
56
48
48
50
58
72
80
90
94
100
108
106
124
182
255
255
255
255
255
255
246
162
98
46
10
2
4
4
0
22
100
234
255
255
255
148
66
48
36
14
6
10
14
10
10
20
16
14
18
20
24
16
6
14
22
24
26
28
20
14
6
8
16
16
14
10
4
2
14
26
32
42
38
34
30
18
16
24
38
40
34
32
34
32
26
30
36
32
18
10
12
16
20
22
16
12
10
12
14
6
10
6
4
102
255
255
255
114
86
60
22
26
18
20
20
22
22
26
26
38
44
34
22
8
14
18
22
34
42
34
28
18
6
4
8
10
14
22
22
14
12
12
12
12
20
34
40
62
100
156
244
255
255
255
255
255
255
255
196
102
74
92
174
246
255
255
186
90
22
6
26
38
42
38
28
22
24
32
34
30
22
20
20
20
26
26
14
6
4
8
8
6
10
8
6
16
16
12
10
20
26
12
16
54
90
118
140
138
112
86
62
38
28
24
28
48
72
88
88
104
114
108
118
130
138
184
248
255
255
255
255
255
224
116
38
10
94
246
255
255
255
255
220
106
40
36
56
114
176
228
238
192
140
102
92
88
54
36
22
12
16
6
8
22
32
22
4
22
20
14
14
18
20
14
16
22
18
4
20
28
30
20
14
8
10
12
8
4
12
16
8
16
22
34
32
42
38
18
2
16
20
8
14
28
24
12
14
14
6
18
30
28
18
8
6
10
18
24
10
50
54
52
238
255
255
255
246
134
86
90
72
98
180
236
196
76
38
106
106
100
202
255
255
255
255
96
8
16
10
10
8
8
8
24
36
28
4
14
20
16
24
18
6
12
24
30
32
28
14
18
22
24
26
22
14
14
8
20
30
28
48
58
88
76
46
46
48
38
26
30
36
28
12
10
14
24
24
12
6
4
8
14
20
30
36
28
24
20
10
10
26
26
18
16
18
22
22
16
8
26
28
14
14
14
14
12
14
18
12
8
24
24
18
20
10
4
2
6
10
10
12
22
26
16
10
16
14
12
10
2
8
10
8
8
14
24
34
36
28
26
32
26
28
14
22
36
44
36
18
18
24
6
32
40
16
20
20
18
20
8
4
4
2
6
16
30
36
40
40
40
46
42
48
80
126
182
250
255
255
255
255
138
52
218
255
255
168
58
40
128
178
164
116
76
52
44
42
44
50
54
56
48
40
28
12
10
12
24
32
32
20
8
14
12
14
18
8
10
6
10
22
18
8
8
14
20
22
22
20
20
30
40
42
30
22
18
20
28
28
22
18
12
0
4
12
16
20
18
12
2
14
20
8
4
4
6
4
6
4
6
18
20
22
16
12
10
6
28
36
26
10
6
18
24
30
34
42
40
20
2
22
28
22
22
16
14
20
24
20
18
18
6
12
20
14
8
6
10
8
2
4
6
6
4
8
12
10
6
8
6
2
8
6
6
6
16
30
50
66
74
78
70
66
66
68
80
92
106
112
112
122
138
198
255
255
255
255
255
255
246
176
98
48
16
6
2
4
4
0
22
106
246
255
255
255
140
56
40
30
8
2
8
10
8
14
26
22
20
22
18
6
16
18
10
8
14
20
22
16
16
14
22
24
12
2
16
24
24
32
44
58
62
44
34
26
8
14
30
38
36
30
30
34
26
12
24
36
42
30
16
16
20
26
26
10
14
18
20
18
8
14
18
20
120
255
255
255
108
84
66
34
38
40
44
42
40
36
34
36
44
40
26
20
18
24
20
14
30
30
26
36
34
22
14
14
12
10
14
22
24
30
32
32
30
38
60
90
152
224
255
255
255
255
255
255
255
228
182
114
38
86
170
248
255
255
240
136
54
12
14
40
42
36
30
24
28
34
40
40
34
32
34
38
38
28
14
20
20
18
12
6
2
4
8
22
28
20
20
16
26
24
8
58
104
132
140
132
106
74
52
36
20
12
6
10
30
60
110
148
164
156
132
126
130
154
236
255
255
255
255
255
230
120
46
6
48
182
255
255
255
255
240
110
30
26
26
50
110
168
210
210
158
106
70
64
68
46
28
20
18
10
6
14
16
8
10
20
12
12
20
18
10
10
10
14
24
26
18
4
6
14
14
10
10
16
18
4
10
14
12
26
20
2
20
28
24
10
6
14
14
10
14
10
4
10
8
6
20
42
52
42
28
14
6
8
12
12
10
18
52
16
174
255
255
255
255
158
116
88
52
80
138
224
216
90
54
104
88
80
154
255
255
255
255
190
28
30
12
16
6
6
4
20
30
24
12
8
16
24
20
10
10
14
8
4
8
12
32
44
40
34
34
34
26
18
18
6
22
22
10
44
72
70
40
22
22
34
40
32
32
36
26
18
20
14
12
26
28
24
16
8
0
10
12
18
22
18
12
12
26
30
20
10
10
14
12
4
4
12
16
20
20
8
10
18
20
18
20
20
10
10
22
12
4
14
16
22
16
6
14
10
10
26
26
12
22
26
20
10
4
6
0
6
10
8
16
14
12
4
4
16
28
26
22
20
30
24
22
20
32
22
4
28
22
12
34
22
18
26
18
16
16
12
14
12
8
14
20
26
28
30
20
18
34
76
122
170
238
255
255
255
255
255
154
28
114
144
120
114
138
130
102
112
102
80
60
46
40
40
44
48
46
46
38
24
18
18
24
34
40
34
16
12
8
8
14
8
2
6
10
20
22
18
16
16
18
20
22
22
28
34
32
40
32
12
8
14
16
12
8
8
2
8
8
8
12
16
18
20
18
8
10
4
4
8
8
6
8
8
8
16
20
18
12
12
10
4
18
26
26
18
12
16
16
18
22
36
44
26
8
28
28
18
20
18
10
14
12
8
10
18
8
18
22
12
4
2
8
10
6
2
2
4
4
8
12
6
8
12
12
12
8
2
8
18
36
48
62
72
82
92
86
78
74
74
90
108
126
138
146
178
220
255
255
255
255
255
255
220
146
88
38
14
4
6
4
4
4
0
16
100
254
255
255
255
120
38
32
34
18
12
14
12
4
12
20
16
12
4
8
14
12
14
18
16
28
34
30
16
10
12
22
16
8
10
20
22
20
26
42
60
72
64
56
50
32
26
34
34
40
30
20
22
10
8
16
26
40
36
20
18
22
32
38
28
18
12
12
12
8
10
10
8
138
255
255
255
134
128
116
82
88
98
98
92
90
78
64
52
46
34
26
28
28
38
32
12
18
14
6
26
38
36
30
20
12
6
8
20
34
44
44
40
38
48
86
154
250
255
255
255
255
255
255
255
206
152
98
22
78
180
255
255
255
255
212
112
54
26
30
44
32
22
22
26
40
46
46
44
44
52
58
56
42
20
2
14
18
18
12
8
6
14
22
30
28
20
20
22
24
6
46
106
140
146
130
100
68
42
30
24
12
14
6
16
50
108
174
214
212
182
144
128
140
200
255
255
255
255
255
222
116
46
12
28
134
255
255
255
255
255
114
30
10
14
10
38
106
162
190
178
128
92
64
66
72
52
34
22
14
12
6
12
20
20
28
18
12
22
20
22
8
10
10
2
12
18
24
20
16
12
4
2
8
12
14
10
4
6
16
24
10
14
14
8
4
12
12
8
2
14
22
26
28
18
6
30
56
68
54
30
14
8
10
16
14
4
16
26
36
128
255
255
255
255
170
114
106
74
46
90
174
212
136
16
124
104
48
86
250
255
255
255
255
94
22
14
6
14
4
10
14
20
16
6
6
14
18
18
20
10
12
18
18
10
18
34
48
50
36
26
28
28
18
18
20
2
16
16
20
40
36
12
8
8
10
2
12
16
20
28
26
26
24
24
8
20
30
36
28
14
10
12
18
20
10
6
18
28
24
12
16
18
12
6
12
20
14
6
6
16
22
20
18
10
18
16
14
18
24
14
14
20
18
24
36
36
32
24
4
18
6
18
26
22
48
46
36
32
14
6
12
8
6
6
4
22
38
28
26
18
18
18
28
28
26
22
40
44
32
14
8
26
32
22
26
16
14
12
10
16
16
12
16
22
22
18
8
10
12
16
10
8
8
42
78
98
118
142
176
236
255
255
255
255
218
102
50
136
144
120
78
72
92
80
68
56
42
34
34
36
36
38
34
24
20
20
20
26
32
36
26
12
8
8
10
8
6
4
2
16
20
22
20
16
14
12
16
18
22
18
12
22
22
12
4
10
10
8
4
8
10
6
2
2
6
4
6
14
22
20
16
12
8
8
8
6
8
8
8
12
8
8
10
12
12
6
12
14
18
22
16
16
14
8
8
24
48
42
14
42
42
18
4
14
10
12
8
8
6
14
10
22
18
6
0
0
4
6
4
6
4
2
8
14
14
4
10
12
10
18
14
10
20
34
50
56
66
78
92
104
96
86
84
92
116
136
158
180
210
255
255
255
255
255
255
255
200
106
48
20
4
0
0
4
4
4
4
0
24
124
255
255
255
246
96
24
30
32
22
22
16
10
8
18
24
24
20
18
24
18
2
26
38
28
36
46
44
24
6
8
12
2
8
10
18
16
10
4
26
46
62
66
66
64
54
40
30
18
42
48
38
30
16
6
6
12
28
32
20
14
16
28
36
34
36
32
22
14
6
6
10
12
138
255
255
255
226
240
224
184
186
188
174
174
168
148
122
98
82
64
48
36
32
40
42
28
18
14
8
10
20
26
32
32
30
22
16
22
22
22
16
16
30
58
120
208
255
255
255
255
255
255
255
210
136
84
28
52
150
248
255
255
255
240
146
68
38
28
36
46
36
32
36
44
58
60
54
48
50
54
50
40
22
20
20
14
6
6
8
6
6
18
28
32
32
32
26
24
14
38
94
140
148
130
102
68
44
30
22
14
2
16
32
58
112
182
246
255
234
198
172
182
236
255
255
255
255
255
208
106
40
12
12
108
255
255
255
255
255
140
38
10
20
34
28
56
118
158
174
178
140
102
76
68
70
50
24
16
22
18
6
10
12
12
18
14
26
20
2
20
14
6
18
18
10
10
22
22
14
4
4
18
30
30
18
4
4
12
26
30
22
30
32
26
8
10
14
14
14
22
22
20
24
26
24
52
60
44
12
16
12
6
18
30
26
34
44
30
78
255
255
255
255
214
126
80
62
50
78
144
174
122
28
100
132
62
14
116
255
255
255
255
148
44
16
8
10
12
4
10
14
12
10
14
16
18
16
10
14
16
12
12
10
4
8
22
36
40
26
14
14
14
10
18
28
12
12
12
20
30
20
8
14
8
14
12
2
12
18
14
16
16
2
20
22
12
4
20
22
12
8
6
18
22
28
18
20
16
18
14
16
20
18
12
24
20
14
10
8
4
14
20
20
14
20
16
8
4
16
16
16
18
4
26
38
20
10
22
8
8
4
10
12
20
38
28
24
28
18
12
8
12
6
6
10
20
18
2
18
26
12
18
26
14
24
42
40
22
12
16
8
12
22
14
10
12
20
18
10
14
14
10
10
8
12
18
16
24
30
30
20
20
22
2
26
46
56
56
64
98
160
250
255
255
255
255
255
226
152
92
56
92
116
74
30
60
74
64
44
32
28
36
32
16
8
10
16
26
30
30
22
14
12
12
14
10
4
4
4
6
8
14
18
18
14
6
4
4
10
12
12
14
24
24
18
16
6
4
6
12
10
2
0
4
6
2
6
10
14
18
14
10
8
8
6
4
8
6
4
10
8
2
2
8
8
6
12
14
18
26
24
24
20
8
10
30
54
46
12
40
44
26
6
8
14
14
10
6
4
12
18
20
10
4
4
6
12
10
6
6
6
10
18
18
8
6
14
10
2
12
10
12
24
36
46
56
76
100
118
128
118
112
116
128
152
174
214
255
255
255
255
255
255
255
255
190
82
24
4
4
4
0
0
4
4
4
4
0
26
122
255
255
255
232
92
20
24
24
18
24
16
8
4
16
22
22
14
8
14
14
16
34
40
22
6
32
48
38
16
8
24
18
18
12
14
14
14
12
20
40
56
64
68
64
54
46
28
4
26
42
36
24
12
12
18
22
24
24
22
16
14
22
28
28
34
40
42
34
20
14
14
12
112
255
255
255
255
255
255
214
206
198
198
198
200
188
164
140
126
112
94
78
62
52
48
38
20
14
6
4
4
6
12
22
32
30
16
14
8
22
18
24
64
110
180
255
255
255
255
242
250
255
230
154
86
40
20
110
210
255
255
255
255
160
76
26
20
26
38
50
48
44
44
50
58
56
48
40
40
36
24
18
2
12
20
22
14
6
4
6
8
20
30
30
30
28
18
16
48
96
132
148
134
100
70
42
28
24
14
0
16
40
74
126
202
255
255
255
236
212
212
255
255
255
255
255
255
206
100
34
8
4
60
238
255
255
255
255
188
78
28
34
54
62
44
76
128
174
214
224
178
122
84
68
66
40
8
10
24
26
16
10
10
10
16
2
26
32
20
16
18
12
20
24
20
10
12
16
14
10
10
34
44
32
30
20
6
20
30
32
22
32
34
30
14
12
16
18
12
16
14
12
10
24
48
56
34
12
34
38
18
16
28
34
20
52
54
34
204
255
255
255
255
158
92
40
24
60
136
178
126
10
82
104
74
24
60
240
255
255
255
222
66
44
24
10
8
6
6
16
16
10
4
10
16
26
32
26
14
4
14
14
8
10
18
40
62
70
56
44
46
46
32
10
16
12
4
6
18
24
14
0
8
8
8
10
18
22
14
8
22
36
22
8
26
32
26
28
28
22
10
16
20
10
18
20
10
14
28
26
18
12
8
10
16
6
12
14
10
12
14
16
24
28
24
18
12
8
8
6
6
10
16
30
28
34
26
18
4
14
8
14
8
14
30
24
26
28
16
14
6
6
2
2
10
28
38
30
34
28
4
28
24
6
32
30
18
12
14
22
12
2
6
6
4
8
14
14
14
20
26
26
20
14
6
4
16
28
30
24
14
14
24
24
12
14
28
28
24
22
26
52
90
140
208
255
255
255
255
255
246
174
98
34
4
22
58
70
52
36
34
40
34
18
14
20
28
34
32
26
14
10
10
12
16
10
4
6
4
0
2
4
6
14
16
8
6
12
14
16
8
8
22
28
26
24
20
10
4
8
2
2
0
4
6
4
10
10
4
8
10
8
8
8
6
4
10
10
6
12
12
8
4
4
6
6
8
12
16
24
24
24
22
12
16
34
54
44
6
28
40
28
14
14
14
12
14
12
12
14
14
8
4
4
8
12
18
14
14
8
10
18
22
14
10
12
10
8
10
14
2
12
24
32
40
60
92
122
138
146
138
138
148
164
198
240
255
255
255
255
255
255
255
255
192
88
12
0
6
4
4
0
0
4
4
4
4
0
26
126
255
255
255
244
96
30
34
32
22
20
14
12
4
8
16
20
12
6
18
18
20
44
58
52
28
14
34
40
26
16
18
22
20
14
18
24
22
18
14
30
42
48
54
52
44
44
38
22
26
44
44
32
20
20
22
20
18
10
14
14
14
18
18
16
20
28
42
42
28
16
10
8
80
212
255
255
176
182
158
114
100
102
110
120
140
154
154
144
138
142
144
144
132
100
68
36
12
2
6
18
16
24
18
6
10
18
14
14
16
32
58
110
168
218
255
255
255
255
255
242
232
216
170
112
56
30
66
174
255
255
255
255
210
104
42
16
22
38
50
56
48
36
32
36
40
38
34
28
26
18
26
30
18
12
16
20
18
14
14
16
18
28
32
24
8
12
42
72
102
134
140
136
114
74
46
24
14
10
8
30
50
86
144
222
255
255
255
255
244
238
255
255
255
255
255
255
200
98
34
6
4
38
172
255
255
255
255
236
122
64
36
44
60
58
32
82
204
255
255
255
182
112
78
66
60
28
8
6
16
32
18
12
14
6
20
14
6
20
24
8
12
20
18
14
30
20
10
16
14
10
26
42
34
8
22
20
4
18
22
20
4
14
28
28
16
14
14
12
6
10
10
8
6
38
58
44
14
36
48
28
20
26
32
16
12
28
72
192
255
255
255
255
176
102
56
62
44
126
190
164
56
56
86
36
28
56
232
255
255
255
255
114
42
44
18
10
10
4
14
28
26
24
22
14
10
4
6
14
18
18
12
8
4
14
28
24
50
66
60
54
64
76
72
48
28
16
10
10
16
22
16
6
6
12
22
22
18
8
22
26
12
24
20
12
20
28
28
24
18
10
12
16
12
18
10
14
22
20
14
26
26
14
8
10
16
6
10
18
14
2
14
22
22
18
16
12
14
12
10
4
2
4
10
10
16
20
26
22
14
20
18
28
24
6
28
28
22
14
14
18
14
22
26
28
28
26
30
28
14
6
14
16
16
28
28
6
22
20
4
28
26
16
10
8
4
8
14
16
12
4
4
10
10
8
8
8
12
10
12
16
16
14
16
18
16
10
6
6
6
8
10
12
14
32
62
100
164
248
255
255
255
255
255
240
108
44
76
62
38
56
56
58
48
26
12
16
22
20
18
22
20
14
10
12
16
12
8
4
2
0
2
6
4
6
16
18
18
12
4
12
16
14
14
16
18
22
24
20
16
14
12
10
6
4
10
12
8
4
4
2
6
8
6
4
6
6
6
6
4
6
6
6
6
6
8
10
10
8
4
14
16
14
14
10
14
34
62
64
34
22
34
38
24
22
14
10
10
10
6
4
2
4
4
4
8
10
12
10
12
14
10
16
14
0
10
12
10
6
8
6
8
24
38
46
56
80
114
140
154
166
162
162
178
214
255
255
255
255
255
255
255
254
206
148
92
30
0
2
2
2
2
0
0
4
4
6
2
2
18
114
255
255
255
255
112
30
24
20
14
20
24
24
14
4
12
20
18
8
20
26
16
18
32
32
22
8
26
34
26
16
6
2
6
4
8
18
18
16
8
18
20
22
32
42
44
50
50
34
32
50
48
34
22
18
14
12
20
22
20
16
14
16
12
6
6
16
34
36
26
18
16
16
64
166
238
208
72
52
36
16
26
38
40
28
36
64
84
84
78
88
110
138
158
150
126
84
46
28
26
22
8
20
24
18
10
2
14
30
54
94
146
214
255
255
255
255
255
255
255
236
200
160
120
82
26
44
150
255
255
255
255
252
136
54
30
24
32
50
56
52
38
24
20
24
28
30
30
22
16
8
16
26
20
18
30
36
32
26
24
22
16
20
16
20
34
62
92
118
134
140
126
112
86
50
28
12
6
12
42
84
126
184
255
255
255
255
255
255
250
255
255
255
255
255
255
182
84
30
8
2
38
156
255
255
255
255
255
120
40
30
46
78
114
140
208
255
255
255
255
248
142
90
68
56
46
18
6
14
30
30
14
12
14
8
6
12
8
2
14
12
6
22
26
10
14
18
14
14
6
18
32
30
22
16
24
14
2
16
30
36
26
36
38
18
14
34
34
36
26
20
16
10
14
42
48
30
8
26
14
18
34
44
28
14
20
42
184
255
255
255
255
188
124
66
32
42
116
190
180
90
16
80
66
10
36
198
255
255
255
255
196
40
32
20
6
8
10
2
16
24
16
18
22
16
16
18
16
6
6
18
20
16
12
18
20
8
14
30
30
28
38
58
74
72
56
44
30
16
14
18
10
4
2
16
22
14
10
10
22
10
14
30
34
22
12
14
14
12
10
18
24
20
8
10
22
24
16
10
10
16
26
28
16
6
18
18
6
10
16
22
26
18
14
10
6
10
14
14
18
16
4
8
14
18
10
2
6
12
22
20
12
22
32
12
10
16
10
2
10
16
18
34
38
32
26
20
14
12
10
12
4
14
30
30
6
24
32
12
22
44
30
32
24
10
10
6
12
22
26
24
20
20
24
20
14
6
8
14
20
24
24
26
20
20
12
10
10
8
4
8
10
14
16
14
6
22
18
26
112
240
255
255
255
255
255
190
64
22
22
30
36
48
56
52
38
24
22
24
28
34
34
28
18
12
12
8
6
4
0
0
0
4
4
4
8
18
24
22
18
26
24
14
8
4
6
14
20
22
24
20
18
18
12
10
12
10
8
8
8
10
8
6
6
6
2
6
6
2
4
10
8
2
6
8
10
8
8
8
4
10
16
16
14
10
8
22
48
62
50
20
16
36
36
24
8
10
6
6
2
4
4
2
2
6
8
8
8
8
6
10
6
8
12
8
8
8
10
4
4
4
18
38
54
60
74
104
146
178
198
216
210
206
230
255
255
255
255
255
255
255
206
146
98
56
28
8
2
2
0
0
0
0
0
4
2
6
2
2
8
94
255
255
255
255
128
42
26
24
22
26
26
28
22
6
8
18
22
12
18
26
18
26
44
38
16
6
28
38
24
14
14
12
12
8
12
22
20
12
4
20
20
14
12
24
34
46
50
34
26
42
40
28
14
6
10
14
26
30
24
18
14
18
16
6
6
0
18
24
18
10
14
12
68
156
220
204
88
68
72
64
78
82
76
62
54
56
62
52
36
28
22
24
84
138
170
162
132
102
86
72
44
18
14
4
4
8
26
54
94
154
216
255
255
255
255
255
255
255
242
194
152
112
84
48
34
148
255
255
255
255
255
142
54
20
24
26
32
46
46
40
30
24
26
32
38
40
34
20
10
4
6
14
10
10
18
22
22
20
24
22
8
18
28
44
84
108
124
136
134
122
102
84
58
26
4
8
18
46
106
182
254
255
255
255
255
255
255
250
255
255
255
255
255
255
156
64
12
2
4
32
140
255
255
255
255
255
112
34
114
166
246
255
255
255
255
255
255
255
255
158
90
66
50
36
32
24
28
32
26
10
14
14
8
8
8
8
4
2
6
12
4
12
26
30
18
4
12
12
12
18
18
10
22
22
14
4
6
8
26
38
32
30
18
6
28
30
18
26
24
20
20
16
30
36
40
44
16
30
56
64
54
52
32
38
46
162
255
255
255
255
184
146
108
58
56
108
184
190
102
10
68
94
92
90
184
255
255
255
255
228
56
20
26
16
4
6
14
8
10
24
24
26
26
18
14
14
12
4
6
6
10
16
22
18
18
22
30
28
22
24
22
10
18
46
58
60
52
34
10
10
16
16
14
20
22
14
0
20
34
32
26
32
30
12
4
6
2
2
12
16
8
8
16
12
14
10
10
24
24
16
6
30
38
26
6
22
28
10
16
24
12
6
10
8
4
14
14
14
20
28
12
8
10
16
18
22
20
20
18
24
26
24
22
16
8
4
8
10
4
4
20
26
18
4
10
14
8
10
18
22
20
30
22
12
16
28
24
20
40
40
12
20
30
14
8
14
8
4
12
16
16
20
22
12
6
4
8
10
6
2
4
4
2
2
6
8
6
2
2
8
10
10
10
18
18
4
12
20
24
46
126
236
255
255
255
255
255
208
72
84
64
26
22
56
64
42
22
16
22
32
38
38
30
20
14
8
8
6
2
6
6
6
2
6
8
6
10
10
12
18
16
10
10
8
8
12
16
18
20
18
14
14
12
14
14
10
14
10
6
12
8
4
8
6
6
6
6
4
4
10
10
8
6
4
2
2
2
4
4
12
22
20
12
10
10
12
20
34
38
30
20
36
34
26
12
12
2
6
8
4
4
8
10
8
10
10
6
10
10
6
4
6
8
6
6
10
14
8
6
10
20
40
52
56
84
134
202
255
255
255
255
255
255
255
255
255
255
240
204
170
108
56
26
8
2
0
0
0
0
0
0
0
0
4
2
4
6
2
2
78
246
255
255
255
146
50
22
12
10
16
14
14
18
14
14
14
18
16
24
24
6
24
34
22
4
8
22
30
20
10
8
6
2
4
12
14
22
22
12
18
16
14
8
8
12
24
34
24
20
34
28
22
16
14
14
18
28
22
8
8
14
20
20
10
14
20
30
28
20
10
14
12
72
166
255
246
120
82
74
84
94
92
86
74
74
84
92
90
90
90
96
80
30
40
104
138
144
136
128
120
104
78
52
36
28
30
48
80
130
204
255
255
255
255
255
255
255
238
184
144
112
82
50
32
120
255
255
255
255
255
144
60
16
10
20
22
28
40
38
32
26
30
38
42
48
46
36
26
16
8
10
14
6
6
16
22
18
12
18
30
36
44
64
94
126
136
134
128
114
96
76
62
40
10
16
36
64
118
200
255
255
255
255
255
255
255
252
255
255
255
255
255
228
128
52
8
4
2
20
112
255
255
255
255
255
80
108
230
255
255
255
255
255
255
255
255
255
220
116
70
46
26
32
32
26
36
40
32
14
8
14
14
10
6
8
6
2
8
6
4
8
6
22
24
30
22
16
16
24
32
18
10
12
12
12
4
16
18
14
24
24
14
10
14
26
30
26
30
26
16
8
28
42
30
12
34
56
86
92
84
70
40
40
72
180
255
255
255
248
158
124
126
104
72
94
160
196
144
28
68
92
88
110
184
255
255
255
255
255
72
38
14
8
8
14
14
20
20
8
8
20
26
26
28
34
32
28
18
6
14
20
24
18
4
12
26
32
36
42
44
36
40
28
10
24
38
44
38
22
4
4
10
10
12
20
24
22
36
38
46
22
22
20
2
12
12
8
4
10
22
22
12
8
22
16
4
30
40
24
32
16
14
34
38
22
6
22
14
16
36
30
10
12
4
6
12
12
10
14
26
20
10
12
20
24
18
12
12
4
14
24
24
6
12
18
12
0
8
12
10
16
10
12
22
28
18
0
14
24
36
30
26
8
10
22
32
24
8
40
58
40
20
20
24
10
8
16
10
2
4
2
8
4
4
8
6
2
6
14
18
18
16
12
8
6
4
6
4
4
10
8
10
10
22
34
36
32
32
16
30
30
26
118
255
255
255
255
255
255
178
58
8
24
24
38
48
34
16
10
16
26
34
34
30
24
16
16
10
4
10
8
8
8
6
6
8
6
2
6
6
8
2
4
8
10
10
10
10
10
14
14
16
16
18
20
16
14
6
8
14
4
6
4
4
4
2
4
4
2
6
8
8
4
0
4
6
6
8
8
14
26
28
20
10
10
12
18
18
22
24
20
26
24
28
20
10
6
6
10
10
12
16
16
12
10
8
4
4
6
4
6
8
4
4
8
14
12
2
0
6
16
36
48
56
96
166
255
255
255
255
255
255
255
255
255
248
194
152
120
90
44
12
2
2
0
0
0
0
0
0
0
0
0
2
2
2
8
2
6
62
232
255
255
255
182
70
24
12
12
30
30
20
10
0
6
6
8
8
20
16
4
18
32
28
10
10
32
44
36
24
18
12
8
6
6
10
16
18
12
8
14
20
14
8
16
22
22
12
12
26
18
14
16
20
20
26
26
18
12
6
14
18
22
18
24
32
32
32
28
22
22
24
68
194
255
255
138
98
80
96
102
98
96
90
80
78
82
82
78
66
68
90
92
72
42
28
44
76
100
120
132
124
100
78
60
52
58
86
144
224
255
255
255
255
255
255
222
174
128
102
80
48
16
98
218
255
255
255
255
166
70
36
18
6
18
22
32
42
34
28
28
36
42
40
42
38
34
32
20
18
4
10
8
12
24
30
24
4
26
48
58
78
106
132
142
132
120
104
86
68
50
38
16
16
56
100
158
234
255
255
255
255
255
255
250
255
255
255
255
255
255
170
90
34
6
10
6
10
82
242
255
255
255
255
58
212
255
255
255
255
255
255
255
255
170
136
128
102
60
22
14
12
38
60
56
44
36
18
16
18
10
10
12
8
4
6
18
22
22
16
6
20
22
2
16
24
24
18
22
36
26
4
8
6
6
20
28
18
6
6
6
8
20
32
48
60
52
34
28
18
14
34
50
38
40
58
88
90
66
54
80
50
64
176
255
255
255
255
144
112
112
114
94
84
120
164
160
90
20
102
94
60
104
255
255
255
255
255
128
12
30
30
16
20
22
16
14
24
28
24
10
2
8
20
30
22
32
32
22
10
10
16
14
12
14
20
24
30
30
14
8
18
28
22
26
30
28
22
26
24
20
26
24
16
16
30
42
32
10
28
18
16
16
0
12
10
6
4
6
14
16
16
4
16
16
8
36
36
8
28
24
2
20
24
28
18
36
34
18
34
28
10
12
6
8
10
8
4
10
18
20
22
32
26
12
20
26
22
8
10
6
20
20
12
16
14
6
6
10
18
14
4
12
20
16
6
20
32
36
32
34
26
24
26
32
38
40
30
16
28
38
24
2
24
32
18
6
6
6
8
6
12
12
12
8
2
10
14
12
8
6
6
6
4
6
4
6
8
12
14
4
4
10
10
12
10
24
30
28
12
16
20
20
60
140
255
255
255
255
255
255
166
44
54
26
26
54
38
18
16
12
24
28
28
24
18
22
18
6
6
6
10
14
24
18
6
8
14
10
4
10
16
14
12
6
6
8
8
6
8
14
20
20
20
22
18
14
6
10
10
4
10
6
4
4
2
8
8
4
4
6
10
8
4
6
4
4
6
4
8
18
24
22
16
12
12
20
26
26
20
8
4
14
20
14
16
14
6
8
12
14
16
16
14
10
8
12
14
18
20
14
12
8
6
10
6
6
12
10
16
18
38
56
68
116
208
255
255
255
255
255
255
255
255
236
190
142
98
64
36
10
2
0
2
0
0
0
0
0
0
0
0
0
0
0
0
8
0
8
44
206
255
255
255
230
108
44
24
22
32
24
18
22
24
24
14
6
2
12
12
6
10
26
32
18
16
32
52
54
48
44
38
34
32
26
22
18
12
10
8
14
12
14
18
24
26
26
18
14
22
14
6
8
22
34
32
28
20
10
8
12
16
28
32
36
34
30
30
24
20
18
16
76
210
255
255
136
94
76
84
84
78
74
72
70
52
62
64
52
32
28
54
80
100
104
90
62
38
4
32
66
86
82
68
54
46
32
64
118
176
202
220
240
254
252
212
164
120
90
78
58
14
84
200
255
255
255
255
188
90
32
30
26
18
28
34
44
46
34
30
34
44
48
44
42
36
32
24
12
14
10
12
14
24
36
36
22
8
36
54
72
100
124
132
120
102
90
70
52
40
30
16
16
66
134
206
255
255
255
255
255
255
255
242
254
255
255
255
255
220
124
54
18
8
4
8
6
36
180
255
255
255
230
122
255
255
255
255
255
255
255
255
166
32
138
200
170
90
16
26
28
24
6
46
64
48
18
10
24
16
4
10
10
6
2
14
22
18
16
24
10
18
28
18
24
30
24
12
14
18
22
14
4
6
16
18
12
2
10
10
2
18
34
40
36
36
40
32
18
16
28
42
54
46
50
64
70
52
52
32
18
42
152
255
255
255
242
118
96
134
130
94
72
92
134
138
90
12
74
120
78
42
142
255
255
255
255
156
30
22
10
22
12
10
8
10
8
10
26
34
24
10
14
22
20
6
14
24
26
20
16
22
22
18
14
20
22
18
6
20
28
16
18
24
26
18
10
18
22
22
20
26
28
26
32
38
32
16
22
32
12
12
14
4
16
12
8
10
2
8
8
10
10
18
12
10
28
30
14
32
18
18
32
24
10
26
32
22
12
28
26
10
8
6
12
18
18
12
8
14
20
36
34
28
20
18
24
34
16
8
24
24
12
2
10
14
12
8
12
22
12
4
14
12
2
20
34
34
26
16
20
18
20
26
38
44
46
42
26
8
16
24
18
16
34
46
42
22
4
10
8
8
12
12
12
10
10
6
2
2
6
10
12
8
8
6
2
8
14
22
16
8
6
8
10
8
16
20
32
42
24
16
24
42
36
26
184
255
255
255
255
255
255
94
12
30
34
36
20
10
12
18
22
26
24
18
24
24
16
2
12
14
18
22
32
20
20
20
16
16
12
14
14
14
6
6
10
8
4
2
8
16
16
12
14
14
14
10
8
10
14
16
12
12
10
2
12
14
10
12
12
10
6
4
4
2
4
6
6
16
22
16
22
22
18
12
14
22
30
26
12
2
8
18
24
18
10
4
4
8
8
8
8
8
8
8
14
14
16
10
4
4
8
10
12
2
4
6
2
14
22
42
62
84
154
255
255
255
255
255
254
236
216
186
164
124
80
48
26
10
2
2
2
2
0
0
0
0
0
0
0
0
0
0
0
0
8
0
8
28
174
255
255
255
255
150
78
30
12
16
12
14
18
14
26
24
12
6
12
14
6
4
14
26
26
20
16
34
46
52
52
50
48
44
38
30
22
12
8
20
20
6
8
22
32
38
34
26
14
18
14
8
14
28
36
34
34
28
16
10
14
24
38
38
32
26
24
24
18
14
8
4
84
220
255
255
128
78
64
56
54
46
38
36
48
40
60
62
46
30
24
32
48
54
68
82
90
90
94
82
68
62
44
26
16
18
4
46
122
222
255
255
255
230
176
146
106
78
66
60
26
58
180
255
255
255
255
244
122
46
12
22
30
32
44
52
56
48
36
32
38
52
56
52
44
28
14
6
26
30
18
12
12
26
36
28
8
24
40
52
74
98
106
92
72
58
44
24
12
6
6
38
92
164
252
255
255
255
255
255
255
255
255
255
255
255
255
255
166
82
28
4
4
6
4
12
12
110
255
255
255
206
128
255
255
255
255
255
220
192
174
144
50
90
188
180
86
54
46
42
54
54
36
64
70
42
24
36
38
26
22
20
12
6
0
12
20
20
16
20
14
10
10
14
26
24
12
16
30
28
14
16
20
22
14
8
12
10
8
8
18
26
28
8
20
36
34
12
6
8
26
52
54
40
38
36
30
32
56
84
64
132
255
255
255
202
70
48
116
170
130
66
58
104
138
98
52
70
112
112
72
98
255
255
255
255
178
46
32
26
18
18
14
12
16
20
20
14
16
22
22
26
32
24
8
18
26
22
10
12
6
6
8
10
20
28
22
6
14
22
6
18
22
16
16
32
32
36
26
10
6
12
22
24
20
16
4
16
26
22
4
10
14
12
22
16
12
18
10
12
10
2
10
14
8
8
26
30
24
32
12
14
18
10
4
16
18
16
16
14
26
20
8
4
6
18
26
24
6
24
36
30
14
18
26
26
10
20
14
16
14
4
12
10
4
14
20
16
12
20
8
14
22
10
12
30
28
14
14
8
10
6
2
6
24
42
46
38
24
16
16
10
26
26
44
48
72
56
20
4
2
6
4
2
10
14
8
4
2
0
2
12
14
16
20
20
20
16
0
16
18
14
14
12
6
6
22
28
26
24
12
10
10
16
28
48
32
58
232
255
255
255
255
255
184
60
72
32
18
36
32
22
20
24
26
20
22
22
22
12
14
16
16
8
26
26
18
8
10
16
12
8
14
14
6
6
10
8
4
2
2
4
8
6
12
14
12
10
12
12
16
12
8
12
14
8
20
20
14
20
16
8
8
8
8
6
6
10
16
22
16
6
16
22
22
12
4
6
20
28
22
18
26
24
16
16
12
6
2
8
8
6
4
4
6
6
6
10
14
14
16
12
12
14
14
8
14
18
16
22
24
42
72
120
220
255
255
255
255
255
212
190
162
120
86
46
16
6
2
0
0
0
0
0
0
0
0
0
0
0
0
0
0
0
0
2
10
2
8
14
142
255
255
255
255
176
106
56
28
24
18
20
24
14
14
16
20
12
8
10
2
14
30
34
20
24
16
8
18
36
42
44
46
42
36
28
20
12
18
26
12
16
16
14
24
30
28
26
22
10
10
12
20
26
28
34
32
22
14
18
30
42
46
32
20
16
16
16
12
12
8
4
94
226
255
255
110
50
46
38
42
34
24
14
26
36
54
52
34
38
30
30
30
24
30
40
56
72
92
102
90
82
74
62
50
40
30
50
102
202
255
255
255
255
255
178
82
60
50
26
54
176
255
255
255
255
255
156
64
28
12
26
40
40
44
46
46
40
36
38
46
56
52
42
28
8
8
28
36
32
22
20
14
26
34
18
12
28
32
40
64
86
88
68
42
22
8
8
20
48
90
152
222
255
255
255
255
255
255
255
255
255
255
255
255
255
222
126
48
10
6
8
4
4
2
40
154
255
255
255
196
108
255
255
255
255
210
130
94
88
78
48
34
144
190
120
74
86
72
42
56
48
34
52
48
28
24
40
30
20
22
20
12
10
4
6
14
18
12
10
8
10
6
8
14
4
12
22
24
16
10
18
24
22
14
18
16
14
6
8
10
12
22
36
54
50
34
34
22
12
28
42
56
52
28
16
10
10
20
28
140
255
255
255
214
84
52
100
160
170
112
58
66
112
120
80
42
84
70
56
88
228
255
255
255
255
70
54
40
14
16
22
18
12
14
18
20
22
28
30
26
24
16
6
28
34
26
16
6
4
4
6
4
8
18
22
10
8
10
6
10
20
4
26
44
46
30
40
32
20
8
20
26
14
4
12
24
30
22
10
8
8
2
8
16
10
8
14
10
6
6
4
6
4
4
4
20
24
22
20
8
20
32
30
10
14
26
20
8
4
16
20
14
0
6
4
12
22
18
26
22
10
12
12
18
28
26
22
18
14
10
24
22
18
14
8
20
18
8
18
6
18
22
10
20
20
16
12
14
12
16
10
6
10
12
26
42
44
30
24
24
20
8
44
46
16
44
56
30
6
6
8
10
8
8
10
8
6
4
2
6
10
8
8
8
8
16
20
16
16
12
2
8
10
8
6
12
18
22
18
8
6
12
10
6
20
54
72
58
142
255
255
255
255
255
240
34
56
44
6
28
34
32
26
26
22
24
22
24
20
16
16
12
8
6
16
10
6
16
10
12
16
20
12
6
6
8
8
6
4
6
8
8
12
16
12
8
4
2
6
6
0
4
4
10
14
24
20
16
24
20
12
14
12
12
8
6
8
12
12
4
2
8
16
20
14
4
4
14
24
22
22
22
10
4
10
10
8
10
14
12
6
2
2
4
8
4
6
14
20
18
16
10
10
14
10
8
10
12
24
28
50
96
176
255
255
255
255
255
230
150
124
94
54
26
4
4
2
0
0
0
0
0
0
0
0
0
0
0
0
0
0
0
0
0
4
10
4
8
4
114
255
255
255
255
180
108
56
30
28
20
20
24
18
12
6
16
14
4
4
12
26
32
16
14
32
34
22
32
30
40
44
52
54
50
44
34
18
16
14
8
20
16
4
14
18
14
18
24
16
2
4
18
32
34
34
22
12
8
20
34
40
32
16
8
4
4
6
4
8
10
8
100
230
255
255
96
30
26
42
52
42
30
20
24
36
42
36
20
32
30
26
24
22
24
26
28
28
28
40
46
54
64
58
52
42
40
40
60
130
224
255
255
255
255
255
174
62
24
34
160
255
255
255
255
255
164
64
20
20
18
34
46
38
32
30
32
32
36
44
50
48
32
30
30
16
20
32
30
26
20
24
20
26
28
8
16
28
38
50
76
110
124
112
92
68
44
50
84
146
216
255
255
255
255
255
255
255
255
255
255
255
255
255
255
168
78
24
2
6
6
4
6
2
58
196
255
255
255
192
96
255
255
255
230
144
78
42
40
44
24
30
114
196
198
90
94
114
56
18
36
20
2
18
28
20
24
26
8
20
34
28
8
6
8
6
6
4
2
2
6
4
8
16
24
18
18
8
6
10
14
16
6
10
24
16
8
10
8
6
10
22
38
44
28
8
4
20
26
20
30
40
42
52
42
16
18
34
80
178
255
255
255
206
86
60
116
162
160
132
90
64
78
102
86
50
38
48
6
54
166
255
255
255
255
190
40
44
24
6
2
6
6
8
10
4
14
24
26
20
8
22
32
34
40
24
18
16
12
4
4
8
2
12
20
16
2
12
18
14
2
18
22
36
28
24
16
30
26
28
16
34
32
4
16
28
34
28
16
16
24
20
16
20
20
12
10
12
12
8
12
4
4
10
14
8
8
16
12
4
0
12
26
44
36
12
14
22
18
10
12
16
10
4
8
16
16
16
24
32
28
20
18
6
6
10
14
12
12
6
14
22
14
16
22
10
12
14
8
18
6
18
20
4
22
32
30
12
2
10
18
14
10
14
12
6
26
40
34
36
34
44
24
30
72
62
60
48
26
14
6
4
4
4
4
6
6
10
6
6
6
4
8
16
26
20
12
4
16
24
18
16
12
2
8
8
10
12
16
12
14
26
26
24
20
28
20
18
32
14
66
212
255
255
255
255
255
70
46
48
14
30
44
32
28
24
30
30
28
26
16
12
6
12
12
12
12
10
10
8
6
8
6
4
10
8
6
4
4
8
6
4
4
8
14
6
8
10
10
8
2
8
10
8
8
16
20
12
12
22
18
10
6
6
8
6
4
10
14
12
4
0
4
12
16
12
4
10
14
22
18
6
4
8
2
14
12
12
18
20
14
12
6
2
8
16
18
22
20
10
4
8
8
8
14
10
6
10
12
26
32
56
124
246
255
255
255
255
255
150
72
48
30
8
2
2
2
2
0
0
0
0
0
0
0
0
0
0
0
0
0
0
0
0
0
4
8
4
8
0
92
255
255
255
255
186
96
42
18
20
12
10
12
6
8
2
10
12
10
14
20
22
10
18
28
34
42
50
48
28
36
42
56
66
70
66
54
32
2
14
10
14
20
18
22
16
4
4
14
16
8
6
14
34
36
30
24
20
22
22
22
16
14
18
20
14
10
12
8
6
10
12
92
224
255
255
92
32
14
46
48
32
22
20
28
32
30
24
10
20
20
16
18
18
14
10
10
8
2
8
22
40
48
40
46
46
46
34
44
76
140
255
255
255
255
255
255
202
72
78
220
255
255
255
255
176
78
18
10
22
28
38
44
42
46
50
44
30
28
36
38
30
16
20
30
28
36
42
34
22
8
10
10
14
12
6
14
20
36
52
72
108
142
156
154
144
124
150
194
255
255
255
255
255
255
255
255
255
255
255
255
255
255
224
144
60
10
4
6
8
2
6
2
86
254
255
255
255
110
144
255
255
244
178
112
54
22
16
24
20
18
76
144
186
152
36
86
120
78
28
42
22
8
20
28
14
12
8
16
34
32
18
10
6
6
8
6
2
4
8
8
6
6
8
14
16
10
6
10
10
2
20
20
20
20
14
10
8
10
6
10
14
20
8
12
18
14
4
8
10
18
28
36
48
44
30
26
58
144
255
255
255
130
146
128
118
132
132
120
96
78
76
86
86
62
22
30
40
30
104
255
255
255
255
234
56
16
16
14
6
0
4
12
16
8
10
20
20
12
10
10
8
12
4
12
18
12
4
16
20
8
12
6
10
16
12
4
8
6
8
8
8
20
16
16
34
38
34
12
22
26
34
20
6
16
20
16
6
20
34
30
20
16
22
24
16
14
16
12
4
10
8
8
6
10
14
8
12
16
12
8
20
6
24
42
24
24
24
4
16
22
12
4
12
14
14
14
4
24
36
34
22
12
4
2
2
4
2
4
4
12
16
10
8
24
20
16
8
12
16
8
18
30
20
10
12
26
16
2
14
20
18
28
36
32
16
22
16
6
24
22
42
36
10
40
50
36
24
10
14
10
4
6
6
6
6
8
8
2
8
8
6
4
8
10
14
14
12
10
14
12
20
20
14
8
16
20
16
18
22
18
14
4
22
38
26
38
36
10
14
40
16
150
255
255
255
255
255
116
14
50
12
24
18
22
18
22
28
30
28
22
12
10
12
16
12
10
8
6
6
2
6
10
14
12
6
2
2
8
12
8
4
4
8
14
10
10
8
8
10
4
14
12
14
14
16
12
4
6
14
10
4
4
4
8
8
4
4
12
18
14
8
10
16
20
14
8
8
6
14
14
10
8
4
10
12
4
6
16
16
4
10
10
2
18
22
14
22
30
28
18
16
12
10
12
6
6
8
18
32
24
46
146
255
255
255
255
255
178
64
18
8
10
2
2
4
4
2
0
0
0
0
0
0
0
0
0
0
0
0
0
0
0
0
0
4
8
4
8
0
74
242
255
255
255
214
106
38
16
22
10
12
16
10
4
6
14
12
8
10
8
8
8
26
20
28
54
58
36
6
10
24
46
60
66
60
50
34
12
8
10
0
10
12
14
12
6
6
16
20
12
6
14
30
34
30
24
18
22
28
20
14
16
20
22
12
8
4
10
14
14
12
88
220
255
255
98
46
18
38
28
12
10
18
28
24
20
16
6
12
14
12
14
12
10
10
14
16
16
24
28
30
24
12
26
38
48
44
48
52
82
162
255
255
255
255
255
255
196
116
246
255
255
255
192
92
34
8
12
34
40
38
46
62
78
76
50
22
20
30
26
14
4
10
20
30
48
52
40
20
14
6
4
2
12
18
18
10
16
34
52
82
124
164
186
196
202
244
255
255
255
255
255
255
255
255
255
255
255
238
224
204
156
92
42
10
2
4
2
8
8
0
76
255
255
255
255
30
255
255
255
182
118
88
60
30
18
16
14
6
54
108
146
148
92
10
82
96
76
32
40
14
6
22
26
12
10
14
20
22
22
16
2
10
10
6
8
10
10
14
6
6
4
4
4
6
8
8
6
16
18
20
22
14
4
12
8
2
12
22
24
44
44
22
18
8
4
10
10
8
14
28
42
60
60
36
36
90
192
255
218
74
110
190
240
246
242
204
126
76
60
58
54
42
24
4
40
70
110
252
255
255
255
255
44
48
22
22
10
14
4
8
10
4
14
24
20
8
6
14
6
18
40
54
54
50
42
16
16
26
16
12
4
14
30
20
12
26
24
18
2
14
16
16
36
38
34
30
20
16
20
14
2
12
8
22
32
26
34
32
20
6
4
12
16
8
12
12
6
24
28
16
4
8
6
10
20
10
12
24
22
34
36
26
22
28
16
14
28
32
14
6
14
22
26
10
20
28
22
32
26
20
14
14
12
8
10
8
12
14
18
30
24
4
18
22
10
4
12
10
8
10
24
34
34
26
28
14
6
16
20
24
32
50
50
20
28
32
30
34
10
28
28
18
12
20
8
2
4
8
8
10
14
10
14
8
10
12
8
4
12
12
4
8
12
8
4
14
22
24
12
10
10
12
16
22
14
4
12
14
26
30
32
34
24
24
22
16
22
16
20
44
48
106
255
255
255
255
255
168
14
40
36
12
14
12
6
14
24
26
26
22
14
10
10
10
6
8
6
8
8
12
14
10
8
4
8
10
12
16
12
6
6
8
14
12
8
6
6
6
6
14
8
14
22
14
4
2
12
18
14
12
6
4
4
8
12
10
6
4
12
14
16
20
24
16
4
2
0
8
12
16
18
12
8
10
12
16
28
30
14
14
8
8
24
16
2
8
20
26
26
20
8
12
12
2
2
8
14
36
22
48
180
255
255
255
255
224
70
8
8
4
8
2
0
0
0
0
0
0
0
0
0
0
0
0
0
0
0
0
0
0
0
0
0
4
8
4
8
0
56
200
255
255
255
255
136
54
34
38
18
12
8
6
10
12
8
10
16
20
14
10
10
16
6
16
54
76
68
46
26
12
26
48
56
48
42
30
18
8
4
10
10
8
6
6
4
10
22
28
24
22
30
38
36
26
16
16
26
32
12
8
14
20
28
34
22
18
16
18
10
4
94
230
255
255
106
58
28
28
28
18
22
30
32
22
18
14
10
12
16
16
16
16
20
28
36
36
30
24
16
10
16
8
4
16
32
46
42
38
38
76
154
255
255
255
255
255
255
178
255
255
255
242
132
50
24
12
20
40
40
38
56
72
72
52
22
32
26
36
18
16
22
26
24
28
38
40
32
36
38
28
22
18
12
18
20
20
16
4
22
58
94
124
156
182
212
240
255
255
255
255
255
255
255
255
255
255
238
198
148
98
52
18
4
2
6
4
4
8
16
116
255
255
255
204
112
255
255
242
148
88
54
36
22
10
6
8
6
34
84
128
138
112
46
38
88
82
38
16
24
10
22
30
24
12
10
14
20
18
10
16
16
18
10
4
10
8
4
14
12
8
6
2
4
8
8
4
6
16
14
8
14
16
14
12
18
12
18
30
20
30
36
20
4
12
12
4
6
10
16
26
40
72
106
92
96
214
255
255
126
30
80
40
94
144
186
178
126
76
44
50
70
82
82
60
40
84
202
255
255
255
255
138
22
46
8
26
2
18
12
4
16
18
26
16
8
4
6
8
22
42
52
48
28
36
44
30
6
22
18
14
8
18
28
12
26
24
6
20
14
6
10
30
42
32
28
32
32
26
14
10
14
8
0
6
16
16
16
12
14
10
2
8
14
4
8
4
14
34
28
26
22
6
10
10
28
30
20
24
18
6
18
18
4
20
22
22
28
16
14
22
24
32
42
28
32
26
12
20
16
12
20
26
28
12
8
4
14
20
8
20
26
16
6
8
10
16
10
4
10
12
14
14
24
16
8
10
14
16
20
24
18
24
38
14
22
26
22
46
38
32
16
24
30
28
20
16
8
8
12
12
8
4
16
14
10
4
8
10
2
12
16
16
10
6
2
4
10
20
20
20
16
12
10
6
4
10
8
6
16
18
22
12
6
20
18
10
4
14
14
30
36
20
80
255
255
255
255
255
194
42
34
28
12
8
8
10
16
20
24
28
22
14
6
4
10
10
4
6
10
10
8
4
8
10
12
8
8
12
10
8
12
16
12
10
10
6
0
6
8
10
4
10
22
16
6
8
18
18
12
6
0
4
6
4
2
8
12
14
6
4
8
14
20
14
4
0
0
6
10
12
12
8
8
12
12
14
22
28
18
4
8
20
24
10
2
4
12
16
18
22
20
24
26
12
6
2
8
32
36
94
254
255
255
255
255
126
20
6
4
4
8
2
0
0
2
4
4
4
2
0
0
0
0
0
0
0
0
0
0
0
0
0
0
4
8
4
8
0
40
162
255
255
255
255
162
66
46
56
34
20
20
18
16
14
6
12
16
18
14
6
8
14
6
10
34
58
62
52
38
24
12
42
60
60
54
44
34
24
6
6
8
10
10
2
4
10
18
20
16
14
26
32
32
30
26
22
24
20
12
10
8
30
48
42
20
22
14
18
10
4
96
236
255
255
104
64
42
28
32
30
32
34
30
22
18
14
10
10
8
10
14
22
32
44
48
40
26
22
6
8
12
10
10
22
32
34
28
30
16
24
54
108
226
255
255
255
255
255
255
255
255
218
110
44
26
20
26
38
36
44
60
56
42
44
14
16
32
30
2
26
38
34
30
20
28
30
26
30
42
38
32
26
20
24
30
32
36
36
30
64
92
116
144
160
178
200
240
255
255
255
255
255
255
255
255
240
176
120
60
22
6
0
0
4
10
6
8
4
98
255
255
255
132
186
255
255
180
74
42
44
34
14
16
20
14
22
34
66
112
140
128
84
16
50
84
76
34
12
8
18
28
22
10
6
10
12
18
20
10
6
20
18
12
18
10
2
8
2
12
14
4
6
12
8
4
2
4
12
14
8
8
20
26
16
22
22
18
20
16
30
38
30
16
10
12
12
4
2
8
18
26
50
106
148
236
255
255
212
62
70
116
184
255
255
255
240
150
64
28
76
102
108
122
108
38
94
255
255
255
255
254
70
12
24
26
24
4
12
18
10
22
26
14
6
16
14
4
18
32
36
24
14
26
44
46
24
20
44
32
28
20
8
32
20
16
40
34
10
8
12
36
50
40
18
20
26
30
34
30
18
10
4
6
10
12
10
10
14
16
14
6
10
20
12
20
12
20
32
16
16
28
24
20
18
22
36
30
8
22
32
20
16
18
8
28
32
20
12
22
26
22
24
40
34
22
6
16
22
8
16
28
26
34
18
2
4
8
22
20
18
14
18
18
20
20
18
4
2
8
16
20
10
16
16
14
14
14
12
14
24
28
38
42
16
24
34
18
18
38
32
10
20
14
2
6
12
16
16
16
2
14
24
26
16
8
6
2
12
12
6
22
32
36
24
10
14
10
2
16
22
20
26
30
24
16
6
4
4
2
2
6
12
14
12
14
20
24
16
14
36
18
22
28
44
230
255
255
255
255
216
50
10
14
6
10
4
12
22
20
18
22
22
20
8
10
4
6
4
12
16
18
12
12
12
10
2
6
12
16
20
20
14
2
10
14
10
10
8
4
4
6
12
22
12
4
12
18
12
4
4
4
8
12
10
12
8
8
16
18
14
12
14
18
10
6
4
4
6
8
8
6
12
16
8
6
10
12
14
14
18
24
24
18
8
6
6
4
4
4
8
18
28
36
24
16
8
6
42
72
160
255
255
255
255
232
60
4
6
2
0
4
0
0
0
4
6
4
6
4
0
0
0
0
0
0
0
0
0
0
0
0
0
0
4
10
6
8
0
24
122
255
255
255
255
194
80
52
66
48
32
30
22
20
20
16
12
14
30
30
16
20
14
4
8
16
32
42
44
42
30
4
30
58
70
68
60
52
40
18
2
8
16
10
6
12
16
30
42
34
26
38
44
42
36
28
18
12
20
14
6
24
44
48
30
6
12
8
16
12
8
92
232
255
255
106
70
60
34
34
26
26
30
32
28
28
22
6
6
8
10
12
22
30
36
32
20
18
24
16
16
20
22
20
20
20
14
8
22
16
14
20
36
110
255
255
255
255
255
255
255
255
200
116
70
50
34
38
50
50
52
48
34
28
32
22
18
16
6
10
22
20
12
18
20
36
38
24
12
18
30
48
56
56
54
46
30
34
44
44
68
90
112
142
164
200
246
255
255
255
255
255
255
255
244
188
126
78
42
10
6
4
4
6
6
6
4
32
110
255
255
255
94
200
255
255
148
50
20
10
14
16
8
8
16
16
32
54
94
136
150
122
64
36
58
72
68
38
12
6
22
18
18
10
6
10
12
16
10
6
14
16
10
26
24
16
14
2
8
4
10
10
6
12
16
10
6
4
4
10
8
10
22
26
16
16
20
8
12
22
34
28
10
12
26
30
28
16
12
6
14
18
10
66
224
255
255
250
102
86
36
138
228
255
255
255
202
132
76
50
76
68
40
54
64
38
160
255
255
255
255
110
16
18
12
20
18
6
8
20
28
20
4
12
16
8
18
22
22
20
20
18
26
32
36
30
10
24
38
18
24
22
2
24
22
4
14
24
14
30
78
108
90
66
36
26
26
10
16
22
22
12
4
10
10
8
8
10
12
12
14
10
14
22
14
18
24
32
30
12
2
16
24
20
22
20
22
30
28
10
12
18
12
12
2
22
38
36
20
14
24
26
12
6
16
12
10
16
12
6
20
18
10
24
24
16
12
12
10
6
8
4
10
16
16
12
6
2
4
16
18
10
10
28
30
20
14
8
6
6
8
22
38
34
16
20
36
44
26
12
36
32
8
20
22
14
6
10
20
12
28
40
28
18
12
14
8
4
4
8
18
18
8
20
22
22
16
10
14
20
8
4
6
16
24
26
16
4
14
22
18
14
6
10
16
22
24
34
36
10
20
22
8
26
50
16
176
255
255
255
255
255
60
28
40
8
26
34
38
26
12
4
6
16
14
6
4
10
10
6
8
6
4
6
8
4
4
10
14
12
14
10
4
6
4
16
20
12
10
6
2
4
12
20
10
6
14
16
10
4
4
10
20
20
12
18
16
10
2
8
10
10
12
10
14
18
20
18
16
12
8
6
10
12
8
14
18
18
28
34
30
22
14
10
8
4
0
8
12
4
4
4
12
24
20
16
8
14
52
102
216
255
255
255
255
148
14
6
8
2
2
4
0
0
0
4
4
0
4
4
0
0
0
0
0
0
0
0
0
0
0
0
0
0
2
8
6
4
4
6
74
224
255
255
255
236
106
58
62
48
36
32
24
24
24
24
10
20
32
26
14
32
26
12
14
14
22
38
52
62
56
34
24
32
50
56
58
58
52
34
12
8
8
8
20
20
18
28
42
38
30
36
40
36
28
22
14
10
10
8
16
26
30
32
24
8
6
6
12
8
4
84
224
255
255
108
64
64
28
24
16
26
30
34
24
28
26
22
16
14
18
18
20
18
16
20
14
12
12
14
26
28
26
16
8
18
22
10
14
16
20
20
22
62
158
255
255
255
255
184
224
232
180
116
76
48
28
38
54
50
38
26
28
44
48
28
10
18
16
14
18
16
8
10
20
26
12
20
58
80
92
100
94
84
70
46
34
36
44
54
80
108
130
162
196
250
255
255
255
255
255
255
255
196
128
70
28
14
6
6
6
4
8
8
6
4
6
118
255
255
255
104
196
255
248
102
34
20
10
18
20
22
8
4
2
14
42
80
124
154
150
108
48
58
76
88
92
76
40
14
14
10
20
18
10
10
16
30
30
8
12
18
18
34
20
12
18
12
4
12
14
6
6
4
10
14
12
8
4
4
6
10
18
20
10
4
10
10
16
20
12
8
26
40
42
40
34
30
24
6
20
20
80
228
255
255
255
74
66
60
54
138
176
196
190
166
132
104
90
82
126
148
148
116
46
90
255
255
255
255
164
60
44
14
22
10
12
14
20
24
18
10
18
16
8
6
6
22
36
38
36
26
18
12
14
14
8
20
22
4
20
22
2
30
30
14
14
34
68
128
168
146
94
96
58
44
28
12
6
6
12
12
2
8
4
0
0
4
8
8
12
16
20
22
16
16
26
30
20
8
4
2
6
12
16
10
6
14
26
28
16
6
2
2
4
8
24
32
28
6
20
38
42
32
12
10
10
16
16
8
10
14
24
36
32
16
8
10
12
10
8
2
2
4
4
4
8
8
14
24
20
12
16
32
28
20
16
8
2
2
12
16
16
10
4
4
20
42
46
20
20
36
22
32
22
18
18
16
14
20
50
40
30
30
32
24
22
12
16
4
22
32
26
32
30
20
12
14
20
12
16
20
16
12
6
24
26
16
36
30
24
16
8
14
22
24
16
24
36
28
24
22
22
14
32
64
40
134
255
255
255
255
242
34
48
26
44
30
26
16
14
16
18
20
14
4
2
10
14
18
18
12
14
8
6
4
6
6
10
12
20
22
12
6
12
22
18
4
6
6
0
0
8
16
8
8
14
12
8
6
12
18
22
16
8
16
18
16
10
8
10
6
2
10
24
26
26
26
26
20
12
10
14
18
16
14
16
22
38
40
24
10
6
6
6
4
8
12
6
4
4
8
18
22
14
18
18
18
58
130
255
255
255
255
255
86
6
10
10
6
2
2
0
0
0
4
6
4
6
4
0
0
0
0
0
0
0
0
0
0
0
0
0
0
0
2
2
2
6
2
36
168
255
255
255
255
150
74
52
36
32
28
20
22
24
28
20
20
26
32
10
22
32
28
20
14
14
28
46
62
62
46
18
18
26
36
50
60
60
52
34
12
4
16
18
12
8
12
24
22
16
20
24
26
28
28
18
12
16
16
18
16
28
36
28
14
8
8
8
4
0
80
220
255
255
108
48
50
22
14
14
24
30
34
14
22
32
22
2
12
24
30
18
10
18
26
24
10
4
16
18
16
12
6
4
6
12
8
10
8
12
12
14
40
94
170
255
255
255
192
162
186
140
76
34
12
6
22
38
28
20
26
44
54
36
4
20
22
28
22
40
44
36
20
10
36
74
110
130
128
114
100
84
68
52
46
48
48
56
84
128
164
184
214
242
255
255
255
255
255
255
242
178
112
56
18
0
0
2
4
2
2
8
4
8
2
56
218
255
255
112
124
252
234
136
34
18
24
8
8
14
22
22
22
26
26
74
122
150
156
134
84
40
60
68
64
66
70
58
40
18
6
10
12
12
14
10
18
20
6
10
14
16
24
14
6
10
14
10
6
4
2
4
4
2
4
6
6
12
14
18
16
12
20
22
12
2
16
22
14
14
28
32
24
14
12
4
20
32
14
20
42
202
255
255
255
136
72
90
12
106
180
194
182
156
130
106
88
72
50
42
38
42
60
134
255
255
255
255
255
72
32
48
8
16
20
16
10
34
36
32
20
6
4
10
14
12
2
16
26
30
24
12
6
10
10
14
26
14
14
26
18
12
46
50
54
94
164
232
250
196
102
76
100
86
38
6
8
2
18
22
14
4
8
4
2
4
8
14
16
18
24
24
26
22
14
8
6
10
12
8
12
16
18
12
6
14
12
8
12
12
14
12
6
6
6
8
20
26
18
20
20
32
36
24
12
8
10
10
8
10
18
24
30
20
6
8
10
8
4
10
12
14
18
14
10
8
10
18
16
12
24
30
22
14
8
10
10
12
16
14
6
14
22
26
18
8
30
44
32
6
26
22
12
4
2
10
8
12
36
36
4
32
42
16
24
34
14
14
14
14
26
26
20
10
14
20
16
4
16
22
12
12
22
18
8
20
30
28
4
26
28
10
20
30
26
16
12
10
14
18
22
18
4
4
18
42
46
116
255
255
255
255
250
44
44
26
14
30
26
14
10
12
12
8
6
6
8
4
2
2
2
10
10
8
4
2
6
12
10
8
12
8
16
14
10
18
18
14
4
4
4
12
20
12
12
14
6
6
4
6
8
10
8
8
10
10
12
8
8
16
14
12
20
20
10
10
14
22
24
20
18
16
14
12
4
10
20
34
28
10
12
6
8
8
8
12
12
6
6
2
8
12
14
10
18
16
14
68
168
255
255
255
255
240
52
8
10
8
8
0
0
0
0
0
2
4
4
4
2
0
0
0
0
0
0
0
0
2
4
6
8
8
10
12
12
12
16
12
10
8
102
255
255
255
255
210
108
56
32
32
28
20
22
26
30
28
10
14
34
34
10
14
24
30
20
12
6
20
30
32
30
18
18
30
38
54
72
74
66
54
34
16
16
18
18
18
18
18
10
4
8
20
32
38
38
30
18
14
14
18
18
22
26
16
8
8
6
10
8
4
80
222
255
255
98
36
38
4
8
12
24
24
34
26
32
30
16
14
28
32
28
10
6
10
20
22
14
12
10
6
6
6
2
2
8
8
2
8
12
18
12
4
24
58
104
164
222
234
164
98
122
78
66
48
28
12
18
40
40
26
38
44
32
22
30
40
30
36
42
60
50
24
40
88
128
162
174
158
124
86
58
38
18
8
16
38
64
106
152
210
252
255
255
255
255
255
255
255
255
210
148
90
52
24
6
0
0
0
0
4
2
4
8
6
74
194
255
255
152
68
188
176
110
54
12
14
20
14
10
12
20
24
16
18
70
126
152
146
128
98
52
36
58
66
46
52
54
34
34
28
18
16
6
8
6
10
26
26
14
10
8
6
16
12
4
6
12
14
10
10
4
0
4
10
12
14
22
26
24
20
20
10
8
20
20
14
4
20
18
22
26
12
10
18
24
20
28
30
12
40
138
255
255
255
182
44
86
68
88
176
218
204
164
124
98
70
38
20
28
68
96
120
200
255
255
255
255
255
154
60
24
26
20
10
12
22
12
20
42
44
32
12
6
4
6
12
14
4
8
16
16
8
10
10
8
22
20
8
18
18
4
22
50
56
70
124
196
220
158
116
104
168
144
78
16
14
12
16
22
18
8
8
8
4
2
4
6
12
18
22
20
16
18
10
8
18
30
24
10
20
22
14
26
22
8
12
10
14
16
8
6
16
14
14
14
10
22
26
18
20
14
10
18
18
16
16
18
20
12
6
4
8
16
12
10
16
18
20
10
20
22
14
20
12
4
2
8
18
20
28
32
22
4
16
12
4
12
18
12
6
16
22
20
26
24
14
16
28
32
18
8
18
10
12
14
8
12
30
26
6
38
46
26
16
42
32
6
20
22
16
12
12
10
12
22
22
24
18
22
12
8
2
12
22
22
34
26
20
30
34
14
4
12
20
24
22
18
10
4
12
16
6
18
20
40
40
50
40
102
255
255
255
255
244
48
36
48
38
44
38
26
8
4
2
4
8
12
12
12
14
10
8
4
6
6
6
4
10
10
8
12
18
16
2
10
18
20
22
16
8
4
12
22
16
14
12
2
6
8
12
16
16
12
10
8
2
6
4
2
10
16
18
18
8
6
14
16
12
14
16
22
26
16
14
18
20
36
40
28
6
8
6
8
10
14
12
6
6
6
4
8
14
16
10
18
18
14
82
212
255
255
255
255
186
32
6
10
6
8
0
0
0
0
0
0
0
0
0
0
0
0
0
0
0
0
0
0
2
2
2
2
0
2
2
0
0
4
4
8
10
48
170
255
255
255
244
140
70
38
42
38
28
28
30
32
34
28
8
14
28
28
16
14
24
26
22
14
30
44
52
48
36
30
40
50
62
80
88
80
66
48
30
22
20
22
22
24
22
18
16
16
18
28
38
40
34
24
16
20
26
26
30
32
22
14
8
2
8
10
8
84
228
255
255
90
66
58
28
20
6
16
26
30
22
22
14
10
14
22
20
14
4
8
4
8
16
18
18
12
8
4
2
6
8
12
12
10
10
8
8
8
8
10
30
70
126
176
190
136
38
48
74
74
62
42
20
26
38
38
38
32
24
30
34
50
48
38
38
36
20
28
92
152
186
198
190
162
116
94
70
36
36
58
72
94
118
146
196
246
255
255
255
255
255
255
255
255
236
158
90
44
20
14
6
0
0
2
2
2
6
2
4
6
74
242
255
255
242
12
148
174
110
60
38
22
20
12
2
4
6
18
38
40
80
136
164
142
100
68
48
26
16
56
82
74
98
90
56
36
30
24
10
14
12
8
18
20
16
8
12
14
12
18
8
0
4
10
12
20
20
16
8
16
20
16
18
24
22
12
8
10
12
8
6
16
26
26
14
4
16
12
8
26
22
20
22
4
40
30
122
255
255
255
244
58
122
46
106
194
218
202
156
106
70
76
86
76
66
68
78
100
170
255
255
255
255
255
172
44
22
30
8
14
12
4
14
34
28
8
20
32
28
16
18
14
10
12
6
8
18
18
2
10
6
16
20
8
8
20
16
2
18
40
44
52
100
166
186
142
228
255
200
104
32
12
10
4
16
26
22
10
8
8
10
10
14
16
10
10
6
4
8
10
16
26
20
28
40
22
22
20
8
10
14
8
4
8
14
16
18
14
6
14
22
26
28
28
18
14
24
24
12
12
2
18
24
22
8
14
26
28
30
26
14
10
14
12
16
4
10
14
6
18
12
4
4
4
8
12
10
2
6
4
4
6
2
12
22
18
30
28
10
18
26
6
12
22
14
22
34
20
14
16
8
10
16
18
18
16
48
54
32
12
24
24
4
18
30
26
14
8
8
12
20
22
20
32
44
30
14
20
12
16
10
36
38
12
32
28
12
20
28
28
20
8
4
8
12
12
14
6
20
42
36
38
18
24
40
42
148
255
255
255
255
222
70
36
8
22
34
32
12
2
4
4
4
4
8
8
12
12
8
6
6
8
4
0
8
14
12
12
18
20
12
12
6
4
14
22
24
16
6
14
14
12
10
4
0
4
10
14
12
8
4
2
0
4
6
4
8
12
12
8
4
10
12
14
10
2
12
18
32
30
18
26
20
46
52
42
20
14
12
14
10
14
14
6
6
6
2
4
12
20
18
28
30
28
102
254
255
255
255
255
126
24
16
16
12
12
4
2
0
0
0
0
0
0
0
0
0
0
2
4
6
8
10
10
8
2
6
8
8
10
12
12
12
14
12
54
136
222
255
255
255
248
208
136
76
42
50
48
36
36
34
30
32
34
24
22
28
30
26
12
10
16
24
20
22
26
42
40
30
38
46
52
66
82
94
94
80
56
32
12
6
4
12
18
16
12
14
16
10
14
24
32
34
32
30
32
30
24
22
20
12
6
4
2
2
2
4
84
228
255
255
78
74
56
40
38
20
22
32
28
12
2
6
6
8
12
14
10
4
8
10
10
10
14
18
14
10
8
6
4
8
12
14
10
4
4
12
10
8
4
18
52
108
162
178
132
48
34
78
84
70
46
38
44
44
40
34
24
26
36
46
40
26
12
14
44
92
150
198
226
222
194
152
108
90
98
80
94
124
142
146
160
184
224
255
255
255
255
255
255
255
255
255
226
142
62
20
16
4
4
2
0
0
4
2
4
6
2
18
100
255
255
255
255
114
110
150
112
62
66
50
36
28
22
14
4
2
10
28
62
112
152
148
98
44
42
62
50
16
32
78
110
126
90
52
44
30
26
8
12
18
12
8
20
24
12
8
8
14
26
12
4
12
4
14
18
22
22
10
18
14
6
4
8
12
8
10
10
6
12
8
8
18
24
24
20
14
8
22
32
22
18
30
28
24
114
255
255
255
255
60
120
116
24
170
214
200
166
120
74
36
52
72
66
56
50
34
98
252
255
255
255
255
166
36
30
14
16
8
4
10
12
4
20
40
36
28
16
20
16
12
10
10
12
6
12
16
14
2
10
4
12
26
26
10
10
20
8
20
46
54
62
110
188
240
248
255
212
110
24
10
10
14
12
2
22
36
28
14
6
8
16
18
30
28
10
6
16
20
22
26
22
6
14
26
22
12
14
16
10
6
6
2
10
18
14
12
16
12
20
20
24
24
18
8
2
12
18
12
10
10
22
24
22
22
30
28
26
32
28
18
2
10
18
22
10
16
20
12
20
12
4
4
4
4
0
12
24
22
22
14
10
12
6
12
26
32
12
20
40
30
26
20
16
12
6
30
30
16
14
8
6
12
12
6
30
48
30
12
16
20
14
18
26
28
16
2
14
8
6
18
28
18
18
44
44
20
20
12
24
24
34
28
18
34
26
14
24
26
26
26
24
14
16
18
12
6
12
40
50
30
30
20
22
18
16
32
174
255
255
255
255
188
30
34
14
30
44
24
6
8
6
4
4
8
6
10
8
4
8
12
12
6
2
6
10
14
16
18
24
18
8
8
8
4
6
18
20
10
4
12
12
8
6
4
4
6
10
10
10
8
8
4
2
4
4
8
8
4
6
8
8
8
10
6
8
16
14
24
36
30
26
6
32
42
34
18
12
18
26
26
36
40
36
40
38
34
30
28
30
24
32
24
24
118
255
255
255
255
255
90
12
4
6
12
8
2
2
0
0
0
0
0
0
0
0
0
0
2
2
2
2
2
0
6
4
14
28
48
72
90
108
128
152
208
255
255
255
255
255
255
255
202
102
54
28
38
44
38
42
40
34
36
38
32
36
34
26
18
8
2
2
6
10
2
24
44
54
40
48
52
52
54
76
92
100
96
76
52
26
16
20
18
10
8
8
12
14
12
22
30
36
36
36
32
26
22
18
16
14
8
6
6
6
4
6
4
80
224
255
255
72
62
42
28
40
30
26
32
26
18
12
12
8
4
10
14
12
4
2
4
4
6
10
16
18
18
12
10
14
14
8
8
10
12
8
12
10
4
2
10
36
86
144
172
144
76
46
70
94
82
56
46
40
30
22
24
16
16
22
18
10
32
68
122
170
206
226
224
206
168
120
78
46
64
90
132
186
206
210
198
204
234
255
255
255
255
255
255
255
255
244
186
110
54
20
10
10
8
2
0
0
0
6
4
8
2
14
132
255
255
255
255
28
146
164
106
50
42
50
40
30
24
20
14
4
8
18
34
56
88
112
96
50
12
30
56
58
42
58
106
134
110
48
12
34
22
26
14
14
18
18
6
16
20
20
16
26
34
38
14
18
28
24
28
14
14
18
4
12
10
16
18
24
26
16
2
8
8
8
10
20
24
18
10
16
20
10
28
40
32
26
40
60
130
246
255
255
252
94
56
108
52
52
136
158
164
154
114
60
26
18
32
30
16
12
42
188
255
255
255
255
180
42
38
2
18
24
18
8
10
14
20
16
10
22
24
14
4
10
16
16
14
14
4
14
18
16
4
10
10
2
8
22
24
12
12
12
8
32
40
32
40
56
78
86
70
32
12
32
22
8
8
12
14
22
28
38
30
28
20
14
12
26
30
20
14
30
20
12
14
8
10
22
24
16
6
6
6
4
6
8
8
10
20
22
24
24
18
18
12
10
8
12
14
14
16
12
4
2
10
24
20
14
24
28
22
28
26
14
20
10
22
36
28
18
12
10
2
10
6
2
2
6
4
4
18
26
20
32
38
34
30
24
14
14
2
18
30
24
14
26
20
8
12
8
16
22
16
14
16
18
16
16
16
16
22
22
30
28
12
8
20
18
12
12
22
30
24
22
20
18
28
8
18
32
24
10
6
10
12
12
24
24
22
12
4
10
26
24
6
18
12
4
14
10
10
28
42
32
4
26
32
24
10
30
18
58
220
255
255
255
255
102
38
36
34
66
48
26
12
12
10
10
16
10
16
10
6
14
18
16
14
12
8
8
4
8
10
16
18
16
8
8
14
16
12
8
8
8
12
12
8
6
8
14
14
14
16
18
14
16
14
6
6
8
8
4
0
4
10
12
12
14
14
18
20
8
18
34
34
22
10
34
42
40
36
42
54
56
46
50
50
52
52
44
48
44
42
44
38
54
54
40
148
255
255
255
255
178
44
16
14
14
12
2
8
12
12
10
6
4
4
4
4
4
4
4
0
4
6
8
10
10
16
70
126
180
242
255
255
255
255
255
255
255
255
255
255
255
255
255
202
118
72
42
26
10
18
32
36
34
38
38
28
20
10
6
20
22
12
10
14
14
6
24
46
62
58
48
38
28
20
52
80
98
106
98
82
58
20
10
22
12
8
8
16
16
16
20
24
30
32
36
34
28
24
16
18
20
16
10
10
10
6
6
8
88
230
255
255
94
66
44
16
30
30
30
32
30
20
6
10
12
10
16
16
10
6
2
2
6
14
22
26
24
18
10
8
16
24
26
26
24
16
12
12
8
4
2
8
30
76
132
168
162
112
56
48
92
90
62
36
32
26
18
24
18
10
4
30
74
122
168
216
232
224
204
168
128
86
44
10
30
94
178
255
255
255
242
220
242
255
255
255
255
255
255
255
214
168
134
84
38
16
18
16
16
10
2
0
0
0
8
6
10
16
88
255
255
255
255
84
158
176
120
64
46
32
30
20
14
20
20
12
10
26
36
44
50
70
86
68
22
18
34
66
70
50
98
134
128
76
56
28
2
10
14
10
12
12
20
12
14
32
30
22
20
22
16
14
38
28
20
32
18
10
20
10
12
12
28
34
34
38
18
12
10
8
6
2
14
30
36
30
8
8
4
22
32
10
14
8
78
208
255
255
255
134
52
82
72
16
50
108
158
174
138
78
30
46
44
74
80
66
60
128
255
255
255
255
210
52
2
38
26
6
8
8
8
12
12
14
20
20
8
10
8
2
18
20
18
16
24
12
10
22
22
12
8
8
4
4
6
10
10
4
14
10
6
16
12
14
40
54
52
48
50
46
32
26
26
16
16
28
30
20
36
34
28
24
16
4
24
30
22
6
26
30
26
20
14
20
18
16
12
2
4
8
12
14
14
12
12
16
16
12
6
10
14
6
4
6
4
16
22
20
20
16
10
6
24
28
16
10
26
28
36
24
12
12
18
22
14
4
24
30
22
16
22
16
6
8
14
12
2
18
24
12
18
24
32
28
24
22
18
22
28
20
18
24
24
8
12
12
6
6
10
10
12
14
6
8
10
14
24
28
28
28
16
6
8
12
8
4
16
26
26
12
14
2
14
26
22
12
12
10
8
4
0
2
12
20
20
10
8
12
20
26
44
26
18
20
10
18
12
8
22
22
18
16
32
30
18
6
22
26
26
48
228
255
255
255
255
46
44
8
36
48
50
38
30
22
20
26
16
26
20
12
18
16
10
12
16
14
8
4
8
8
12
14
16
14
10
14
16
14
2
8
14
10
8
10
4
12
12
8
8
14
16
6
8
12
8
8
10
8
4
0
2
8
16
18
16
16
22
24
20
32
44
46
38
24
22
32
66
90
96
98
98
120
136
138
140
140
142
154
150
142
130
108
108
108
126
216
255
255
255
255
255
168
134
102
68
34
6
4
0
2
4
2
0
0
0
0
0
0
2
6
24
44
66
92
136
216
255
255
255
255
255
255
255
255
255
255
255
255
255
255
255
244
204
156
116
94
70
54
46
32
36
36
28
22
14
8
10
22
24
20
24
8
10
16
14
18
34
48
48
38
42
32
24
16
32
62
84
96
92
82
64
36
12
24
22
18
12
24
26
22
22
26
30
26
30
36
38
40
30
16
16
12
8
8
6
6
6
4
98
236
255
255
120
78
56
22
26
24
30
32
30
28
18
8
10
20
22
12
2
12
12
8
18
24
26
24
14
6
8
10
22
24
26
26
24
20
16
14
6
4
2
8
20
64
120
160
170
138
66
26
84
92
60
36
30
28
16
14
14
10
46
96
158
208
228
224
186
144
108
68
36
12
20
68
146
246
255
255
255
255
244
238
255
255
255
255
255
255
200
140
110
86
62
34
14
4
4
4
4
2
0
2
6
6
6
6
16
96
240
255
255
255
64
142
152
98
62
48
46
38
32
32
28
24
10
10
28
50
60
58
60
76
88
64
10
56
62
90
96
72
118
132
104
58
26
28
16
8
6
6
6
6
20
16
20
30
22
12
10
18
28
44
40
6
26
32
14
16
20
6
10
10
26
28
24
40
34
12
12
20
14
14
18
26
24
40
26
12
8
20
36
38
68
68
110
255
255
255
238
94
38
66
36
44
92
158
188
168
144
100
32
26
44
56
60
30
94
255
255
255
255
255
84
16
28
26
20
24
30
26
10
8
14
20
16
8
22
24
20
16
24
20
16
6
14
14
2
18
24
20
20
16
8
12
22
24
24
18
18
16
12
14
24
24
20
30
34
20
4
14
10
10
28
28
28
38
34
20
26
32
36
36
16
14
28
22
26
20
22
10
24
34
28
16
6
30
42
32
18
28
26
20
12
10
12
12
8
16
20
26
28
14
4
10
14
20
16
12
16
20
16
4
12
16
12
4
8
12
12
8
12
14
14
32
36
44
46
38
20
18
24
24
16
12
14
20
8
16
34
34
26
12
24
32
26
8
10
20
16
6
8
16
12
8
0
4
2
4
4
2
2
6
20
24
22
10
6
12
8
4
4
6
10
12
8
14
18
12
8
22
36
28
28
24
18
16
26
16
6
4
4
4
14
14
16
16
8
26
26
6
24
26
24
22
10
18
18
14
30
30
20
16
24
22
14
8
10
40
38
70
18
246
255
255
255
246
36
38
26
34
58
58
48
34
22
24
12
24
24
10
16
10
2
8
12
16
12
16
12
10
14
12
12
16
18
14
6
14
14
14
26
20
4
8
6
6
6
4
2
8
12
8
8
2
8
10
8
8
6
2
6
10
14
16
10
8
14
18
18
38
56
62
46
26
74
132
186
240
255
255
255
255
255
255
255
255
255
255
255
255
255
255
255
236
228
242
234
255
255
255
255
255
255
255
255
224
112
32
12
10
6
2
6
6
2
6
8
10
22
60
116
180
248
255
255
255
255
255
255
255
255
255
255
255
255
255
240
222
188
148
126
108
98
94
92
90
72
72
80
78
78
78
70
62
50
38
30
34
24
22
26
10
12
14
12
30
34
50
68
78
74
46
34
22
18
40
60
74
72
64
50
32
16
28
28
22
14
26
34
30
32
36
32
20
18
24
32
40
40
32
26
18
10
6
2
4
6
4
100
232
255
255
102
60
48
24
28
30
32
24
26
28
24
18
16
10
2
16
24
20
24
20
14
10
14
16
12
12
12
14
18
14
10
10
12
18
16
12
6
6
4
10
6
36
94
144
170
154
90
46
104
106
72
40
28
26
18
22
44
80
134
184
222
228
200
156
104
66
36
4
32
66
124
206
255
255
255
255
255
255
238
255
255
255
255
255
255
164
104
78
70
52
28
12
6
2
0
0
0
0
0
4
12
10
4
8
60
240
255
255
255
84
116
172
122
76
46
42
36
36
40
32
16
10
12
16
26
40
44
40
52
70
76
40
34
78
74
80
108
94
116
98
62
40
34
26
8
8
16
22
26
12
10
14
16
22
26
28
40
46
40
32
16
10
16
20
12
18
18
4
10
14
30
22
18
42
32
6
28
26
10
16
26
26
6
18
22
16
8
10
20
42
34
70
246
255
255
255
142
88
98
98
86
152
202
236
220
160
86
86
70
30
20
12
52
98
255
255
255
255
255
136
54
16
28
22
10
16
24
32
26
14
28
28
12
14
22
18
18
18
24
22
22
18
20
18
8
16
18
12
18
14
16
30
32
24
16
8
6
8
2
16
18
12
10
2
14
20
18
22
24
12
8
22
22
18
16
18
24
40
38
22
4
18
20
12
10
14
18
16
16
18
26
22
24
20
28
36
34
22
14
12
6
6
10
14
16
16
10
14
24
18
12
16
22
18
8
4
8
16
18
8
4
8
8
8
4
2
4
6
10
8
14
30
38
30
22
16
6
10
16
22
22
16
6
12
14
2
18
32
34
24
28
26
10
6
12
8
2
2
8
12
12
4
4
4
0
4
4
0
6
14
20
18
18
22
12
6
10
12
10
6
4
10
10
18
12
2
14
26
26
8
18
22
14
12
10
6
8
4
6
8
12
8
12
24
12
14
26
18
16
6
14
6
14
28
16
8
20
22
14
8
20
20
12
8
14
32
18
70
56
80
255
255
255
255
248
58
34
30
12
30
40
36
16
16
6
14
20
14
14
6
8
8
8
14
14
14
6
10
16
14
12
18
26
22
10
14
10
4
22
22
8
6
10
6
0
4
8
8
4
6
6
10
10
8
4
8
12
18
26
26
24
26
18
6
10
26
34
50
68
92
130
196
255
255
255
255
255
255
255
255
255
255
255
255
255
255
255
255
255
255
230
202
166
142
74
236
255
255
255
255
255
255
255
255
255
255
255
182
116
62
28
16
52
98
128
142
154
176
214
255
255
255
255
255
255
255
255
255
255
194
142
96
68
62
58
56
42
30
30
30
40
52
60
62
48
48
58
68
74
72
62
54
56
58
48
46
30
40
50
40
36
30
22
38
38
46
68
96
114
98
64
38
20
28
48
70
74
64
48
28
10
16
20
16
8
18
32
36
32
28
18
16
16
20
28
32
32
28
24
20
16
14
8
4
4
4
94
226
255
255
94
52
34
16
28
36
42
30
24
24
20
22
12
16
34
38
30
24
30
32
34
32
38
38
28
22
16
18
26
26
22
26
34
36
28
18
10
12
14
18
22
46
80
118
158
156
102
60
120
124
90
52
36
34
36
66
120
174
216
232
218
170
114
70
38
18
8
52
112
178
255
255
255
255
255
255
255
240
255
255
255
255
255
214
132
88
76
70
62
36
10
0
0
0
0
0
0
0
0
4
12
6
10
4
126
255
255
255
206
70
134
152
120
82
56
46
44
40
34
34
28
22
20
12
10
38
54
46
36
44
46
44
56
70
60
54
80
92
76
42
20
22
34
36
26
22
30
30
42
30
6
8
10
10
18
40
46
34
24
6
2
16
34
36
18
16
16
12
20
12
24
28
22
30
38
26
34
16
4
12
20
28
26
22
22
26
20
6
4
18
94
254
255
255
255
180
44
42
66
140
222
255
255
250
196
142
106
80
48
52
28
26
98
255
255
255
255
255
186
72
40
30
4
10
22
24
18
36
36
10
34
34
8
16
26
12
6
8
14
12
8
8
18
20
10
16
12
4
8
16
32
32
18
2
20
30
30
22
20
20
16
14
12
4
12
24
26
16
12
14
12
6
6
18
34
42
38
30
32
40
26
10
20
16
16
20
12
24
34
14
14
22
24
22
44
44
26
24
28
20
10
8
2
12
24
36
34
32
30
20
18
20
18
12
6
0
4
12
16
8
4
8
8
8
6
4
4
6
10
18
26
18
2
18
20
18
12
12
20
20
14
20
24
8
14
22
10
10
20
14
6
22
26
18
6
4
4
6
10
18
18
16
4
4
0
4
6
2
10
10
8
14
10
10
18
14
8
8
10
12
10
4
14
18
12
16
16
18
24
36
46
36
22
26
38
26
6
6
8
6
14
14
4
20
26
14
6
8
10
14
14
12
24
24
6
16
24
22
12
6
22
20
10
0
18
44
28
18
28
14
146
255
255
255
255
255
100
30
14
12
22
30
18
8
6
8
14
16
12
8
12
16
14
14
14
12
8
10
16
16
14
18
28
26
6
10
16
14
18
16
10
12
8
14
12
10
18
12
10
8
16
22
10
12
2
2
8
22
24
16
16
16
32
48
68
96
128
160
200
238
255
255
255
255
255
255
255
255
255
208
132
58
26
22
32
40
40
44
54
42
34
36
40
34
34
86
134
190
255
255
255
255
255
255
255
255
255
255
255
255
176
126
198
255
255
255
255
228
222
220
238
255
254
234
210
194
156
110
72
44
42
48
54
54
46
34
18
14
22
24
30
34
32
28
18
18
24
30
34
28
24
18
18
32
46
48
46
52
70
80
70
56
50
52
42
32
42
74
118
138
128
104
78
40
46
66
86
80
62
40
14
12
28
24
10
16
30
32
40
42
36
26
18
18
26
28
28
20
12
8
8
14
14
6
4
4
80
222
255
255
84
58
44
18
28
32
38
28
22
26
26
18
6
22
28
20
8
16
22
24
28
24
28
30
26
24
18
18
22
22
20
18
22
24
18
10
10
14
16
12
16
34
60
106
148
152
106
62
118
120
86
50
40
50
76
134
196
226
224
196
148
92
50
22
2
34
86
158
240
255
255
255
255
255
255
255
255
255
255
255
255
255
188
114
68
56
52
42
34
18
4
0
0
0
0
0
0
0
0
4
12
4
16
30
220
255
255
255
162
170
134
116
102
82
54
44
34
32
46
52
46
30
18
14
4
14
40
60
66
64
58
48
58
60
58
64
70
58
60
28
10
30
30
16
12
32
26
12
24
32
18
16
16
12
14
20
10
18
38
28
22
20
28
42
30
16
14
8
18
8
12
22
22
20
14
16
14
2
6
8
16
20
18
18
22
32
20
18
20
54
218
255
255
255
250
50
68
36
122
184
216
218
198
164
130
122
118
84
34
26
34
30
182
255
255
255
255
212
82
22
24
30
16
6
8
14
14
24
30
16
30
26
20
18
16
10
4
6
12
14
10
10
16
12
4
20
20
10
12
14
20
28
24
32
36
28
16
10
16
16
16
16
12
4
8
16
22
18
10
10
14
8
10
22
24
18
22
10
16
38
42
22
12
26
14
22
22
6
32
24
6
26
28
34
32
18
14
20
24
18
20
20
16
4
10
24
30
28
24
18
20
16
2
12
14
8
6
10
18
14
10
12
12
10
8
4
2
4
14
22
20
4
20
36
28
26
20
14
28
24
10
6
10
20
14
16
12
4
14
10
4
4
10
14
14
6
8
20
22
16
16
16
6
2
4
2
4
6
10
6
4
10
14
8
14
20
14
8
10
10
10
16
16
20
16
26
24
14
28
32
22
6
10
6
16
24
14
14
12
6
8
18
18
8
6
10
6
6
4
8
16
26
30
14
12
32
40
32
16
20
20
14
6
8
10
36
40
20
12
32
44
186
255
255
255
255
255
255
190
82
22
10
14
20
16
12
14
14
14
12
12
12
8
14
16
20
18
16
16
14
12
14
22
26
14
10
14
20
14
12
14
18
10
12
10
10
16
10
8
16
30
38
28
40
26
10
6
22
34
54
86
116
132
146
158
174
186
200
230
255
255
255
255
255
255
255
236
208
162
132
108
138
138
120
106
110
120
132
130
102
68
40
34
48
58
52
44
30
46
96
172
250
255
255
255
255
255
255
255
255
255
255
255
255
234
146
138
124
160
198
224
214
178
146
114
88
46
10
10
18
52
74
74
62
48
34
24
28
36
32
30
26
16
10
6
8
10
12
10
6
12
10
14
30
30
34
38
44
58
62
70
72
70
72
66
54
52
60
86
110
120
118
108
82
46
52
60
68
60
50
32
6
16
22
16
22
28
24
32
36
34
24
18
20
26
30
26
16
10
8
4
6
10
8
2
0
80
216
255
255
122
82
54
30
32
28
26
16
14
24
32
28
10
10
18
18
12
14
10
4
10
14
22
26
20
16
16
18
18
10
4
6
16
26
22
6
8
16
16
6
2
24
60
102
140
144
100
48
100
98
66
40
42
70
116
178
216
200
154
102
56
26
4
24
62
122
198
255
255
255
255
255
255
255
255
255
255
255
255
255
248
186
116
70
44
32
18
6
4
2
0
0
0
0
0
0
0
2
4
4
12
6
24
108
255
255
255
134
106
182
134
88
78
66
42
34
32
28
42
56
54
32
18
4
16
20
20
30
62
76
70
54
58
64
68
64
38
12
40
42
14
20
40
44
24
18
40
42
22
22
28
32
22
30
32
36
38
52
46
18
32
30
6
20
26
14
8
4
8
8
4
10
20
22
18
16
8
4
12
14
14
10
4
4
6
24
6
46
32
106
255
255
255
255
80
30
78
86
136
124
104
88
72
62
74
104
102
64
78
22
48
44
255
255
255
255
214
74
46
18
20
28
20
16
22
16
16
26
36
32
32
10
12
26
24
12
4
10
8
10
14
12
8
8
24
30
24
10
8
6
24
34
34
32
16
2
16
24
28
20
14
12
12
12
6
8
10
4
10
18
18
4
10
24
38
36
24
22
14
14
34
32
10
26
26
24
16
6
18
20
18
26
32
16
14
20
12
2
4
6
14
24
32
28
16
4
6
10
14
14
12
12
18
26
20
14
10
6
14
18
16
16
16
12
8
0
8
12
16
14
6
6
22
26
10
16
18
16
32
28
24
30
30
20
6
24
22
12
18
10
12
30
44
40
20
14
22
28
18
8
12
12
10
10
8
10
4
8
8
6
8
8
12
20
12
6
12
6
4
14
6
14
20
20
14
26
26
6
12
12
22
30
32
40
24
30
26
12
8
10
8
14
22
28
22
20
18
6
2
8
16
26
22
18
20
24
18
6
18
22
14
20
20
12
8
18
28
30
20
38
42
78
228
255
255
255
255
255
255
255
128
38
20
26
24
20
20
16
16
16
16
10
6
16
14
24
24
20
16
12
8
10
18
20
20
12
14
16
14
6
16
18
4
8
4
10
16
12
12
20
30
32
16
30
20
40
64
88
122
156
194
214
216
216
202
188
170
156
166
190
238
255
255
222
104
44
124
120
102
122
146
132
84
58
56
40
54
60
56
32
6
10
12
40
46
32
42
52
46
50
56
58
50
24
106
248
255
255
255
255
255
255
255
255
176
62
36
58
176
246
255
234
204
180
134
84
36
16
34
68
96
94
72
52
36
28
28
34
38
32
26
20
12
10
10
12
12
12
10
6
16
24
26
20
10
2
14
26
22
12
24
42
56
70
76
74
76
70
64
64
72
86
102
102
74
64
66
52
38
44
42
26
18
6
14
20
16
18
24
28
36
36
30
24
22
26
32
26
20
14
10
16
16
4
8
12
76
210
255
255
106
54
32
28
32
34
36
28
22
16
22
26
18
6
8
16
16
12
12
14
22
22
22
22
10
10
16
20
22
12
6
4
6
16
18
18
20
26
22
16
10
14
46
86
124
130
88
28
82
82
54
36
42
78
126
168
172
122
62
24
26
32
70
122
172
228
255
255
255
255
255
255
255
255
255
255
255
255
255
218
168
114
68
44
26
12
4
0
0
0
0
0
0
0
0
0
0
6
12
10
0
16
60
200
255
255
255
140
180
204
132
78
74
62
40
34
22
6
2
26
48
48
24
16
10
4
2
12
40
62
66
54
52
58
58
44
14
10
20
38
34
14
8
20
16
18
28
50
42
20
34
34
16
28
30
22
20
18
10
6
26
34
26
20
16
4
4
10
14
14
10
10
18
22
22
28
18
8
4
8
24
30
20
20
22
32
12
52
12
202
255
255
255
112
18
10
58
84
84
58
82
84
52
46
74
98
74
34
74
20
36
122
255
255
255
254
80
30
50
28
14
18
16
20
18
16
16
16
20
26
26
26
18
18
12
18
24
20
14
8
2
4
10
22
26
26
18
8
16
22
18
20
12
12
14
18
26
30
28
18
10
6
14
14
2
10
10
8
24
18
8
20
16
6
18
34
24
4
12
12
20
22
12
8
22
22
16
8
16
30
28
14
18
38
32
28
20
12
14
14
14
20
34
38
28
14
8
10
12
8
10
22
24
12
0
4
4
4
4
10
12
12
14
12
8
8
10
8
10
4
14
26
30
18
6
6
10
20
30
22
8
10
4
8
22
28
20
20
22
6
18
34
36
20
20
20
26
22
6
8
14
16
14
10
4
4
2
4
8
16
22
20
22
32
30
12
4
10
8
4
10
10
20
28
18
18
18
12
2
14
22
22
14
26
20
10
14
16
8
6
12
10
2
8
10
14
16
16
14
6
18
18
6
14
40
72
94
98
86
60
30
12
18
26
24
20
22
32
30
28
26
24
132
232
230
206
255
255
255
255
255
204
66
12
20
26
28
20
22
28
32
20
8
18
10
18
18
12
10
12
14
16
20
18
16
18
16
10
18
4
14
18
4
8
6
24
32
28
24
16
10
34
84
126
148
164
170
180
196
208
222
214
198
182
152
134
120
112
130
160
192
194
154
190
194
168
190
162
142
142
132
118
74
46
44
28
40
44
44
22
4
10
22
46
42
26
22
44
60
64
62
68
90
108
108
66
76
182
255
255
255
255
255
255
255
255
255
255
255
255
208
172
168
156
106
60
38
46
76
96
94
74
54
48
44
46
48
42
34
24
20
16
14
14
10
8
10
14
20
22
24
22
20
10
4
12
10
8
10
10
4
12
20
36
48
54
68
76
74
68
66
72
86
94
82
52
44
32
30
38
36
22
10
18
16
10
2
20
32
34
34
24
20
16
16
26
30
24
20
18
14
12
4
6
10
10
86
210
255
255
96
44
28
30
42
40
38
28
20
14
10
14
18
20
12
0
6
4
8
12
14
10
10
14
6
6
10
16
22
16
12
14
20
30
34
30
30
32
24
28
24
20
38
64
104
112
72
10
70
76
52
38
46
80
110
118
100
86
68
60
68
106
168
230
255
255
255
255
255
255
255
255
255
255
255
255
255
232
188
134
90
56
32
22
10
0
0
0
0
0
0
0
0
0
0
0
0
6
8
6
8
18
122
255
255
255
166
112
176
180
118
74
70
68
44
40
38
32
48
68
68
48
20
20
30
26
26
26
22
36
46
40
36
42
38
22
8
6
16
32
44
40
28
28
32
34
26
32
42
22
24
32
18
8
18
10
22
24
26
10
14
24
24
22
20
16
10
12
14
14
8
4
14
18
8
24
22
14
12
32
42
36
18
22
22
36
26
22
116
255
255
255
212
36
44
36
72
62
56
62
82
90
82
82
92
84
44
24
54
36
70
230
255
255
255
162
18
8
36
36
18
4
8
8
4
10
10
2
6
8
12
28
36
30
12
30
36
18
22
20
12
20
20
18
12
12
6
12
24
18
6
22
22
20
18
18
20
18
14
12
14
4
14
24
12
6
12
22
28
10
28
36
24
38
22
20
26
20
18
16
18
10
10
12
14
16
16
20
20
32
44
32
38
44
16
18
22
12
8
20
18
12
16
28
28
22
16
12
4
16
32
30
16
16
20
16
10
0
8
8
6
8
12
12
8
12
16
18
14
12
30
36
24
8
8
8
8
14
14
14
20
30
30
26
22
18
6
18
22
4
16
26
24
20
32
30
24
16
6
8
8
14
16
20
20
18
12
8
18
28
26
22
24
32
36
26
10
10
16
10
4
12
6
22
32
20
4
12
16
10
10
18
14
18
14
14
16
24
22
12
6
16
20
22
20
16
10
12
20
8
14
30
26
20
64
110
136
132
144
130
98
58
18
12
22
18
16
24
28
8
22
34
74
150
140
76
56
146
255
255
255
255
234
66
32
22
24
18
26
34
48
38
12
18
2
20
26
14
0
10
22
20
20
18
18
18
14
2
16
12
14
12
4
6
22
30
26
8
16
46
88
144
202
238
246
238
218
206
198
186
178
154
132
112
86
84
92
106
136
162
172
138
108
126
142
138
140
136
134
124
92
98
92
68
44
42
44
60
66
48
28
32
42
56
46
30
26
36
40
42
36
28
42
36
36
42
50
56
38
10
78
202
255
255
255
255
255
255
255
210
132
102
106
96
60
42
50
70
90
82
54
32
30
46
56
60
54
36
20
12
10
12
12
10
8
4
10
20
32
32
22
16
16
18
16
10
8
10
8
8
6
10
12
2
10
18
36
58
74
80
76
72
74
78
74
56
26
12
22
30
28
20
20
16
4
12
18
24
44
44
36
32
34
32
30
34
32
24
22
22
24
24
12
8
4
6
78
216
255
255
94
48
24
28
40
34
28
24
18
10
6
8
12
18
18
10
2
0
4
10
14
14
12
10
6
6
8
16
18
10
6
16
24
28
28
24
24
26
18
26
26
16
36
66
108
124
86
24
80
80
48
42
56
80
82
90
114
112
102
110
150
200
254
255
255
255
255
255
255
255
255
255
255
255
255
255
228
162
98
50
26
16
12
12
6
0
0
0
0
0
0
0
0
0
2
6
6
4
8
12
10
80
216
255
255
192
104
62
116
112
78
60
62
66
52
42
40
38
50
56
50
36
16
8
14
22
28
24
18
20
26
22
22
32
26
16
10
20
36
44
56
54
36
14
14
18
14
14
32
22
12
22
24
10
14
22
24
8
22
18
4
12
14
12
10
10
2
6
12
10
2
2
14
14
2
16
22
16
24
36
32
16
6
20
0
26
40
84
255
255
255
255
122
24
46
62
100
94
100
122
146
144
126
106
86
56
26
20
44
64
144
255
255
255
255
110
22
16
56
44
10
6
4
8
16
12
4
2
6
14
12
12
22
30
22
30
22
8
8
14
18
24
18
6
8
22
20
10
22
26
38
44
36
30
24
16
18
24
18
4
12
12
2
20
22
10
6
18
14
12
26
24
4
22
26
30
32
22
12
12
10
8
12
20
18
14
12
16
18
28
20
12
22
18
16
26
22
12
4
14
22
18
18
24
26
26
18
10
26
36
34
16
14
24
12
8
14
10
16
12
6
6
8
6
2
4
12
20
18
14
22
14
6
16
10
10
14
14
18
18
28
28
24
20
16
2
20
32
20
6
14
18
28
50
54
40
20
6
22
24
20
12
4
12
14
20
26
22
16
10
6
4
4
18
32
34
16
4
12
14
20
18
16
12
4
16
16
4
10
10
6
8
6
6
4
10
10
4
16
28
22
10
26
26
34
36
28
8
14
14
12
24
34
48
68
78
62
16
60
126
150
126
80
40
34
24
14
6
18
10
6
26
38
86
108
64
44
76
126
255
255
255
255
255
98
26
4
34
30
32
48
50
26
20
8
22
26
16
10
8
22
28
18
16
16
10
18
12
2
10
16
18
26
36
30
4
40
90
136
170
202
228
236
228
200
172
152
146
148
144
140
124
110
98
86
92
102
116
140
152
144
96
46
56
92
98
96
102
96
78
52
40
38
28
34
60
74
80
78
56
32
34
42
60
58
52
54
60
58
36
8
10
10
8
28
32
28
54
74
76
56
6
82
192
255
255
255
255
255
255
202
100
80
74
66
66
76
88
94
74
40
24
38
60
66
60
46
34
36
26
16
12
6
6
8
10
18
28
32
24
12
16
14
16
22
20
10
14
22
20
8
0
10
12
4
6
16
32
46
56
60
64
70
80
90
88
70
38
30
24
20
38
52
46
28
28
22
22
44
50
40
28
26
26
32
42
42
36
36
36
34
28
14
4
2
4
92
234
255
255
72
52
28
32
42
40
40
38
34
24
12
8
8
10
12
10
4
2
4
12
16
16
18
20
18
12
12
18
14
6
8
16
16
16
16
14
16
20
12
16
22
20
54
98
146
156
104
46
98
98
66
44
54
62
68
82
102
110
120
166
216
254
255
255
250
250
255
255
255
255
255
255
255
255
248
216
156
82
32
6
0
2
4
4
2
0
0
0
0
0
0
0
0
0
2
4
0
2
8
44
128
230
255
255
208
126
90
44
62
68
64
64
68
62
52
46
38
26
26
26
26
20
8
4
6
16
22
20
20
16
14
8
16
24
12
14
6
30
48
46
48
54
40
18
12
30
24
2
22
16
6
12
12
8
14
14
22
16
18
14
12
4
6
12
16
14
4
8
12
10
2
4
12
12
6
10
14
14
22
22
8
12
30
34
26
46
50
194
255
255
255
226
50
20
20
78
116
124
136
152
162
146
124
96
66
32
8
6
44
80
194
255
255
255
248
80
30
18
50
28
6
10
4
18
18
8
4
6
8
12
18
14
8
16
20
14
12
18
12
4
16
18
8
12
8
14
20
10
22
34
38
32
22
16
24
20
4
24
32
24
8
10
10
2
16
20
16
16
12
14
24
34
30
12
6
18
16
6
4
4
4
8
14
20
16
8
6
22
38
40
24
16
14
16
14
20
14
8
6
10
16
22
26
28
22
18
22
22
32
24
6
10
20
18
20
12
2
14
16
8
2
6
12
12
10
8
2
12
16
8
10
18
20
16
4
6
12
14
20
24
20
10
10
10
18
18
32
24
8
16
10
12
36
50
44
34
30
18
28
26
26
20
18
14
6
10
14
24
12
16
22
26
18
8
22
36
24
2
22
38
36
22
24
30
22
8
10
12
8
6
4
8
8
8
10
18
24
30
14
16
34
32
22
14
22
34
36
22
22
18
8
8
20
44
82
130
172
170
100
16
106
118
82
50
52
62
46
14
10
10
12
18
14
42
102
118
62
134
164
68
255
255
255
255
255
138
26
34
12
22
40
46
32
16
14
28
38
36
24
12
18
32
26
20
14
8
16
18
12
22
22
18
24
10
34
94
158
210
242
248
242
216
172
132
92
78
84
98
112
114
118
114
110
110
106
104
102
108
118
112
90
40
22
64
78
70
72
72
62
54
60
72
88
96
92
94
92
90
84
58
36
38
48
70
72
70
68
66
60
36
22
18
12
30
46
46
34
24
22
26
36
38
42
48
36
54
132
208
255
255
255
232
110
94
96
82
74
78
80
62
36
30
48
60
54
40
24
20
32
30
22
18
8
4
10
16
22
26
20
12
2
12
12
14
16
22
24
34
36
24
22
18
8
12
12
14
14
16
22
26
30
40
52
64
84
100
98
76
50
32
16
28
52
62
50
30
20
24
38
44
38
22
14
6
16
34
40
38
40
42
42
32
14
4
0
0
92
232
255
255
74
72
32
28
46
48
46
42
34
18
8
6
8
12
12
12
10
12
12
14
16
22
28
26
18
10
10
8
8
10
14
14
12
16
18
20
22
22
16
12
22
54
112
170
208
194
120
78
120
120
94
74
74
80
80
80
90
114
156
198
238
248
238
224
222
255
255
255
255
255
255
254
226
208
170
124
68
26
8
0
0
0
0
0
0
0
0
0
0
0
0
0
4
8
6
2
6
30
124
242
255
255
255
236
108
104
108
74
70
86
90
90
84
68
52
40
38
32
26
22
18
12
14
12
12
22
22
14
20
16
14
8
20
20
8
16
16
28
24
22
12
36
48
44
16
18
22
8
20
12
6
14
12
8
10
10
14
12
4
16
20
10
10
24
20
8
8
16
12
6
6
8
16
18
14
6
2
8
10
6
12
20
26
14
40
46
76
255
255
255
255
86
18
32
32
76
100
106
108
106
98
82
76
70
54
42
20
30
50
122
248
255
255
255
186
48
18
2
46
38
12
4
12
20
12
10
12
4
10
12
8
8
12
14
18
16
8
8
18
16
14
10
4
12
8
14
28
30
20
8
2
12
20
20
18
18
14
8
24
30
20
4
10
14
2
14
18
20
18
14
8
8
16
18
16
18
20
20
16
8
6
8
10
12
14
10
8
20
34
30
10
8
12
6
4
10
10
4
2
6
18
28
30
32
26
16
8
8
18
22
28
22
12
4
14
20
14
8
6
16
22
24
22
22
18
18
14
4
8
14
12
8
4
4
6
4
0
12
24
26
26
20
12
8
14
30
32
16
30
22
16
22
30
32
22
18
26
22
24
20
14
6
14
22
24
28
24
26
28
18
8
14
12
2
16
34
32
14
44
54
38
24
24
24
16
8
10
18
16
20
20
18
8
2
6
8
6
24
32
22
30
30
24
20
20
14
18
20
14
6
4
4
6
18
40
56
94
152
170
116
124
120
56
20
18
44
48
16
8
12
24
20
14
22
94
148
74
94
190
120
96
255
255
255
255
255
178
26
14
18
42
48
30
18
14
20
28
36
36
24
22
34
36
34
24
14
18
26
34
34
14
26
60
114
182
234
255
255
248
214
180
136
90
66
60
88
118
126
114
100
102
100
96
92
82
76
68
72
68
42
42
58
86
98
90
74
68
68
70
82
102
110
106
94
84
88
92
96
88
60
44
54
72
84
74
60
48
46
46
34
42
42
34
48
50
40
30
28
30
32
32
18
30
48
58
52
14
42
80
176
255
255
220
130
104
64
50
58
60
46
30
28
38
40
26
28
20
12
16
12
10
20
24
16
16
18
22
18
8
14
10
12
18
18
18
22
32
34
30
22
26
26
22
20
22
22
16
18
22
18
16
20
28
32
42
62
78
78
64
56
60
52
22
10
26
28
28
32
36
38
36
32
22
16
14
14
20
22
28
36
48
46
28
14
6
4
90
228
255
255
82
84
58
12
24
34
38
38
34
24
14
4
4
12
12
10
8
12
8
14
18
28
30
22
10
4
6
4
10
14
12
10
14
24
28
32
32
30
30
26
44
98
178
254
255
255
184
182
204
186
142
114
106
100
88
78
104
134
156
180
202
198
186
194
228
255
255
255
255
255
232
194
164
138
92
46
14
4
2
0
0
0
0
0
0
0
0
0
0
0
0
0
4
4
4
4
50
190
255
255
255
255
216
104
22
60
98
84
70
92
104
108
96
72
54
46
42
40
36
26
10
10
14
4
16
24
14
8
18
14
14
16
18
14
12
16
24
20
12
30
24
10
34
52
40
20
12
6
18
10
8
14
12
8
16
12
12
20
20
20
30
22
18
28
12
10
20
20
8
2
4
6
10
14
12
6
8
8
2
10
18
12
4
18
40
40
182
255
255
255
134
40
40
50
58
74
84
82
80
70
48
32
40
46
28
46
22
36
38
152
255
255
255
255
118
36
30
22
48
50
30
14
14
16
6
4
12
12
8
16
20
16
16
10
10
16
18
8
8
14
18
16
10
12
4
26
34
20
8
26
32
28
28
28
28
18
8
4
8
22
28
18
4
12
6
10
14
16
16
12
12
12
12
6
12
18
20
22
26
24
20
20
20
22
22
20
8
18
42
48
34
10
12
16
14
18
20
14
8
12
18
16
14
16
14
12
12
14
26
32
26
26
16
6
4
16
18
14
18
26
26
22
18
18
16
16
14
12
14
16
20
24
20
12
6
4
6
14
22
14
16
18
4
4
8
26
36
28
30
12
16
22
36
50
54
46
30
6
20
30
24
10
16
20
24
26
32
32
18
4
18
20
12
0
12
24
32
24
44
36
14
10
14
20
10
6
20
30
24
28
30
32
20
8
6
8
16
10
18
32
32
16
16
24
24
18
6
6
12
12
6
2
14
20
14
16
42
44
104
124
156
128
68
70
46
38
48
22
8
22
34
16
26
28
84
162
114
66
166
150
40
112
255
255
255
255
255
190
32
20
16
36
30
24
18
14
14
24
34
28
24
30
34
36
24
6
10
28
32
24
66
132
188
242
255
255
255
234
186
134
102
80
84
72
108
156
174
146
98
74
74
68
56
40
24
22
20
4
22
40
84
116
122
110
90
76
70
70
82
98
112
104
80
62
60
74
88
92
78
58
58
66
72
70
50
32
22
24
28
22
34
42
34
40
34
22
16
14
12
8
10
8
6
14
12
16
18
30
38
28
106
192
224
196
130
72
42
46
42
46
32
16
14
24
30
36
34
28
30
24
14
12
22
24
16
16
18
12
8
14
20
22
20
16
16
20
24
20
16
16
20
20
20
16
20
18
10
18
26
18
12
10
12
14
12
20
38
58
62
58
70
84
82
60
28
8
22
34
40
46
44
32
18
8
2
8
8
6
12
22
44
56
46
34
22
14
90
230
255
255
82
74
64
20
22
22
28
32
38
26
10
2
2
6
10
8
6
10
8
14
20
28
26
14
4
4
12
12
8
4
4
10
20
32
34
34
34
40
50
50
74
144
246
255
255
255
255
255
255
255
230
174
150
132
106
112
136
144
142
150
164
170
180
220
255
255
255
255
255
204
172
148
120
92
50
14
0
0
0
0
0
0
0
0
0
0
0
0
0
0
6
10
6
2
18
104
255
255
255
255
255
218
134
98
80
36
62
46
24
56
92
110
96
68
50
50
52
48
38
24
4
6
2
14
22
14
18
12
10
14
12
12
10
10
16
24
26
22
22
8
12
20
8
24
36
30
10
8
8
8
8
12
14
10
2
8
22
32
18
12
36
40
20
16
8
24
20
6
8
6
2
6
10
18
22
20
20
14
14
10
10
4
26
26
16
144
255
255
255
255
30
78
28
64
92
92
96
94
88
72
52
38
32
34
22
60
38
52
6
184
255
255
255
214
46
30
30
22
34
44
40
32
26
16
6
4
4
14
14
6
4
6
6
10
16
20
18
2
16
18
6
14
14
6
10
20
16
10
28
28
20
14
12
4
8
10
2
8
12
16
28
26
12
26
22
18
14
8
4
2
4
10
12
14
10
6
2
10
20
38
46
44
40
40
38
34
18
8
26
32
26
14
10
14
8
8
20
30
22
8
6
18
30
28
18
20
22
24
24
8
6
16
18
14
6
14
12
4
8
12
10
12
14
14
14
18
18
14
12
14
8
4
12
10
8
8
10
14
20
18
26
28
14
14
4
8
14
8
4
12
14
2
12
24
32
42
34
24
18
26
38
38
24
16
12
2
4
4
14
20
12
2
8
14
16
8
22
20
16
30
36
30
24
10
16
12
10
16
6
10
20
28
16
10
6
8
6
6
18
10
10
20
22
14
10
10
14
8
6
20
18
8
20
24
12
24
46
30
12
46
44
10
22
38
42
38
40
12
22
32
24
8
44
32
68
152
130
90
172
122
50
56
60
204
255
255
255
255
218
44
34
4
32
44
30
16
10
16
26
20
16
22
28
32
24
12
14
24
62
138
210
255
255
255
255
255
224
182
142
106
94
96
112
134
172
190
166
106
86
66
30
14
32
32
32
46
56
64
70
90
112
112
92
70
60
54
54
50
56
70
88
86
68
56
56
72
84
78
62
50
48
42
34
28
16
8
10
20
22
12
14
22
24
26
26
20
16
10
8
4
6
14
16
20
20
18
10
4
18
18
10
58
112
154
160
134
80
40
24
44
52
50
44
40
32
28
26
22
22
20
26
26
4
12
14
12
12
14
24
34
32
22
12
6
8
8
8
4
2
4
8
6
4
0
6
10
6
12
18
8
4
6
10
18
12
2
10
32
54
54
54
60
72
78
70
50
20
16
40
62
68
58
48
42
36
34
22
8
6
12
34
56
56
50
40
28
88
232
255
255
86
72
60
22
22
20
22
30
42
34
16
2
2
2
8
12
10
6
8
10
16
30
30
20
12
14
18
8
2
6
10
18
24
30
28
26
28
38
52
62
104
202
255
255
255
255
255
255
255
255
255
255
242
204
154
146
150
152
156
174
200
224
252
255
255
255
255
255
200
154
130
108
74
50
26
6
0
0
0
0
0
0
0
0
0
0
0
2
4
4
6
4
4
16
122
255
255
255
255
255
255
222
246
180
82
48
56
40
10
48
90
102
78
54
44
50
52
40
30
18
10
8
8
20
16
4
10
8
2
8
10
10
10
10
16
24
22
18
30
34
18
10
22
10
14
30
22
8
2
6
6
4
12
16
12
6
14
36
40
20
8
26
18
4
18
22
14
2
10
6
8
14
18
22
22
20
18
10
18
18
20
18
46
24
86
255
255
255
255
118
48
70
12
104
118
106
106
106
104
92
78
58
30
18
42
64
30
66
44
255
255
255
255
116
48
24
24
8
14
26
38
46
48
38
14
6
8
14
8
12
16
16
12
12
12
14
12
6
28
24
18
12
12
16
12
12
20
22
20
10
6
8
16
22
24
14
8
14
10
10
22
16
12
30
20
22
18
12
6
6
18
24
22
22
20
16
16
34
46
46
56
56
46
42
44
46
28
4
26
38
26
8
4
18
24
14
4
24
30
12
18
28
32
38
26
22
20
26
40
30
24
28
26
16
8
16
16
8
12
16
18
28
26
20
18
20
14
2
10
18
24
14
6
10
10
6
4
6
16
26
34
30
22
22
12
8
12
14
12
8
6
4
14
20
12
16
14
20
34
46
44
26
10
18
22
22
26
28
26
12
4
10
12
14
6
10
16
18
12
28
34
36
20
4
8
8
8
22
28
14
16
24
20
10
6
12
14
18
16
4
26
30
12
14
22
10
4
14
8
8
18
8
18
18
8
32
42
24
46
52
44
62
48
16
16
26
18
10
32
26
6
26
44
20
50
122
116
90
144
86
28
30
30
30
174
255
255
255
255
248
72
32
26
38
36
28
20
18
26
22
14
22
30
26
20
24
52
116
194
255
255
255
255
244
208
188
170
148
132
128
128
132
144
162
166
148
102
42
56
48
36
54
68
80
88
96
90
78
68
72
78
64
36
32
26
14
24
24
32
50
66
64
52
48
56
76
82
70
56
42
30
16
6
8
8
8
8
16
20
14
10
6
8
12
16
12
8
6
8
6
16
26
26
18
18
10
12
16
22
22
4
18
16
54
112
144
128
86
38
6
32
48
52
44
26
10
4
0
0
6
14
24
18
6
8
10
12
24
36
34
20
10
2
4
6
4
4
10
12
6
6
6
6
2
2
6
6
12
20
14
10
8
8
12
12
8
10
12
30
40
40
38
44
60
76
78
54
20
14
46
66
70
68
64
62
62
48
30
20
24
28
44
50
50
48
40
84
230
255
255
94
80
62
16
8
8
22
34
42
34
16
6
4
2
4
14
16
10
8
8
14
28
36
32
20
16
14
8
8
2
20
28
22
20
18
22
26
30
42
72
156
255
255
255
255
255
255
255
255
255
255
255
255
255
248
190
178
200
236
255
255
255
255
255
255
255
255
216
166
120
90
56
22
10
4
0
0
0
0
0
0
0
0
0
0
0
0
6
10
10
2
8
16
124
255
255
255
255
255
234
255
255
255
150
82
72
78
78
50
82
102
90
58
44
44
46
40
26
18
10
8
8
10
14
10
2
4
2
8
8
2
8
6
6
8
24
22
6
6
22
28
14
8
18
4
20
22
8
4
4
6
6
8
8
8
10
10
12
34
46
40
36
26
12
12
14
12
14
12
4
16
14
12
8
8
14
14
12
12
6
18
24
56
22
158
255
255
255
168
30
58
34
64
122
116
96
94
94
94
88
80
58
28
24
20
34
22
26
126
255
255
255
250
18
62
12
28
20
12
8
28
52
64
64
42
20
16
18
12
10
10
6
2
8
12
20
18
18
32
16
24
20
0
16
20
10
12
10
4
4
8
10
16
18
10
6
12
10
8
26
28
18
14
24
10
16
16
14
8
12
18
20
18
20
32
52
70
80
72
54
58
62
52
42
42
50
36
12
32
34
18
8
14
16
30
32
24
20
22
12
16
12
6
16
16
16
24
24
24
8
24
26
18
4
14
20
12
8
10
4
14
18
12
14
2
12
16
12
8
2
10
12
2
10
16
14
12
10
14
16
14
6
10
16
10
8
2
12
20
26
28
20
20
30
36
28
18
12
22
14
6
28
40
36
32
36
36
32
20
6
8
2
10
12
16
26
20
24
26
14
6
22
16
8
20
20
10
6
18
20
12
16
32
32
22
8
0
16
16
16
32
28
4
22
22
8
8
8
18
16
14
2
12
28
44
62
52
18
24
26
20
18
8
24
24
14
10
18
26
12
10
24
22
10
46
84
84
70
104
60
14
4
26
40
14
164
255
255
255
255
255
104
8
16
24
48
46
32
36
42
36
28
30
8
46
118
200
255
255
255
255
255
214
176
156
158
164
158
156
160
164
158
140
110
84
60
26
24
58
84
100
104
112
120
118
104
84
54
18
20
44
36
16
44
48
36
36
20
38
54
56
46
38
44
62
80
80
66
54
38
20
8
10
24
28
26
28
34
34
24
16
8
4
6
6
6
2
4
8
18
32
38
30
20
22
8
6
4
8
2
16
24
18
12
32
88
120
122
100
60
22
16
28
40
40
28
18
16
18
22
24
24
20
12
8
10
16
26
24
12
10
12
4
14
12
12
8
6
10
12
6
18
26
30
26
18
8
12
20
16
8
4
8
14
16
16
10
16
16
20
30
34
34
40
56
72
70
56
34
24
16
44
62
64
62
66
62
54
42
32
28
28
34
36
38
38
88
230
255
255
90
74
56
16
20
18
22
34
40
36
14
2
6
4
2
10
14
12
14
12
10
14
22
28
18
12
10
12
16
14
28
26
16
18
20
30
30
22
42
110
242
255
255
255
255
255
132
190
255
255
255
255
255
255
255
255
255
255
255
255
255
255
255
255
255
255
206
148
104
66
42
16
2
2
0
0
0
0
0
0
0
0
0
0
0
2
2
6
6
6
4
42
164
255
255
255
255
255
242
202
255
255
255
94
88
74
78
92
70
88
96
86
68
58
50
36
24
16
10
8
0
8
14
12
8
6
2
2
4
10
10
8
4
10
10
30
38
28
18
14
22
28
18
16
0
16
28
18
0
8
6
4
12
12
8
6
16
10
10
28
42
34
24
14
6
18
14
10
14
8
18
24
18
12
16
24
28
26
22
16
2
12
38
54
255
255
255
255
62
56
30
84
120
128
104
82
76
68
64
56
44
24
12
28
26
36
42
52
212
255
255
255
170
16
54
20
46
20
14
12
16
28
46
54
46
24
8
6
6
10
16
14
12
16
10
16
14
8
24
14
14
22
12
8
14
8
2
8
8
6
4
2
10
20
16
16
12
4
16
24
22
18
18
34
28
24
14
12
22
30
40
58
68
76
88
90
86
76
62
50
60
64
56
48
46
50
40
16
18
26
24
16
12
14
22
32
28
8
16
14
8
12
16
28
32
30
26
26
18
14
18
10
6
24
26
18
4
12
16
14
22
22
10
20
22
18
20
16
10
16
14
6
4
4
12
12
10
2
8
12
14
18
16
6
8
8
16
28
28
26
26
40
46
36
34
34
32
22
14
10
32
42
36
24
22
28
22
22
24
22
10
8
12
18
24
26
12
24
32
20
26
32
8
28
30
22
14
6
4
14
16
4
16
32
28
16
18
22
16
0
26
36
20
20
20
6
10
10
12
16
14
6
14
40
52
46
18
12
22
20
14
24
36
26
6
12
18
16
18
10
24
20
12
26
50
46
46
52
74
50
26
24
18
12
36
4
138
255
255
255
255
255
104
12
46
54
70
46
32
34
36
36
44
100
180
255
255
255
255
255
255
228
186
174
182
200
208
198
188
186
178
182
174
148
98
56
36
60
104
122
122
110
102
88
66
70
68
52
36
24
60
66
52
70
52
46
46
36
46
54
60
62
62
64
72
76
70
54
38
20
18
16
28
42
38
30
28
30
28
20
10
2
2
4
4
6
6
6
10
22
32
36
28
26
36
26
12
2
12
6
10
18
12
18
14
18
62
98
116
110
80
40
42
48
38
22
12
12
12
16
22
24
20
10
8
18
24
20
6
16
14
2
18
26
16
18
20
16
8
18
26
36
38
40
42
34
20
16
18
18
16
10
8
8
12
16
14
20
16
12
22
28
26
22
30
52
64
68
64
60
50
18
18
38
42
46
50
54
46
38
34
24
24
24
22
24
92
236
255
255
76
82
72
22
8
12
18
40
48
36
16
8
8
4
0
2
4
8
16
16
16
16
16
16
10
12
12
14
24
26
28
20
18
28
32
44
40
30
78
190
255
255
255
255
255
126
32
48
124
220
255
255
255
255
255
255
255
255
255
255
255
255
255
255
218
160
100
56
28
12
6
2
0
2
0
0
0
0
0
0
0
0
0
0
2
8
6
4
4
4
74
222
255
255
255
255
255
255
42
255
255
255
254
54
82
58
54
68
52
56
86
102
96
72
44
24
16
12
8
6
12
18
14
8
2
10
12
8
6
12
8
6
18
24
24
28
40
38
28
10
8
20
20
16
14
20
34
32
14
14
16
20
14
6
6
12
10
8
20
12
4
12
18
18
6
16
28
26
20
4
10
16
16
8
10
12
18
20
28
32
16
16
46
178
255
255
255
154
80
94
94
164
154
124
92
74
62
50
68
80
80
66
32
30
8
6
32
122
255
255
255
255
144
12
46
18
28
6
12
20
24
26
34
36
32
20
12
10
14
12
10
4
6
4
10
22
24
18
30
24
12
10
10
8
8
6
8
12
10
4
2
8
10
20
14
8
4
4
14
16
16
16
10
24
26
20
14
24
46
64
88
120
138
142
126
100
70
50
60
66
88
98
90
82
78
70
52
28
2
24
36
38
36
24
4
18
26
14
18
14
8
10
14
20
22
18
16
12
10
14
18
12
20
34
24
20
14
14
12
12
20
22
12
24
22
8
10
14
18
12
6
6
6
2
4
12
22
20
18
18
20
22
22
14
4
12
18
18
2
34
66
80
58
22
16
24
28
20
12
6
20
30
24
12
10
20
18
30
40
24
14
20
16
10
12
12
4
20
26
10
12
10
18
34
16
18
22
10
18
14
24
26
16
20
12
4
14
28
36
34
20
10
18
12
8
14
16
12
2
8
18
12
22
28
16
12
36
32
22
14
16
26
16
12
26
28
18
6
16
16
26
12
16
46
54
34
12
50
60
48
36
20
14
14
18
38
22
100
255
255
255
255
255
100
74
52
80
66
44
34
38
84
176
255
255
255
255
255
255
255
255
234
216
232
250
254
238
208
182
166
152
168
184
196
172
128
86
90
120
116
100
70
34
26
44
62
62
46
42
22
18
54
58
42
12
40
48
44
48
60
84
100
94
76
66
62
54
32
10
12
4
18
38
40
24
10
6
6
10
6
6
10
10
6
12
18
14
12
2
18
24
24
24
22
44
48
40
24
16
10
14
20
16
14
12
14
8
34
74
106
108
74
28
30
30
26
16
10
10
16
18
14
12
10
16
30
28
16
14
4
12
22
30
24
10
14
22
26
24
34
38
36
26
20
30
30
24
18
14
12
12
12
10
6
6
8
10
24
22
20
26
28
22
12
12
30
44
52
60
74
86
74
42
38
22
20
22
30
32
32
36
30
24
18
8
4
92
238
255
255
80
104
78
18
6
12
30
44
38
32
18
8
8
4
4
6
10
14
16
12
12
12
8
10
16
20
22
28
30
32
30
26
30
36
32
44
52
68
154
255
255
255
255
255
168
50
4
8
16
64
126
190
242
255
255
255
255
255
255
255
230
194
172
146
108
62
28
8
2
2
0
2
2
2
0
0
0
0
0
0
0
0
0
2
6
8
2
4
10
88
255
255
255
255
255
255
255
42
178
255
255
255
196
28
76
52
42
54
42
44
94
108
82
40
10
12
8
8
6
4
18
26
16
20
8
10
12
12
22
14
10
24
30
22
12
8
20
34
36
30
20
4
6
12
12
10
20
26
22
14
8
24
28
20
6
10
16
2
18
26
18
6
12
24
26
16
4
10
12
8
12
14
12
8
10
12
12
6
12
34
24
18
132
255
255
255
255
84
44
88
126
156
120
90
76
74
62
38
40
60
70
68
46
28
32
14
48
150
255
255
255
255
140
26
36
14
10
14
12
4
14
26
32
36
34
26
18
14
16
16
16
12
10
14
20
26
22
16
24
20
10
4
2
6
8
10
12
12
8
6
6
6
0
12
10
4
4
6
12
12
12
12
10
10
18
18
14
42
78
94
96
98
104
110
102
122
132
136
172
180
194
222
218
194
160
124
88
56
28
10
20
34
42
42
30
42
36
10
16
12
8
16
24
30
22
8
12
18
12
14
12
4
12
24
12
18
22
16
4
8
8
12
14
18
8
6
10
14
18
14
4
4
2
12
20
24
26
18
14
12
12
12
18
24
8
14
16
20
22
48
64
48
10
32
46
38
26
12
14
4
14
36
48
40
26
24
22
38
36
14
8
16
24
26
22
20
16
20
18
8
6
12
22
24
10
12
26
20
16
6
10
18
20
22
16
10
6
10
20
32
30
14
4
10
8
4
4
0
6
10
12
6
18
32
20
24
34
16
24
8
22
22
12
32
30
16
18
6
4
4
14
16
42
56
42
14
20
46
52
46
28
10
16
12
8
18
34
40
66
255
255
255
255
255
110
36
36
60
80
90
166
255
255
255
255
255
255
255
255
255
250
222
218
236
236
214
184
154
132
110
100
110
120
138
142
128
100
114
108
80
48
36
32
58
76
82
78
66
50
46
58
58
54
46
40
52
50
50
66
84
98
94
66
42
38
42
32
6
8
10
18
26
32
26
12
6
4
4
10
4
8
6
8
14
16
14
6
12
6
16
30
32
20
12
24
40
42
34
22
16
18
22
26
22
10
6
12
8
16
54
88
86
50
16
20
28
30
18
10
12
16
16
16
20
24
28
16
10
16
12
30
38
34
24
16
18
22
26
30
34
30
22
10
8
18
22
26
22
16
14
14
18
24
22
12
10
12
22
22
20
30
32
26
14
10
14
20
28
36
58
78
80
60
34
12
6
6
14
22
26
34
38
30
16
16
16
92
234
255
255
68
106
70
34
28
14
26
26
28
40
38
16
4
10
10
14
14
8
8
8
16
22
20
26
32
30
30
32
34
34
34
36
36
32
24
44
76
130
242
255
255
255
255
220
98
22
4
6
8
4
18
36
56
78
116
154
166
152
154
132
100
82
70
52
30
10
2
2
0
2
0
0
0
0
0
0
0
0
0
0
0
0
2
6
6
2
8
16
112
255
255
255
255
255
255
222
52
112
255
255
255
255
152
28
66
54
44
54
44
54
98
86
34
12
26
34
26
2
8
6
24
32
14
26
18
4
16
28
22
6
26
34
20
10
14
14
8
12
30
42
46
34
18
14
20
24
32
26
16
26
18
4
22
26
18
8
10
8
2
12
12
12
10
20
32
38
40
34
20
16
16
18
14
8
8
12
18
28
14
30
58
52
236
255
255
255
182
36
18
54
86
80
64
62
74
80
70
52
44
38
32
26
16
12
32
26
60
166
255
255
255
254
120
26
28
22
16
22
18
20
16
16
20
28
32
26
12
8
8
8
12
14
12
12
8
10
16
18
20
8
6
4
4
8
8
10
8
6
4
4
8
12
14
28
24
16
16
14
16
14
10
14
12
6
6
10
10
62
102
92
48
38
86
92
68
112
172
232
255
255
250
255
255
255
255
196
136
90
58
28
10
8
24
34
34
32
10
22
34
18
24
16
12
32
30
12
16
4
10
20
24
20
26
40
36
38
30
8
10
12
4
12
14
8
6
4
8
22
24
20
14
12
18
24
22
14
8
10
8
4
4
6
8
20
16
12
10
14
16
22
54
62
54
60
46
24
8
4
16
22
16
18
34
44
32
20
20
28
18
6
6
4
12
22
28
30
26
18
14
8
4
2
10
16
14
4
14
18
8
12
10
6
6
10
10
12
16
18
14
14
14
14
16
8
8
12
14
10
6
16
26
22
20
28
16
20
32
20
8
18
30
14
16
30
22
8
18
2
22
28
32
38
48
42
18
10
30
46
52
36
4
24
28
16
6
20
6
54
50
66
255
255
255
255
255
94
18
74
158
255
255
255
255
255
255
255
255
255
255
255
206
174
166
166
138
100
76
64
58
38
48
46
80
116
142
156
142
110
74
70
70
68
60
52
48
66
88
98
94
88
70
28
30
54
46
36
40
60
90
96
76
50
44
28
18
22
20
10
8
0
18
30
26
18
6
6
10
14
20
14
22
20
16
22
14
4
6
10
8
20
32
28
24
20
12
14
18
24
22
16
20
22
24
28
24
22
12
12
8
18
34
66
70
44
14
6
18
14
22
32
36
28
24
28
24
18
6
6
8
22
40
46
40
32
28
28
26
24
26
24
16
10
4
8
18
26
36
32
24
18
22
28
28
36
28
20
8
12
14
2
16
26
28
22
12
4
4
12
2
24
46
56
46
34
22
10
8
8
18
22
26
38
40
26
20
16
92
242
255
255
66
100
54
30
32
22
16
14
20
32
40
24
4
12
8
12
16
8
6
4
10
14
14
22
20
20
22
24
32
32
36
42
38
32
34
66
118
192
255
255
255
255
255
164
62
12
8
8
6
6
4
4
4
4
4
22
36
38
38
32
24
20
16
8
2
4
2
2
2
2
0
0
0
0
0
0
0
0
0
0
0
0
4
6
0
0
36
162
255
255
255
255
255
255
174
64
46
176
255
255
255
255
134
34
40
40
38
52
44
60
86
66
16
16
12
22
24
6
12
8
28
26
4
26
22
2
24
24
6
14
24
24
10
24
18
12
16
12
6
18
36
42
36
26
30
30
26
4
20
36
50
38
14
12
14
4
6
10
8
14
12
12
8
6
2
10
22
32
26
18
18
14
4
6
6
4
10
28
30
30
58
98
255
255
255
232
78
24
56
56
36
34
64
76
80
76
68
58
60
64
68
60
30
18
28
42
60
220
255
255
255
210
82
38
38
38
32
30
24
26
22
22
24
26
28
32
34
32
24
10
6
8
6
6
6
14
24
28
18
4
4
6
6
6
2
2
4
8
8
4
0
6
20
34
30
26
28
30
22
12
4
18
26
26
26
18
18
68
86
54
14
4
46
96
102
84
98
108
110
110
104
138
218
255
255
246
170
98
50
22
14
2
8
6
8
6
10
18
22
6
16
20
20
30
26
12
14
16
22
24
24
20
20
26
20
10
4
10
12
0
10
12
0
12
12
10
8
8
16
16
14
14
16
14
6
4
8
12
10
6
6
2
4
10
12
8
4
6
4
10
32
42
44
34
22
10
8
8
10
26
36
22
12
28
26
12
16
12
2
6
4
2
0
2
4
6
6
2
8
4
6
12
24
30
26
20
16
24
24
16
14
22
28
20
8
10
14
16
22
26
14
2
12
10
10
16
14
14
26
24
30
24
0
28
26
6
10
20
12
26
24
12
20
30
30
20
18
10
34
34
22
16
18
18
10
24
44
56
50
16
18
30
16
20
10
26
26
4
32
28
78
255
255
255
255
255
180
255
255
255
255
255
255
255
248
240
255
255
255
212
160
146
124
114
76
54
40
22
4
26
76
108
128
144
142
130
98
84
84
76
80
104
112
102
78
100
106
82
46
26
10
42
72
82
64
54
62
82
98
80
42
32
48
52
40
32
22
10
2
2
12
30
36
34
26
14
6
8
12
10
16
20
22
26
16
8
4
6
16
32
36
26
10
12
14
12
2
12
16
12
12
12
12
20
20
22
20
14
14
8
12
38
62
64
52
32
32
36
40
44
38
24
22
28
22
20
22
26
32
44
52
56
50
38
34
34
30
26
28
24
24
16
6
6
12
24
38
38
30
14
12
14
8
20
18
14
6
10
20
18
16
14
22
26
20
12
14
20
20
2
24
42
46
44
36
24
10
4
8
10
10
28
48
44
32
20
112
255
255
255
78
84
32
32
38
28
12
10
12
22
28
22
10
10
6
20
18
8
4
0
4
6
6
14
10
10
16
20
30
30
40
46
42
48
62
100
160
240
255
255
255
255
236
110
28
2
2
6
4
2
0
0
0
0
2
2
0
0
0
0
0
0
0
2
2
2
2
0
0
0
0
0
0
0
0
0
0
0
0
0
2
2
2
6
2
48
184
255
255
255
255
255
255
124
52
24
62
200
255
255
255
246
122
28
18
18
26
50
48
58
74
64
30
42
38
40
36
12
16
14
24
24
18
32
18
8
20
16
8
10
18
30
24
22
8
2
8
16
20
12
6
22
30
24
18
14
2
26
44
40
54
58
38
16
12
2
4
8
10
10
2
14
20
24
26
26
20
6
8
16
12
2
12
18
18
20
22
10
32
16
68
216
255
255
255
86
32
22
60
50
32
52
82
98
86
72
60
50
52
60
68
58
50
44
24
42
74
255
255
255
255
138
44
44
36
44
36
22
24
20
14
18
28
32
16
14
30
46
48
24
16
26
22
22
8
22
28
22
22
12
8
12
8
0
6
8
6
8
10
8
10
10
22
30
26
26
26
28
30
22
8
16
26
34
32
30
34
56
74
58
32
66
94
92
76
134
176
196
202
196
168
112
68
120
234
255
218
122
50
22
28
14
22
54
62
54
28
18
46
38
12
10
14
18
38
46
42
34
22
12
6
6
10
24
30
26
22
14
8
18
12
4
12
12
6
4
14
20
14
6
8
6
2
10
12
8
2
8
16
16
8
8
6
4
4
10
10
8
4
4
8
6
4
6
12
14
16
22
18
8
30
32
20
26
18
10
12
4
4
2
4
0
8
24
32
32
24
18
8
2
16
26
28
42
36
34
44
38
20
4
12
20
32
36
16
4
8
4
18
18
22
16
6
16
16
6
16
38
44
26
34
30
22
30
46
42
28
14
18
20
10
8
16
24
24
14
8
24
34
14
16
28
30
34
12
38
62
60
34
10
22
14
12
32
22
18
22
22
18
50
36
62
248
255
255
255
255
255
255
255
255
255
255
212
190
220
250
246
212
156
120
126
110
84
72
62
44
20
36
66
102
110
96
78
88
112
122
116
100
74
124
150
150
174
148
128
90
26
52
84
88
84
88
92
82
80
86
90
80
48
18
6
16
34
38
34
22
10
8
4
6
14
26
34
34
30
24
22
26
24
8
8
22
22
14
18
16
18
22
28
28
22
12
8
6
6
6
4
10
8
4
4
4
12
12
12
12
16
32
42
34
30
36
50
62
58
40
42
46
42
28
18
20
28
30
40
50
52
54
56
60
62
52
36
36
36
34
32
36
36
42
36
24
12
10
14
28
36
32
14
8
16
12
24
24
22
16
10
18
22
10
2
8
16
20
20
12
4
16
8
16
36
50
58
56
46
24
10
20
22
10
10
44
56
52
42
100
242
255
255
84
54
34
50
48
28
12
10
16
20
24
22
14
6
4
16
14
6
2
0
4
6
2
10
14
22
26
28
38
42
54
54
50
66
82
124
198
255
255
255
255
255
148
46
2
4
2
4
4
4
4
4
4
4
4
0
4
4
4
2
0
0
0
2
4
4
2
0
0
0
0
0
0
0
0
0
0
0
0
0
6
4
4
4
38
184
255
255
255
255
255
240
88
26
26
18
60
202
255
255
255
210
94
18
22
16
36
46
52
54
68
64
34
34
32
26
22
8
12
16
14
12
16
16
12
14
12
14
8
6
14
16
14
8
2
0
2
6
10
10
4
4
10
8
2
6
14
30
32
14
18
32
26
14
8
8
12
14
14
14
14
8
12
14
16
22
28
30
18
8
12
12
10
8
6
12
26
18
24
50
174
255
255
255
200
162
130
108
100
72
76
84
98
110
102
88
62
34
16
18
28
24
34
52
22
38
100
255
255
255
246
64
6
38
20
28
16
6
20
24
20
24
34
32
12
14
8
12
32
22
12
14
4
14
8
16
14
6
12
10
8
12
6
8
6
4
6
2
6
8
12
20
24
30
24
14
4
4
14
22
20
12
8
2
14
34
46
42
58
64
56
66
52
28
34
80
124
154
172
176
160
140
96
20
178
255
255
206
96
28
36
20
60
94
76
84
72
26
28
40
26
12
8
26
42
40
42
32
16
12
20
26
32
40
36
22
22
16
20
16
16
10
10
4
6
16
10
2
6
8
8
8
8
12
14
10
20
24
16
2
16
14
8
2
12
18
20
20
18
6
8
12
14
10
12
18
24
32
34
20
8
18
12
8
14
14
12
12
10
0
4
2
10
22
20
10
16
18
16
12
20
16
2
22
24
40
36
36
30
14
26
32
28
36
16
12
22
18
22
10
22
18
4
16
12
2
24
52
60
42
62
70
50
14
12
22
30
24
40
42
28
24
14
8
18
16
24
38
28
6
36
38
36
48
22
54
70
46
10
12
8
10
30
36
14
14
14
12
26
28
26
56
80
240
255
255
255
255
255
255
255
255
220
218
192
212
220
196
162
118
110
100
70
42
34
46
50
46
50
66
84
76
44
72
108
140
156
148
124
106
160
172
140
166
150
106
78
70
70
80
70
68
76
78
66
64
68
64
48
32
26
12
20
28
26
22
22
16
20
20
18
10
4
16
20
20
14
8
12
20
18
14
16
8
2
6
10
10
10
14
16
14
8
16
12
6
6
4
4
8
8
10
10
16
16
16
14
20
24
28
36
28
16
18
30
42
42
40
46
36
24
20
28
38
46
54
52
44
42
44
48
48
38
24
30
32
34
32
34
30
44
48
40
24
8
4
14
32
40
34
16
8
8
20
20
16
10
6
6
14
12
10
8
16
22
18
10
10
22
20
14
24
34
48
60
62
42
22
34
28
26
12
28
50
52
44
78
216
255
255
82
44
32
56
46
20
10
8
14
18
20
22
18
12
12
16
16
8
4
4
8
12
14
30
36
40
40
40
50
56
66
62
62
82
100
152
250
255
255
255
255
174
56
28
8
4
4
0
0
0
0
0
0
0
0
2
2
0
2
2
0
0
0
0
0
0
0
0
0
0
0
0
0
0
0
0
0
0
0
0
8
2
8
24
152
255
255
255
255
255
194
52
26
6
32
24
68
208
255
255
255
172
68
14
20
26
46
36
42
44
54
46
14
12
8
2
8
6
10
12
6
14
12
2
10
10
4
10
12
4
8
14
16
8
2
4
4
8
18
18
8
8
22
22
12
10
8
20
32
28
36
38
22
4
4
12
14
12
10
12
18
22
22
18
14
6
6
24
28
10
6
14
18
20
14
8
14
32
8
120
255
255
255
255
46
122
154
208
196
124
98
68
76
102
108
94
56
14
16
32
64
58
24
34
20
26
126
255
255
255
172
38
20
28
8
18
22
14
22
22
18
20
22
22
6
16
28
38
34
14
4
18
20
12
2
8
18
16
12
4
6
6
4
4
12
14
14
14
8
4
8
18
30
30
12
10
22
22
18
14
20
24
22
38
46
48
44
38
40
52
76
86
76
62
46
32
32
38
54
58
54
72
108
100
134
255
255
255
198
86
32
26
80
86
38
62
80
50
4
24
30
16
16
32
28
8
18
24
28
26
28
26
24
24
12
8
20
26
22
2
14
14
8
10
12
18
28
22
18
10
8
8
10
6
12
30
32
20
16
26
28
22
18
18
26
20
20
20
22
20
12
8
2
14
16
12
6
8
22
28
20
12
8
8
12
12
14
20
20
8
8
6
14
30
30
28
30
10
14
24
12
10
20
10
14
18
4
28
34
26
24
40
42
40
10
18
18
16
30
8
18
20
6
26
22
10
28
58
68
56
70
98
92
64
44
64
64
44
52
50
34
38
42
24
4
22
38
36
12
18
34
28
26
46
26
56
58
24
12
12
14
24
32
24
12
14
14
6
20
20
28
14
36
74
190
255
218
202
255
255
214
166
170
198
190
162
148
128
104
68
92
84
74
76
80
78
66
48
40
46
54
54
44
50
78
114
136
134
114
112
158
148
88
118
104
76
72
94
116
96
52
46
54
48
36
38
44
40
30
18
24
24
22
36
36
24
18
26
38
38
36
32
16
14
22
32
30
20
12
12
16
16
12
8
8
10
6
0
2
12
22
22
10
10
16
8
4
4
4
4
12
16
16
20
20
18
16
10
8
14
28
22
10
4
4
6
18
30
36
28
24
24
32
42
44
38
24
14
16
20
24
24
16
8
14
18
24
24
24
18
30
44
46
36
18
2
6
26
42
48
40
32
28
24
20
16
12
10
14
16
10
0
12
20
22
14
2
16
30
28
18
14
14
26
48
62
50
26
34
18
30
24
10
28
32
24
88
218
255
255
94
38
18
44
30
8
6
4
16
16
14
18
20
18
16
18
18
12
10
12
14
20
34
46
48
54
54
54
58
60
70
72
84
116
146
212
255
255
255
255
216
70
30
40
16
6
4
0
0
0
0
0
0
0
0
2
4
4
4
2
0
0
0
0
0
0
0
0
0
0
0
0
0
0
0
0
0
2
4
4
8
0
28
152
255
255
255
255
255
202
64
6
22
10
36
38
88
224
255
255
255
162
66
12
22
28
32
24
22
26
26
14
16
20
6
2
2
10
10
6
32
42
34
40
26
8
2
6
20
28
32
18
4
8
12
8
8
14
14
8
4
14
18
14
8
10
16
28
38
30
24
16
6
0
6
8
6
2
4
10
14
14
6
14
24
28
22
24
28
14
6
10
10
10
12
20
10
42
44
212
255
255
255
156
120
80
4
118
186
136
52
18
48
80
84
76
52
42
52
28
20
48
28
34
22
22
166
255
255
255
124
38
40
30
22
28
28
20
28
28
24
26
34
42
36
18
22
24
14
6
8
10
8
14
8
2
2
8
12
12
10
4
4
8
4
12
12
20
20
12
24
40
40
18
18
30
28
20
22
12
6
12
16
24
26
32
38
38
30
52
74
84
86
84
72
64
64
72
84
88
82
82
116
116
76
238
255
255
255
162
40
38
82
90
60
76
76
42
8
24
38
26
20
24
22
22
38
34
16
22
30
30
24
22
16
26
30
26
14
4
10
16
16
4
10
4
12
20
18
8
6
8
16
18
18
24
20
8
20
22
14
12
18
22
14
8
16
16
8
14
18
20
10
28
54
70
76
70
38
6
24
22
10
6
8
6
8
20
28
22
14
8
8
14
16
32
26
30
26
30
36
32
8
10
22
22
28
32
26
22
14
8
10
14
18
28
24
24
24
12
20
20
14
24
42
36
40
56
54
38
26
76
98
86
48
42
26
4
26
16
26
28
50
54
30
32
30
26
10
24
28
20
14
34
22
38
32
20
4
18
18
12
14
16
20
28
24
8
12
10
8
22
46
32
68
154
156
126
174
176
126
98
92
106
120
110
64
50
24
24
78
98
82
64
54
46
34
26
32
36
52
64
58
46
46
60
68
66
54
84
120
98
52
96
88
62
56
72
100
102
80
50
40
32
34
46
50
44
36
26
22
24
34
44
36
24
26
38
46
32
26
34
26
18
26
30
22
14
12
12
16
12
8
2
4
10
12
10
14
18
20
18
10
4
12
12
10
6
4
8
8
12
8
10
10
6
10
12
6
16
22
14
14
10
8
6
6
16
20
18
20
20
24
26
18
14
22
28
30
22
18
20
20
16
8
6
12
16
18
16
22
36
44
46
38
24
28
32
42
42
34
34
34
32
28
24
20
26
30
28
26
26
26
22
16
10
4
16
24
20
8
8
6
12
36
56
52
30
22
10
26
28
10
14
16
8
94
230
255
255
90
32
10
36
22
14
16
8
20
14
8
12
18
20
16
18
18
12
10
6
12
24
38
46
52
64
64
62
62
66
86
100
118
158
202
255
255
255
255
255
114
18
6
38
22
6
2
0
0
0
0
0
0
0
0
0
0
0
0
0
0
0
0
0
0
0
0
0
0
0
0
0
0
0
0
0
0
6
8
6
2
14
134
255
255
255
255
255
228
88
24
8
26
24
32
42
108
230
255
255
255
166
64
14
38
46
58
26
14
8
4
18
22
18
8
6
6
6
14
24
48
44
26
44
44
28
4
10
32
42
34
24
18
16
10
6
8
18
28
20
10
8
18
18
6
24
30
20
30
24
8
12
18
14
2
14
14
6
16
22
26
22
16
10
18
26
30
26
24
6
6
10
14
18
16
16
12
18
114
255
255
255
242
104
162
160
166
242
220
104
72
60
88
122
120
86
52
38
72
74
42
16
10
20
26
30
186
255
255
255
94
56
56
34
30
46
46
40
46
40
34
34
38
50
56
50
30
12
4
4
10
12
10
14
12
10
18
26
22
14
14
14
10
6
6
10
4
12
16
14
36
40
18
12
30
24
10
4
8
12
8
2
6
18
28
28
30
20
24
48
66
64
62
66
76
96
120
148
170
174
170
170
174
138
46
114
255
255
255
255
120
30
64
90
86
86
74
44
16
20
36
30
14
10
14
32
38
18
12
34
46
56
54
46
26
22
20
12
4
4
6
12
20
10
10
16
10
6
24
22
8
6
12
18
10
14
28
24
10
20
30
28
20
10
20
26
26
18
8
4
10
24
28
72
108
124
124
146
118
52
14
26
16
6
10
6
4
6
18
22
18
14
14
8
10
16
10
34
42
28
24
48
40
14
14
24
18
12
18
26
30
30
30
22
4
26
28
14
6
18
24
22
26
40
44
58
48
46
42
54
26
22
66
84
62
16
22
44
42
18
22
16
28
48
44
18
20
32
22
14
22
20
8
12
4
16
30
26
18
12
12
14
30
30
8
32
32
18
10
20
22
24
22
22
32
78
116
72
62
196
234
158
44
18
40
56
46
18
28
64
90
80
72
76
68
60
52
44
38
34
22
40
50
44
66
100
94
56
10
62
84
58
30
84
88
62
50
64
76
74
78
66
44
26
38
50
50
46
40
30
32
36
38
38
26
20
24
30
28
26
12
10
16
10
12
18
16
10
4
6
10
10
10
14
16
18
18
20
26
28
28
24
12
4
2
6
8
12
6
6
14
14
6
14
14
6
6
14
18
16
16
14
14
22
24
18
2
16
20
16
16
10
8
14
14
16
18
24
34
34
34
30
24
24
22
22
18
8
10
8
12
24
34
44
46
44
44
42
46
40
28
26
30
30
24
20
18
34
36
32
36
38
44
48
42
32
14
16
18
18
4
4
4
4
20
38
40
28
14
14
26
32
24
30
28
20
80
228
255
255
114
38
14
36
22
12
10
4
18
12
6
10
18
22
30
50
58
56
58
54
44
32
30
44
58
74
76
76
86
102
134
152
162
202
255
255
255
255
255
190
58
34
22
40
26
4
0
0
0
0
0
0
0
0
0
0
0
0
0
0
0
0
0
0
0
0
0
2
4
4
4
2
0
0
0
0
0
8
8
8
4
80
255
255
255
255
255
244
108
20
14
20
34
34
22
34
112
218
255
255
255
170
66
30
42
48
66
42
12
8
10
12
4
14
20
8
12
10
12
18
26
30
24
36
34
20
10
22
22
12
22
30
16
2
2
2
8
16
28
26
14
16
18
12
2
18
24
10
16
18
20
12
12
16
8
10
16
10
16
12
8
2
10
22
22
6
6
6
10
22
24
24
28
28
14
20
36
50
208
255
255
255
138
62
104
86
170
204
178
102
24
14
70
118
126
110
76
28
12
34
38
30
26
24
14
24
170
255
255
255
86
66
60
28
22
14
18
20
20
28
34
34
28
36
50
54
38
18
6
12
12
16
16
14
10
8
8
10
8
4
6
18
24
28
16
2
12
18
10
8
20
26
26
30
14
10
20
18
14
10
8
6
4
4
22
38
38
28
28
28
42
48
50
52
60
86
106
146
180
186
186
202
230
240
206
92
114
255
255
255
255
118
20
28
46
36
32
16
4
16
16
20
12
4
10
20
14
8
26
30
22
22
28
32
22
8
10
10
6
0
4
2
16
20
14
18
8
20
42
30
24
20
8
4
10
4
6
12
16
16
16
12
6
6
8
4
4
8
4
14
16
24
52
88
116
122
94
154
158
98
24
20
22
4
4
10
16
16
6
6
12
18
16
12
22
30
14
20
44
40
14
14
26
26
14
8
8
10
20
20
16
16
22
24
14
14
28
38
46
44
40
42
48
54
48
46
56
52
42
30
30
22
30
68
84
70
44
24
14
32
34
14
6
16
20
16
12
24
22
6
26
28
20
28
18
22
32
34
14
16
32
26
30
48
26
32
32
14
10
22
24
22
14
6
12
14
48
64
30
138
244
222
100
16
14
32
40
52
48
42
54
66
70
76
72
64
58
56
50
34
22
30
54
86
108
108
78
26
32
76
74
38
16
68
84
76
94
90
76
56
80
80
66
58
50
46
42
38
30
26
32
32
28
26
28
26
24
30
38
34
24
16
12
2
8
12
14
14
14
10
10
10
12
14
10
4
6
14
14
12
14
10
6
12
12
10
6
14
18
8
12
10
0
8
8
10
12
12
22
26
28
24
26
36
34
34
14
14
26
26
14
0
10
16
10
6
6
10
20
22
28
30
26
28
28
30
30
26
20
16
12
6
20
32
32
36
30
36
46
50
46
34
32
32
26
22
26
38
34
26
30
30
34
48
58
60
46
28
24
16
4
4
2
10
22
26
24
16
8
18
32
38
30
22
14
8
78
212
255
255
134
32
10
32
18
4
8
12
12
12
20
18
24
36
72
100
110
102
104
108
98
80
50
62
76
86
86
92
118
144
180
200
212
255
255
255
255
255
240
104
28
26
28
34
22
2
0
0
0
0
0
0
0
0
0
0
0
0
0
0
0
0
0
0
0
0
0
4
6
4
6
4
0
0
0
2
2
6
10
2
62
230
255
255
255
255
255
124
50
16
24
30
42
46
34
50
116
208
255
255
255
180
88
42
70
76
78
40
12
10
12
20
20
10
10
16
20
18
16
4
20
34
50
54
38
14
18
16
8
28
34
24
10
10
8
6
4
2
12
16
12
22
22
14
12
24
34
30
20
16
16
10
8
14
16
4
6
6
2
14
24
22
10
10
30
32
24
18
30
26
20
18
18
8
32
50
40
160
255
255
255
255
60
42
46
64
130
152
146
100
108
74
58
108
114
80
68
56
38
22
8
24
40
48
22
38
174
255
255
255
84
62
54
18
18
24
38
36
16
16
28
36
26
24
34
42
34
16
4
14
10
8
8
10
6
6
18
26
26
22
14
26
28
34
40
28
12
14
14
18
24
28
28
16
22
34
28
20
18
20
18
14
16
16
22
20
34
34
28
20
22
32
38
42
60
78
78
90
138
160
170
188
216
254
255
250
82
154
255
255
255
198
76
18
16
4
6
6
20
22
12
4
12
14
14
16
14
16
18
22
22
28
30
24
12
4
8
14
14
6
2
6
6
12
20
16
8
28
36
20
20
26
20
12
12
10
6
10
20
12
14
20
18
6
6
16
18
20
12
16
14
14
58
98
106
84
16
72
118
100
40
16
16
14
14
6
8
20
24
20
16
20
24
22
18
32
20
14
46
54
50
62
52
20
8
20
16
14
18
14
8
14
22
14
12
42
58
56
48
38
44
56
64
66
60
60
62
66
58
32
30
24
16
36
84
126
144
138
106
60
32
14
14
30
40
34
16
22
22
14
18
24
16
20
16
42
54
26
24
50
34
12
12
32
38
46
32
8
12
20
18
10
4
14
6
14
24
60
36
56
180
228
154
60
2
24
32
56
78
90
102
100
84
74
62
54
52
60
66
40
50
76
100
110
102
80
36
24
78
102
78
32
20
58
82
112
118
82
46
36
70
76
62
58
58
58
50
42
36
26
24
16
10
18
26
32
36
38
38
28
18
16
18
14
10
12
6
8
12
14
18
16
16
18
12
10
12
24
32
36
24
8
14
20
10
18
14
8
16
10
10
12
6
12
16
18
16
10
18
24
30
30
32
30
30
40
24
12
34
24
6
6
4
14
14
10
6
4
8
8
14
20
20
26
30
34
36
36
38
42
40
28
6
12
16
12
14
20
32
46
56
44
32
28
24
22
26
32
28
22
28
28
24
34
52
68
68
54
34
16
6
8
14
22
26
28
28
12
8
18
30
36
28
16
4
6
74
202
255
255
114
20
20
42
22
2
6
6
14
24
28
26
34
86
130
148
144
120
118
138
134
110
78
98
98
94
88
100
136
164
200
230
255
255
255
255
255
236
108
24
10
8
4
10
14
6
4
4
4
2
0
0
0
0
0
0
0
0
0
0
0
0
0
2
4
4
2
4
6
4
6
4
0
0
0
6
4
2
8
46
218
255
255
255
255
255
134
56
28
8
26
36
48
58
52
66
120
198
255
255
255
206
114
54
46
48
48
16
18
14
4
16
22
26
16
12
14
14
20
18
10
10
18
12
8
18
16
4
20
16
6
2
6
6
6
8
12
18
14
4
0
10
12
6
16
22
26
22
14
6
20
14
4
16
24
18
8
10
24
28
28
30
26
14
6
20
28
14
10
18
10
4
4
20
42
20
136
255
255
255
255
160
16
22
32
108
162
156
110
40
84
90
112
170
156
94
32
16
22
18
30
36
32
42
14
28
174
255
255
255
100
58
46
22
30
14
14
26
32
26
14
32
32
30
40
38
32
24
10
10
6
4
6
10
12
16
18
16
18
18
22
24
18
16
36
52
48
32
8
6
4
2
24
38
34
20
6
6
10
16
18
16
14
22
20
8
8
14
24
22
18
24
34
38
42
40
18
18
72
122
156
168
164
184
238
255
204
72
136
250
255
188
98
30
30
10
10
10
18
12
6
8
6
14
18
10
4
6
10
16
18
12
12
12
12
8
6
8
12
8
8
12
10
12
10
10
18
20
28
26
14
10
12
16
24
34
32
40
44
30
20
18
10
8
10
12
12
12
6
10
14
22
40
90
136
162
134
158
140
82
34
8
6
12
20
22
16
16
26
30
32
32
38
34
20
36
30
8
32
38
64
78
68
66
36
16
14
22
26
24
18
12
14
12
20
38
38
20
6
14
46
72
88
96
92
80
58
56
60
48
20
22
32
70
130
186
218
255
224
136
58
30
32
32
38
30
22
32
32
18
8
14
14
24
44
58
28
36
86
72
56
32
12
24
44
36
26
14
20
16
18
20
32
40
34
32
38
32
44
78
96
196
206
140
50
4
10
22
42
66
98
120
120
102
72
58
58
72
86
76
66
86
90
78
62
44
22
56
106
114
72
28
28
70
104
124
104
50
18
20
48
60
52
50
52
64
66
54
42
28
20
16
16
22
20
18
22
24
24
16
4
0
8
16
12
8
6
4
4
6
14
18
20
26
20
10
8
10
20
34
34
18
8
16
12
24
18
2
14
12
12
14
6
10
14
14
12
8
12
14
18
22
20
10
18
36
30
16
28
30
16
4
8
20
16
8
8
8
6
6
12
16
14
18
24
34
40
46
56
58
68
64
44
20
8
6
12
10
10
22
38
38
26
18
16
16
20
26
28
26
30
38
40
42
40
50
62
58
42
24
16
22
18
14
8
14
20
16
26
20
18
24
22
18
14
10
102
222
255
255
98
32
36
68
50
20
26
30
32
36
26
34
76
140
170
160
132
96
90
124
132
128
158
164
146
132
128
152
200
234
255
255
255
255
255
255
255
126
40
12
8
8
8
12
8
2
0
0
2
2
0
0
0
0
0
0
0
0
0
0
2
4
6
8
6
6
4
2
4
4
2
2
4
4
4
8
2
8
28
170
255
255
255
255
255
174
72
34
26
2
26
36
46
58
52
58
102
168
236
255
255
206
110
30
14
8
14
8
22
10
12
16
8
22
30
24
16
10
10
10
16
26
38
40
22
16
16
14
14
12
12
8
6
8
2
16
26
20
18
6
6
8
18
18
18
10
18
20
24
16
22
22
8
4
12
8
6
14
28
22
18
24
26
22
14
6
10
16
12
20
36
28
28
4
60
180
255
255
255
255
206
56
26
22
70
140
158
104
26
32
26
44
130
168
134
74
38
28
26
34
36
22
24
50
12
20
156
255
255
255
162
46
38
44
32
8
36
44
30
10
6
20
30
38
34
28
28
26
22
10
4
2
6
12
14
14
6
14
28
22
10
24
36
28
8
36
56
56
34
12
20
34
46
34
10
10
12
16
18
8
4
8
14
16
10
14
12
6
12
14
14
16
22
24
16
6
26
32
18
64
118
142
132
142
194
255
255
176
176
190
238
252
174
72
16
14
16
20
20
10
8
10
6
22
22
8
4
2
8
10
12
8
14
20
16
12
6
12
10
4
4
10
12
20
30
30
20
6
22
32
24
14
10
10
22
34
28
40
46
34
14
10
2
6
10
16
24
20
12
8
16
32
26
40
86
128
138
134
94
46
20
18
12
6
12
18
22
24
26
22
24
22
38
50
60
90
138
152
138
122
108
76
24
30
54
44
22
8
16
26
24
16
12
6
18
40
42
18
14
72
174
240
228
180
128
66
38
44
60
78
74
70
98
152
224
255
255
255
255
252
140
74
66
68
56
32
6
32
40
32
18
30
44
48
44
10
62
130
150
96
120
98
36
46
30
22
28
32
24
12
2
22
32
30
24
18
12
20
54
52
36
140
220
212
112
24
2
4
4
22
56
98
132
132
100
76
70
82
98
102
94
68
48
22
30
50
48
102
130
106
40
36
76
112
132
126
80
42
20
24
62
74
64
62
62
72
68
50
36
18
16
16
16
20
14
10
22
30
32
22
8
4
8
16
16
6
4
4
10
12
8
8
12
20
18
6
4
8
12
14
22
20
6
4
10
14
8
12
18
10
10
14
12
12
10
8
10
10
14
10
6
8
8
12
22
24
28
10
14
32
30
18
26
22
8
8
8
6
4
8
10
12
10
12
16
22
26
46
56
52
74
82
74
54
34
22
26
20
18
28
38
36
20
14
16
22
28
36
38
32
30
36
42
36
34
34
46
56
54
44
32
18
6
8
16
26
30
26
20
10
16
24
20
8
12
18
112
240
255
255
104
46
34
78
76
48
42
40
34
32
28
54
126
180
178
132
82
40
40
90
168
220
236
222
186
166
170
204
255
255
255
255
255
255
255
226
120
44
16
16
18
18
16
14
10
4
2
2
4
8
8
8
8
6
4
2
0
0
0
2
10
16
18
14
10
8
8
4
2
2
10
14
14
16
18
8
4
34
148
255
255
255
255
255
184
92
46
22
14
10
30
34
38
46
34
32
66
136
246
255
255
248
116
20
32
26
34
12
18
22
20
10
6
4
22
28
30
34
30
22
12
22
26
38
28
6
12
16
14
10
10
8
12
4
12
22
18
12
24
22
22
22
14
16
20
10
20
20
20
8
14
24
24
34
38
22
14
12
18
14
12
16
18
16
10
12
6
12
24
22
20
34
30
132
255
255
255
255
255
180
80
42
10
36
84
114
84
38
50
60
44
56
96
96
60
30
24
34
16
14
36
24
34
50
8
46
126
255
255
255
255
80
28
54
36
40
26
10
6
18
26
34
38
32
34
34
22
14
20
22
24
26
26
20
10
6
8
28
36
24
12
12
18
28
22
6
20
40
36
16
26
32
18
8
20
18
10
8
16
16
10
8
8
0
16
30
26
12
12
6
8
14
22
18
8
16
18
8
10
14
62
102
120
150
198
255
255
252
120
68
255
255
255
255
134
30
18
28
26
20
16
22
6
20
22
8
6
4
10
8
18
20
8
14
14
12
8
10
6
8
8
18
14
30
36
36
32
18
4
14
16
18
24
24
24
30
26
26
28
14
8
8
10
8
4
8
8
14
14
2
18
24
8
10
28
38
34
38
30
8
16
22
16
4
14
32
38
28
14
8
12
10
40
86
166
255
255
255
255
255
255
255
236
140
36
26
38
18
8
28
30
20
22
10
28
80
100
74
86
220
255
255
255
255
230
76
24
66
104
128
154
166
196
238
255
255
222
255
255
255
255
162
108
94
86
74
36
10
30
38
28
30
44
32
18
96
180
218
198
156
198
192
122
40
2
30
34
28
20
14
22
28
30
28
32
34
24
34
26
18
60
88
192
242
170
64
14
4
4
2
16
52
104
134
126
106
94
94
104
112
116
104
80
58
54
76
118
146
126
62
20
88
128
148
142
110
54
36
36
36
54
62
58
56
52
60
58
42
26
12
10
6
12
22
20
22
28
30
28
12
4
4
8
20
22
10
8
12
16
14
10
12
14
20
20
14
14
16
18
14
10
16
18
20
20
22
20
16
6
8
16
16
14
12
8
8
12
12
20
16
6
2
14
20
14
14
22
20
10
20
34
44
34
24
16
8
8
8
10
6
4
4
2
10
10
12
12
30
40
30
56
76
80
70
56
42
42
38
38
42
40
28
14
20
28
36
42
48
46
36
30
28
26
24
32
38
44
58
70
74
72
58
38
30
26
28
24
14
8
18
30
30
18
4
14
14
82
218
255
255
108
40
28
54
62
46
28
34
32
26
36
104
164
188
156
90
26
22
82
166
234
255
226
168
106
82
88
108
142
148
142
142
156
174
164
140
116
94
86
84
82
74
62
48
32
14
2
2
2
0
0
0
2
2
2
2
0
0
0
4
14
16
10
10
10
8
8
6
4
4
14
16
16
16
22
8
14
122
255
255
255
255
255
214
92
60
40
12
8
26
36
34
36
42
30
28
48
116
236
255
255
255
148
24
34
20
34
18
0
10
10
4
6
8
4
14
22
24
26
32
32
20
6
24
26
16
12
10
10
12
12
10
10
6
12
18
16
30
38
26
18
22
8
8
16
18
20
14
20
18
12
4
22
38
34
32
28
16
14
16
16
18
18
12
6
4
4
10
10
16
32
98
222
255
255
255
255
255
128
40
132
142
100
64
78
84
40
28
56
32
56
76
72
66
64
46
14
24
26
2
28
26
26
44
18
46
76
255
255
255
255
206
58
38
38
38
30
30
32
44
44
42
40
34
30
30
20
8
4
10
22
28
40
38
24
8
16
26
24
16
12
14
18
14
20
26
36
38
24
2
20
18
8
28
20
24
20
12
2
12
18
18
10
20
28
30
14
10
26
30
26
24
28
28
16
4
20
22
22
10
28
56
80
112
142
192
250
255
234
116
152
255
255
255
255
100
20
44
34
24
14
30
20
6
22
18
10
8
8
4
12
22
20
4
18
20
8
2
4
6
4
14
22
26
12
10
20
22
14
6
2
6
16
24
28
34
40
38
34
18
8
2
6
6
2
8
8
10
14
4
16
16
4
14
20
22
26
38
34
12
14
22
16
10
34
42
32
12
8
20
16
34
82
162
255
255
255
255
255
255
255
255
255
255
234
130
82
60
38
38
36
32
22
14
62
124
140
104
130
255
255
255
182
255
228
76
98
170
208
224
222
228
238
248
250
214
136
140
255
255
255
238
154
106
84
80
60
26
2
16
22
14
26
18
80
184
255
255
218
204
238
236
174
86
32
30
14
32
40
16
12
30
38
34
28
30
18
14
30
54
78
46
148
242
228
138
52
6
6
2
8
18
62
106
120
118
118
116
118
118
118
112
98
84
88
114
126
114
68
36
54
94
100
82
72
68
54
40
36
44
48
56
66
72
72
78
80
70
50
26
16
14
16
20
18
22
26
28
22
6
4
4
12
22
16
4
2
8
12
12
14
20
22
22
20
16
18
18
8
6
10
12
12
16
16
16
12
8
14
16
12
8
8
10
8
8
10
8
16
18
12
8
12
16
10
10
16
22
16
14
44
50
26
24
24
10
2
8
8
2
4
6
6
10
6
12
14
30
34
24
30
58
68
64
54
44
50
54
52
50
36
14
8
26
34
40
42
42
36
26
22
20
20
24
28
42
48
58
72
84
92
84
64
44
28
24
18
10
14
18
24
18
2
12
14
8
122
244
255
255
116
48
42
48
40
24
8
18
12
16
80
148
178
164
112
42
26
74
130
196
224
188
132
140
144
160
176
204
255
255
255
255
255
255
255
255
255
255
255
255
255
255
255
250
202
146
94
58
36
22
10
8
8
4
0
4
4
4
2
4
14
16
12
16
12
4
4
8
8
4
12
12
8
4
22
18
60
255
255
255
255
255
255
130
54
40
20
18
32
36
36
34
40
50
44
44
48
60
182
255
255
255
166
20
30
8
20
12
14
16
16
12
4
6
8
10
8
4
8
20
26
30
16
18
22
26
18
8
10
14
10
6
6
10
18
26
28
36
30
8
18
24
12
10
6
14
18
16
8
10
18
20
28
24
10
22
30
18
2
10
12
16
18
14
12
14
14
30
40
32
168
255
255
255
255
255
255
96
92
148
118
182
180
140
92
84
36
24
22
16
72
98
74
42
44
50
28
12
34
22
34
28
28
48
12
40
22
194
255
255
255
255
132
14
60
48
6
16
42
54
46
36
38
50
54
46
30
20
22
34
32
6
26
40
32
14
14
16
22
24
14
4
8
6
14
34
44
44
24
16
18
12
10
22
10
26
22
6
6
2
10
18
22
26
20
6
20
44
52
40
22
22
18
16
18
14
16
26
24
22
26
28
28
34
36
66
128
210
255
255
255
120
255
255
255
184
54
52
20
14
10
20
32
18
8
22
18
10
8
6
2
6
16
20
18
30
20
8
12
14
28
34
28
16
30
34
22
8
14
6
0
2
8
6
8
14
18
20
16
14
18
16
14
10
2
8
8
10
18
12
12
12
16
28
26
12
16
20
26
22
24
14
14
28
38
26
12
10
8
4
28
80
144
234
255
255
226
72
136
172
182
240
255
255
255
255
255
204
150
100
70
62
58
56
94
134
130
102
124
176
254
255
255
255
216
52
228
255
255
255
230
204
188
180
166
122
58
32
130
210
254
244
182
114
62
46
44
40
34
16
12
4
22
26
120
228
255
255
208
212
240
226
170
100
48
22
12
24
52
52
28
12
16
20
40
52
44
30
24
32
42
24
90
210
255
224
124
30
2
8
12
10
30
66
86
100
120
136
146
138
122
104
92
92
112
98
62
30
20
42
62
82
104
140
172
174
136
80
62
68
54
34
40
56
60
64
70
70
60
40
28
22
18
24
26
24
26
28
16
2
0
0
10
28
30
20
12
14
16
14
16
18
12
4
10
14
20
10
16
30
20
16
10
18
20
22
22
24
18
4
6
8
14
16
12
8
8
8
10
8
10
12
16
22
16
12
14
22
12
16
40
48
18
10
20
20
12
10
8
2
6
10
12
14
12
14
30
42
40
28
14
40
54
52
42
40
58
64
58
58
56
46
30
22
26
28
28
24
20
16
16
18
26
34
32
38
46
52
60
70
80
80
68
52
32
22
18
16
18
22
32
30
16
20
16
8
162
255
255
255
206
134
120
108
94
82
70
84
78
86
136
166
154
110
78
56
76
106
128
142
124
158
174
186
206
240
255
255
255
255
255
255
255
255
255
255
255
255
255
255
255
255
255
255
255
255
255
255
255
250
202
142
84
38
8
0
0
2
2
2
10
14
12
14
8
8
4
8
10
0
12
16
16
16
14
24
176
255
255
255
255
255
154
76
30
16
10
38
42
36
36
40
46
50
44
48
38
12
116
255
255
255
210
40
26
12
18
8
24
30
30
28
18
10
8
12
16
18
22
22
14
28
32
20
14
18
18
6
14
14
14
12
8
4
6
10
14
18
12
8
30
34
22
26
8
14
16
10
14
8
12
14
36
40
24
32
34
20
8
8
6
8
12
10
6
10
14
36
16
174
255
255
255
255
255
234
86
62
120
120
40
68
130
142
118
86
34
44
40
30
70
82
54
30
34
48
34
2
20
8
32
32
38
60
18
24
10
88
255
255
255
255
194
22
74
40
28
20
40
44
32
22
36
56
46
24
8
6
6
18
40
36
26
28
20
14
4
14
24
30
24
14
8
8
28
42
40
30
32
30
28
22
6
14
14
24
16
8
0
4
6
14
22
16
8
12
30
40
36
16
16
18
14
8
10
20
22
14
10
14
18
18
16
12
2
2
28
80
200
255
255
255
86
255
255
255
156
42
18
28
22
2
18
22
12
18
24
16
14
20
22
12
16
20
4
20
26
14
12
24
36
30
18
26
36
32
22
8
16
10
4
6
10
10
10
16
16
6
2
6
12
12
8
6
6
8
4
2
8
6
0
8
20
30
26
18
22
18
18
16
8
4
16
24
16
8
14
14
16
14
38
86
138
190
202
188
170
86
44
86
122
168
246
255
255
255
255
255
255
255
196
110
44
24
60
84
100
90
118
112
88
164
244
174
44
210
255
255
238
192
162
150
150
114
84
46
24
34
72
126
182
196
160
110
84
54
20
16
32
24
8
8
20
24
130
255
255
255
154
170
210
214
172
108
56
28
4
2
22
40
36
18
14
46
56
50
28
30
16
20
52
46
16
126
226
255
200
80
12
6
10
6
14
32
48
70
100
132
164
174
160
126
94
104
96
84
60
22
18
38
52
56
52
78
134
178
174
126
80
64
40
20
24
44
44
42
46
48
48
42
34
30
28
30
32
32
28
20
8
4
4
2
4
20
30
28
20
16
16
18
18
12
4
16
16
28
22
16
36
30
16
22
30
30
30
26
18
12
2
6
6
2
8
18
14
4
8
14
14
10
8
6
6
14
14
14
18
20
8
14
34
50
34
8
12
20
18
16
14
10
8
10
10
16
18
24
36
38
32
22
12
24
42
44
38
44
58
54
42
50
60
64
56
50
38
26
20
16
16
14
14
22
32
36
30
26
32
38
44
52
60
62
62
60
46
32
22
16
16
20
28
30
24
20
16
10
166
255
255
255
255
214
184
134
124
124
122
140
138
136
156
144
104
78
82
74
102
100
76
96
152
178
176
170
182
194
208
208
210
222
250
255
255
255
255
255
255
255
255
255
255
255
255
255
255
255
255
255
255
255
255
255
255
210
100
32
6
4
6
2
2
4
4
4
4
8
4
4
8
4
8
8
10
10
36
142
255
255
255
255
255
140
56
28
10
24
34
42
36
32
42
48
46
38
32
42
20
26
62
240
255
255
255
94
20
6
8
24
30
28
24
36
36
24
8
4
10
16
14
6
16
26
34
36
18
16
12
4
6
6
18
20
6
8
14
20
24
24
12
12
30
22
10
28
18
8
12
10
8
12
20
12
12
24
14
24
26
14
10
12
6
6
10
8
6
20
20
28
174
255
255
255
255
212
128
78
6
60
134
186
170
166
188
178
136
78
26
32
36
10
52
90
82
58
46
58
36
8
36
20
44
32
32
66
40
2
18
26
166
255
255
255
254
40
56
18
20
26
36
26
14
10
30
38
10
16
24
22
34
26
4
30
40
32
14
8
10
8
16
20
18
10
8
26
42
40
22
6
18
28
32
32
26
16
8
12
10
6
10
20
22
20
14
8
8
14
22
30
32
18
22
16
12
10
6
16
30
34
24
18
24
24
10
16
16
14
16
24
56
212
255
255
140
206
255
255
255
94
32
44
22
18
36
32
8
12
16
12
26
26
38
28
6
26
22
26
26
14
10
16
16
4
30
38
12
28
42
24
28
20
8
12
12
18
22
24
28
22
10
2
8
10
8
8
6
8
8
10
14
12
6
4
14
16
10
20
34
30
20
16
18
18
14
4
10
14
14
14
22
22
34
72
128
192
224
216
150
116
164
208
230
208
182
220
255
255
255
255
255
255
255
246
80
22
56
74
110
126
164
178
164
218
230
232
255
255
255
202
134
98
94
88
120
118
84
40
14
18
46
118
172
178
174
138
84
42
16
12
22
20
8
18
40
50
154
255
255
254
78
130
164
208
214
160
92
44
10
14
36
46
34
16
18
36
46
38
22
36
32
16
44
58
36
38
146
238
244
152
58
10
8
10
12
14
18
36
66
102
144
176
186
162
118
88
74
90
98
80
54
44
72
64
34
50
52
98
120
124
98
52
20
12
20
42
50
52
54
46
34
28
26
24
26
26
26
30
32
28
20
14
14
10
4
6
12
16
16
18
16
16
20
14
12
16
10
30
34
26
24
12
26
38
34
24
16
6
10
8
6
8
16
18
16
14
16
10
12
12
14
14
16
16
12
14
16
18
22
16
6
10
34
48
44
24
8
18
20
20
18
16
18
12
6
16
20
24
26
22
20
16
12
14
32
36
34
44
48
36
22
30
46
62
66
70
62
44
26
24
24
20
20
28
30
28
20
12
14
20
28
38
50
50
50
58
56
46
30
14
12
10
12
16
18
16
10
8
144
255
255
255
232
194
170
124
112
112
110
124
128
116
114
90
58
50
52
70
80
56
14
58
110
132
128
118
114
108
114
116
108
94
94
96
114
140
168
198
234
255
255
255
255
255
255
255
255
255
255
255
255
255
255
255
255
255
255
208
114
62
34
10
0
0
2
4
6
6
6
4
8
10
16
8
10
18
108
255
255
255
255
255
200
58
10
20
18
34
34
30
24
28
42
44
40
34
34
48
16
38
30
198
255
255
255
142
36
20
10
24
18
14
8
16
26
26
14
10
12
12
6
18
24
22
18
30
18
2
14
14
2
8
16
8
8
16
16
12
18
26
20
6
34
40
20
16
14
10
14
18
16
6
10
16
14
12
4
12
14
10
16
20
16
14
18
20
22
20
36
148
255
255
255
255
148
114
64
40
6
46
90
130
138
166
188
174
132
84
38
30
38
10
38
78
80
66
60
62
26
24
44
16
54
42
12
52
42
18
18
52
74
255
255
255
255
112
46
14
34
32
28
34
26
16
26
36
24
30
24
16
18
32
26
26
22
22
10
10
12
6
26
32
22
4
16
26
24
12
12
12
14
10
16
18
16
16
14
10
8
2
14
20
18
12
8
8
8
12
18
26
30
22
24
18
12
8
4
10
24
34
28
16
20
16
2
10
18
20
18
10
36
126
255
255
255
118
234
255
255
174
14
50
14
30
30
14
8
22
20
10
14
8
24
28
8
12
20
26
24
16
8
12
22
34
40
20
18
48
44
16
32
36
20
20
22
24
18
12
20
24
20
18
28
30
24
22
10
2
0
2
4
4
6
6
18
24
16
28
32
20
14
12
10
8
2
10
10
8
6
10
18
14
34
68
104
154
200
238
255
255
255
242
196
160
142
132
154
178
248
255
255
255
255
255
255
154
144
104
114
186
246
255
255
255
255
255
255
252
212
152
110
96
96
84
92
128
128
96
40
4
32
128
220
244
206
152
102
62
24
12
34
30
14
16
50
40
190
255
255
210
120
162
164
212
255
250
186
120
68
44
34
24
22
20
20
20
38
42
24
28
20
4
28
48
42
14
90
192
242
204
118
40
4
8
14
12
8
14
30
54
84
114
138
142
126
100
82
86
96
100
94
84
78
72
64
88
124
156
160
134
104
60
24
20
40
66
70
62
52
40
34
26
16
12
22
30
26
28
28
26
24
16
18
18
10
16
26
32
36
26
12
10
18
12
4
12
4
8
12
8
2
12
26
34
30
20
8
10
14
4
24
30
26
22
20
8
4
6
4
4
10
14
16
16
12
16
20
22
24
18
12
10
30
44
48
34
20
20
22
20
16
12
16
14
10
18
18
18
20
28
40
34
20
16
20
20
36
46
44
32
24
26
36
52
60
72
80
68
44
26
24
20
20
26
26
22
14
8
6
8
16
28
46
48
42
42
38
36
28
16
10
6
6
8
10
12
8
4
116
255
255
255
128
106
96
62
60
58
54
58
66
56
48
38
28
16
22
36
30
16
22
26
34
48
48
42
40
38
38
42
46
38
34
32
34
48
56
54
56
60
66
82
100
110
114
114
112
124
154
212
255
255
255
255
255
255
255
255
255
204
124
58
20
6
4
6
4
2
6
8
12
18
24
18
22
58
212
255
255
255
255
255
122
18
8
18
20
28
26
20
18
28
38
38
38
38
42
52
12
48
24
166
255
255
255
188
66
44
28
46
34
24
16
22
24
14
14
18
16
8
8
18
16
12
12
28
24
16
14
18
10
10
4
10
18
12
4
10
16
22
18
4
20
36
32
28
26
16
12
10
18
20
12
2
8
8
4
12
18
16
20
20
18
18
26
34
36
54
124
255
255
255
230
106
154
170
140
102
56
20
24
12
40
98
126
128
112
84
42
38
46
30
32
58
68
72
68
50
20
30
30
12
52
46
2
38
38
26
20
60
18
222
255
255
255
202
62
26
46
36
28
14
20
22
28
34
24
6
10
22
22
26
28
24
10
24
12
12
12
18
34
28
10
6
14
14
20
20
16
12
14
18
22
26
22
20
16
10
8
2
14
16
10
2
6
10
12
10
14
18
10
8
16
14
10
4
4
4
8
16
14
4
8
8
4
14
16
12
20
26
52
98
192
255
255
255
78
255
255
255
66
44
12
28
8
10
22
30
24
24
34
28
28
24
12
8
12
18
20
14
2
16
30
32
18
10
32
34
16
8
14
36
38
34
26
16
10
10
10
12
16
32
40
38
30
34
26
14
12
14
18
20
16
10
14
18
14
16
12
14
10
8
6
8
4
6
8
8
6
18
30
16
20
64
164
255
255
255
255
255
224
140
84
98
96
92
110
92
82
112
204
255
255
255
255
255
255
210
190
255
255
255
214
158
140
156
158
166
166
148
138
132
118
94
76
124
162
158
88
6
26
88
222
255
255
216
156
106
62
38
32
20
20
10
54
10
194
255
255
182
158
210
180
202
255
255
255
206
146
110
92
72
56
40
24
18
14
16
10
14
18
8
30
52
48
20
52
140
212
222
166
72
10
4
12
14
12
12
18
28
34
42
60
78
94
102
94
88
86
90
106
120
132
106
68
96
122
146
154
146
128
84
48
44
62
78
70
48
30
30
34
34
32
32
36
32
20
22
20
16
16
8
12
20
22
28
38
40
32
10
4
14
20
14
6
16
10
16
26
20
10
4
18
28
28
20
8
20
24
28
48
40
24
22
20
18
12
10
8
8
12
14
10
8
4
10
16
22
26
22
18
10
24
42
54
46
32
22
30
24
16
10
16
16
14
16
14
18
30
50
62
42
42
30
18
32
52
52
44
36
36
38
38
40
40
50
72
80
66
44
24
12
14
22
22
16
10
10
8
6
12
22
44
54
48
52
54
46
26
18
20
16
12
10
10
12
8
4
100
255
255
255
88
64
48
8
14
16
16
18
26
24
24
22
12
4
8
16
18
26
32
12
10
14
8
0
4
2
2
6
12
12
8
6
10
18
16
10
6
8
8
6
10
16
22
28
34
36
30
30
76
122
194
255
255
255
255
255
255
255
255
164
86
36
4
4
4
4
6
12
18
10
4
8
18
150
255
255
255
255
255
148
40
10
16
12
16
20
24
24
24
34
38
36
32
28
28
30
4
54
28
128
255
255
255
250
112
48
20
36
28
26
20
12
8
10
4
10
8
8
12
18
20
14
18
32
26
8
12
26
26
18
14
14
14
12
10
12
16
18
12
6
8
24
30
20
8
2
2
4
2
8
12
12
10
6
2
4
4
4
12
24
32
20
20
28
34
84
196
255
255
255
222
126
82
54
78
120
142
130
106
76
62
90
96
86
70
50
22
40
52
44
44
68
78
72
56
48
24
24
22
28
54
42
0
36
42
38
36
64
8
168
255
255
255
255
116
56
44
28
30
28
26
24
20
22
24
26
28
28
32
30
24
12
12
14
4
12
4
12
24
20
14
20
14
4
8
10
8
4
18
28
32
30
16
4
10
16
12
8
16
20
16
10
2
8
20
24
20
14
4
6
8
6
4
8
6
4
16
22
18
4
8
12
8
12
20
20
20
18
36
40
76
214
255
255
200
168
255
255
200
64
36
28
16
12
14
18
8
6
16
20
20
18
16
14
10
8
6
6
12
16
12
8
18
28
22
14
18
22
14
8
18
22
20
6
14
14
6
2
14
16
16
12
10
22
24
18
12
10
10
10
8
8
2
10
16
14
4
6
8
10
20
24
22
22
20
14
8
20
32
8
10
76
174
255
255
255
255
220
150
68
44
54
54
60
58
36
34
38
86
186
255
255
255
255
255
255
242
255
255
226
148
100
92
104
114
132
140
130
124
116
100
88
82
110
174
210
150
30
46
68
124
198
226
194
132
78
52
50
46
16
24
6
62
6
194
255
255
190
158
210
150
138
194
250
255
234
186
138
102
76
66
58
44
30
8
16
14
10
12
2
28
44
44
28
24
68
160
218
200
100
14
4
10
14
18
24
26
24
26
28
30
40
54
74
84
92
104
112
124
136
154
150
114
76
92
112
128
132
112
70
42
38
50
56
42
20
24
36
38
36
32
30
30
28
22
20
14
14
16
4
2
10
24
34
28
16
8
14
14
16
28
26
8
14
4
16
20
8
14
6
24
34
28
16
6
14
20
38
50
34
26
30
28
26
18
10
10
12
20
16
6
2
2
8
14
18
22
18
14
12
22
46
64
64
40
18
42
42
32
24
18
18
16
18
22
30
40
50
46
18
34
38
32
58
64
50
36
34
34
38
40
36
34
40
46
56
62
52
38
20
16
20
14
8
4
8
10
8
12
16
36
58
64
58
48
28
12
18
20
12
10
10
10
12
8
4
98
255
255
255
94
72
54
10
16
6
4
8
16
16
14
16
14
12
10
14
16
28
24
4
10
12
8
6
4
4
6
4
4
6
4
4
12
20
16
16
22
24
26
24
24
28
28
28
26
22
20
22
20
20
28
66
156
255
255
255
255
255
255
255
194
114
56
26
6
6
8
14
16
12
22
12
82
255
255
255
255
255
162
32
30
22
16
8
12
16
24
28
28
34
32
26
24
28
30
32
14
50
22
86
254
255
255
255
168
42
26
38
6
16
22
12
16
18
8
14
12
4
12
20
20
10
10
22
12
16
36
40
30
16
22
22
10
4
16
12
8
6
8
8
4
8
16
16
14
12
14
12
12
12
20
20
12
12
8
4
2
6
16
26
48
44
20
18
34
108
234
255
255
255
250
198
188
156
108
56
130
154
164
124
96
106
80
50
28
24
6
24
42
44
38
52
54
58
56
48
26
8
12
36
50
38
8
34
38
36
32
48
8
130
255
255
255
255
146
88
44
26
38
40
40
40
40
46
42
32
24
20
20
22
18
10
6
10
18
12
8
12
28
32
28
22
16
12
12
18
18
10
20
28
24
10
10
20
16
26
20
10
12
16
12
10
10
10
16
30
34
24
10
0
8
16
16
14
6
8
20
22
14
8
14
18
6
10
18
22
18
14
18
16
18
84
255
255
248
44
255
255
255
168
70
40
36
20
22
30
26
16
10
4
2
8
16
14
4
6
14
22
18
6
10
26
30
20
8
12
12
18
24
20
14
4
16
24
16
14
8
4
10
18
28
30
18
12
6
12
10
4
12
22
24
14
10
14
14
18
20
10
16
26
38
40
32
32
26
14
4
20
32
8
6
78
210
255
255
255
182
140
90
32
36
38
32
26
20
24
36
44
66
100
158
220
255
255
255
255
244
232
216
170
134
124
124
122
110
110
106
86
78
74
66
72
82
86
156
228
216
118
66
120
166
184
188
192
158
92
44
32
48
30
36
12
68
16
212
255
255
192
128
172
90
58
70
128
174
194
178
140
102
70
58
56
56
46
16
20
28
18
18
8
28
42
44
38
32
20
96
194
222
136
30
4
6
8
16
28
40
40
42
42
36
36
38
48
56
70
96
118
130
130
144
156
150
136
108
86
96
88
60
28
14
12
22
40
42
32
28
36
40
34
26
16
12
16
16
18
18
20
20
10
14
14
18
34
42
38
28
18
10
10
26
36
26
24
14
24
24
20
22
6
30
38
20
12
8
4
18
32
36
22
18
26
30
30
20
12
12
22
22
12
6
4
6
12
18
18
24
14
8
14
14
44
70
78
56
22
36
54
54
50
44
32
16
20
30
40
40
30
30
22
8
24
54
64
54
32
24
22
20
24
34
38
46
54
54
48
42
48
44
28
20
14
4
6
2
2
6
8
12
10
20
46
66
72
56
34
18
22
24
10
6
12
18
20
18
16
100
255
255
255
88
78
58
4
12
10
12
8
10
8
4
8
12
14
12
10
14
20
16
10
16
14
8
8
8
8
6
2
6
10
12
12
18
22
16
14
18
20
22
22
26
36
42
46
42
34
30
26
40
48
52
50
48
114
198
255
255
255
255
255
255
216
152
104
58
36
22
16
10
14
16
28
184
255
255
255
255
240
84
12
18
20
8
10
14
16
20
22
24
26
28
26
22
22
24
28
16
44
20
52
194
255
255
255
226
54
38
30
6
2
22
16
6
20
16
6
16
16
2
16
22
12
12
28
20
32
40
30
10
6
18
16
12
10
12
10
12
12
14
16
16
14
16
22
18
12
10
10
6
6
16
14
12
16
26
26
56
114
176
212
194
154
102
24
48
122
232
255
255
224
130
82
104
146
240
255
198
58
96
124
120
100
72
44
24
20
18
4
14
28
20
14
54
80
78
60
30
16
26
34
38
26
8
26
22
18
14
44
34
104
242
255
255
255
186
120
52
26
26
12
6
10
18
26
20
14
10
8
8
4
12
14
10
18
14
10
8
6
12
18
20
16
12
12
12
16
16
16
32
34
22
20
26
16
6
22
28
18
16
16
8
6
12
8
8
24
30
16
6
6
8
14
18
18
20
24
30
24
8
8
20
18
6
14
18
16
14
18
22
28
40
60
174
255
255
176
152
255
255
255
92
50
38
12
18
24
18
8
8
2
6
14
22
22
10
12
14
18
16
22
22
14
8
4
2
0
4
8
12
18
20
16
22
22
4
14
16
4
10
16
22
24
20
18
14
2
12
18
12
18
12
4
16
18
10
10
20
16
2
24
32
18
2
16
20
14
12
38
48
24
28
42
166
255
255
255
255
160
52
4
18
30
36
20
4
12
6
12
30
52
88
136
170
176
162
150
136
132
152
162
162
152
126
100
82
78
74
64
66
68
60
66
70
60
120
208
255
240
186
112
128
190
222
210
138
64
32
28
26
20
44
26
86
38
240
255
255
150
112
202
160
116
106
102
90
118
142
138
126
102
78
56
48
44
26
4
22
14
6
14
28
28
26
22
28
18
58
170
236
190
86
20
4
6
8
18
34
40
34
26
24
36
50
56
44
36
46
70
96
106
124
140
148
146
124
106
84
64
50
38
34
26
28
38
42
40
34
40
38
30
28
22
20
28
30
28
20
20
20
12
12
8
8
22
32
30
20
10
10
8
6
22
24
20
20
24
24
14
2
20
36
28
20
20
22
26
24
26
26
16
10
14
22
30
26
22
24
22
16
8
6
8
6
10
16
16
26
24
16
12
10
32
68
84
72
32
18
44
60
66
66
58
44
30
28
44
38
12
18
36
40
38
52
44
26
12
10
10
14
20
32
42
48
52
42
32
30
42
44
32
22
8
6
10
10
8
6
6
12
20
32
54
66
60
42
24
12
22
34
26
28
32
38
46
50
52
100
255
255
255
84
76
64
14
24
22
18
10
12
10
2
4
8
12
12
8
8
14
16
12
22
20
12
12
12
14
12
8
14
16
16
18
24
24
14
8
8
10
10
8
14
26
40
48
42
32
30
34
38
32
22
20
34
60
88
146
212
255
255
255
255
255
232
184
126
88
60
24
12
22
12
92
255
255
255
255
255
168
58
16
8
14
2
14
14
14
14
18
30
32
30
26
22
20
18
14
16
32
14
18
124
255
255
255
255
74
52
44
6
2
18
26
16
14
14
16
2
14
10
8
22
18
6
24
16
26
24
8
14
24
20
10
6
12
10
8
4
4
6
4
8
10
10
8
20
18
10
14
14
8
22
24
16
14
30
62
128
234
255
255
255
255
188
60
62
156
255
255
238
154
130
118
108
112
146
255
255
230
138
132
114
100
78
48
26
12
10
16
18
18
26
16
42
80
94
84
54
24
22
24
24
12
10
32
42
50
36
56
42
80
180
255
255
255
255
140
28
10
6
12
20
28
30
28
16
8
4
6
12
10
4
6
8
14
4
8
6
4
6
4
8
22
30
26
26
36
24
6
30
40
30
28
16
6
12
12
22
22
20
18
12
10
10
6
24
38
38
18
4
6
14
16
14
14
22
32
40
40
26
8
18
20
6
16
16
12
10
18
18
18
26
30
92
255
255
255
164
255
255
255
116
56
48
6
8
20
28
24
14
10
14
16
26
32
20
4
6
12
16
22
40
42
26
8
6
8
10
8
2
8
12
12
14
10
6
18
16
6
16
10
12
10
2
10
20
18
16
28
36
26
14
20
20
12
6
4
10
18
16
26
52
54
38
32
18
12
40
56
48
26
36
16
100
234
255
255
255
206
84
18
14
20
36
36
22
16
16
14
6
24
58
114
160
158
108
52
20
72
128
172
174
144
100
70
58
52
54
56
62
64
58
48
42
36
78
154
228
255
255
255
232
168
184
148
78
60
32
30
22
12
48
34
90
68
255
255
255
120
166
238
164
96
80
82
74
80
120
136
144
136
112
76
48
38
34
22
6
4
16
26
26
16
8
2
24
32
36
134
220
226
156
70
18
4
4
8
20
34
28
12
16
32
54
66
44
28
50
76
88
74
98
116
132
140
120
106
92
80
66
48
40
28
24
26
30
38
42
46
40
28
20
20
20
28
38
44
40
24
20
10
8
4
4
14
22
22
30
28
18
20
16
4
6
14
18
18
16
8
20
28
30
16
10
14
20
30
34
26
22
12
6
6
10
22
26
28
34
28
14
6
4
10
4
12
16
12
14
20
20
20
12
16
54
76
72
52
26
0
28
56
76
82
74
62
58
48
38
20
26
8
46
50
38
14
6
14
18
16
18
22
28
42
54
54
40
28
26
36
46
38
18
4
4
6
10
14
10
8
20
30
42
56
58
46
40
28
16
20
28
22
12
4
4
6
6
8
104
255
255
255
94
78
60
12
26
18
10
10
18
14
10
12
12
16
18
18
12
18
16
6
16
18
12
10
8
12
16
16
18
16
16
18
28
32
24
16
18
24
26
16
12
14
28
42
44
40
40
48
48
38
26
38
58
80
94
102
130
176
222
244
252
252
244
220
174
136
116
80
40
28
20
166
255
255
255
255
238
106
36
22
10
8
18
24
14
12
12
14
20
28
28
30
26
16
14
12
10
20
22
24
46
234
255
255
255
156
36
40
20
22
28
30
30
26
14
8
16
24
12
10
24
18
4
10
0
10
16
16
26
20
4
14
16
10
6
8
18
28
28
24
22
20
10
10
20
24
20
6
12
28
34
22
12
22
38
84
160
242
242
138
146
206
200
156
110
255
255
255
248
90
62
70
104
130
70
122
126
98
28
70
102
102
66
22
6
6
8
32
38
20
40
36
2
42
80
100
92
68
40
26
22
6
28
48
52
52
26
40
16
42
132
255
255
255
255
255
214
104
40
10
14
6
28
38
22
8
14
14
18
14
8
8
14
14
10
10
12
12
14
18
18
22
20
12
6
28
32
16
22
18
8
8
8
14
8
4
8
8
14
16
12
6
4
12
20
26
24
6
8
10
18
32
26
10
10
24
30
34
34
28
28
18
4
16
22
22
28
24
16
12
22
18
52
120
255
255
255
122
255
255
208
84
44
20
10
34
32
12
10
26
22
8
10
18
18
10
4
14
16
6
18
26
20
14
6
0
2
4
8
10
10
4
4
6
4
14
14
4
18
20
24
14
14
10
10
20
16
12
32
34
26
18
10
2
8
10
0
18
28
10
18
36
38
24
10
40
54
42
8
32
34
14
68
176
255
255
255
212
92
28
24
16
22
42
50
42
28
20
30
42
38
72
134
178
168
108
32
82
134
160
138
100
70
58
48
38
40
38
38
36
38
36
24
24
44
92
148
208
255
255
255
255
212
132
72
64
50
18
6
32
52
42
66
126
255
255
255
90
148
190
102
42
44
64
80
110
136
140
138
134
122
102
76
54
44
38
32
22
28
22
12
10
10
8
24
22
16
88
174
220
196
116
32
2
4
4
10
34
42
24
38
32
36
54
52
54
58
64
64
62
86
106
128
150
140
118
92
72
50
36
38
28
22
20
26
44
52
52
42
22
14
20
22
18
22
36
40
30
18
4
8
12
10
14
24
34
40
32
12
8
22
22
12
6
10
14
12
20
28
24
22
16
8
12
24
42
48
38
24
8
4
4
2
10
22
30
32
28
20
14
10
8
4
20
24
20
22
22
16
16
12
16
46
66
62
58
64
70
44
20
62
90
92
84
86
78
42
18
56
42
62
62
30
10
16
20
22
22
28
30
32
36
50
58
48
32
34
48
50
34
14
2
2
4
6
8
12
28
42
46
44
32
44
62
64
58
42
28
34
56
80
106
138
166
186
194
106
255
255
255
94
80
54
10
18
6
2
6
16
16
16
16
12
14
16
20
18
16
10
4
10
12
8
4
2
4
10
14
12
10
12
8
20
28
26
20
22
28
38
30
20
14
20
30
36
38
38
44
46
42
52
66
74
80
80
82
102
128
150
154
154
162
174
182
166
138
134
118
72
36
68
255
255
255
255
255
150
54
24
16
16
24
36
28
18
10
12
16
24
30
36
32
20
14
20
20
4
18
32
62
52
144
255
255
255
250
60
14
38
38
36
26
26
28
32
18
26
22
20
22
24
10
8
20
14
20
18
16
12
6
28
32
22
16
4
14
38
42
26
22
14
28
38
42
46
40
38
48
58
60
46
38
14
26
56
126
200
222
136
32
158
255
255
216
188
255
255
255
146
46
50
62
98
172
255
255
255
222
138
108
116
104
52
30
14
12
28
40
26
6
26
38
32
34
34
60
88
96
80
40
16
10
38
46
42
38
12
28
20
36
88
190
255
255
255
255
255
255
240
142
68
26
12
28
16
4
10
4
10
10
12
14
14
8
14
16
14
10
12
14
14
10
20
26
20
20
20
22
30
20
10
6
6
12
14
8
4
4
8
4
8
16
10
6
12
26
24
4
12
14
10
30
38
30
12
22
32
32
32
34
34
28
26
32
30
34
28
28
16
2
14
16
64
26
246
255
255
146
255
255
255
150
80
48
10
26
24
12
34
34
10
14
22
18
6
12
10
12
16
16
30
28
14
14
12
10
12
18
22
22
22
12
8
12
10
20
22
12
14
20
16
16
14
14
14
12
22
14
8
26
30
20
6
6
8
12
10
2
24
34
24
4
14
28
46
54
34
4
38
58
36
32
64
150
248
255
255
196
86
28
30
24
4
24
48
58
54
42
50
46
26
52
104
172
220
202
116
100
132
122
84
56
48
50
38
28
26
18
16
12
14
24
26
22
22
42
72
116
186
255
255
255
255
192
102
86
46
2
24
38
52
56
76
172
255
255
255
72
160
188
112
60
62
80
92
110
126
124
110
98
94
94
88
70
52
38
32
24
16
6
6
14
18
16
20
18
4
50
126
202
228
164
52
0
4
4
4
26
40
24
32
10
30
62
64
48
38
40
48
54
76
104
130
158
162
140
102
74
64
58
52
42
36
34
40
52
54
46
28
14
10
10
14
36
48
48
38
24
18
4
8
12
8
14
14
22
42
50
34
10
12
22
16
6
14
18
20
24
24
18
24
30
34
42
50
62
56
38
20
4
4
6
4
6
16
32
32
26
24
22
20
10
8
26
28
20
20
14
8
14
12
16
46
62
42
52
96
124
142
94
24
36
74
94
110
112
76
28
38
60
74
62
24
2
14
20
24
26
30
30
34
38
36
46
46
38
40
44
38
30
22
8
4
8
10
8
10
16
20
22
24
24
36
54
64
80
104
140
176
198
210
220
240
252
252
244
108
255
255
255
84
80
52
8
12
2
4
2
4
8
10
8
4
4
4
6
4
2
4
2
10
12
8
4
4
6
4
0
4
6
10
6
4
12
14
12
8
12
24
28
26
26
30
30
28
32
38
48
64
70
76
78
74
80
80
86
102
120
130
126
122
114
92
96
106
96
104
108
78
40
160
255
255
255
255
226
68
12
16
14
38
38
32
18
20
10
16
20
26
32
42
36
18
2
14
24
22
30
32
80
80
56
255
255
255
255
152
36
38
32
22
10
12
10
20
30
26
10
26
28
12
6
14
22
16
20
16
4
14
26
32
18
16
24
8
26
44
22
26
72
116
150
164
162
154
152
134
114
92
64
60
66
60
38
114
214
255
255
162
118
146
204
255
186
188
255
255
255
134
70
74
144
248
255
255
255
255
255
255
186
146
96
42
20
14
24
26
24
32
44
40
12
30
64
62
36
26
78
102
76
36
28
40
38
38
42
34
40
50
64
76
106
196
255
255
255
255
255
255
255
255
192
56
30
8
14
12
30
32
22
16
12
6
6
8
14
22
30
26
8
8
10
4
14
20
12
6
16
10
6
4
4
4
10
12
2
8
8
6
24
34
26
14
8
6
24
26
10
6
16
10
10
26
32
30
26
50
54
42
32
38
52
56
62
50
30
16
24
32
18
32
10
64
46
140
255
255
222
148
255
255
255
182
100
22
28
38
22
32
14
18
34
28
16
8
6
8
6
18
24
18
6
20
26
16
12
16
22
22
22
32
28
8
12
14
12
16
22
16
12
12
14
8
0
0
12
22
34
22
16
30
28
14
10
10
12
14
20
8
14
26
16
40
70
70
36
14
46
48
34
2
46
104
202
255
255
255
180
88
32
32
32
20
8
14
30
36
32
38
32
32
52
76
118
178
206
156
82
104
80
58
36
30
32
20
12
10
6
6
4
10
16
22
18
6
16
28
62
134
204
255
255
248
190
124
72
22
14
24
36
56
74
102
176
255
255
246
20
210
226
112
16
16
32
24
40
70
108
134
120
78
54
64
62
48
28
14
10
8
12
16
18
24
24
30
18
12
28
86
190
255
220
86
6
4
6
4
16
22
6
14
12
36
56
54
46
40
50
72
70
64
84
122
154
166
158
124
96
82
64
42
56
62
60
56
54
44
38
38
24
8
22
38
46
32
22
16
18
22
14
2
14
30
40
34
22
22
34
32
16
4
18
12
8
22
22
20
18
18
18
34
46
48
44
40
44
32
18
8
6
6
10
12
10
18
36
40
30
22
18
22
22
14
32
26
6
8
18
24
28
22
16
50
60
18
80
120
112
200
216
168
90
6
66
118
142
120
72
32
38
54
46
28
22
18
22
24
24
22
20
28
36
36
38
46
50
50
50
46
38
36
28
24
30
30
18
14
36
56
56
48
108
182
250
255
255
255
255
255
255
255
228
178
122
74
46
108
255
255
255
78
86
58
14
16
8
10
10
10
4
6
4
0
2
8
14
12
8
8
2
8
12
8
6
8
6
4
6
6
6
8
10
6
2
4
6
4
6
6
12
16
22
30
34
34
42
52
64
80
80
84
82
84
102
106
116
136
156
170
172
168
144
102
68
60
66
80
102
58
84
255
255
255
255
255
138
14
12
16
24
42
30
12
8
14
14
26
28
28
32
42
34
14
10
14
32
40
38
30
84
102
32
204
255
255
255
255
90
30
40
18
2
12
22
26
18
20
20
26
20
8
4
10
12
6
10
18
18
18
16
14
8
28
30
8
32
32
22
90
130
148
162
190
222
236
254
252
206
142
88
68
96
140
152
240
255
255
255
166
226
255
255
255
255
176
255
255
255
255
84
74
164
216
220
255
255
255
255
255
255
186
84
54
54
48
54
58
64
94
98
92
88
70
50
40
44
22
38
90
94
72
48
44
36
44
62
78
86
86
72
52
30
88
148
202
255
255
255
255
255
255
255
224
88
68
68
46
38
28
24
12
8
2
8
4
6
12
28
36
24
8
4
14
10
4
10
10
8
6
12
12
14
14
16
8
12
20
20
20
30
24
12
10
8
2
18
24
18
6
10
14
14
30
46
54
60
68
84
82
62
92
112
102
112
98
70
42
28
24
4
22
10
40
46
66
244
255
255
78
176
255
255
198
98
40
20
38
18
20
2
28
30
12
10
16
6
8
16
20
8
10
22
18
32
22
10
10
8
6
10
18
24
20
8
16
18
8
22
24
8
16
18
8
6
14
28
22
40
48
26
18
28
20
8
6
6
4
12
18
8
10
18
58
78
46
20
56
54
18
12
34
82
152
252
255
255
255
166
106
56
50
46
36
32
16
2
14
14
8
4
12
8
20
48
106
156
142
74
64
56
66
62
48
42
34
26
22
14
6
4
10
8
12
22
22
34
46
54
94
156
238
255
255
190
124
78
24
18
32
48
72
94
116
166
248
255
214
118
255
255
142
94
52
84
112
138
168
194
190
140
80
42
32
44
40
26
20
22
26
22
16
18
26
36
32
12
14
42
38
142
252
252
134
32
2
4
6
26
40
32
34
32
42
42
54
62
64
60
84
72
56
46
90
138
164
162
118
90
50
64
74
76
72
56
44
42
30
22
32
30
34
46
44
28
16
34
28
16
16
18
22
20
32
36
32
34
32
38
26
14
22
28
6
18
24
18
12
10
16
24
40
46
38
26
18
18
12
6
4
6
12
14
12
14
20
34
44
36
22
12
10
16
28
36
20
10
18
18
22
26
22
10
46
50
12
78
106
102
128
212
238
206
126
24
72
140
156
126
82
38
36
28
32
34
32
26
18
18
18
20
28
32
30
24
42
58
66
70
70
64
56
44
30
26
36
50
64
88
138
198
255
255
255
255
255
255
255
255
255
220
166
134
80
74
106
116
108
255
255
255
80
94
64
22
22
10
8
8
12
12
4
4
4
6
12
10
4
2
6
6
4
8
10
10
8
8
8
6
8
8
2
2
6
4
0
4
8
6
4
8
18
32
38
38
38
48
62
74
82
76
80
86
108
142
150
158
178
198
208
194
164
108
48
36
58
70
96
100
34
166
255
255
255
255
240
82
12
20
10
22
26
22
16
14
4
26
42
38
34
34
36
26
10
12
34
48
48
42
24
78
106
48
112
255
255
255
255
200
22
48
28
10
16
24
24
22
14
14
14
12
8
4
10
20
26
12
22
40
50
36
24
14
24
20
6
36
42
82
146
132
76
62
120
218
255
252
255
255
210
134
136
218
255
255
255
255
255
192
72
150
255
255
255
255
255
255
255
255
198
136
126
244
255
255
255
250
188
255
255
255
255
172
112
118
144
164
144
122
140
122
130
140
138
122
76
30
14
14
56
80
88
78
56
30
52
94
126
120
88
86
58
18
22
62
86
100
108
134
238
255
255
255
255
255
176
156
118
58
10
16
16
10
10
8
6
4
6
16
20
22
18
12
4
16
20
20
10
6
6
6
8
12
14
32
26
24
12
16
28
30
24
28
20
6
2
10
20
28
24
6
8
8
26
52
70
80
82
78
106
126
170
174
148
168
158
132
104
80
58
36
20
4
18
28
20
118
255
255
228
100
255
255
255
148
46
10
18
14
16
14
32
32
20
28
24
8
12
16
18
14
20
12
4
16
20
10
4
18
26
28
20
8
14
16
8
10
10
14
22
14
10
16
12
8
22
26
12
28
50
52
32
30
14
8
2
10
16
14
6
4
4
24
46
38
22
50
58
22
18
22
46
108
186
255
255
255
200
168
128
88
78
70
54
44
26
18
14
14
28
54
68
64
64
32
38
100
100
52
28
36
46
66
72
70
58
42
36
32
24
20
26
30
32
32
28
44
68
88
142
210
255
255
224
172
126
86
38
32
58
78
92
104
118
152
196
252
228
224
255
255
130
148
104
128
154
180
206
218
194
130
68
38
34
42
40
28
26
32
32
18
12
22
38
32
22
6
12
36
24
76
188
238
178
84
26
4
18
36
38
32
32
40
40
26
32
58
78
88
82
58
50
42
34
98
162
180
202
148
78
52
76
80
48
20
14
22
20
16
20
32
48
46
24
14
4
26
28
12
6
14
36
46
42
30
14
8
10
2
22
32
30
12
14
24
20
12
6
10
14
22
42
46
32
14
6
10
12
8
8
10
10
8
4
8
12
22
38
40
30
18
20
28
38
34
14
16
24
20
22
28
22
10
44
56
16
56
104
96
30
64
156
216
210
138
30
78
150
160
126
78
34
6
16
22
26
32
28
28
30
34
44
42
30
26
38
58
68
72
84
96
92
76
52
30
70
148
252
255
255
255
255
255
255
255
252
168
110
68
26
54
110
156
178
158
120
92
108
255
255
255
74
90
58
18
20
4
2
2
4
8
8
4
6
10
10
2
4
6
2
4
4
4
8
8
6
8
6
4
8
8
6
4
4
4
0
4
8
8
14
26
38
46
44
42
48
60
72
80
84
78
78
86
116
154
156
154
168
182
184
154
106
46
28
42
66
80
98
86
34
234
255
255
255
255
158
54
10
16
8
14
12
16
10
2
18
46
50
36
32
28
28
26
16
22
36
34
32
34
20
54
92
86
58
192
255
255
255
255
126
24
32
32
36
26
20
20
16
22
24
18
10
4
12
24
36
42
28
26
48
40
22
8
14
12
14
30
12
132
238
228
164
114
162
210
176
96
188
255
255
250
255
255
255
255
255
255
206
86
24
26
88
218
255
255
255
255
255
255
255
210
182
230
255
255
255
255
255
162
255
255
255
192
110
188
216
234
230
158
138
98
116
122
116
120
110
78
32
10
12
28
46
56
62
44
92
158
174
122
96
88
54
24
24
44
64
54
28
50
16
158
255
255
255
255
230
158
108
68
28
8
14
12
12
10
10
8
14
20
18
10
12
16
18
16
20
16
10
4
4
4
14
14
4
16
20
8
4
12
20
28
32
32
22
20
6
4
12
26
32
16
16
20
38
56
64
60
54
58
96
160
208
204
180
212
198
162
126
94
64
44
26
8
2
8
20
50
178
255
255
110
246
255
255
98
28
14
12
2
12
12
32
34
22
28
18
14
18
18
18
14
2
14
18
12
10
10
22
34
32
28
26
16
10
24
14
6
2
10
12
8
4
14
16
18
20
10
4
8
18
34
34
16
8
8
2
14
16
8
10
2
10
22
28
36
32
38
28
28
34
30
62
122
188
246
244
198
180
154
122
92
84
80
66
54
38
24
12
24
34
58
74
70
94
82
48
94
96
36
30
44
8
40
78
94
80
52
38
34
28
24
34
38
36
30
32
54
82
106
160
222
255
255
214
156
106
68
24
48
92
108
96
80
74
110
184
252
244
255
255
248
120
168
140
136
156
174
186
174
130
68
52
46
30
42
40
26
26
28
18
8
16
32
30
24
32
20
16
26
30
96
132
184
184
126
52
6
22
30
22
30
22
12
6
4
14
38
66
76
84
76
52
40
22
52
154
234
204
86
12
8
72
98
68
34
10
16
20
26
38
50
54
34
6
14
4
20
26
14
12
14
24
42
48
44
38
32
22
30
34
26
26
16
22
16
14
14
8
8
10
22
38
44
36
22
10
12
16
14
12
8
4
2
4
4
6
14
28
38
42
38
22
32
38
26
6
6
16
20
24
28
16
14
34
50
26
34
100
140
128
74
16
120
192
198
138
34
80
154
166
134
78
30
26
22
14
24
26
26
28
36
48
50
40
30
32
48
52
42
46
66
84
104
128
222
255
255
255
255
255
255
255
255
220
122
36
80
116
146
188
220
240
240
202
138
78
46
106
255
255
255
74
90
60
20
24
8
6
4
6
12
14
8
8
14
10
4
8
8
10
8
8
4
0
0
4
10
8
4
2
6
6
4
4
6
6
12
16
22
34
40
42
42
40
48
62
72
80
86
92
82
70
74
104
134
122
108
110
118
118
88
58
36
12
30
72
100
102
70
72
255
255
255
255
220
92
38
4
12
8
12
12
18
22
30
46
56
42
22
22
20
28
36
24
18
20
24
30
32
14
24
64
98
94
36
255
255
255
255
255
104
24
46
54
38
34
32
16
20
24
18
10
4
10
16
20
52
48
28
44
36
20
8
14
14
18
32
52
250
255
255
255
255
242
140
186
188
72
104
255
255
255
252
156
108
118
140
112
70
60
22
84
76
82
166
232
224
188
184
166
136
100
64
58
164
255
255
255
255
255
255
206
90
74
176
188
180
230
186
122
84
82
108
76
38
50
66
48
22
16
18
22
16
22
60
146
202
174
78
98
92
64
60
62
54
90
104
58
22
54
20
194
255
255
255
242
166
100
56
34
2
6
6
8
6
8
18
22
18
10
6
8
10
24
26
12
10
14
6
6
2
12
18
22
24
26
16
6
8
10
6
8
12
16
26
16
10
8
12
24
14
16
20
42
68
76
80
88
82
70
138
184
176
158
216
208
162
112
72
40
26
24
18
8
14
36
50
92
255
255
252
255
255
255
128
22
20
20
8
18
4
16
20
8
10
4
12
20
20
12
16
18
14
16
16
16
20
26
24
12
8
16
18
8
24
16
10
10
12
16
14
4
12
22
24
10
8
16
14
12
4
12
20
14
8
2
10
14
18
20
8
14
22
18
14
14
6
26
40
38
40
72
118
168
206
196
170
150
124
96
72
68
66
62
60
50
40
14
24
58
84
82
36
38
66
62
128
122
32
56
46
32
74
80
122
104
58
32
26
22
24
28
24
24
24
38
62
86
110
160
222
255
255
248
196
140
88
14
68
120
118
72
18
74
156
224
255
254
255
255
200
116
158
152
118
132
142
132
88
32
8
8
22
32
44
38
22
28
38
28
22
26
26
22
24
40
36
22
8
42
78
84
136
166
142
66
6
22
28
20
32
46
50
44
30
28
74
96
86
62
70
78
52
10
26
126
255
255
246
144
92
102
108
86
54
22
26
26
34
48
52
44
18
10
18
6
22
28
18
8
4
16
24
26
18
20
30
30
28
8
18
36
30
14
8
14
20
20
20
22
28
36
48
40
24
16
16
18
14
8
6
4
4
8
8
10
12
22
34
50
62
54
34
34
14
6
10
8
4
6
12
8
14
18
32
28
14
60
108
124
112
74
32
86
156
182
140
32
90
166
182
138
74
24
22
22
14
8
14
14
26
32
34
32
26
24
34
40
28
18
38
98
206
255
255
255
255
255
255
255
192
72
56
148
196
202
188
180
182
190
186
186
170
128
84
58
50
104
255
255
255
78
88
60
26
28
14
12
8
8
14
12
6
10
16
12
8
12
12
12
10
8
4
4
6
6
6
4
4
2
4
4
4
4
8
14
18
18
24
34
30
26
30
36
52
66
74
84
92
96
76
60
70
104
128
108
90
86
94
96
72
56
48
46
72
108
120
98
44
128
255
255
255
255
154
52
22
10
14
12
14
12
20
28
38
46
42
24
12
20
20
26
30
16
10
10
16
26
26
16
20
46
70
100
54
118
255
255
255
255
242
50
44
50
32
36
38
22
18
14
14
12
8
14
18
12
30
42
36
44
36
22
14
26
40
6
100
255
255
255
255
255
255
255
232
98
198
255
176
255
255
255
255
186
74
88
102
70
70
108
56
62
98
82
16
52
86
78
78
82
72
108
112
108
126
84
236
255
255
255
255
234
130
114
160
118
8
84
104
82
124
162
146
94
58
48
60
56
22
4
6
12
26
42
72
114
128
82
6
74
96
84
70
54
42
72
138
138
74
10
32
46
196
255
255
255
255
174
118
64
28
32
24
10
6
10
6
14
22
20
10
6
6
16
24
16
14
18
6
10
4
6
8
16
28
22
20
10
8
12
4
2
2
6
22
22
10
2
12
16
2
4
8
34
62
70
82
110
138
156
164
144
84
24
112
166
168
138
104
74
56
52
34
10
16
32
38
40
212
255
255
144
200
255
255
106
20
50
12
18
10
12
16
6
8
6
10
14
16
24
22
12
6
6
6
2
10
22
30
26
10
16
18
6
12
10
6
12
22
22
10
10
20
20
12
10
14
12
12
16
22
14
6
16
16
8
6
18
30
20
22
22
22
10
2
8
34
42
30
32
36
62
102
144
178
186
168
136
112
94
76
76
66
56
54
44
36
26
22
50
92
122
106
38
10
68
138
122
80
100
26
108
156
102
158
126
58
26
28
28
28
20
12
10
24
42
64
96
142
208
255
255
255
248
194
136
78
32
100
142
106
38
60
90
132
184
214
210
220
198
146
96
122
132
108
96
102
76
46
38
38
32
20
26
36
32
24
18
22
24
16
20
18
6
12
32
46
36
10
42
46
70
122
168
164
82
8
20
28
16
22
38
50
62
62
52
68
66
54
48
48
62
54
22
32
68
172
254
255
204
148
124
108
94
72
34
26
24
32
40
32
14
12
22
16
12
18
20
8
4
12
24
32
34
20
8
16
18
20
26
42
38
18
6
2
2
10
16
18
26
36
54
62
44
24
16
16
16
8
2
4
4
4
6
8
6
8
12
18
36
60
72
58
30
4
12
10
16
18
18
16
10
6
16
28
34
24
20
64
90
96
92
74
38
46
134
178
134
24
90
168
176
132
74
58
56
44
28
20
30
34
24
24
26
20
14
14
30
58
124
208
255
255
255
255
255
255
255
160
90
154
224
255
255
255
210
172
146
132
128
120
116
98
66
42
50
48
102
255
255
255
76
80
48
22
22
12
14
12
4
6
6
2
6
12
8
6
10
8
6
4
6
8
8
12
12
10
6
0
6
2
4
8
12
16
18
16
12
16
22
18
18
32
42
56
66
72
84
92
92
70
66
88
126
152
136
122
116
122
124
104
92
84
82
102
126
124
80
20
188
255
255
255
255
114
20
2
10
18
16
14
6
16
28
28
28
20
10
12
20
14
10
12
8
18
34
46
48
34
6
32
68
92
78
48
18
200
255
255
255
255
128
46
46
14
32
38
16
6
16
18
12
8
12
14
10
12
10
10
16
18
10
8
16
34
156
255
255
255
255
255
204
255
255
255
255
58
184
255
255
174
138
255
255
212
150
110
48
40
104
132
156
152
128
104
82
92
92
64
58
36
52
58
78
68
40
86
136
144
218
200
176
128
178
238
240
176
134
152
168
176
158
108
60
42
48
70
60
8
36
66
90
92
66
26
84
154
146
70
68
78
106
132
144
106
30
104
158
142
66
20
30
72
255
255
255
255
255
255
218
92
10
22
26
16
20
18
14
4
16
18
16
14
18
24
14
12
14
6
14
6
6
8
16
18
10
22
20
8
16
12
4
2
2
12
16
14
12
18
22
14
18
14
22
44
44
48
78
124
170
206
226
212
148
130
96
150
168
152
130
112
100
68
24
12
14
24
26
96
228
255
216
80
255
255
188
40
74
32
14
8
18
26
10
14
12
8
18
26
20
14
14
12
12
16
20
22
32
40
40
20
4
20
20
14
6
2
2
18
30
26
20
16
10
16
14
8
2
6
6
14
20
16
2
12
10
10
18
20
14
24
30
28
12
6
10
30
34
24
28
36
56
94
136
172
176
156
124
102
96
90
100
88
64
52
50
46
38
28
20
50
86
102
74
50
74
144
122
112
152
60
198
228
138
206
148
50
14
34
38
34
28
18
18
36
50
72
124
204
255
255
255
255
202
156
102
42
44
132
148
72
48
120
118
86
92
104
116
126
114
90
78
86
98
98
72
72
44
20
26
26
40
46
34
32
32
30
24
18
14
6
14
14
6
12
12
42
48
26
32
40
66
122
186
200
112
20
16
22
14
30
30
18
34
52
60
76
94
102
82
64
74
56
38
40
48
66
110
134
136
122
110
94
86
80
52
26
20
20
26
24
16
26
22
18
16
36
38
22
12
8
18
22
24
14
20
22
10
20
34
30
14
2
10
14
14
8
2
8
40
60
62
54
30
14
10
12
10
6
2
4
4
4
6
4
4
6
8
6
14
32
60
66
48
14
10
8
4
8
12
14
16
12
24
38
48
42
10
34
58
56
52
72
90
58
32
130
170
132
38
76
154
164
124
104
90
96
80
40
36
24
10
22
32
30
28
46
116
206
255
255
255
255
255
255
184
40
188
255
255
255
250
222
188
154
122
104
90
82
86
86
80
62
36
22
26
28
104
255
255
255
78
84
48
20
18
6
10
12
6
2
6
6
8
12
6
4
6
2
4
8
4
6
10
10
6
4
8
6
8
10
10
12
16
16
12
10
12
20
26
28
36
46
52
62
70
78
90
92
88
74
86
116
152
176
164
154
148
146
140
118
104
96
90
98
114
110
58
62
220
255
255
255
234
88
6
6
8
18
18
12
4
10
30
36
30
20
14
16
16
6
10
14
20
34
52
62
58
40
32
42
82
96
62
20
42
72
252
255
255
255
255
66
28
16
34
46
28
8
8
14
8
8
14
16
10
12
12
12
20
22
22
10
68
236
255
255
255
255
255
136
38
110
255
255
255
255
206
236
255
255
100
86
182
198
180
126
64
52
104
154
172
168
156
132
102
102
116
102
64
18
30
54
60
38
66
108
110
38
60
112
104
82
86
120
152
142
84
112
134
130
100
64
50
60
76
86
58
34
42
66
72
48
60
44
24
102
128
86
12
40
64
86
108
106
66
46
126
162
132
50
16
16
106
255
255
255
255
255
255
255
248
94
6
28
12
16
18
10
14
18
22
22
24
24
8
14
14
2
12
10
8
6
10
18
10
12
16
16
28
24
16
14
10
14
20
20
18
18
20
16
18
14
18
24
16
12
30
54
102
136
152
150
124
66
46
84
118
110
92
84
86
70
38
12
0
10
8
42
98
242
255
146
142
255
228
38
68
40
12
6
24
26
12
24
14
24
28
16
12
20
26
24
18
18
16
10
12
20
28
22
12
2
6
6
2
4
6
6
14
20
14
10
4
4
8
10
4
6
10
8
10
20
18
16
8
8
20
26
14
16
24
26
14
14
28
44
38
48
62
66
72
102
152
206
210
170
112
60
56
56
78
86
74
68
54
40
30
14
8
20
38
60
62
66
108
182
150
136
184
64
220
224
134
246
184
56
34
38
32
28
22
18
32
54
64
90
150
238
255
255
255
202
164
136
78
8
78
146
136
38
82
140
118
72
58
60
58
58
56
58
66
68
74
86
86
68
36
16
14
12
24
38
42
42
34
28
24
20
10
6
16
22
16
14
14
30
40
26
6
26
54
114
192
226
152
50
20
12
16
12
10
36
72
88
60
24
66
114
120
84
64
40
34
42
48
70
90
98
106
104
98
88
72
68
62
44
38
34
30
24
16
16
10
18
26
40
34
10
14
0
20
24
22
12
16
26
20
20
26
30
18
6
12
14
12
12
8
22
52
58
48
36
22
12
10
12
10
6
8
6
4
4
4
4
4
8
12
14
24
36
48
50
44
24
2
14
14
14
20
22
18
12
16
32
48
50
26
30
52
28
20
36
76
100
54
42
136
180
150
52
64
128
126
112
106
124
124
94
52
24
16
2
20
42
104
198
255
255
255
255
255
255
204
16
164
255
255
255
255
238
186
148
112
90
72
64
58
50
50
46
36
24
22
12
6
4
108
255
255
255
80
86
54
20
16
2
6
6
6
4
2
2
8
10
2
6
4
0
4
8
4
6
12
18
22
18
14
6
12
14
10
10
10
4
4
8
22
34
40
46
52
56
62
72
80
90
96
90
90
92
116
148
174
188
176
170
162
146
132
110
96
88
78
82
104
106
46
118
236
255
255
255
194
72
8
10
6
16
16
8
4
12
30
36
34
28
18
12
8
4
12
30
34
40
52
60
56
42
60
68
82
78
38
12
46
66
68
255
255
255
255
206
50
40
46
54
44
32
26
22
6
6
8
16
12
14
8
6
14
34
10
94
255
255
255
255
255
224
56
44
18
28
140
255
255
255
255
255
174
210
226
152
62
22
76
110
104
100
126
126
114
106
92
66
52
62
90
120
106
58
60
56
36
40
52
82
88
86
72
52
68
128
142
116
96
84
56
84
132
138
114
86
60
72
74
58
26
42
54
56
54
38
50
30
28
54
56
68
36
4
64
132
156
124
62
16
50
110
132
98
32
22
22
52
162
255
255
255
255
255
255
255
120
20
42
6
26
22
10
6
14
22
26
24
12
16
10
6
8
6
2
6
8
8
6
10
26
48
58
46
44
34
22
32
36
24
12
12
18
10
8
10
20
40
48
60
80
90
88
84
94
110
104
64
44
66
82
72
78
86
80
52
44
30
10
10
12
46
26
160
255
255
166
255
218
74
68
36
8
8
20
22
6
18
20
32
18
6
24
24
28
24
12
0
8
18
26
28
22
12
18
22
18
12
6
14
16
16
12
2
8
12
18
18
6
6
6
6
10
12
6
12
20
18
16
22
28
40
36
20
26
16
12
26
36
58
66
88
100
84
74
102
170
238
230
180
124
86
82
76
76
62
72
84
80
66
48
28
22
30
38
44
48
78
158
228
180
148
208
68
200
182
94
250
214
76
36
20
16
18
8
16
46
68
78
108
162
238
255
255
202
158
144
122
52
30
100
142
108
20
98
136
110
72
56
54
38
24
26
26
42
46
46
62
78
84
64
40
16
18
32
46
52
42
26
20
14
22
12
12
0
18
30
32
30
24
36
38
34
38
32
88
174
226
182
90
20
2
8
12
38
66
96
106
72
50
24
66
116
110
80
54
50
50
42
64
102
128
136
122
118
100
70
44
52
54
52
46
32
14
4
8
8
18
26
38
30
10
16
2
24
36
32
18
14
20
18
12
20
24
18
10
20
18
6
4
4
24
46
44
36
32
24
20
16
16
16
14
12
6
4
4
4
6
6
10
12
14
20
30
48
48
34
22
10
10
14
16
20
18
8
6
6
16
40
52
32
30
50
26
28
32
16
72
88
42
52
150
196
156
58
28
70
82
92
114
134
136
110
70
46
22
66
156
255
255
255
255
255
255
142
84
134
220
255
255
255
220
182
148
132
116
96
86
72
62
52
36
28
20
24
30
34
30
20
16
108
255
255
255
84
80
52
20
18
6
6
6
8
8
10
8
8
12
12
12
6
2
8
6
2
2
6
8
10
10
8
8
10
12
12
10
10
12
12
16
34
38
36
40
48
56
66
80
86
90
88
86
104
126
158
186
200
200
184
174
152
126
116
102
92
88
82
90
120
116
48
148
255
255
255
255
170
58
6
8
6
18
20
12
8
22
34
38
32
22
14
6
8
6
28
42
36
32
38
40
28
12
52
82
88
66
32
8
30
70
80
182
255
255
255
255
120
52
64
50
40
38
18
6
6
14
14
2
10
18
16
36
54
20
120
255
255
255
255
255
182
16
86
68
20
8
60
136
198
236
240
190
86
52
186
255
255
208
70
70
122
142
138
114
86
58
42
28
8
28
24
74
112
102
66
40
42
60
70
66
92
110
84
42
98
108
74
46
62
108
114
126
190
200
170
140
128
118
102
78
60
84
98
80
36
12
34
24
22
40
74
106
102
74
124
136
96
48
66
62
62
74
80
90
58
48
50
52
32
86
192
255
255
255
255
255
255
168
18
38
40
10
8
18
22
20
20
22
16
8
2
10
10
6
4
4
2
2
6
10
22
32
32
20
34
32
16
28
20
12
8
10
22
12
2
6
32
64
76
80
78
68
70
96
134
160
154
118
136
160
176
172
150
120
94
72
54
42
26
16
24
56
40
82
236
255
170
224
178
110
70
34
12
8
12
16
12
6
6
8
0
14
22
12
18
20
20
14
10
12
14
8
8
10
12
12
8
8
18
28
26
24
20
18
18
12
14
18
12
4
4
10
8
8
14
20
18
20
18
28
24
26
30
16
16
8
14
14
18
66
92
92
76
38
32
78
164
230
206
148
96
72
74
62
52
40
56
76
86
82
64
38
28
36
48
58
64
96
174
230
168
118
216
102
210
174
88
238
218
92
22
4
20
14
14
30
50
70
84
120
180
252
255
246
174
128
114
88
30
58
106
118
74
34
108
126
92
52
18
24
36
30
24
14
18
14
16
22
26
50
50
40
24
32
32
32
38
42
34
20
6
18
22
8
10
12
8
12
30
56
72
60
38
24
12
58
140
196
178
108
36
12
6
12
28
44
62
64
34
44
38
76
92
92
82
68
70
80
76
86
114
142
158
134
112
80
48
32
30
38
44
46
38
22
8
12
6
12
26
38
30
4
8
4
24
36
32
18
18
22
22
14
22
20
12
4
14
18
6
2
6
26
44
42
42
42
32
26
20
18
16
12
12
12
14
14
16
14
8
10
8
14
18
24
44
46
36
28
16
12
14
12
12
12
6
4
4
16
40
56
40
18
46
40
4
34
30
28
74
90
40
62
166
202
164
90
56
60
74
94
114
140
152
124
82
118
214
255
255
255
255
240
118
54
114
198
244
254
242
214
180
146
120
102
96
86
78
76
64
50
36
26
26
20
6
20
32
32
24
18
104
255
255
255
90
78
44
20
20
12
12
6
4
4
8
10
12
22
22
22
16
12
10
6
6
4
8
8
14
14
14
6
10
16
20
20
14
14
16
24
36
28
20
24
38
50
62
78
78
78
80
92
128
162
192
208
202
182
160
144
122
108
108
100
92
94
94
102
130
108
54
168
255
255
255
255
146
54
12
12
4
14
20
16
14
24
30
32
22
20
22
18
16
20
40
42
28
20
26
42
38
14
40
74
92
74
32
6
16
36
36
68
255
255
255
255
238
24
58
40
32
42
24
10
10
18
28
22
10
8
24
62
34
114
255
255
255
255
255
134
16
70
60
34
10
12
32
56
56
50
56
74
96
90
182
220
255
255
232
88
90
90
86
68
42
12
50
76
62
92
92
92
108
70
50
56
68
64
54
44
80
110
110
56
44
132
164
172
176
142
114
80
170
190
160
126
120
128
138
134
86
108
130
116
86
96
62
62
92
100
122
138
144
110
90
42
76
86
90
84
80
92
92
88
66
36
4
38
56
50
74
110
124
255
255
255
255
255
210
48
28
26
12
16
20
16
8
12
12
10
6
8
4
6
2
4
6
4
8
18
30
42
44
26
22
14
4
8
10
20
14
10
24
16
4
14
46
76
76
62
42
28
38
68
104
110
112
108
126
192
232
244
238
214
174
122
74
48
30
20
26
44
36
52
140
176
100
102
122
118
72
34
16
6
4
8
10
20
30
34
16
12
22
8
30
42
28
14
6
12
20
16
16
12
8
20
20
20
24
30
18
20
28
32
16
12
10
10
6
6
0
12
14
8
20
16
10
8
10
12
2
16
18
8
8
6
8
10
46
90
96
64
58
40
32
60
142
190
170
130
90
74
74
58
50
46
48
60
70
76
66
40
30
38
48
56
62
96
166
206
144
64
196
138
222
158
104
220
198
92
16
8
22
20
32
38
48
70
92
144
222
255
255
248
158
98
76
72
30
74
102
84
52
64
112
110
74
72
58
28
20
34
32
22
22
20
22
34
46
62
46
24
28
36
18
16
44
52
42
24
6
12
24
20
6
28
34
36
52
74
78
52
30
20
10
44
108
156
154
110
48
20
12
24
42
62
84
92
60
12
36
78
94
72
46
44
52
70
78
86
104
130
150
142
110
76
52
34
24
30
32
36
38
24
8
12
6
10
26
36
26
6
10
2
26
36
28
16
16
24
24
14
22
22
12
4
10
12
4
0
8
26
42
46
50
46
32
24
16
12
8
6
12
14
16
14
22
22
16
12
10
16
26
36
48
44
36
26
12
6
4
2
2
8
8
12
14
16
36
54
50
18
32
60
50
30
38
34
38
80
88
32
78
178
226
210
134
50
28
42
60
78
102
96
190
255
255
255
255
234
114
34
110
168
182
182
176
174
172
162
144
126
110
90
76
64
62
64
52
34
20
24
34
28
24
6
16
20
12
4
116
255
255
255
86
80
44
20
18
8
10
4
4
4
4
0
12
20
14
20
20
18
12
4
4
4
6
12
12
6
2
6
8
10
12
12
4
6
14
26
32
24
22
30
46
54
62
72
68
76
94
122
164
190
204
198
166
134
114
110
116
124
124
112
102
104
100
98
110
70
50
208
255
255
255
254
132
48
8
14
12
18
22
18
16
22
24
24
18
10
6
6
18
30
38
34
24
22
40
56
48
22
44
74
84
74
48
34
40
32
32
90
120
255
255
255
255
152
44
24
34
54
44
16
14
18
6
22
22
26
36
44
136
255
255
255
255
255
112
30
54
52
28
10
10
20
54
82
90
92
84
66
68
118
156
92
120
255
255
255
210
142
94
56
52
68
104
118
106
110
136
172
198
162
108
96
48
38
70
94
104
92
70
42
24
56
78
120
188
208
130
18
110
162
168
138
96
50
32
46
26
48
70
42
18
70
80
94
94
60
84
84
88
86
60
12
34
56
66
68
82
90
78
46
74
106
106
86
54
42
74
92
54
68
255
255
255
255
255
212
44
18
28
36
28
12
6
6
10
10
6
12
22
22
16
8
10
12
8
2
16
34
48
42
22
10
2
4
12
10
2
20
32
20
10
22
46
60
54
50
48
44
44
52
116
168
178
120
28
52
102
122
140
160
168
142
96
62
30
18
30
24
14
28
66
102
88
20
62
98
82
42
18
8
6
10
16
18
16
30
24
6
20
12
34
32
10
10
18
8
6
2
6
12
16
12
12
14
20
28
18
26
28
26
10
14
10
6
4
8
6
10
12
2
20
24
22
14
6
8
16
20
16
6
6
8
10
12
38
82
88
54
26
24
40
78
128
180
180
146
108
90
92
86
88
80
68
64
58
60
62
46
42
48
58
68
78
112
168
198
156
78
162
160
188
82
110
216
166
86
28
18
28
30
42
46
50
76
118
196
255
255
255
226
128
68
58
70
36
88
100
56
22
82
108
96
58
28
38
40
24
8
22
30
26
14
4
4
18
28
34
22
44
40
42
28
34
42
38
24
6
8
18
28
30
20
24
6
28
64
66
28
16
36
38
58
100
136
142
116
62
18
6
14
30
52
76
88
68
38
50
82
104
98
78
52
30
22
30
62
110
154
170
144
96
68
54
42
38
36
32
36
38
26
12
12
14
10
22
32
32
14
10
2
26
36
28
16
8
22
26
22
12
12
12
8
10
10
4
0
8
26
44
50
48
38
24
16
10
10
8
8
12
6
2
4
12
16
20
22
18
18
28
40
54
52
36
20
6
6
8
6
6
8
8
10
10
4
20
46
62
56
28
46
78
58
50
60
42
34
80
90
56
104
228
255
255
218
142
66
66
134
240
255
255
255
255
254
138
36
50
112
146
140
118
104
100
104
102
102
106
108
102
80
58
46
50
56
44
26
20
34
44
34
44
38
26
32
30
24
116
255
255
255
84
78
38
22
16
6
12
10
6
4
4
6
12
14
6
8
14
18
16
8
4
2
4
6
2
4
6
8
4
4
12
18
12
10
14
26
34
30
38
50
62
64
66
72
74
92
120
154
188
200
202
178
130
98
90
110
140
150
138
120
106
100
86
74
70
32
48
226
255
255
255
232
124
48
24
14
10
22
24
16
14
20
22
22
22
20
18
20
28
34
40
42
42
50
78
98
78
64
76
88
82
54
42
38
32
18
52
98
42
232
255
255
255
255
118
34
38
54
48
36
6
22
18
4
36
48
36
150
255
255
255
255
255
98
18
22
24
26
34
22
30
64
94
102
92
76
58
52
60
90
196
238
152
124
202
255
255
255
204
146
98
80
96
98
84
72
98
158
190
170
176
204
184
140
92
56
76
86
88
58
40
44
52
62
118
200
176
60
178
246
250
222
180
140
128
136
104
118
144
126
68
82
88
86
70
18
30
22
24
44
64
56
32
16
4
34
52
50
26
26
92
122
132
116
52
16
56
68
66
50
50
255
255
255
255
255
216
56
28
52
46
28
16
14
14
6
12
32
38
30
32
22
24
20
22
18
10
6
24
32
22
12
4
4
6
4
12
26
30
14
8
16
30
56
62
62
76
66
50
38
56
124
174
174
122
116
160
152
122
102
94
102
84
68
40
38
40
22
10
14
24
54
76
52
20
80
84
54
26
10
12
14
10
0
14
22
16
6
8
12
20
24
20
6
14
20
18
20
22
18
4
14
24
30
30
32
26
24
12
26
22
6
10
14
8
10
4
8
16
14
20
24
24
22
16
14
12
10
4
4
2
8
16
24
58
88
78
54
38
32
52
92
120
160
168
142
108
82
74
72
86
88
78
70
54
42
44
38
38
44
64
84
104
144
196
228
210
158
130
148
104
76
166
220
150
72
32
36
36
44
68
86
96
134
196
255
255
255
255
182
98
52
38
44
40
88
84
26
48
90
98
86
64
48
44
36
28
24
40
30
18
20
26
26
36
46
48
38
48
40
46
54
50
40
28
34
14
10
24
30
18
8
26
26
36
78
96
72
34
34
64
82
106
142
172
164
100
26
0
2
8
20
44
64
54
42
50
74
96
94
76
54
46
54
68
96
132
156
160
134
94
64
58
54
38
28
24
32
36
26
12
6
12
20
28
24
26
20
10
10
30
36
24
20
10
8
14
16
8
10
20
20
24
24
12
4
10
32
50
50
40
28
22
16
8
10
10
12
10
4
10
16
14
2
14
26
24
20
28
40
54
52
38
20
8
8
6
6
8
4
8
16
22
20
6
20
56
82
66
4
74
82
72
74
92
82
76
98
114
116
158
255
255
255
255
214
214
255
255
255
255
255
202
66
30
66
78
82
78
58
52
62
72
78
76
90
106
106
96
64
34
26
34
42
32
20
24
36
40
28
36
42
38
44
38
28
108
255
255
255
94
98
56
24
14
14
22
12
4
8
8
8
6
14
14
8
10
22
24
14
8
4
4
6
4
8
8
8
6
10
12
12
4
2
10
26
38
46
56
60
64
70
80
98
110
128
154
180
202
210
210
180
132
112
120
150
174
164
138
114
96
82
58
40
36
16
48
234
255
255
255
218
108
36
36
30
16
16
16
14
14
14
24
28
26
18
10
18
32
50
70
80
82
86
96
86
34
50
92
100
72
32
10
2
12
34
66
72
42
110
255
255
255
255
255
60
38
42
24
32
28
4
14
20
38
8
118
255
255
255
255
255
120
12
22
18
10
22
32
44
62
76
84
80
70
58
40
24
36
76
140
206
224
174
102
86
78
96
94
76
52
14
34
74
86
78
88
118
126
84
2
94
176
240
255
255
255
248
170
64
28
64
40
42
104
160
170
92
186
228
228
204
154
116
112
78
48
74
92
80
42
32
64
94
92
52
12
22
32
52
74
74
60
48
42
42
40
32
34
58
64
28
28
58
46
8
40
40
36
56
40
72
255
255
255
255
255
198
40
34
24
22
28
16
8
6
26
38
26
22
32
38
22
6
16
22
24
20
12
18
14
10
6
14
14
12
10
18
24
16
16
22
36
50
64
86
84
60
56
78
112
144
144
104
42
36
90
98
74
94
112
96
64
52
56
50
30
4
16
10
14
42
86
76
32
82
100
58
20
4
10
14
12
14
12
18
14
8
10
10
6
12
18
18
8
2
6
10
10
6
12
14
14
22
16
12
10
14
14
16
12
4
6
12
8
10
6
14
16
8
8
14
16
16
10
12
10
2
12
14
16
14
8
8
42
86
98
66
46
62
90
122
136
138
138
128
100
66
40
30
48
58
58
60
50
32
24
18
16
34
74
112
150
204
255
255
255
202
126
112
114
124
164
182
120
60
42
62
58
80
132
176
206
255
255
255
255
255
222
146
88
56
42
20
36
74
52
10
74
100
92
72
48
30
20
16
20
18
20
12
20
28
24
20
18
20
30
34
34
30
36
38
42
20
26
56
42
2
36
48
42
28
24
8
14
38
58
68
70
28
62
80
96
150
234
255
186
56
0
10
26
34
48
56
60
58
64
82
98
90
60
24
16
28
38
68
100
120
152
150
112
76
64
38
38
36
28
30
32
34
26
12
10
26
28
24
18
12
14
20
32
34
22
18
20
20
28
22
12
4
6
18
34
44
30
12
20
44
58
50
38
26
18
18
12
12
12
12
4
8
10
6
4
12
12
16
20
20
28
40
64
66
40
10
6
10
24
22
12
6
12
8
10
18
28
20
22
74
88
42
56
94
104
140
168
186
184
190
172
144
130
172
255
255
255
255
255
255
255
255
252
96
6
46
48
34
28
42
56
58
72
84
90
98
108
130
132
112
86
42
22
14
16
24
18
14
22
28
30
20
18
20
22
24
18
10
118
255
255
255
94
98
64
18
12
14
16
2
16
16
12
10
2
8
16
16
4
16
22
14
8
6
8
8
6
8
10
8
6
6
6
12
10
8
14
32
46
54
58
54
60
76
98
130
150
170
194
212
228
230
222
186
140
130
144
174
186
160
122
88
66
48
24
12
18
10
54
255
255
255
255
196
84
20
32
28
24
22
12
14
10
8
20
30
32
32
26
24
50
78
96
96
92
86
68
24
42
98
116
96
66
44
34
34
38
46
56
50
42
26
200
255
255
255
255
148
38
42
16
26
34
14
34
28
12
104
255
255
255
255
255
116
10
26
10
22
28
48
60
66
68
68
66
58
48
32
8
24
54
78
84
86
132
178
202
212
210
170
126
88
62
46
54
94
120
132
156
200
242
250
214
136
34
92
184
255
255
255
255
214
78
30
56
60
98
144
158
116
134
144
200
184
96
4
34
22
22
58
70
52
32
36
52
50
48
48
54
60
62
80
98
100
92
88
86
90
96
92
76
58
18
48
66
50
44
30
34
44
46
50
48
34
80
255
255
255
255
255
160
42
12
18
34
20
4
16
30
26
6
22
22
34
36
18
2
14
24
30
16
20
16
6
8
22
18
22
20
22
22
16
20
26
40
62
86
106
104
92
112
158
210
248
244
206
158
152
198
218
192
138
110
100
64
28
52
76
64
28
22
4
28
32
98
104
30
72
108
68
20
4
8
10
6
12
18
18
14
8
6
2
2
8
10
12
16
16
14
10
10
6
6
20
28
22
10
6
2
16
28
30
22
8
18
18
6
4
10
12
8
10
10
4
10
16
10
10
12
12
22
16
26
22
14
32
58
66
82
86
64
82
100
118
126
124
110
110
96
70
50
52
64
66
58
54
54
40
28
24
36
80
146
200
238
255
255
255
255
180
86
100
106
128
164
178
138
80
98
106
104
142
208
254
255
255
255
255
255
210
162
110
66
48
40
26
40
54
36
34
76
84
66
42
18
4
8
16
10
10
20
22
28
18
16
30
28
12
24
24
20
12
18
8
24
44
24
50
52
22
24
46
46
34
14
16
40
64
84
108
94
28
78
82
60
94
206
255
244
84
0
22
44
42
44
36
54
66
66
74
98
120
124
100
70
54
46
62
88
110
136
150
136
90
46
26
44
58
50
30
24
30
32
30
26
20
22
24
24
24
28
28
32
24
20
20
24
34
34
26
14
8
16
22
22
44
44
26
34
58
66
54
44
32
20
20
18
14
12
8
4
8
16
16
14
12
6
6
12
16
26
46
74
70
38
10
8
30
38
18
22
14
6
6
4
6
26
42
16
42
82
76
42
82
136
138
152
136
138
114
84
68
74
72
134
226
255
255
255
255
255
160
2
76
74
34
6
32
28
40
70
86
100
100
100
104
116
134
124
92
56
20
20
10
8
18
16
14
16
18
24
20
12
14
10
6
2
0
104
255
255
255
88
84
52
10
16
22
28
20
20
6
8
12
14
16
14
24
20
18
22
12
6
10
18
18
6
2
6
6
4
4
6
8
8
20
30
40
46
48
52
54
70
94
124
162
186
212
236
250
255
246
226
182
132
116
128
168
180
140
88
48
26
12
14
10
14
6
96
255
255
255
255
166
64
8
28
26
20
18
16
14
8
6
14
24
26
30
32
46
74
86
76
56
46
34
6
42
88
114
110
88
70
54
38
30
28
32
34
26
30
36
62
255
255
255
255
255
58
34
38
44
38
0
28
10
86
255
255
255
255
255
114
32
42
44
26
46
58
62
58
58
62
66
66
56
30
6
38
48
40
24
12
16
36
66
92
108
100
76
56
46
44
48
56
56
68
72
78
100
142
190
240
255
255
250
200
120
116
114
202
220
180
126
90
40
82
146
170
152
80
68
194
255
240
142
42
12
38
62
88
108
104
124
130
122
112
106
90
74
68
78
102
114
120
126
126
122
118
112
106
94
80
64
64
86
108
100
36
52
118
136
108
82
48
74
255
255
255
255
255
120
36
44
40
22
2
22
26
12
18
32
22
20
24
18
10
8
12
22
16
8
10
6
6
16
10
18
18
18
12
6
16
28
42
62
88
136
174
188
204
226
255
255
255
230
184
188
200
222
236
222
176
98
36
4
30
72
76
42
10
8
26
8
76
110
64
76
92
72
30
10
12
10
24
22
22
20
12
10
14
14
8
12
8
2
10
16
20
12
8
6
8
6
10
26
26
28
16
18
22
12
20
20
18
14
14
14
6
4
2
6
4
6
10
16
16
16
16
18
24
8
24
22
14
44
62
68
72
80
88
80
70
70
80
92
94
98
100
94
84
68
70
78
80
84
80
68
56
70
118
196
255
255
255
255
255
255
206
124
98
132
132
180
174
134
146
132
170
166
168
204
250
255
255
255
224
178
144
130
116
74
20
16
24
24
38
58
42
22
56
92
94
64
28
6
2
24
36
34
32
30
14
16
36
36
8
30
36
14
20
10
28
26
28
40
28
52
50
24
10
20
12
18
26
24
28
52
80
116
106
52
116
110
36
20
92
220
218
84
0
28
46
34
32
26
34
56
56
46
52
76
110
122
106
86
64
90
118
134
144
144
132
94
52
26
32
56
60
38
18
12
16
30
44
46
34
20
10
18
32
34
26
8
22
28
26
14
4
22
20
0
16
24
8
16
36
38
42
62
66
58
50
36
24
26
22
14
10
6
4
8
14
14
10
8
4
6
8
12
26
52
74
62
30
10
12
28
20
8
22
16
2
6
6
12
10
32
30
16
56
92
66
38
168
242
226
158
114
120
94
116
142
106
50
90
156
216
220
162
70
14
48
34
20
24
18
22
52
66
74
76
80
74
64
54
58
72
66
40
12
10
12
10
18
28
20
12
18
24
26
28
20
24
22
14
6
4
110
255
255
255
100
98
60
22
16
10
20
14
8
10
18
16
16
14
8
18
20
20
20
6
8
10
18
24
14
12
16
12
8
8
10
12
16
32
38
42
46
48
56
66
94
132
172
210
230
248
255
254
246
224
200
160
120
110
130
168
156
92
42
14
2
4
8
10
12
14
142
255
255
255
255
142
44
6
34
32
22
20
16
10
8
10
10
14
18
24
42
64
74
60
30
38
58
64
60
94
114
112
94
76
64
44
24
18
16
18
16
12
20
54
50
114
255
255
255
255
212
36
48
64
48
12
40
54
232
255
255
255
255
144
36
68
32
28
26
60
74
68
56
54
60
66
68
58
22
28
44
30
12
20
30
40
42
50
50
38
22
10
8
18
32
42
40
22
18
16
8
4
22
60
126
206
255
255
255
255
255
208
136
66
104
122
124
92
34
26
70
90
70
8
98
214
255
214
96
18
42
42
46
72
102
112
104
88
70
52
28
26
22
8
14
28
42
54
62
62
54
50
56
70
86
92
114
110
112
124
84
100
100
156
146
106
72
40
96
255
255
255
255
255
62
70
54
12
10
18
18
12
28
30
16
18
26
24
12
4
4
10
12
8
12
8
6
18
22
26
20
18
18
22
42
52
44
52
96
172
230
242
240
244
255
255
238
190
182
196
200
214
252
255
255
196
78
24
28
60
80
58
28
14
18
24
58
88
74
62
58
78
52
20
8
16
30
20
16
6
10
16
16
16
16
14
8
12
14
12
16
12
12
8
6
10
30
36
22
30
18
6
26
20
16
18
20
12
8
18
14
4
4
8
12
20
24
28
24
20
14
20
28
18
22
10
10
34
44
58
76
86
82
68
72
80
94
104
100
100
100
100
100
88
88
96
100
104
100
88
76
118
186
255
255
255
255
252
212
188
144
76
78
138
172
162
124
118
150
210
222
210
204
220
246
248
220
176
124
90
86
100
96
60
20
42
36
18
28
48
34
8
48
78
90
70
36
14
16
36
38
28
18
24
18
30
34
18
16
44
36
18
32
20
6
14
8
30
38
48
32
16
36
40
28
12
12
28
40
52
82
118
106
44
118
120
42
76
190
255
230
82
0
28
44
28
18
18
40
60
54
30
16
22
54
86
98
100
90
116
138
152
154
130
90
98
78
50
34
48
58
48
28
10
2
12
36
52
50
42
36
30
26
24
10
12
22
20
22
22
38
34
10
12
8
20
24
30
38
44
54
62
56
46
36
24
18
22
16
10
8
6
6
4
8
8
4
4
6
8
8
10
22
48
74
74
42
6
6
14
20
20
28
22
12
14
14
6
6
14
34
42
30
54
92
44
76
176
202
178
144
118
98
86
102
118
102
94
92
74
36
56
44
32
30
54
56
40
14
54
70
62
50
52
78
82
74
76
94
112
102
64
26
16
4
12
22
24
10
4
18
30
34
32
24
18
26
22
12
6
104
255
255
255
88
90
56
32
34
18
16
12
14
12
8
6
6
6
4
6
4
4
6
4
6
8
12
14
14
14
12
4
6
12
14
12
16
32
40
52
64
66
74
96
144
200
244
255
255
255
238
214
200
180
162
140
122
128
146
152
104
36
8
2
4
4
2
8
6
26
170
255
255
255
255
110
18
10
30
28
20
24
24
20
20
18
14
18
26
36
50
56
54
52
40
36
48
60
96
122
126
106
78
54
38
30
28
20
18
16
12
8
20
54
60
56
232
255
255
255
255
150
14
60
40
20
44
186
255
255
255
255
144
12
50
36
4
12
12
52
76
74
66
62
60
56
56
56
30
68
58
16
18
26
26
38
26
20
36
36
20
20
24
36
48
42
24
6
12
12
14
14
30
42
56
64
84
116
148
170
170
152
122
94
82
64
28
70
136
154
132
90
40
30
16
68
162
180
112
2
76
76
66
68
56
44
40
56
74
90
108
114
122
128
122
114
108
104
106
108
96
72
48
24
10
8
22
26
72
114
114
82
38
60
106
98
50
54
42
130
255
255
255
255
146
62
58
22
10
8
20
16
28
20
6
6
18
24
12
8
10
2
12
18
20
10
8
12
10
10
4
10
16
24
48
54
38
52
108
188
230
224
220
234
252
234
184
120
142
184
218
242
255
255
255
255
158
52
34
48
78
74
54
26
8
22
34
60
62
26
38
84
78
36
6
20
18
0
6
10
6
4
12
10
12
20
24
24
16
16
16
14
10
6
4
6
20
26
24
38
36
20
30
22
12
14
22
20
10
16
12
4
6
22
42
64
82
84
84
66
34
14
38
40
30
10
6
34
62
78
72
64
68
70
78
88
106
124
122
118
112
104
94
74
68
76
86
102
110
102
98
148
212
255
255
255
188
140
140
150
114
34
56
120
172
218
216
182
232
246
242
218
192
196
230
240
206
154
110
94
96
102
84
46
12
16
18
16
34
62
70
28
46
82
98
74
44
26
16
20
24
24
22
26
22
26
30
20
10
34
22
8
30
30
12
14
4
10
18
26
28
24
32
18
20
20
16
36
56
74
100
120
94
22
88
102
92
106
168
216
172
60
0
24
44
44
42
40
48
58
56
36
14
8
26
46
58
82
106
114
114
104
102
102
112
114
100
78
54
50
52
52
42
20
0
6
10
32
44
44
46
46
48
38
12
12
18
10
20
32
26
4
14
10
6
14
24
38
54
64
68
60
38
46
42
26
12
12
6
4
4
4
4
0
4
4
0
0
4
10
12
18
34
50
56
68
54
28
12
10
8
14
26
26
22
18
14
18
12
12
30
78
88
26
60
96
138
182
162
138
146
182
228
254
255
222
162
98
46
8
18
30
24
14
10
10
12
22
32
50
54
40
22
44
76
90
82
76
82
96
98
76
40
10
12
14
6
14
14
12
16
28
38
38
26
8
10
14
10
6
102
255
255
255
76
80
52
24
32
24
24
22
12
6
6
10
6
6
6
8
8
8
10
4
2
8
8
4
4
4
0
12
26
26
18
14
20
38
52
70
80
76
92
138
206
255
255
255
255
232
198
174
170
158
152
142
128
126
116
92
46
8
0
2
6
2
4
6
0
48
210
255
255
255
240
64
4
6
24
32
22
26
18
12
14
16
18
26
32
38
40
42
54
54
40
28
40
76
98
106
94
72
52
34
24
20
26
28
20
12
10
12
24
36
40
32
76
255
255
255
255
255
58
68
26
52
126
255
255
255
255
176
40
58
26
22
20
14
24
54
72
68
66
62
50
40
42
44
12
56
62
26
14
32
44
44
28
20
26
38
48
48
44
46
46
30
12
4
8
8
12
18
30
26
24
32
48
64
70
44
26
60
86
112
132
150
148
94
90
92
114
94
52
10
54
100
182
194
98
60
126
106
88
112
116
104
100
114
120
112
118
122
136
146
156
154
148
136
132
126
106
100
94
74
56
56
72
88
104
102
74
108
100
108
138
104
22
38
18
72
198
255
255
255
255
66
26
24
24
8
14
18
20
8
0
2
16
28
18
10
8
10
20
18
16
18
10
6
2
4
6
14
20
22
38
30
12
38
106
192
232
224
216
214
206
162
104
68
98
142
186
218
255
255
255
255
255
132
44
30
50
66
68
42
10
16
16
34
54
48
16
64
82
48
10
28
20
16
12
8
30
38
28
18
12
22
22
20
22
22
22
14
6
6
8
8
18
26
26
34
28
12
24
20
10
4
16
22
20
18
14
8
10
24
42
56
64
54
68
70
52
40
34
34
40
22
2
16
54
92
96
82
74
70
76
82
98
118
120
120
124
130
134
122
108
96
88
102
122
130
152
208
255
255
236
176
118
98
112
114
62
48
72
102
152
206
238
210
220
230
220
190
190
156
198
202
156
108
86
90
94
86
62
32
12
16
40
42
70
122
134
96
112
142
132
74
34
16
6
12
20
22
24
16
8
24
34
28
18
54
64
44
48
42
26
30
42
42
38
40
36
16
12
2
6
12
14
32
52
76
104
114
76
10
104
136
94
70
124
182
156
54
0
16
30
38
46
52
62
66
56
36
20
20
48
76
96
118
118
106
122
130
136
120
110
108
104
92
70
52
42
44
42
28
10
14
14
12
20
26
32
32
36
38
24
12
4
12
22
20
30
22
16
4
8
14
24
40
56
62
60
48
28
32
38
32
22
12
4
4
4
4
4
0
4
4
0
0
6
16
20
28
38
42
46
58
52
36
22
12
6
16
22
14
8
10
34
36
22
32
32
46
92
74
28
96
190
255
255
255
255
255
255
255
226
172
108
46
30
16
4
38
64
58
40
32
16
18
36
54
50
28
20
40
74
102
116
128
124
96
56
56
48
20
14
4
4
4
4
12
24
28
28
36
34
24
12
8
8
8
106
255
255
255
78
82
54
8
16
8
8
8
6
8
6
6
4
4
4
4
6
2
4
6
8
10
6
6
8
8
12
28
40
32
24
22
36
60
74
88
92
90
126
192
255
255
255
255
218
190
172
166
174
170
166
148
116
86
52
26
8
0
0
2
8
4
6
4
12
96
255
255
255
255
178
28
0
16
24
40
32
20
8
14
22
18
20
28
28
24
30
44
50
44
32
28
56
72
70
62
44
32
30
28
28
28
28
26
22
12
8
14
22
16
24
32
62
90
255
255
255
255
180
40
56
78
242
255
255
255
255
66
36
42
22
30
16
20
52
68
64
54
54
44
28
24
26
56
40
72
72
46
20
10
12
8
8
10
22
42
48
42
38
34
28
16
10
6
10
8
16
22
30
18
14
32
46
40
28
2
26
34
42
56
58
70
148
216
224
174
128
100
70
58
74
118
150
116
116
104
108
58
18
40
56
54
48
50
44
36
42
60
70
66
68
72
68
54
34
28
28
42
54
50
38
32
36
32
26
34
70
104
114
118
116
70
6
32
30
56
86
255
255
255
255
204
50
14
30
18
8
12
8
4
0
0
8
20
16
4
0
12
22
14
4
6
10
4
6
14
20
28
22
12
46
54
44
54
108
210
255
255
226
182
140
88
50
50
76
102
128
150
200
255
255
255
255
244
110
38
36
36
62
50
24
14
4
8
44
66
38
60
84
58
14
32
26
18
16
46
66
54
48
38
22
12
2
8
20
26
20
8
2
6
16
14
6
16
16
30
30
16
12
12
12
8
2
12
16
18
12
10
16
36
60
80
84
62
62
70
64
42
12
12
30
22
2
6
28
64
82
78
70
68
78
84
92
100
96
98
112
138
176
200
202
176
136
132
158
190
232
255
255
255
222
166
132
122
104
58
8
44
76
116
136
144
162
160
158
182
166
136
164
126
144
126
74
42
42
56
58
48
36
24
14
20
44
34
106
178
174
140
200
180
110
40
14
14
16
10
12
10
8
6
8
14
28
46
54
58
92
106
122
130
136
138
126
98
66
36
22
12
2
0
2
4
6
32
62
76
112
112
56
36
114
120
60
70
140
206
182
66
0
10
14
18
30
38
50
64
58
36
26
32
60
92
132
170
152
98
74
124
138
98
62
64
80
84
72
52
36
34
32
26
20
10
6
10
22
34
44
42
34
20
6
18
26
20
10
8
18
22
20
8
6
10
22
36
42
42
40
38
36
38
36
30
24
16
8
6
4
4
6
2
4
6
4
4
12
22
24
28
26
28
46
52
46
30
18
10
12
22
14
12
24
42
52
34
26
48
56
24
48
54
62
78
140
200
236
250
232
182
124
68
34
34
26
20
20
22
10
46
70
64
62
78
60
32
60
84
84
72
88
140
208
255
255
248
184
116
52
24
52
36
14
8
6
30
44
38
26
20
20
20
18
18
18
6
8
12
104
255
255
255
80
80
56
4
12
6
10
8
2
6
8
4
2
4
4
2
4
6
2
4
6
10
12
12
12
12
16
30
36
28
28
38
62
86
90
98
108
128
186
255
255
255
255
230
178
160
160
166
184
182
158
118
72
36
12
2
0
0
0
4
10
6
8
2
30
148
255
255
255
255
148
32
6
20
18
38
38
20
4
6
18
24
22
22
12
12
30
50
62
52
34
46
60
58
48
36
24
26
38
40
34
30
28
18
18
24
22
22
24
14
18
26
76
24
198
255
255
255
255
144
54
132
255
255
255
255
110
6
18
6
32
30
16
66
82
76
62
50
54
34
6
4
10
36
44
66
56
30
6
6
8
14
12
22
44
56
54
48
42
30
20
12
12
10
12
16
10
12
28
14
8
20
18
6
14
32
40
30
22
20
22
16
58
148
218
240
216
166
108
106
114
118
94
50
74
70
48
16
18
20
16
8
2
12
22
26
30
30
28
24
22
30
36
38
30
24
26
28
24
20
18
8
6
14
20
26
36
50
60
66
50
18
20
18
34
52
36
228
255
255
255
255
100
18
42
24
6
12
12
8
4
2
8
14
12
4
0
8
22
26
22
12
8
4
8
20
24
20
10
0
26
30
30
78
156
238
255
255
210
158
118
78
52
48
66
80
96
114
152
220
255
255
255
255
202
74
38
32
38
42
34
24
18
10
24
54
42
54
68
54
18
12
16
14
26
54
52
16
34
34
22
18
16
18
18
24
28
18
16
16
24
26
28
32
24
32
36
30
18
2
8
12
10
8
4
6
4
2
8
24
48
80
102
98
76
72
52
26
14
20
26
20
6
4
30
54
64
62
58
62
78
92
100
96
76
68
78
96
132
174
212
224
200
206
220
238
255
255
255
220
160
126
124
122
78
20
30
22
48
90
104
98
94
98
126
146
122
90
118
106
100
86
50
26
26
38
40
36
28
16
12
22
36
24
126
198
124
78
224
198
62
30
28
12
20
30
30
24
26
14
18
34
48
66
72
76
96
132
184
236
255
255
255
250
174
90
38
18
6
4
4
6
8
16
62
112
134
104
34
44
96
94
60
58
124
200
188
72
0
8
8
8
26
42
56
64
52
38
48
74
112
150
184
186
122
50
14
72
128
110
66
68
76
74
66
60
46
38
30
22
18
14
10
8
16
30
40
38
26
14
14
10
14
30
22
18
18
22
24
14
10
8
24
40
42
40
36
44
46
42
38
30
22
16
8
4
2
2
8
8
2
2
4
8
16
20
20
22
20
24
34
42
46
36
18
2
14
12
4
22
34
38
32
14
14
32
48
38
48
38
54
100
136
162
168
136
80
18
26
44
34
50
48
30
12
44
82
96
70
24
20
52
86
142
194
224
230
224
236
255
255
255
220
132
108
92
58
6
44
46
20
12
20
38
34
18
14
10
26
22
6
6
18
16
20
22
104
255
255
255
78
84
60
8
18
8
8
4
4
6
2
6
8
4
2
4
4
6
4
0
2
8
14
12
8
8
12
24
30
30
40
56
80
98
100
116
148
196
255
255
255
255
255
210
166
154
156
164
182
160
106
58
20
2
2
0
0
0
0
4
10
6
10
0
48
186
255
255
255
255
148
34
12
14
18
34
36
22
6
14
22
22
24
24
16
12
20
38
60
60
42
54
56
54
48
38
34
42
52
44
24
14
10
4
8
20
32
44
42
26
10
28
70
48
96
255
255
255
255
255
76
255
255
255
255
158
8
30
24
44
34
6
60
94
92
78
64
48
34
48
38
18
12
22
32
28
16
30
22
2
6
14
32
56
68
64
56
50
40
24
18
18
6
4
6
18
28
42
40
14
10
18
18
8
22
36
42
38
34
32
34
40
44
44
50
88
126
150
142
124
122
98
56
24
6
10
14
8
6
12
12
8
4
4
8
14
30
42
46
44
38
40
38
30
18
10
12
16
16
8
10
10
8
4
2
2
8
12
12
6
10
16
18
2
34
38
22
128
255
255
255
255
138
36
68
20
28
26
30
22
14
8
12
16
12
4
2
6
10
18
22
18
8
2
10
16
16
10
12
6
48
76
94
136
186
230
244
222
194
162
134
98
64
48
52
58
72
94
128
168
238
255
255
255
255
142
40
26
20
20
30
30
24
16
14
28
24
22
54
64
42
14
8
12
26
56
64
42
60
40
8
18
20
16
2
22
32
30
22
18
22
26
24
10
4
6
10
18
22
12
0
8
14
18
18
18
14
12
8
14
20
24
44
54
42
28
20
14
6
12
26
28
20
22
38
60
62
50
44
52
74
100
118
114
80
50
72
80
64
76
120
180
214
228
218
216
208
188
156
104
66
62
84
88
44
40
46
32
64
56
46
56
54
82
114
114
84
66
74
68
76
84
60
48
22
38
46
40
24
12
18
10
32
102
168
144
138
210
255
174
44
44
20
16
34
36
20
14
36
40
34
40
54
72
72
70
94
160
254
255
255
255
255
255
255
230
126
64
28
10
10
2
20
58
108
150
144
90
24
54
96
94
52
42
104
188
184
72
0
8
8
10
32
48
52
54
60
48
76
120
164
192
182
126
44
32
36
54
92
128
108
80
84
70
50
64
62
52
36
26
18
6
10
18
32
44
46
40
28
20
2
26
24
10
20
30
26
24
24
24
14
8
14
34
46
50
52
52
38
24
20
14
12
12
4
0
0
4
4
10
10
8
4
10
14
18
18
26
32
38
42
36
44
42
22
12
20
10
16
20
16
10
12
12
12
12
14
10
16
26
62
114
152
164
160
152
122
70
28
40
52
48
38
40
66
114
140
98
56
94
140
176
234
255
255
255
255
255
255
255
246
136
4
122
174
148
80
22
34
42
28
16
26
38
36
32
20
16
28
14
6
8
18
26
24
18
106
255
255
255
72
86
56
18
22
8
6
2
2
8
8
2
4
10
10
8
8
4
0
4
8
12
12
10
8
10
14
26
36
40
50
62
76
94
118
166
228
255
255
255
255
255
255
226
196
182
178
174
162
104
42
16
2
2
4
0
0
2
4
6
12
6
12
0
60
216
255
255
255
255
146
36
6
14
30
38
32
22
12
14
16
14
18
22
14
6
18
28
26
24
24
34
38
42
40
36
42
48
42
22
8
16
12
14
8
16
20
36
42
30
16
22
46
46
10
178
255
255
255
255
176
255
255
255
248
68
48
14
66
62
24
54
94
100
86
68
54
36
14
20
38
32
34
50
46
32
20
6
22
12
18
40
62
68
60
42
32
28
22
12
10
14
10
6
6
24
38
36
20
10
12
24
34
28
38
40
38
34
32
34
40
38
24
24
18
6
30
72
96
94
74
50
38
40
34
22
6
6
12
10
8
10
10
10
6
8
14
24
32
34
34
24
22
14
10
8
12
20
22
16
10
6
8
14
10
12
6
16
24
14
20
14
10
6
30
36
20
44
222
255
255
255
180
40
88
16
48
28
26
26
18
14
14
16
12
4
8
10
6
10
14
14
10
8
12
10
16
12
8
38
70
78
78
104
140
186
216
220
210
172
128
80
44
36
38
36
42
62
96
128
184
255
255
255
255
186
76
20
10
0
14
20
18
12
8
14
20
16
28
48
46
28
14
18
16
36
54
46
36
10
14
12
8
10
14
14
22
22
22
14
8
6
8
24
20
12
6
6
16
14
4
4
2
8
14
14
12
10
10
12
14
12
10
14
22
18
12
12
14
10
24
26
16
14
28
48
58
48
40
44
62
92
120
130
104
76
98
72
70
64
116
156
166
150
142
148
134
102
70
40
32
48
70
68
30
38
44
24
34
16
14
16
36
74
80
58
28
36
36
30
54
62
56
66
42
54
56
32
16
16
38
26
72
156
154
34
146
255
236
112
22
20
12
14
24
30
12
22
42
40
30
34
54
76
84
106
168
255
255
255
255
255
255
255
255
255
255
158
76
24
2
12
30
58
106
146
138
94
38
78
108
92
46
48
108
184
176
72
2
8
8
14
44
68
72
66
58
58
76
98
118
122
90
36
18
6
14
38
60
100
120
102
80
54
36
42
52
52
40
24
14
10
12
12
22
32
34
36
32
36
30
16
18
24
18
6
16
24
30
22
10
6
14
26
44
64
64
44
22
10
16
14
12
12
4
0
0
4
4
2
4
6
8
12
14
18
26
34
42
44
38
30
40
46
34
14
28
16
8
12
20
26
30
26
14
12
12
6
14
40
88
134
154
140
128
128
110
78
36
48
68
74
76
78
96
102
46
72
184
224
222
250
255
255
255
255
255
255
250
212
164
114
132
218
212
132
106
60
30
28
28
18
22
34
36
32
24
20
26
20
22
14
26
32
26
18
106
255
255
255
74
90
68
22
20
4
6
6
6
8
12
8
14
20
16
12
12
8
4
6
8
8
6
8
8
14
22
38
54
60
68
72
80
112
166
242
255
255
255
255
255
255
255
238
210
188
172
146
104
42
4
0
4
2
4
0
0
4
6
6
12
6
12
0
74
254
255
255
255
255
128
24
18
20
38
42
34
26
16
10
8
8
10
14
18
28
42
46
42
24
24
20
22
26
26
28
34
28
10
14
30
32
18
22
12
10
8
10
24
22
22
24
20
32
52
66
255
255
255
255
255
255
255
255
100
72
36
36
82
38
44
98
106
84
62
46
34
36
36
12
18
30
60
74
64
64
68
46
26
26
34
58
66
50
32
16
20
30
32
26
32
34
22
18
22
30
24
8
10
6
12
26
32
38
40
34
28
22
24
28
26
20
16
22
26
32
32
26
22
34
34
32
30
28
24
22
20
16
18
16
12
14
14
22
22
20
18
14
14
16
20
16
6
6
14
20
24
32
30
22
20
20
26
36
32
40
38
22
16
6
12
16
14
6
26
34
48
66
124
255
255
255
255
52
82
20
58
18
12
20
12
14
20
20
12
10
18
12
10
14
14
10
10
16
14
4
4
18
40
52
48
42
66
108
146
186
224
242
220
154
88
46
18
8
18
20
20
34
60
84
140
240
255
255
255
210
106
48
22
4
22
28
18
6
2
10
22
28
30
24
30
28
20
18
10
2
14
20
16
18
10
8
18
20
14
2
4
4
10
12
18
26
38
32
12
10
4
6
14
10
4
10
10
8
10
10
12
16
14
4
8
14
16
6
10
18
18
8
8
4
10
18
24
36
48
46
46
54
52
50
56
76
104
126
118
104
104
86
100
96
120
110
76
54
66
84
72
64
52
34
32
48
56
46
12
20
24
6
28
22
8
8
36
52
34
10
18
24
4
14
22
18
8
40
48
58
46
16
16
30
60
50
118
158
80
90
222
224
130
42
10
10
16
6
22
38
22
18
36
40
30
24
44
74
112
188
255
255
255
255
255
226
255
255
255
255
255
255
162
68
18
16
36
56
96
130
142
114
64
108
126
98
56
40
106
196
192
84
8
10
6
16
52
82
88
78
64
50
72
124
160
166
132
78
40
30
30
38
56
96
122
104
66
40
42
54
60
58
44
20
12
16
14
36
58
54
34
10
14
28
42
42
18
12
30
24
30
28
28
18
10
10
26
48
66
72
56
30
18
10
12
14
16
16
6
4
4
6
8
8
6
4
8
14
20
26
32
36
42
38
28
28
48
58
42
18
30
24
8
12
24
24
28
28
16
4
6
8
30
56
96
126
130
116
92
86
86
80
68
58
58
64
72
76
52
38
156
255
255
255
255
255
255
255
255
222
156
110
74
104
144
186
204
160
116
66
108
78
34
24
28
20
14
14
10
20
30
18
18
20
22
20
30
34
32
30
108
255
255
255
88
82
66
8
10
4
2
2
4
6
8
4
10
20
16
14
16
14
12
8
6
8
6
8
8
20
36
56
76
84
96
106
126
176
238
255
255
255
255
255
255
255
232
194
150
112
86
60
34
10
2
4
2
2
2
0
0
4
4
4
10
8
12
2
100
255
255
255
255
234
94
4
30
30
38
40
32
26
22
16
12
14
20
26
32
38
40
32
16
6
26
34
32
28
28
28
20
10
22
28
28
16
6
12
12
8
2
14
26
30
28
24
10
8
62
74
138
255
255
255
255
255
255
130
62
82
76
74
74
38
94
122
96
56
36
30
18
22
34
38
32
38
52
52
40
40
62
66
44
34
42
52
46
30
26
24
18
12
18
14
26
24
22
30
26
20
8
14
22
12
22
20
18
22
26
30
32
32
30
22
12
12
20
30
30
24
16
12
10
18
12
18
26
24
22
22
26
30
26
22
18
14
16
24
30
32
26
18
16
18
22
22
14
6
14
20
22
26
18
10
10
12
20
32
28
32
38
32
22
14
10
12
12
10
6
2
40
94
38
255
255
255
255
52
58
38
52
10
26
26
12
12
20
20
10
22
28
10
22
28
18
8
10
20
16
10
8
24
32
22
28
32
48
98
150
198
255
252
204
126
86
56
34
20
20
22
22
34
46
46
90
202
255
255
255
234
136
82
62
38
30
26
16
8
10
16
20
20
14
10
16
18
12
6
6
12
8
14
20
14
18
26
20
6
8
14
10
4
6
18
30
34
30
10
8
6
8
12
10
10
12
10
12
16
12
12
24
28
18
4
8
12
16
24
18
12
10
2
4
6
14
24
28
28
24
28
42
58
64
64
68
76
92
108
110
90
68
64
76
100
104
82
54
48
60
58
44
48
44
26
18
26
24
30
20
34
28
4
20
20
14
22
34
38
22
14
22
16
8
14
10
16
12
24
32
28
12
12
12
38
50
30
132
164
62
188
238
148
42
48
10
18
18
24
20
18
20
16
22
38
52
50
52
74
144
255
255
255
255
255
228
150
162
255
255
255
255
255
255
132
36
18
32
54
114
150
170
128
72
128
150
120
54
32
92
186
192
94
16
18
6
18
60
80
68
42
26
20
48
94
142
170
162
118
68
40
36
52
74
94
104
106
86
62
44
52
56
54
42
14
6
4
32
60
66
48
28
20
14
18
14
26
22
8
8
18
22
26
32
24
18
26
38
50
54
52
40
24
18
12
8
12
16
18
10
8
8
8
6
4
6
8
8
14
18
20
26
32
36
32
32
42
58
60
40
20
28
34
24
16
10
2
14
18
10
8
10
14
32
60
98
122
122
116
116
132
140
128
108
92
78
62
52
40
48
172
255
255
255
255
255
255
255
255
202
116
58
28
16
20
92
192
255
255
164
30
76
80
48
40
40
28
14
16
26
30
22
10
6
6
4
16
20
20
18
16
104
255
255
255
98
78
60
10
12
8
8
4
2
8
8
6
12
18
10
8
12
14
18
20
20
10
6
10
14
34
56
76
100
116
144
178
214
255
255
255
255
255
255
255
255
222
160
104
54
22
10
2
0
0
4
6
6
6
2
0
0
4
6
8
12
8
12
10
140
255
255
255
255
184
70
6
34
30
30
28
22
22
28
28
24
28
34
36
38
34
22
12
22
42
54
50
40
34
28
18
14
26
34
22
14
12
16
6
10
14
14
14
20
26
22
18
12
16
58
78
62
255
255
255
255
255
200
8
46
72
90
90
80
50
96
96
54
20
20
22
10
40
72
68
40
24
18
26
22
4
22
42
48
34
34
32
34
24
34
34
24
16
8
2
10
12
14
22
32
26
8
10
18
12
26
36
30
18
18
30
34
32
18
6
8
12
22
22
14
10
8
2
10
14
10
12
18
18
16
22
30
28
32
26
16
6
14
26
26
26
30
26
28
32
36
38
32
18
16
20
18
14
8
10
10
10
14
22
14
4
14
18
16
12
20
20
4
18
24
32
40
94
28
234
255
255
255
126
14
34
26
16
28
22
16
22
24
16
6
22
18
12
36
28
8
10
10
22
14
8
6
16
32
34
36
22
40
92
162
242
255
240
176
108
78
52
32
34
30
26
22
38
44
24
44
150
255
255
255
255
180
114
88
66
56
44
14
6
10
12
10
0
6
6
12
14
12
6
6
6
10
10
16
26
34
22
12
20
26
20
16
6
4
18
26
20
10
22
18
6
14
12
4
16
14
10
10
18
16
10
22
42
38
16
4
12
10
22
32
30
20
12
6
12
14
18
22
28
34
36
36
46
58
66
76
76
76
78
84
78
52
34
68
84
80
72
72
76
68
40
44
44
40
20
6
24
36
38
26
26
8
20
46
42
26
22
26
32
16
8
12
8
24
24
22
28
32
28
10
4
10
6
24
34
24
54
98
152
110
220
192
70
30
42
6
14
10
20
28
18
4
10
8
18
46
58
64
100
180
255
255
255
255
232
138
100
104
128
255
255
255
255
255
226
72
12
22
32
110
190
204
136
80
146
170
144
78
44
88
174
174
88
14
20
20
8
62
100
108
86
58
38
30
44
62
92
110
102
68
34
22
42
76
92
104
100
86
72
52
46
44
40
34
16
14
26
46
60
50
26
16
22
28
32
28
24
14
8
14
14
10
22
30
24
22
28
28
28
40
48
44
30
22
14
8
8
12
16
12
8
6
6
4
4
8
10
8
12
12
12
22
32
36
34
44
52
54
50
32
16
16
30
30
26
22
20
28
22
10
8
6
4
22
58
100
126
130
130
132
140
136
118
102
86
60
24
12
78
186
255
255
255
255
255
255
255
234
186
124
68
44
32
26
34
48
156
255
255
222
70
64
64
52
54
54
40
22
30
28
14
12
16
8
12
22
26
22
14
8
4
104
255
255
255
86
78
68
16
10
6
10
10
12
16
10
4
10
20
14
10
8
2
10
22
34
26
10
22
34
62
88
106
134
162
214
255
255
255
255
255
255
255
255
246
196
132
68
26
2
4
6
4
2
0
4
4
2
6
4
0
0
2
4
8
16
8
12
32
194
255
255
255
255
156
64
4
32
30
24
22
20
18
36
44
40
44
48
48
46
36
20
10
12
26
38
38
38
34
18
2
22
38
30
22
22
14
4
28
34
28
26
18
20
28
30
30
18
22
46
64
56
210
255
255
255
216
56
40
14
52
80
58
40
22
40
62
68
60
58
56
38
60
70
40
10
14
8
24
24
14
2
12
24
30
24
26
26
34
28
18
10
16
10
16
10
4
18
24
26
30
22
24
36
26
18
22
20
20
22
18
10
4
12
8
14
22
26
20
14
18
18
14
16
14
6
12
18
12
2
6
10
6
6
14
16
10
10
26
20
4
6
16
24
26
34
46
50
40
28
34
30
18
4
4
2
8
16
24
24
14
6
12
14
16
20
14
6
14
6
16
36
98
36
194
255
255
255
172
44
24
16
24
12
10
14
26
30
28
22
34
36
28
32
16
8
4
14
22
8
4
2
10
20
20
28
34
44
96
174
252
255
216
148
106
82
60
40
36
24
12
0
20
32
16
22
104
254
255
255
255
252
154
92
54
46
48
34
20
10
6
6
10
12
10
16
16
12
8
14
10
6
8
22
30
18
16
22
30
18
12
16
8
6
16
30
28
20
26
10
16
16
8
20
20
16
16
10
14
20
18
8
18
32
22
6
12
12
12
10
16
14
12
8
16
14
12
12
20
22
20
14
18
38
58
74
68
52
48
62
76
66
46
72
72
60
60
70
66
42
38
46
50
50
36
12
10
26
26
14
4
18
40
56
42
26
18
22
32
26
20
30
36
42
38
40
48
46
34
20
16
10
28
48
30
20
64
46
80
150
182
120
42
36
40
14
24
24
20
8
8
12
14
10
4
24
36
48
114
232
255
255
255
240
136
78
60
60
38
130
255
255
255
255
255
132
48
40
34
124
222
234
154
102
178
196
160
92
66
110
180
180
86
6
12
18
12
42
82
98
90
68
48
66
90
108
114
108
90
56
32
32
58
88
96
96
88
88
92
76
60
42
38
44
24
16
30
42
46
32
20
8
16
24
24
20
18
12
8
4
16
20
18
22
26
30
26
20
28
40
56
62
54
40
22
8
10
14
14
16
16
10
4
8
6
8
8
6
12
12
10
20
34
42
42
42
44
40
38
24
8
6
18
22
18
12
12
12
2
8
16
22
24
40
66
108
144
158
162
150
128
86
88
84
64
34
48
120
246
255
255
255
255
255
224
198
166
122
92
58
32
28
28
32
48
50
98
234
255
232
92
32
44
42
50
54
46
34
38
26
10
6
16
22
20
14
16
14
10
2
4
120
255
255
255
110
118
98
38
36
30
34
36
34
32
26
26
30
36
32
28
26
26
30
22
36
40
42
50
66
98
122
134
160
188
238
255
255
255
255
255
255
255
248
182
116
58
18
2
2
2
2
2
2
0
4
6
4
6
4
0
0
0
0
2
12
4
8
68
246
255
255
255
252
128
56
4
32
34
24
16
18
32
50
52
46
50
52
52
44
30
22
26
32
42
40
30
32
22
14
20
30
28
12
18
24
16
28
48
36
34
32
22
18
20
26
32
30
24
26
38
38
92
222
255
242
122
36
22
48
100
98
64
32
14
38
62
74
76
76
72
56
54
42
22
28
28
14
22
22
14
4
4
8
12
22
32
32
24
36
34
18
20
32
26
22
20
32
34
38
44
32
24
42
46
36
36
26
22
18
26
30
26
22
16
20
28
22
12
10
20
20
14
22
24
18
14
20
18
12
18
26
30
22
10
12
8
6
24
30
24
16
14
16
16
26
38
58
58
50
52
48
36
34
26
20
12
10
12
16
16
6
8
14
18
28
32
16
10
22
14
42
102
36
186
255
255
255
166
66
44
26
14
6
10
24
30
34
36
32
44
48
32
12
14
14
14
16
16
2
8
8
18
42
40
34
30
44
92
170
234
234
192
154
112
92
70
46
38
28
22
14
22
18
12
22
72
182
255
255
255
255
214
120
58
34
32
38
38
24
10
4
8
8
6
16
20
14
10
10
18
16
18
20
10
12
28
28
20
8
14
16
4
8
10
22
24
18
10
8
16
18
14
28
16
12
18
14
14
18
22
24
24
28
12
12
22
16
6
18
20
10
4
10
14
8
4
2
8
10
16
18
10
8
38
64
64
40
28
40
62
68
52
62
52
36
30
30
20
10
22
42
56
60
52
34
16
22
28
28
30
36
48
50
30
22
24
22
32
34
36
42
46
44
44
52
58
46
38
38
34
22
46
44
24
50
54
8
90
126
102
48
2
22
28
14
20
28
38
42
30
6
14
16
20
46
64
90
172
255
255
255
255
160
76
44
34
26
10
34
150
255
255
255
255
202
64
44
32
140
248
252
164
104
196
218
170
86
62
124
208
192
88
14
22
20
14
22
54
68
72
62
68
94
104
118
128
126
110
74
50
48
68
94
104
108
108
112
110
86
62
42
30
32
32
24
20
20
32
40
38
32
24
18
12
4
4
8
14
10
12
16
20
30
42
54
48
28
22
24
40
58
62
56
44
22
10
10
10
16
22
18
4
8
4
4
4
4
12
12
10
14
26
40
46
52
50
38
28
14
6
10
20
18
10
4
4
8
12
18
20
22
30
46
82
134
174
194
198
164
104
42
88
130
150
138
168
255
255
255
255
255
255
186
126
92
62
40
32
22
26
34
38
34
36
20
50
164
238
184
72
12
28
24
34
42
42
40
36
16
12
10
6
22
34
36
26
16
10
8
10
136
255
255
255
160
168
148
98
104
100
98
92
80
70
72
78
86
88
76
68
70
74
84
90
104
104
96
94
104
126
140
144
160
166
170
164
164
198
232
255
248
210
152
84
42
20
8
4
4
2
6
8
10
8
4
0
4
4
0
6
8
8
8
6
8
6
16
112
255
255
255
255
204
74
54
22
50
46
38
38
46
56
58
44
36
40
40
38
28
22
22
20
26
48
54
46
30
6
16
26
22
10
4
18
20
6
16
24
12
30
38
32
24
22
28
32
30
24
24
20
20
6
54
134
172
122
70
22
88
94
64
34
16
4
8
18
28
38
46
46
40
36
30
14
16
20
24
36
24
14
8
12
16
18
28
36
34
26
14
22
24
30
30
2
40
62
60
46
36
32
18
8
18
32
30
26
18
14
8
16
20
18
14
18
28
26
18
18
26
36
26
4
10
18
22
20
22
20
12
10
10
20
22
16
20
20
14
16
12
14
12
16
20
20
36
44
50
64
66
68
62
62
60
50
40
32
22
18
14
8
6
8
8
14
24
36
34
16
4
16
54
90
14
194
255
255
255
144
44
20
8
4
14
18
36
36
30
24
14
16
26
26
16
6
4
16
24
20
4
8
8
30
44
28
20
28
50
106
164
214
232
204
166
124
104
82
52
40
28
14
6
12
20
22
36
64
118
220
255
255
255
255
206
108
40
14
18
30
26
16
20
20
26
14
14
14
16
14
8
8
14
12
4
12
24
28
20
10
4
16
20
8
12
8
8
14
12
10
10
12
18
18
20
10
8
14
16
16
16
12
10
16
22
6
18
30
20
20
18
8
6
12
14
8
2
0
0
4
12
18
12
10
12
10
42
58
46
32
28
32
36
32
36
26
14
20
26
26
12
8
36
58
62
54
40
32
44
46
40
34
38
50
48
32
24
30
24
36
42
40
34
28
26
36
50
48
24
26
22
22
30
28
12
56
78
38
42
90
72
24
12
20
18
12
6
6
2
14
28
44
34
16
26
28
42
66
122
226
255
255
255
230
118
58
32
20
6
10
18
40
218
255
255
255
255
94
50
38
166
255
244
148
70
186
226
176
78
34
102
212
220
96
8
12
10
8
16
42
54
66
70
78
84
76
84
90
88
86
66
58
62
68
76
80
90
94
90
74
56
44
46
44
34
20
28
30
30
40
50
54
50
38
32
32
28
16
4
6
8
6
10
20
28
34
52
52
32
22
18
20
32
42
48
54
46
30
16
8
10
16
16
6
4
6
8
8
8
14
12
12
16
24
32
40
48
48
42
38
26
14
10
14
14
10
8
4
2
6
14
12
4
34
90
142
180
204
220
216
160
74
40
42
58
102
202
255
255
255
255
255
226
158
120
80
54
32
16
10
12
34
46
38
28
38
104
208
255
255
236
88
24
36
38
48
50
44
38
36
22
20
20
12
12
24
34
38
32
14
6
10
150
255
255
255
236
242
224
178
174
170
168
160
144
132
130
132
140
146
132
118
122
126
134
144
152
150
140
132
132
142
144
134
128
100
102
184
254
255
255
255
255
255
188
102
56
32
18
8
2
4
4
0
2
2
2
2
2
0
4
10
10
8
10
10
6
14
38
144
255
255
255
255
148
46
60
42
60
54
52
56
58
52
40
26
28
38
36
28
22
24
24
34
62
72
64
46
18
8
20
18
24
22
16
22
18
10
20
40
36
44
46
40
32
34
38
32
24
18
18
10
10
28
42
132
204
176
60
52
86
50
12
24
26
16
14
20
24
24
20
16
14
24
30
40
46
28
8
34
32
16
14
18
20
20
28
30
26
24
24
12
4
12
6
34
70
76
58
32
24
14
10
12
10
16
18
18
16
8
4
2
8
14
18
22
26
22
14
20
28
44
38
16
16
28
28
22
20
18
10
8
4
10
8
2
12
14
14
28
38
38
32
36
38
42
58
60
56
56
60
60
56
66
64
58
48
40
36
30
22
12
4
2
10
18
16
28
36
30
16
26
54
82
14
196
255
255
255
154
68
46
26
18
14
34
42
30
20
22
18
18
22
16
12
16
14
12
14
22
12
2
10
28
34
22
30
56
84
124
156
200
228
204
168
130
108
88
66
46
30
18
16
20
24
34
56
74
92
146
208
255
255
255
248
160
72
26
30
32
14
28
36
28
10
6
16
16
8
16
16
10
6
6
18
20
18
16
14
10
0
16
20
10
20
10
4
4
8
14
10
4
8
8
6
10
6
6
14
16
16
8
4
10
16
8
26
24
10
32
26
16
26
18
10
4
0
0
0
2
12
24
26
16
12
0
20
42
48
44
36
26
18
16
18
10
8
20
26
30
20
22
22
48
56
44
26
34
44
44
40
40
50
62
56
40
28
32
28
44
48
34
18
10
10
22
32
18
16
36
22
10
24
12
64
88
60
6
66
72
46
32
32
24
10
4
12
12
16
20
10
18
30
20
26
20
32
72
156
255
255
255
255
194
110
64
44
24
4
2
30
28
128
255
255
255
255
130
48
44
170
242
214
124
24
160
228
194
84
28
82
194
218
110
18
2
0
2
16
40
54
76
82
78
88
96
114
114
100
80
44
52
54
40
40
96
132
126
100
86
82
66
54
42
22
12
16
24
22
28
40
54
60
48
38
34
34
28
18
6
2
4
2
10
8
16
40
46
36
24
18
24
28
22
32
48
56
52
32
14
10
12
12
4
2
4
8
8
10
18
16
16
18
24
30
36
44
42
34
32
26
16
8
16
26
18
10
10
18
22
30
32
24
64
122
172
208
238
255
240
144
88
78
82
96
188
255
255
255
255
255
168
112
88
78
58
44
36
30
28
28
16
28
94
174
248
255
255
255
255
180
38
48
62
52
48
46
46
40
22
12
12
12
2
14
18
10
22
32
20
22
22
170
255
255
255
255
255
255
218
210
196
190
190
184
176
168
160
162
170
164
152
150
146
150
152
154
158
152
142
140
144
132
102
70
44
78
142
236
255
255
255
255
255
255
255
255
232
168
114
64
22
6
10
10
8
6
4
0
4
6
6
8
8
6
8
4
16
44
162
255
255
255
255
106
10
26
38
60
60
56
50
38
22
10
24
34
50
46
34
32
34
36
46
56
46
34
18
4
16
14
12
22
32
26
20
14
12
10
18
26
36
42
40
32
28
20
8
16
20
16
10
6
14
74
156
206
160
38
74
72
34
30
40
40
18
2
8
8
10
14
16
10
24
26
28
54
54
34
46
38
22
16
16
16
18
28
28
20
14
16
22
24
26
30
46
58
48
26
8
18
12
14
20
28
20
14
14
16
16
16
14
20
26
36
40
34
18
6
6
18
36
28
8
16
26
24
18
18
22
18
20
20
12
20
18
28
26
32
50
50
42
40
54
66
78
84
70
54
42
40
32
34
46
46
44
38
32
30
26
22
20
12
10
18
10
6
16
24
20
16
20
44
74
2
186
255
255
255
168
66
40
20
38
22
28
26
12
12
16
12
10
12
10
4
8
18
24
24
14
12
16
20
32
42
34
70
102
118
138
154
172
198
192
164
128
104
84
74
68
48
28
12
6
12
28
58
78
90
130
174
218
240
226
202
152
92
42
40
34
14
70
108
126
112
56
20
16
10
14
10
10
12
22
24
14
2
12
22
16
2
18
24
10
22
14
8
16
18
16
8
2
4
4
4
4
4
6
12
18
22
18
6
10
18
8
32
44
24
16
22
26
24
10
10
8
4
4
2
4
6
10
18
20
18
16
18
26
34
36
36
34
26
20
16
18
22
22
24
40
38
16
12
36
42
36
14
20
26
38
52
66
74
72
56
34
28
26
28
44
46
30
18
14
10
14
26
18
30
32
4
24
12
42
86
64
24
72
90
64
20
12
16
10
6
16
12
8
10
18
22
28
22
12
16
18
42
102
196
255
255
255
248
160
94
60
48
32
6
6
36
30
90
255
255
255
255
160
62
42
148
206
188
118
10
128
216
210
120
58
94
192
212
106
18
8
10
12
12
34
56
88
104
100
100
104
120
126
126
124
98
64
22
6
30
94
156
158
110
72
66
76
66
32
8
2
8
10
2
2
12
32
54
54
46
34
24
24
26
16
12
14
14
24
28
48
58
50
30
22
28
34
30
26
30
42
54
58
44
30
22
18
14
4
0
0
4
6
10
22
22
22
26
26
32
38
42
44
36
30
24
28
32
24
36
28
12
14
26
24
26
26
22
54
106
166
230
255
255
224
64
108
214
240
255
255
255
255
255
200
108
76
62
42
34
26
20
28
38
40
26
104
246
255
255
255
255
255
255
154
36
52
86
66
40
30
38
52
48
36
24
24
26
26
30
28
22
28
38
34
22
10
162
255
255
255
255
255
212
174
174
168
162
162
168
168
162
152
144
148
150
150
148
140
122
116
114
118
112
108
102
98
78
42
6
34
50
72
124
222
255
255
255
255
255
255
255
255
255
255
255
226
146
86
50
26
12
4
2
2
2
4
6
8
2
6
2
16
62
198
255
255
255
246
86
14
18
36
54
50
38
28
14
8
10
26
46
46
44
34
34
46
56
56
54
50
40
24
8
12
6
10
18
20
24
16
4
10
14
12
10
20
32
34
24
14
8
10
16
20
26
26
18
28
84
144
176
128
24
94
90
40
36
40
46
26
12
20
18
16
16
16
10
18
14
4
30
40
34
42
34
18
10
12
12
16
26
24
12
4
2
10
24
32
34
40
40
28
22
8
6
18
24
34
32
12
10
6
4
8
14
18
20
30
40
36
20
12
10
14
30
40
22
4
18
22
18
16
18
24
20
16
28
28
20
14
20
24
34
46
40
30
36
58
74
82
74
52
34
22
24
18
20
28
28
26
20
14
14
14
12
16
14
14
14
2
12
22
20
8
12
8
36
78
6
200
255
255
255
158
42
28
4
32
34
26
18
8
14
20
18
16
16
12
4
10
24
34
30
24
22
22
34
42
50
56
92
116
126
144
158
168
154
176
172
140
112
88
78
72
58
46
32
18
10
16
48
74
90
134
190
234
242
218
192
158
120
72
36
18
44
106
112
104
138
94
34
4
4
12
14
6
4
12
8
6
6
6
22
24
8
10
26
20
22
14
8
10
10
8
4
4
6
6
8
12
14
8
8
14
20
24
18
16
18
12
20
42
44
26
6
10
2
12
16
8
4
6
6
6
4
2
8
16
20
28
28
22
22
26
34
40
36
30
26
28
32
42
50
48
26
8
30
32
34
46
36
24
28
46
62
72
68
52
34
26
22
10
18
34
36
22
18
10
6
8
22
20
18
18
20
24
10
58
66
32
82
114
94
52
34
18
6
4
14
12
4
4
4
18
30
36
30
36
34
46
80
144
230
255
255
255
212
140
88
50
44
34
10
2
28
30
88
246
255
255
255
172
84
42
140
198
186
120
44
152
192
178
114
68
112
226
230
106
14
12
12
14
6
20
40
70
92
94
88
88
100
108
116
128
130
118
66
26
28
56
132
162
124
82
66
72
76
56
34
16
8
12
10
12
10
2
22
36
40
34
16
12
22
24
22
18
20
24
36
44
42
32
14
16
28
44
46
38
36
44
58
64
52
42
32
24
18
8
2
0
2
4
6
18
22
24
36
34
34
36
34
42
42
38
34
38
30
16
32
32
18
18
22
12
18
20
16
60
160
255
255
255
240
50
160
255
255
255
255
255
255
254
130
54
30
38
36
16
14
20
20
22
16
68
194
255
255
255
255
255
255
194
98
28
48
80
80
48
30
30
46
58
46
36
26
24
24
22
20
22
20
30
38
32
18
4
114
226
255
255
148
80
50
58
74
92
102
98
104
110
108
104
96
92
102
108
118
120
104
74
54
50
42
36
42
34
18
20
32
24
38
36
62
100
124
186
255
255
255
255
255
255
255
255
255
255
255
255
255
178
112
66
32
12
2
6
16
22
14
16
4
18
104
248
255
255
255
224
70
16
32
34
36
22
12
14
12
4
2
20
50
66
62
30
18
48
68
66
56
50
38
24
6
8
2
6
10
8
18
18
12
14
20
24
24
20
24
24
14
6
6
6
12
28
38
24
16
50
106
150
162
108
22
94
102
52
26
34
44
36
10
16
16
10
6
8
8
10
8
8
14
8
6
16
14
4
6
16
24
24
24
20
10
6
8
16
20
20
28
38
38
28
14
12
16
18
18
20
12
8
20
28
20
20
10
12
22
30
26
16
10
12
4
8
18
20
12
16
22
20
14
16
22
28
22
8
16
24
32
26
12
6
16
24
28
24
28
42
46
42
30
18
12
14
16
14
16
24
24
22
22
22
22
20
12
8
10
10
6
4
10
16
18
10
12
8
34
84
16
238
255
255
255
136
16
32
30
36
34
30
24
20
34
42
34
34
32
20
6
14
26
26
16
32
32
20
30
42
54
74
96
94
110
138
148
142
118
160
188
164
130
96
80
66
44
34
26
22
14
10
38
64
82
128
206
255
255
255
255
216
174
120
72
28
48
98
104
90
124
80
36
32
32
38
22
8
16
22
20
14
6
10
12
20
20
10
12
22
18
8
6
14
18
14
8
6
4
12
18
18
10
6
10
10
8
16
16
14
18
18
8
14
24
34
34
28
18
16
10
6
6
10
10
4
0
4
8
10
10
14
26
26
22
22
30
38
36
32
28
30
38
38
30
18
10
24
14
18
36
56
64
58
54
64
60
46
28
8
6
20
24
10
18
26
24
8
8
6
4
4
8
12
8
22
22
14
36
50
44
60
112
108
68
26
40
32
20
6
16
24
18
14
12
22
30
24
20
36
78
94
124
182
255
255
255
255
192
126
82
50
38
34
16
18
40
56
140
255
255
255
255
172
92
52
152
192
180
126
102
188
210
180
116
100
168
246
212
80
4
12
14
14
6
32
50
60
62
62
66
64
74
86
94
108
120
124
88
20
16
56
108
128
130
114
102
90
72
46
32
22
16
22
20
12
4
12
24
30
30
34
22
10
16
28
26
14
18
16
12
10
20
20
10
4
12
28
38
38
42
52
68
78
70
56
40
30
24
18
12
4
4
4
4
12
18
22
38
48
40
28
26
32
38
44
48
46
34
10
16
28
24
10
10
2
30
46
40
144
255
255
255
255
10
255
255
255
255
255
255
240
188
120
62
34
22
18
16
8
10
20
12
38
156
255
255
255
255
255
238
80
92
86
70
38
38
70
74
42
42
48
56
50
28
20
14
8
6
2
4
10
8
14
20
22
18
12
62
154
222
218
126
58
66
46
20
2
20
18
22
32
40
44
44
34
40
42
48
72
80
60
26
2
16
12
6
22
44
50
40
24
36
30
54
58
42
24
56
100
160
230
255
255
255
255
255
255
255
255
255
255
255
238
162
100
44
32
36
30
28
28
10
34
138
255
255
255
255
194
68
36
38
24
24
20
14
14
10
2
2
14
38
62
72
50
12
34
56
52
46
44
32
16
6
10
14
20
30
42
44
32
18
14
14
14
18
26
32
32
24
14
10
10
18
24
26
16
20
72
126
158
152
92
20
70
92
64
42
48
60
58
36
18
8
6
10
10
14
10
4
12
16
10
12
16
8
2
2
4
16
26
30
26
18
12
12
16
16
20
32
36
32
26
20
22
18
12
8
6
6
18
36
38
24
38
32
16
18
20
14
8
8
6
4
12
18
20
16
16
18
14
8
10
20
28
24
16
20
12
20
30
30
32
34
34
32
30
32
34
42
42
34
20
4
6
12
16
26
32
36
34
34
30
22
16
8
2
4
4
2
4
10
14
16
8
6
14
28
84
34
255
255
255
255
96
40
16
32
34
36
34
28
28
38
34
18
26
34
24
8
8
30
32
16
30
34
16
10
24
48
74
106
126
126
130
114
84
74
144
192
174
136
94
72
58
36
34
32
22
8
10
30
46
64
108
184
255
255
255
255
252
208
156
100
50
20
66
106
120
110
52
12
24
24
38
36
18
12
22
22
18
14
6
2
8
16
18
16
12
16
12
8
8
16
18
16
12
8
12
10
10
10
18
12
6
2
8
8
8
12
8
10
20
12
8
22
30
24
12
6
0
8
10
2
8
10
6
12
30
32
20
24
16
12
10
8
18
18
18
16
18
18
8
12
22
24
10
14
32
42
44
54
62
58
50
34
24
28
20
30
30
20
2
14
24
24
14
12
8
6
4
0
6
18
20
10
38
54
28
32
82
88
60
22
6
20
26
24
16
0
8
6
14
18
16
26
16
24
60
102
110
128
184
255
255
255
246
172
108
72
46
32
34
22
46
50
74
158
255
255
255
250
170
92
52
136
154
166
116
124
186
204
192
144
130
176
220
176
62
4
6
8
2
26
56
64
68
66
62
64
58
62
74
82
94
102
110
98
54
28
62
94
92
108
112
114
112
90
58
38
24
20
26
32
34
30
16
28
26
14
32
38
26
14
20
28
34
28
12
14
18
30
34
20
6
4
10
16
28
30
44
62
80
86
78
56
40
30
24
20
10
6
4
6
10
12
16
30
48
52
38
26
24
32
50
62
62
52
30
4
16
26
22
14
32
58
36
92
255
255
255
255
30
255
255
255
255
255
212
166
120
84
66
52
40
26
14
20
26
18
8
88
232
255
255
255
255
255
104
44
142
178
152
92
42
30
54
72
58
52
46
40
22
16
24
20
20
22
24
20
10
6
14
22
22
14
6
82
206
255
255
182
86
76
50
54
54
50
52
58
52
34
16
14
22
28
42
26
14
42
46
28
10
12
14
6
36
56
48
34
28
38
52
64
60
40
24
24
36
54
72
88
110
164
232
255
255
255
255
255
255
255
255
255
254
146
62
34
20
30
34
14
44
156
255
255
255
255
158
62
40
28
10
18
20
16
18
22
14
10
12
26
46
62
52
10
44
80
82
66
50
28
14
12
28
44
56
60
62
50
46
32
16
28
26
16
14
30
40
40
30
22
20
20
28
40
30
24
84
144
168
142
76
16
44
70
68
60
68
82
82
62
20
30
32
30
20
16
16
16
8
2
14
18
14
8
6
16
22
30
34
32
26
14
8
12
22
32
34
32
24
18
18
18
16
6
8
8
8
8
22
38
32
14
32
36
30
18
18
22
20
20
18
12
18
18
6
6
4
10
14
12
10
16
20
10
6
12
8
6
6
16
28
40
40
32
40
48
40
36
24
26
24
14
2
10
24
38
46
50
42
34
22
8
2
4
4
2
0
2
8
14
16
12
4
6
22
12
66
40
255
255
255
255
58
62
22
16
26
28
28
24
22
22
20
20
30
32
20
12
10
18
28
14
16
34
34
24
28
38
56
88
120
148
150
104
70
78
128
178
168
130
88
68
58
36
34
34
26
16
14
28
32
44
82
140
224
255
255
255
240
200
160
112
62
22
18
24
22
16
6
8
20
32
28
22
30
18
12
20
20
12
8
6
10
18
20
14
6
14
12
8
8
12
8
10
16
14
2
12
22
28
22
8
6
6
10
8
4
6
12
24
24
18
18
12
14
6
8
12
14
16
10
14
24
20
22
36
34
48
38
24
20
14
14
18
24
18
10
8
10
16
30
34
22
8
16
26
24
22
22
26
30
40
32
8
12
18
16
18
8
8
22
30
32
20
2
4
0
8
6
2
8
28
34
32
62
52
12
52
64
36
14
26
26
26
24
16
16
20
34
34
32
20
4
26
26
34
58
88
84
104
172
255
255
255
222
146
90
64
42
24
26
34
66
64
76
142
236
255
255
216
150
80
20
108
162
162
106
110
156
176
170
126
110
144
184
158
62
4
8
18
28
50
58
48
44
36
44
66
64
66
74
84
100
100
102
102
90
80
76
86
88
78
74
80
100
106
90
68
38
20
18
26
38
52
56
34
10
12
24
44
42
22
12
14
28
38
30
16
6
12
28
32
24
12
6
8
14
8
14
30
56
80
90
74
54
36
24
20
12
4
0
4
10
12
16
26
42
52
44
34
24
26
48
66
68
54
34
14
4
12
30
46
66
42
64
248
255
255
184
128
255
255
255
255
214
114
96
102
78
60
56
42
28
20
12
20
24
18
128
255
255
255
255
255
92
36
82
114
128
118
96
74
68
76
88
80
62
48
36
24
12
14
16
6
10
12
20
26
18
16
18
20
22
22
18
112
246
255
255
156
102
70
38
52
66
72
70
66
54
48
34
44
52
40
56
56
34
50
44
30
14
12
20
22
42
46
28
22
32
50
60
58
46
32
30
32
30
26
16
18
24
28
26
72
142
222
255
255
255
255
255
255
255
255
144
58
16
24
30
14
50
168
255
255
255
255
142
38
20
6
6
14
20
12
10
18
20
22
22
30
52
70
52
4
54
84
74
48
22
24
28
50
68
82
80
62
46
44
46
42
32
24
14
4
2
10
18
22
20
18
14
14
24
44
42
18
86
152
162
116
54
10
28
48
54
50
52
60
64
60
62
50
40
42
30
22
28
28
16
14
18
8
0
10
14
20
20
24
24
22
24
14
8
14
30
40
32
22
16
16
18
12
6
8
12
10
8
10
28
34
20
6
26
30
32
34
36
38
30
28
26
20
22
20
10
8
6
8
12
16
20
20
18
14
12
14
4
12
14
10
12
24
32
36
48
48
38
34
24
16
14
14
4
16
28
40
42
38
28
18
8
4
4
4
6
4
4
8
14
18
18
8
10
12
24
8
48
54
255
255
255
255
36
68
32
12
22
18
16
18
22
24
22
30
30
24
10
8
4
8
20
18
6
12
24
20
24
38
50
70
110
154
184
156
106
80
106
146
150
132
102
76
60
44
42
44
34
18
0
26
34
38
68
114
188
254
255
255
220
174
142
116
80
32
20
32
42
42
22
30
40
34
22
16
18
18
12
22
18
8
4
8
14
12
14
14
6
14
4
12
20
20
16
10
14
20
16
18
24
18
18
16
16
12
18
18
12
6
12
18
16
14
20
18
16
10
8
4
8
16
16
20
20
14
38
40
18
26
26
12
12
18
24
24
22
16
10
12
16
26
36
24
12
22
30
28
16
6
20
22
16
18
36
28
8
4
2
6
18
30
34
30
22
8
2
2
6
8
2
4
8
16
34
46
56
20
36
66
46
12
18
22
26
18
18
8
8
26
32
26
20
14
10
6
16
28
44
72
94
122
208
255
255
255
192
120
76
60
40
16
12
44
68
64
72
130
212
255
255
222
158
92
32
110
150
146
100
106
150
166
150
106
92
126
168
150
60
2
10
20
26
38
34
28
38
42
52
56
40
40
56
82
110
108
100
90
82
90
100
104
84
78
64
44
68
90
92
80
52
26
10
18
20
44
66
56
28
24
20
44
52
38
20
8
10
24
34
26
14
0
16
36
44
30
14
12
12
6
4
8
24
52
74
76
68
50
32
24
16
8
4
2
6
12
16
24
36
46
46
44
32
24
38
56
66
60
40
18
10
22
42
52
38
104
238
255
255
200
124
255
255
255
255
174
70
36
52
72
66
62
56
34
18
24
28
14
48
188
255
255
255
255
178
4
88
116
122
110
90
76
72
78
90
96
94
74
52
34
38
32
16
12
14
4
2
6
28
44
34
24
16
14
12
10
8
116
250
255
255
104
112
76
58
70
64
58
52
44
44
50
50
58
48
24
36
44
34
56
52
38
22
18
36
44
42
30
34
32
32
42
40
24
16
4
16
22
16
8
4
6
4
2
14
18
36
60
92
160
244
255
255
255
255
255
216
106
36
38
32
14
54
176
255
255
255
255
138
38
20
8
12
12
22
14
2
4
8
18
26
32
54
64
38
12
50
68
64
48
36
42
64
86
92
88
64
40
32
28
30
38
44
42
34
20
8
26
36
38
34
28
16
4
4
28
36
8
86
152
148
90
36
8
20
38
42
32
38
62
84
94
76
38
22
34
30
26
36
38
24
4
10
14
12
12
20
26
20
16
16
24
30
26
22
18
28
26
14
10
16
24
22
8
16
16
16
12
4
14
26
18
22
28
42
50
54
56
50
38
20
20
20
16
20
18
12
12
12
8
4
8
22
30
28
16
8
16
10
8
14
22
32
36
30
38
56
48
30
22
18
14
10
12
12
28
30
36
32
30
22
10
4
0
2
4
8
12
12
16
18
14
8
2
10
12
14
8
32
78
255
255
255
255
26
76
48
20
20
10
4
18
22
16
10
8
8
8
8
10
8
8
12
14
16
14
10
4
12
32
44
56
94
140
186
186
146
122
150
150
124
138
126
100
78
58
50
50
44
26
14
26
38
40
62
94
158
238
255
255
222
156
122
112
94
38
10
30
26
46
40
30
22
6
12
10
20
16
10
22
18
22
26
20
4
16
28
22
4
14
8
18
16
10
16
16
8
18
26
32
22
4
8
20
16
12
14
24
26
22
22
18
8
4
8
6
4
4
16
18
12
2
8
12
6
28
42
28
16
32
32
14
14
14
18
10
6
4
2
6
12
16
14
2
22
30
28
24
24
16
10
28
24
14
28
34
20
10
16
26
32
32
20
6
12
18
16
8
8
2
10
6
6
12
26
34
14
34
72
70
36
4
14
10
10
10
6
2
6
18
24
20
12
4
16
16
12
24
34
60
106
194
255
255
255
242
160
100
70
62
36
6
20
46
66
64
76
134
204
255
255
254
208
122
62
104
120
114
86
120
162
164
138
100
96
132
166
142
54
2
10
22
28
36
36
36
38
42
62
82
62
32
14
58
98
104
100
84
64
66
82
112
120
96
58
30
42
56
62
62
52
38
18
16
8
24
48
50
32
22
20
40
54
52
40
22
12
8
26
32
16
22
34
32
50
42
24
24
22
18
16
14
18
26
48
62
70
62
44
32
26
20
14
12
4
8
12
22
32
40
44
48
40
26
32
48
62
68
56
30
28
52
48
18
154
255
255
255
178
94
186
255
255
255
164
78
52
48
50
58
58
52
42
24
12
22
12
72
242
255
255
255
255
122
60
76
68
70
90
100
94
88
84
86
90
80
62
40
32
32
22
22
16
10
14
10
10
30
52
54
34
14
6
6
18
18
16
104
240
255
255
76
108
76
72
72
52
48
34
24
24
32
46
44
34
26
26
30
24
36
30
24
22
32
46
42
34
30
32
40
40
36
26
12
22
22
38
32
12
10
6
16
24
22
30
22
18
28
38
60
74
152
238
255
255
255
240
152
70
30
18
8
54
174
255
255
255
250
140
46
22
10
14
10
16
14
6
10
20
30
42
54
66
56
30
18
40
58
68
62
48
60
74
76
60
42
18
24
26
34
34
22
30
40
42
36
28
28
22
14
10
14
10
8
14
34
40
10
98
160
148
84
36
24
22
48
58
52
64
86
100
92
60
26
10
22
22
20
30
36
30
14
16
16
12
12
10
16
24
24
14
12
18
26
28
24
24
20
14
10
16
26
18
14
32
26
28
26
8
8
16
12
16
28
42
56
58
54
38
20
10
16
16
10
18
16
12
14
16
14
6
2
12
22
26
18
8
18
20
22
20
26
26
16
10
32
60
66
54
44
40
34
24
18
28
36
40
48
44
36
28
16
6
2
6
10
12
16
14
14
12
8
8
4
12
18
8
6
22
106
255
255
255
246
18
90
52
16
14
10
6
12
14
6
0
2
4
8
8
16
16
14
10
6
8
16
18
16
28
36
38
50
68
96
144
180
186
156
136
106
102
130
128
104
80
56
44
44
50
44
26
4
22
28
48
70
120
206
255
255
255
164
110
98
92
44
16
24
4
34
40
36
34
24
16
12
12
10
6
16
26
34
32
30
28
8
24
28
10
10
10
8
12
16
18
14
12
6
14
30
34
22
2
22
28
18
12
14
24
22
20
20
14
6
20
16
14
10
12
18
18
14
6
12
28
42
36
10
18
28
20
10
14
18
24
18
16
12
4
0
8
16
20
14
22
22
20
8
10
18
6
32
32
12
14
22
14
4
20
32
34
24
16
18
28
24
28
26
8
8
12
14
22
28
16
14
50
74
68
40
12
8
18
18
10
2
8
10
12
22
28
26
22
10
12
22
26
30
34
68
146
255
255
255
255
212
148
104
76
62
28
4
26
50
68
66
86
146
212
255
255
255
222
96
74
106
106
96
76
122
142
134
120
104
114
142
164
134
50
4
6
12
16
26
34
38
38
48
78
78
44
14
12
44
72
68
76
76
66
72
92
124
122
84
42
28
44
56
56
42
32
34
34
38
34
42
54
54
40
26
22
30
40
44
44
36
20
14
22
28
16
28
30
16
36
34
26
34
34
32
28
22
16
26
42
54
66
62
44
30
22
18
14
14
10
8
8
22
30
32
32
34
36
30
34
50
64
70
66
48
34
36
24
148
255
255
255
130
48
148
255
255
255
176
88
54
60
62
56
56
48
30
26
34
34
20
110
255
255
255
255
255
90
50
90
80
58
50
60
70
66
62
62
72
78
60
40
28
24
22
12
22
24
12
10
12
20
36
44
32
10
8
12
12
20
16
10
96
232
255
255
76
102
70
64
52
44
48
32
16
10
22
26
20
32
36
32
30
14
14
30
26
26
36
34
26
28
42
54
54
42
28
20
20
34
48
48
26
20
10
6
16
18
8
20
22
30
30
36
60
86
132
182
222
242
220
196
152
96
50
20
6
52
184
255
255
255
255
166
84
54
46
44
20
24
22
16
22
36
50
66
74
68
42
18
24
32
30
44
48
42
50
48
24
6
22
24
24
28
34
26
12
10
20
30
36
42
40
32
34
42
46
36
12
12
24
26
36
122
174
154
88
44
40
38
50
72
76
70
68
66
56
38
24
12
20
20
18
24
28
30
28
12
4
24
28
14
6
16
32
28
14
6
16
26
24
24
24
24
24
24
20
6
18
28
18
18
30
18
2
16
12
10
20
36
48
42
30
14
6
4
14
16
10
16
12
8
10
12
14
8
10
22
30
28
14
16
26
28
24
18
12
2
6
6
20
42
58
58
54
56
54
46
36
40
46
58
66
62
54
40
20
12
8
12
16
16
18
10
4
6
8
18
14
20
24
8
14
14
124
255
255
255
220
20
98
54
14
6
6
12
26
26
10
8
12
10
2
16
22
16
18
14
8
6
10
8
10
24
44
52
60
60
62
92
142
194
196
146
108
102
122
120
96
72
48
36
34
46
56
52
30
16
20
36
44
82
164
255
255
255
210
130
96
82
46
20
16
10
36
32
30
32
32
34
28
22
20
16
22
26
30
20
10
32
24
20
20
22
8
6
8
16
20
10
6
12
12
8
10
24
28
12
16
32
34
20
8
16
24
24
16
10
14
20
6
12
14
6
6
14
10
8
28
38
38
22
10
12
20
22
18
10
12
24
26
24
24
12
16
22
10
6
14
14
14
28
26
18
12
12
36
28
4
20
30
22
12
22
22
18
6
16
24
22
14
22
38
28
10
14
32
40
28
28
72
88
68
28
4
14
10
12
20
24
16
14
14
12
14
18
18
26
20
6
16
32
42
50
100
198
255
255
255
255
188
144
106
70
46
12
16
34
54
66
66
96
160
240
255
255
255
184
40
56
100
100
88
78
104
106
102
104
108
128
148
160
122
44
4
12
26
26
20
14
28
46
68
70
64
60
40
22
68
92
74
46
66
80
102
126
144
130
84
38
26
42
46
46
40
20
26
52
56
62
68
72
68
56
44
36
34
32
32
36
40
38
36
34
30
18
24
16
8
22
14
22
26
28
32
26
24
26
36
46
50
58
54
36
22
12
8
6
8
10
4
2
16
26
26
22
14
16
24
32
48
64
66
62
56
28
48
150
252
255
206
70
58
162
255
255
255
236
140
78
56
56
54
46
40
30
14
26
50
24
108
255
255
255
255
234
40
58
84
80
82
74
54
40
34
26
24
34
54
62
46
30
14
20
4
14
30
36
22
10
18
22
26
34
26
12
20
16
16
30
30
20
88
224
255
252
68
78
44
26
16
22
42
40
22
4
18
20
10
10
22
22
24
20
16
32
40
40
34
14
12
18
22
28
26
18
18
26
28
28
26
18
24
30
20
12
20
16
6
26
28
22
28
42
62
84
146
210
255
255
255
204
142
76
40
24
8
40
172
255
255
255
240
140
70
54
60
66
42
32
28
22
28
40
50
58
60
46
22
4
20
16
14
20
22
20
16
4
26
46
38
36
16
18
46
44
28
14
14
20
28
38
34
22
24
32
50
56
44
30
36
40
60
138
184
158
88
42
32
22
22
56
68
74
80
84
78
44
26
16
24
24
22
28
34
40
46
32
30
40
28
14
12
24
42
30
14
12
18
24
24
22
28
38
42
42
36
20
14
48
60
38
16
14
24
20
8
12
30
44
44
28
14
10
8
4
8
10
6
8
4
2
6
10
14
10
8
14
20
24
16
16
20
16
10
10
4
0
6
18
30
32
26
28
28
36
40
40
40
48
58
68
66
54
42
22
16
14
12
16
18
14
12
6
2
6
14
16
6
16
24
2
12
16
126
255
255
255
202
18
94
56
26
22
10
14
24
16
12
16
10
14
10
20
28
8
16
22
12
12
12
10
16
16
20
42
68
76
70
96
132
156
192
182
156
132
134
128
106
82
54
38
28
34
50
58
50
28
24
40
42
58
130
238
255
255
255
194
122
80
42
24
16
20
34
28
14
6
10
20
18
12
6
0
8
20
34
38
20
12
16
14
8
18
20
18
14
6
2
6
2
4
6
10
2
12
28
24
4
18
32
28
20
24
26
18
8
2
8
8
2
14
20
16
26
34
20
20
22
26
22
12
16
18
22
24
16
6
12
10
10
8
16
20
16
8
8
14
12
10
8
6
12
6
0
14
24
22
12
30
28
10
8
18
30
32
28
34
32
24
16
12
32
38
30
24
32
10
34
68
78
64
30
30
30
30
36
34
10
12
20
14
6
4
6
16
24
26
12
10
20
34
54
86
166
255
255
255
255
240
168
122
78
36
12
12
30
42
50
60
72
114
192
255
255
255
255
132
16
36
82
88
78
84
98
96
92
92
102
128
146
148
100
30
0
16
22
14
14
22
40
62
62
48
50
50
48
44
58
58
44
50
70
96
126
148
168
162
128
86
50
48
58
68
68
38
38
42
28
36
46
56
64
66
62
54
50
44
40
40
44
48
48
44
36
28
28
18
14
22
10
16
18
26
40
24
4
14
26
38
54
66
56
36
22
12
8
4
2
4
2
2
12
20
22
20
10
4
8
16
28
44
44
38
50
58
160
255
255
200
52
100
204
255
255
255
224
154
100
70
52
42
32
20
16
28
40
50
20
132
255
255
255
255
190
50
60
66
66
64
62
48
30
34
38
34
26
26
38
52
50
38
16
26
22
10
20
28
22
22
24
20
16
30
30
14
16
12
10
20
22
16
76
212
255
240
54
68
48
30
30
12
24
42
36
16
20
32
30
18
22
22
30
28
12
22
42
44
22
6
12
34
44
38
28
20
20
26
38
48
42
26
2
26
28
14
16
4
26
42
34
18
10
34
70
114
170
228
255
255
255
232
166
90
44
24
8
28
156
255
255
255
226
114
28
22
26
54
46
38
28
24
26
32
34
34
36
24
6
10
14
4
8
10
6
14
16
26
44
44
20
32
22
10
42
52
40
24
20
20
24
32
22
6
6
6
30
50
54
52
60
56
64
136
178
146
72
24
24
26
28
66
68
58
70
90
102
74
30
14
22
24
26
34
40
46
54
46
34
28
10
6
6
26
38
20
8
8
12
18
18
14
22
34
46
48
42
34
32
50
72
78
56
26
30
34
26
30
50
54
40
22
12
8
8
6
8
8
4
6
8
8
8
12
14
6
10
20
28
30
16
2
14
22
24
24
14
12
24
34
38
34
28
22
16
14
16
26
36
50
56
58
46
26
12
8
8
8
10
14
12
4
6
6
2
4
12
20
12
12
20
8
14
26
122
255
255
255
198
20
80
46
28
34
28
18
12
8
18
14
8
8
14
26
18
8
26
26
8
12
10
20
24
18
8
12
50
80
90
112
122
120
154
172
174
150
140
134
118
98
66
42
22
16
26
38
46
38
24
38
34
50
108
196
255
255
255
255
168
94
40
24
22
30
44
34
20
20
28
34
26
24
24
18
24
24
24
30
28
16
2
4
4
12
22
24
22
16
18
14
8
10
10
10
4
6
22
28
18
10
16
22
20
14
10
14
14
4
10
14
4
10
18
18
36
38
26
38
40
48
46
20
4
8
10
14
18
16
4
14
24
20
18
14
22
18
18
12
6
8
12
16
16
10
4
10
24
24
14
24
14
6
16
6
18
32
36
36
32
24
16
10
16
28
34
24
8
40
70
66
46
28
6
36
42
38
40
58
40
18
12
18
16
16
10
16
24
26
12
22
22
34
70
134
240
255
255
255
255
204
128
78
36
20
20
28
40
44
42
60
90
152
248
255
255
255
208
84
10
28
60
66
58
78
92
86
72
70
96
136
150
130
70
14
6
14
18
24
24
40
56
54
42
52
42
46
46
38
64
74
62
56
64
90
124
144
166
172
158
132
90
66
68
80
88
64
30
16
10
26
18
18
38
54
62
60
56
52
50
50
52
56
52
42
32
30
30
28
30
32
20
12
28
38
38
14
10
6
32
60
76
74
56
36
20
8
10
8
4
6
0
10
20
24
24
16
10
10
18
32
38
42
28
14
28
134
255
255
220
64
108
206
255
255
242
180
120
78
58
48
32
18
8
4
12
46
64
26
164
255
255
255
255
162
40
92
56
38
56
70
62
44
30
30
38
36
30
30
34
48
52
48
36
34
18
10
24
34
34
30
24
16
10
12
18
8
6
6
12
18
12
4
96
232
255
255
66
76
54
24
32
22
10
24
40
32
8
22
38
40
40
36
36
28
8
22
48
54
34
16
10
16
28
28
24
18
16
18
24
30
30
28
12
10
24
20
4
24
42
44
34
36
54
98
158
200
250
255
255
255
255
224
136
58
24
16
6
22
150
255
255
255
248
148
68
74
38
6
24
38
40
32
24
28
30
32
34
18
10
26
24
12
6
6
14
18
16
22
30
20
6
26
26
6
20
34
32
22
14
16
26
40
32
16
26
26
34
38
32
30
44
48
52
124
164
124
42
16
26
30
32
76
76
52
40
62
94
90
56
16
12
22
28
34
36
36
36
32
22
8
8
8
8
26
28
14
8
6
10
24
20
16
14
10
24
30
28
34
40
28
4
36
54
46
18
22
42
54
60
52
36
24
14
8
4
6
12
12
8
6
4
4
6
12
12
8
12
22
30
34
30
20
22
22
24
28
26
22
22
26
22
12
12
24
32
32
36
40
40
44
38
30
16
4
2
10
6
2
2
8
6
2
4
2
12
18
14
4
10
8
14
12
14
12
134
255
255
255
240
26
70
34
26
40
38
24
12
20
24
18
14
8
10
14
6
12
20
18
6
14
12
8
14
10
8
8
42
76
94
108
122
130
138
144
152
134
122
118
110
102
76
48
24
14
16
10
24
34
28
34
26
40
88
154
240
255
255
255
204
116
48
18
18
20
26
38
34
16
24
30
24
22
18
8
16
18
14
16
18
18
10
4
12
28
32
28
42
36
12
14
16
6
12
8
2
8
10
14
16
10
2
6
4
10
8
14
18
16
2
12
12
6
2
18
26
14
4
12
18
36
58
56
42
28
12
12
20
14
12
20
16
8
4
8
14
10
6
4
4
10
12
8
4
2
6
10
18
16
6
20
12
10
18
12
16
14
16
20
14
4
10
10
12
16
20
20
42
60
60
44
32
28
14
40
44
28
8
40
40
18
4
12
10
6
10
20
20
20
20
36
30
44
98
188
255
255
255
255
222
148
76
36
22
18
30
40
54
52
50
80
134
226
255
255
255
255
146
48
24
20
38
40
34
56
70
54
32
48
110
174
172
114
44
4
10
10
6
16
34
54
50
32
24
42
62
64
48
38
32
46
34
24
30
56
96
122
148
168
170
154
110
68
56
64
78
74
58
40
26
20
12
6
12
20
36
46
48
50
54
64
74
80
68
44
24
22
22
22
20
24
24
16
12
10
16
20
24
18
36
62
70
58
38
24
14
6
10
16
18
16
10
16
18
20
24
18
16
20
30
44
30
18
42
34
138
255
255
236
50
130
220
226
216
192
150
106
74
50
36
30
16
4
6
18
32
48
36
166
255
255
255
255
206
16
114
112
70
54
74
82
66
46
36
44
52
48
36
28
26
34
32
28
28
24
24
22
28
34
36
34
26
18
12
12
12
8
2
8
18
18
6
2
100
236
255
255
86
80
48
10
26
24
22
36
68
88
78
46
20
32
38
34
30
22
10
24
46
62
52
26
12
20
30
26
16
16
20
22
22
26
26
20
16
12
4
14
32
48
44
34
34
64
108
154
202
244
255
255
255
255
255
166
74
14
2
6
4
18
140
255
255
255
255
172
88
102
90
56
26
22
32
38
28
32
42
46
38
8
22
36
34
30
30
16
24
22
16
16
14
16
24
32
18
16
48
60
48
24
6
8
22
42
44
38
54
42
50
40
18
6
18
28
44
110
142
112
50
32
48
60
38
100
106
72
36
44
72
90
82
52
16
18
24
32
32
28
18
12
14
14
12
6
14
22
18
12
8
4
16
34
28
24
28
26
44
46
38
24
42
62
64
64
42
40
42
56
64
62
54
40
28
20
14
10
4
8
10
8
6
4
4
4
4
8
10
12
24
42
50
48
40
24
24
18
16
20
28
34
34
28
18
14
22
30
42
44
44
34
28
24
14
4
6
10
4
8
6
8
6
12
6
0
0
10
24
22
18
12
2
6
4
24
24
24
100
255
255
255
255
72
54
18
18
38
40
24
12
26
26
18
12
6
4
2
2
6
12
12
8
8
14
14
24
28
26
40
76
94
76
94
134
158
162
152
144
126
108
94
94
100
88
66
46
28
14
8
2
14
20
14
8
38
78
126
198
255
255
255
208
122
58
40
44
32
24
22
42
42
34
22
14
6
10
26
36
28
24
26
28
24
10
8
20
28
18
8
32
46
36
18
10
4
2
6
10
12
6
4
16
18
6
16
22
22
12
14
14
18
12
2
8
10
12
14
14
20
30
30
16
2
28
44
50
44
28
2
22
22
14
10
8
10
8
8
14
14
10
6
6
16
24
30
24
12
10
12
22
22
6
18
26
22
28
24
4
16
26
16
8
18
18
28
20
12
36
56
58
44
28
22
22
8
24
40
34
32
20
18
26
18
8
10
22
8
20
26
16
4
26
38
30
50
122
230
255
255
255
236
160
102
46
28
16
20
30
40
56
58
72
124
208
255
255
255
255
202
92
26
28
18
26
30
24
42
46
20
24
50
142
212
172
80
20
4
6
6
8
26
44
46
34
18
32
62
78
60
42
40
42
46
36
30
40
54
62
80
104
132
150
146
106
58
34
36
50
54
60
66
64
60
40
10
16
20
20
30
30
28
36
46
70
88
80
52
22
6
12
28
30
28
20
20
12
28
38
46
42
48
48
54
54
44
36
30
20
4
8
12
22
28
20
12
10
16
22
18
20
24
34
40
8
18
40
130
255
255
255
80
108
224
232
180
140
112
92
74
62
42
20
14
4
4
16
44
46
12
178
255
255
255
255
220
112
90
100
94
76
70
88
98
80
54
42
50
58
50
32
22
26
28
18
8
8
12
24
30
28
32
34
32
24
16
10
6
6
10
10
12
14
10
2
2
76
212
255
255
114
86
36
42
80
92
108
130
142
172
186
162
116
58
16
16
20
12
12
22
34
48
50
44
40
34
28
24
24
30
40
46
46
40
32
26
26
32
26
32
54
52
34
28
38
70
96
108
140
196
255
255
255
255
198
94
26
8
6
10
4
14
124
255
255
255
255
166
70
74
92
86
70
30
12
24
28
40
56
56
34
14
26
34
32
26
42
40
48
46
36
26
12
12
28
20
2
30
44
36
12
10
18
16
20
34
38
40
44
30
48
54
42
28
32
32
54
102
120
112
62
48
80
84
22
58
102
98
70
56
68
88
98
88
54
20
16
36
40
36
24
16
20
24
16
10
18
20
18
12
8
10
24
30
16
10
6
24
46
46
30
2
32
58
60
58
30
12
28
40
48
50
42
28
14
4
4
8
8
8
4
2
8
8
2
2
6
6
10
22
32
36
26
22
18
14
16
12
10
12
22
34
40
36
24
18
22
22
18
18
18
20
16
8
2
4
6
8
8
12
12
12
6
14
10
4
4
14
20
8
8
12
8
10
10
30
14
48
40
255
255
255
255
146
28
8
16
36
36
22
20
28
18
12
8
4
2
2
2
4
12
14
12
10
24
24
16
12
42
58
56
40
48
76
108
154
196
210
194
144
104
88
94
108
106
98
90
76
60
34
14
8
4
14
10
38
72
112
178
250
255
255
192
106
56
50
36
12
10
6
24
40
48
46
26
16
26
34
26
8
14
22
26
20
4
14
22
20
26
32
24
8
24
18
8
14
14
14
16
4
12
22
26
34
16
14
14
10
8
14
16
20
12
4
14
16
10
12
20
28
16
6
4
14
30
34
36
32
24
10
10
12
6
12
12
8
6
12
18
12
10
12
12
16
10
20
20
12
8
12
28
32
32
42
38
24
16
24
22
22
32
34
20
28
16
36
42
50
72
66
38
12
26
28
22
18
28
28
24
14
14
14
22
22
12
22
22
12
26
18
4
12
22
30
30
60
146
255
255
255
255
182
124
84
44
20
10
22
30
34
54
78
124
208
255
255
255
255
242
132
58
22
28
26
30
36
38
48
44
22
26
86
176
218
136
36
4
4
2
6
18
32
36
34
44
40
44
66
68
46
32
30
32
40
32
22
30
48
64
60
54
78
114
126
96
56
34
34
40
32
32
40
48
62
66
54
42
40
44
44
32
8
16
8
28
64
74
62
38
18
18
26
24
22
22
22
24
40
42
36
40
52
52
54
50
42
36
32
26
8
10
14
14
22
22
10
4
18
26
22
20
26
30
24
4
30
118
248
255
255
112
48
154
200
188
150
120
96
84
66
50
30
10
8
2
6
22
58
22
150
255
255
255
255
200
18
96
98
92
68
48
48
64
74
56
38
38
48
50
38
24
20
24
18
24
22
14
8
18
28
32
32
28
24
18
6
6
8
6
4
14
18
14
12
14
18
70
196
255
255
122
72
30
80
126
142
166
192
194
202
248
255
232
174
110
58
18
2
10
20
30
38
40
46
54
58
52
42
34
32
42
50
54
56
48
36
32
40
40
40
50
36
20
24
36
62
72
72
112
190
255
255
255
230
126
40
4
12
2
12
4
10
108
255
255
255
255
234
86
18
58
78
86
60
28
6
20
44
60
48
22
26
38
42
42
36
36
46
54
52
38
34
24
30
32
16
16
26
20
26
24
26
24
18
20
26
28
26
18
14
32
50
56
52
56
48
54
82
94
92
60
50
84
102
66
46
58
82
80
64
60
72
90
102
82
46
8
26
42
40
28
24
32
36
28
14
16
18
20
16
12
16
20
18
18
24
20
28
36
30
6
26
42
36
14
32
34
20
10
16
28
34
26
14
10
8
10
12
8
4
4
10
10
4
4
6
8
4
2
12
32
50
54
44
20
16
24
18
6
8
14
24
32
30
22
16
14
6
2
4
2
4
10
10
4
4
6
2
8
14
12
8
4
10
8
4
4
16
26
16
12
14
14
10
14
34
8
48
8
198
255
255
255
216
62
22
24
38
34
24
20
16
2
16
16
4
6
2
6
6
8
16
20
22
24
14
6
32
54
40
40
56
62
66
68
106
172
232
252
208
150
110
104
114
110
108
106
96
86
66
36
18
10
10
2
28
52
74
138
220
255
255
198
112
56
52
46
26
14
6
10
24
40
52
42
24
22
14
4
22
26
38
52
52
24
22
18
8
38
44
48
38
22
26
22
14
18
12
8
10
22
22
18
34
24
2
14
14
2
20
24
28
14
16
28
20
20
12
20
12
10
20
14
30
48
52
50
40
26
8
8
10
6
18
18
18
14
8
14
12
2
10
14
10
4
12
8
6
8
12
28
38
46
38
26
8
12
22
24
16
12
28
22
26
18
26
46
64
60
28
4
14
26
40
42
30
20
20
24
16
2
10
16
16
10
18
10
12
26
22
16
24
32
48
64
110
210
255
255
255
230
142
100
76
44
12
18
42
54
68
110
164
228
255
255
255
255
255
166
86
44
24
18
24
30
34
44
42
34
28
56
122
190
192
94
12
4
4
0
8
20
22
26
26
34
46
56
54
42
42
44
44
40
40
30
22
34
52
58
64
64
78
106
118
86
52
38
44
50
38
28
20
20
36
56
68
64
60
60
60
54
36
24
34
24
36
56
60
52
38
30
32
32
28
26
22
24
28
20
6
24
48
54
60
52
38
32
28
26
14
12
14
8
12
18
14
8
12
18
24
34
32
12
26
30
124
252
255
255
108
58
120
160
174
166
144
118
94
80
54
34
20
8
10
8
10
24
48
94
255
255
255
255
192
46
110
96
80
92
86
70
52
48
50
34
26
30
32
38
44
32
14
10
8
20
30
26
16
18
26
36
38
26
20
26
24
16
4
6
4
8
12
18
22
24
22
94
210
255
252
112
48
58
102
132
128
132
146
146
130
206
255
255
255
216
156
94
44
10
10
26
38
44
46
46
52
52
44
32
18
18
26
34
42
38
30
28
36
38
28
28
18
20
26
44
82
112
140
212
255
255
255
255
184
80
14
4
14
4
12
4
8
92
250
255
255
255
255
154
36
26
50
74
66
48
30
20
38
46
20
18
48
64
66
62
44
30
32
34
24
24
24
44
54
34
28
30
20
12
12
10
10
10
12
16
22
22
18
14
18
24
30
36
44
60
56
28
54
74
64
40
38
66
76
50
40
72
72
56
38
36
42
58
86
92
76
42
18
28
30
18
18
34
38
30
16
12
18
20
14
8
4
6
10
8
16
20
40
42
32
14
36
28
16
30
44
42
20
8
14
24
28
22
20
16
12
6
6
8
6
10
12
6
6
6
6
12
14
12
10
12
24
36
40
22
22
28
14
6
6
14
22
20
18
18
18
18
14
8
4
4
4
6
8
6
6
8
8
12
10
2
2
8
10
4
2
6
14
16
10
14
18
14
4
10
28
14
50
14
162
255
255
255
255
114
30
34
40
30
30
14
8
22
20
10
4
10
14
16
10
6
16
20
14
2
8
10
24
34
32
30
40
52
60
48
60
102
174
248
255
228
168
124
114
106
106
100
86
84
82
70
60
54
48
56
86
114
134
174
222
254
255
228
154
84
62
58
52
46
30
16
14
24
42
46
32
12
14
28
36
32
30
46
62
44
24
16
18
26
20
22
42
42
34
18
6
8
8
4
12
12
16
12
16
20
10
6
14
20
28
50
36
4
26
24
4
18
16
10
6
16
14
10
34
36
24
16
10
4
8
18
16
6
16
16
12
10
6
16
20
14
6
12
10
12
10
8
2
14
30
28
22
14
8
4
16
22
18
20
26
12
12
20
16
18
34
44
36
14
24
28
18
12
18
30
32
26
24
28
12
10
18
20
12
6
6
4
10
26
26
40
58
78
108
144
214
255
255
255
255
186
102
68
62
44
26
64
90
118
164
238
255
255
255
255
255
255
192
120
64
36
20
8
16
22
26
20
10
10
28
74
136
176
152
66
8
4
6
6
12
14
26
34
28
44
68
60
34
44
52
58
54
46
44
38
32
44
70
88
76
58
66
96
118
94
52
34
44
62
66
62
44
24
20
30
44
40
32
36
50
68
56
18
12
2
30
46
50
50
48
38
26
20
14
20
24
22
18
6
6
18
52
68
76
66
46
36
32
30
22
16
12
6
8
18
20
18
30
44
56
60
38
18
28
78
246
255
255
128
40
122
162
192
204
180
136
92
64
52
34
24
18
4
8
20
30
16
84
255
255
255
255
222
116
138
76
40
66
84
68
54
56
60
60
44
32
30
34
42
54
58
44
20
4
8
22
22
18
18
30
46
46
28
6
14
28
30
24
10
10
18
18
24
24
12
6
92
206
255
242
104
42
86
148
150
126
118
120
94
30
52
136
204
240
238
212
166
114
68
32
6
16
36
48
46
46
46
40
32
20
16
22
32
36
22
12
18
24
32
26
16
14
22
46
72
118
168
226
255
255
255
255
246
142
48
4
2
12
6
10
4
6
68
204
255
255
255
255
228
96
28
36
48
50
46
40
32
32
28
8
44
70
78
70
48
18
12
8
16
18
38
54
62
54
22
32
40
30
14
8
6
2
4
12
16
20
24
26
28
32
34
30
32
40
48
62
32
50
70
52
22
28
62
72
36
42
72
66
46
26
26
30
40
64
80
82
58
14
24
24
10
14
22
30
24
12
8
12
16
20
20
14
12
12
10
16
12
30
40
30
10
20
18
26
38
36
30
14
6
10
24
28
20
20
18
16
10
4
10
4
4
6
4
2
6
10
14
14
10
14
16
26
34
32
12
12
16
4
8
8
22
28
14
8
20
20
24
22
16
16
10
4
8
6
4
4
6
10
14
6
4
8
10
8
2
4
10
12
8
8
18
14
6
2
10
16
18
42
20
138
255
255
255
255
166
32
36
36
16
24
26
22
16
6
8
8
8
16
14
14
16
18
12
14
14
8
4
22
44
36
24
26
40
60
58
68
82
112
188
246
255
226
158
122
110
118
114
96
92
96
100
102
102
104
118
146
170
184
216
244
250
218
214
168
98
54
40
44
50
40
28
18
16
28
40
42
26
30
34
32
24
18
24
44
44
34
30
40
52
46
26
12
20
20
8
4
0
6
14
14
2
14
18
12
10
14
14
30
32
24
54
56
26
24
18
14
20
10
12
10
6
18
14
18
46
54
50
42
28
8
14
20
8
16
26
28
22
14
18
24
26
24
16
4
12
14
10
4
28
28
16
16
26
24
24
28
22
12
8
16
18
24
18
20
18
28
22
6
38
40
18
10
2
12
12
26
28
16
16
2
12
18
14
4
6
8
6
10
20
38
68
94
116
154
210
255
255
255
255
246
142
76
46
60
56
74
120
160
214
255
255
255
255
255
255
254
206
140
90
54
38
26
16
18
14
8
6
26
18
46
104
158
164
116
44
6
4
8
10
10
6
14
28
38
44
60
46
22
28
42
60
60
46
34
22
20
40
76
106
108
98
108
132
146
126
84
62
64
74
78
76
64
40
26
26
32
26
22
18
30
60
64
44
26
18
34
46
50
56
64
60
42
18
4
18
20
22
18
16
12
22
48
72
84
80
66
52
42
32
18
12
10
14
14
18
24
30
46
60
58
42
4
44
12
146
255
255
188
136
130
136
152
198
216
174
112
62
42
42
34
26
18
6
4
34
54
48
226
255
255
255
255
56
130
124
80
24
58
88
68
38
48
68
70
50
36
34
42
52
62
74
68
44
14
26
28
20
16
20
32
42
36
16
4
10
16
24
30
26
16
18
16
22
20
8
4
70
168
248
228
106
64
110
194
220
218
224
238
236
200
138
90
72
98
150
182
188
170
140
104
70
34
4
36
52
50
42
34
34
36
42
48
54
52
26
8
16
22
30
38
30
40
58
90
118
160
212
255
255
255
255
255
192
92
22
2
2
8
6
8
4
4
42
140
255
255
255
255
255
174
80
36
40
32
36
34
32
36
28
20
54
72
62
34
18
32
42
32
38
44
50
52
48
34
6
26
38
40
30
26
26
16
8
18
26
30
34
38
40
44
50
48
40
34
34
60
54
72
78
40
20
32
72
94
56
30
44
50
44
38
38
40
44
52
60
64
50
14
16
26
12
6
18
24
20
14
4
8
20
30
32
22
20
22
12
20
12
28
36
28
12
28
26
24
16
10
12
10
14
22
32
30
16
12
16
20
14
2
12
18
16
20
18
12
6
10
14
12
8
6
8
20
30
30
18
18
32
22
14
16
26
24
4
24
22
18
20
16
6
10
12
8
14
8
4
6
10
14
10
6
8
10
6
2
0
4
12
14
14
16
14
2
6
10
10
6
16
28
12
108
252
255
255
255
214
52
32
34
8
14
26
22
12
30
28
28
26
16
6
16
20
14
8
18
10
10
16
14
34
32
26
30
42
64
80
92
90
90
126
180
236
240
192
150
136
156
164
154
146
140
142
146
148
158
162
172
184
200
238
255
255
220
168
128
78
32
18
24
34
22
24
24
20
20
26
40
42
28
24
20
12
4
8
18
22
36
46
60
64
56
46
40
34
36
24
12
8
18
26
22
20
26
12
2
6
6
28
40
26
12
30
44
38
32
20
16
12
8
6
4
12
14
18
12
8
24
30
32
32
24
8
14
22
26
22
24
24
16
16
22
28
32
32
28
26
20
8
4
26
30
38
40
32
26
26
24
16
14
24
34
38
30
14
16
12
12
22
24
32
16
14
18
10
18
16
20
20
8
12
14
4
20
34
32
18
8
12
26
46
72
104
126
140
182
246
255
255
255
255
172
108
66
34
30
64
126
186
246
255
255
255
255
255
238
210
194
154
100
68
48
42
36
26
14
2
4
14
30
12
66
152
196
158
82
24
4
2
10
14
12
14
26
18
38
78
94
60
28
16
12
42
60
50
40
24
14
20
68
104
108
106
128
160
170
152
120
108
110
100
76
58
54
48
46
50
56
46
20
8
24
44
42
28
16
18
36
50
54
66
82
90
80
46
18
22
18
24
36
42
46
42
42
58
78
88
86
76
62
42
16
6
14
26
28
28
32
38
50
56
32
2
28
22
74
236
255
244
52
128
144
104
120
174
184
134
76
42
42
50
38
22
12
10
8
48
62
74
255
255
255
255
122
42
80
84
92
70
62
64
50
44
58
86
94
68
46
38
48
66
76
86
80
62
46
28
16
10
12
20
32
48
54
42
18
8
2
8
20
30
28
22
16
16
20
20
16
56
162
242
222
106
84
98
194
242
255
255
255
255
255
238
174
96
66
54
114
158
178
176
162
132
86
40
10
34
48
48
42
36
34
42
52
64
64
38
12
24
24
16
24
30
56
86
132
170
214
255
255
255
255
255
236
118
42
6
2
4
6
6
6
4
4
44
128
194
255
255
255
255
236
132
52
32
28
36
36
34
30
20
26
54
60
36
26
30
44
40
30
36
44
46
44
34
20
6
18
22
30
28
26
34
36
28
36
42
42
40
42
42
42
48
52
48
36
32
46
52
84
80
40
18
12
58
92
74
18
32
54
58
52
44
42
46
44
52
54
42
18
6
18
16
12
20
22
10
12
10
8
12
18
30
32
24
18
4
12
4
18
34
28
10
8
14
8
2
10
14
12
18
28
38
34
18
6
14
28
26
14
24
26
18
18
20
16
6
8
10
6
4
4
8
20
30
32
24
14
24
24
22
22
24
20
14
24
8
10
14
12
4
10
20
20
14
6
4
8
8
8
8
4
8
8
4
4
4
4
6
14
12
10
8
6
10
10
6
6
16
30
16
76
208
255
255
255
255
72
40
52
24
22
22
14
20
28
16
22
28
26
16
18
12
12
18
18
2
14
10
4
14
20
22
28
40
62
88
104
82
50
58
110
190
228
218
198
190
214
234
240
238
224
216
218
220
218
200
176
170
194
238
255
246
216
180
140
84
48
32
34
38
18
6
16
24
22
26
34
34
40
36
20
12
14
18
14
10
28
26
48
62
56
44
42
46
36
16
10
14
28
30
24
18
32
30
10
6
16
34
32
8
14
18
18
18
18
18
28
26
18
12
8
8
6
12
10
10
22
26
20
20
24
18
16
24
24
14
14
14
4
2
8
18
24
24
24
22
16
10
14
26
40
42
32
26
28
26
20
14
18
28
30
24
12
6
2
6
2
12
14
10
20
28
18
20
26
16
10
14
14
4
10
8
6
10
22
24
16
30
50
74
110
160
198
214
244
255
255
255
255
180
116
82
48
2
62
126
194
255
255
255
255
255
238
192
174
162
146
110
74
54
38
36
30
20
20
8
10
10
34
20
88
182
204
122
40
8
2
2
6
12
20
22
18
8
22
70
110
88
50
32
28
38
44
50
50
20
30
26
38
76
76
68
88
128
148
132
104
102
122
126
94
60
46
44
52
64
76
74
52
32
38
50
40
18
16
26
34
48
48
58
74
86
86
60
30
26
30
42
52
48
56
60
52
50
64
82
90
92
90
76
48
26
26
28
22
10
4
8
30
48
26
16
32
122
242
255
255
160
118
156
144
120
142
166
146
94
50
34
40
44
26
6
6
6
14
44
52
180
255
255
255
255
168
150
114
122
134
132
132
132
112
92
90
110
124
106
78
54
50
56
66
80
78
66
60
54
46
32
20
18
24
38
52
52
38
14
2
4
14
28
28
26
34
38
28
24
18
104
198
255
230
104
92
114
136
198
236
250
244
248
250
234
188
118
52
6
56
102
138
160
178
168
124
74
32
20
30
54
62
46
28
24
32
54
64
48
30
42
26
18
12
32
72
116
180
232
255
255
255
255
255
255
150
46
8
4
2
4
4
4
4
4
6
74
178
214
186
255
255
255
255
170
86
28
18
38
40
42
32
4
30
44
40
30
12
20
20
16
18
28
34
38
36
22
6
12
12
10
18
16
12
26
44
54
54
52
44
34
32
28
26
30
38
48
46
38
36
48
80
86
68
82
50
16
66
70
40
14
20
34
42
36
32
44
56
54
46
46
32
20
28
24
14
18
20
12
2
8
22
22
14
18
32
36
24
6
14
14
28
50
50
42
36
24
6
14
14
2
16
14
22
34
34
22
10
14
30
36
32
26
20
8
8
16
16
8
18
26
18
14
12
20
32
32
24
30
26
14
16
20
20
26
24
8
18
18
22
18
14
16
26
26
14
4
0
2
6
8
12
10
8
12
10
6
10
8
14
12
2
0
4
8
8
8
6
2
14
18
36
18
36
158
255
255
255
255
84
60
68
20
12
14
6
12
20
16
18
10
14
12
4
4
10
18
14
14
16
10
16
20
20
18
16
24
50
90
106
116
80
28
54
150
202
214
220
228
248
255
255
255
255
255
255
255
255
250
218
144
178
220
224
204
176
150
120
70
36
22
20
24
8
14
16
24
34
40
36
22
28
40
34
26
24
26
24
34
44
28
14
46
54
38
24
20
26
20
6
22
30
26
14
2
16
26
18
4
20
26
14
6
20
20
16
12
12
8
12
24
28
28
24
24
22
24
14
8
22
26
18
4
14
20
8
14
24
16
20
26
18
14
12
8
10
10
6
6
8
22
30
30
22
16
14
22
28
24
20
22
10
10
24
26
22
18
14
8
8
0
8
14
16
12
12
20
32
32
14
8
18
18
10
8
22
30
22
2
28
58
74
104
164
248
255
255
255
255
255
255
224
136
80
50
26
56
130
194
255
255
255
255
255
200
160
144
140
124
98
68
50
38
24
20
16
10
12
12
8
4
18
12
100
186
176
74
8
4
0
4
2
4
12
32
34
32
16
36
84
94
52
30
32
44
46
38
62
40
38
18
34
66
60
48
50
58
88
84
60
60
94
132
130
100
72
54
54
66
82
90
80
64
64
74
66
38
44
48
40
46
42
46
58
66
68
54
36
44
58
60
48
26
38
58
66
60
60
68
78
88
102
108
94
72
52
26
12
10
10
18
20
46
32
96
214
255
255
255
178
18
102
154
174
190
192
160
114
66
36
28
26
24
6
8
14
14
18
16
72
255
255
255
255
232
184
198
150
132
130
132
142
150
142
126
114
122
140
142
124
88
58
44
42
58
68
64
60
56
54
46
32
22
18
18
26
36
42
32
20
16
20
30
24
14
26
44
44
30
14
96
186
248
228
114
120
128
94
94
136
168
172
176
186
196
180
130
72
38
32
58
86
116
162
190
166
110
50
6
20
46
66
60
46
32
30
48
62
58
56
62
52
64
64
96
134
180
244
255
255
255
255
255
255
170
68
6
4
0
2
2
4
4
4
4
12
106
216
212
148
160
255
255
255
214
126
62
14
36
44
38
18
14
28
26
38
34
16
16
14
14
20
24
22
18
8
4
8
6
6
14
22
24
28
46
54
52
50
48
38
24
22
22
26
36
36
52
58
52
42
42
78
82
56
96
80
16
46
64
44
22
28
42
44
34
30
46
52
44
42
40
32
22
28
24
18
20
18
8
8
4
10
14
6
10
22
32
30
18
28
28
28
48
50
40
42
44
32
12
4
12
14
2
16
24
30
24
14
14
22
26
32
24
12
8
8
20
22
10
26
30
16
16
10
22
26
16
18
24
28
28
24
22
16
16
18
10
6
12
18
14
14
20
18
4
2
2
4
6
4
6
14
18
12
14
14
12
8
0
6
10
6
8
10
8
6
6
6
8
18
10
24
16
12
98
255
255
255
255
80
62
52
12
22
24
16
4
14
20
14
6
2
6
8
10
12
16
12
16
22
18
18
18
14
8
16
16
34
90
136
122
68
44
48
100
134
136
144
174
190
206
224
242
234
214
202
182
176
188
192
156
166
196
176
134
100
84
68
54
42
30
26
30
14
20
18
30
50
40
28
22
26
32
28
20
22
30
32
42
56
50
20
26
48
42
32
32
38
18
16
22
16
6
14
20
18
16
22
12
20
26
18
8
24
42
38
24
14
16
6
12
18
24
24
26
18
12
16
18
26
26
10
12
20
28
26
8
18
20
22
18
8
4
8
2
6
12
14
12
22
32
24
12
4
2
10
16
14
10
6
12
16
22
22
32
24
12
6
4
4
4
10
8
2
6
10
4
16
26
26
16
4
6
14
28
34
30
40
30
40
70
98
156
240
255
255
255
255
255
255
255
176
92
46
12
36
96
164
228
255
255
255
255
180
130
112
110
110
86
52
28
24
28
22
12
12
8
2
12
6
8
6
42
128
186
152
52
0
4
0
4
4
6
2
16
24
20
18
54
80
88
80
52
28
18
20
22
54
60
34
8
46
60
46
44
42
40
54
58
48
52
82
124
146
138
120
98
86
86
94
100
92
80
74
78
76
56
60
56
48
56
54
60
74
82
84
70
54
70
80
70
50
46
46
62
78
74
56
34
28
38
62
84
84
70
50
24
26
62
112
160
198
244
255
255
255
255
255
138
74
82
114
140
184
212
186
130
84
44
26
20
12
8
2
6
12
26
20
20
126
255
255
255
255
255
255
255
246
232
194
138
86
34
46
94
132
160
182
184
168
134
92
60
42
46
56
58
58
58
62
62
54
42
32
20
22
16
24
30
32
26
22
26
18
6
14
30
38
34
26
66
142
196
188
94
134
100
34
30
44
72
110
128
136
158
178
170
132
74
22
12
26
54
110
170
184
142
66
58
56
48
54
56
64
62
56
60
66
66
76
86
100
128
160
192
226
255
255
255
255
255
255
255
174
76
18
4
4
4
0
0
4
4
4
4
20
126
224
188
112
80
172
255
255
238
156
84
32
42
44
36
24
12
16
28
38
38
30
26
26
26
28
20
14
22
22
18
6
10
26
28
26
38
48
50
42
32
32
34
36
32
24
30
36
46
44
48
58
60
54
42
74
66
22
74
72
30
44
70
50
20
18
42
44
28
26
56
70
58
44
32
24
16
24
26
24
22
14
2
6
14
22
24
14
16
20
22
22
22
32
24
18
30
32
18
18
34
46
42
28
16
6
10
20
16
24
24
16
16
16
14
20
24
16
20
22
30
32
14
20
14
2
8
2
14
18
18
24
22
16
16
18
18
18
16
14
8
12
10
8
12
12
10
20
18
14
10
12
14
20
14
16
18
10
10
8
12
16
16
18
14
8
8
8
6
6
2
4
14
24
8
12
14
38
46
220
255
255
255
92
74
58
46
50
44
48
38
16
6
12
8
2
6
14
12
10
10
4
2
8
10
8
6
8
12
20
22
28
72
140
176
158
108
74
72
66
40
72
92
90
86
96
116
122
110
92
66
50
62
96
118
158
160
114
60
86
104
100
76
54
32
22
24
14
22
20
28
62
68
56
44
38
32
20
8
22
34
32
36
46
46
30
18
36
48
56
58
44
16
20
22
12
26
28
18
10
24
34
24
26
30
22
12
8
28
44
48
36
18
8
6
6
6
6
10
12
16
22
28
34
22
8
34
38
34
46
28
2
12
8
10
24
26
24
20
20
22
30
32
32
22
6
6
8
10
12
6
6
18
26
12
20
18
8
26
32
24
14
12
6
12
24
24
16
16
16
12
10
2
14
22
26
18
24
26
18
2
26
38
54
92
150
236
255
255
255
242
200
206
222
186
106
40
34
26
70
118
176
236
255
255
250
176
110
86
82
84
82
52
16
2
20
34
34
22
12
8
10
10
14
10
32
94
158
182
134
42
0
4
0
4
4
6
6
4
2
6
26
52
74
82
84
86
90
90
58
24
28
50
58
44
30
38
58
80
88
76
66
62
64
74
96
124
144
150
152
146
138
130
126
120
102
90
86
88
86
76
76
70
66
82
88
100
116
124
128
114
92
92
94
80
80
86
78
78
90
102
94
64
44
42
54
70
78
76
72
70
154
250
255
255
255
255
255
255
255
255
178
128
154
118
102
128
168
172
134
92
60
32
22
16
8
10
12
14
16
32
14
38
104
224
255
255
255
255
255
255
255
255
255
255
255
255
198
98
52
90
142
158
152
142
126
102
76
62
54
50
54
60
68
72
70
62
54
42
24
8
10
20
32
30
20
20
14
16
30
36
24
16
12
78
158
198
144
8
80
32
46
40
20
42
88
118
122
132
160
194
202
168
120
84
64
42
54
94
132
126
112
88
52
54
46
44
60
74
78
74
72
82
96
114
142
178
208
240
255
255
255
255
255
255
255
174
82
20
4
6
2
4
0
0
4
6
6
2
32
136
210
160
92
78
118
176
214
202
144
72
24
52
60
50
40
28
38
44
46
42
34
28
26
24
20
8
2
8
10
14
10
18
28
28
26
28
28
34
34
26
18
10
16
26
28
34
32
32
24
18
32
50
60
58
92
84
44
86
94
66
54
84
70
34
16
40
30
14
22
50
74
74
58
36
22
12
20
24
24
18
12
10
14
20
28
28
26
30
30
22
12
16
16
8
10
18
22
16
12
18
28
30
26
16
10
18
16
8
16
18
18
16
16
12
14
22
20
26
18
26
30
16
12
8
8
16
14
22
26
26
26
20
8
4
6
10
14
14
12
2
4
10
12
14
4
2
6
12
16
18
12
8
16
14
10
12
12
16
14
4
10
18
14
12
14
10
6
6
6
4
8
14
24
8
12
18
42
14
190
255
255
255
108
82
66
50
42
26
34
34
22
6
8
10
2
12
14
8
4
8
12
14
12
6
4
4
2
10
10
20
32
48
84
120
138
136
124
104
70
22
56
60
34
20
18
34
66
94
100
90
66
42
78
130
132
98
54
30
60
84
88
72
58
48
44
38
18
12
8
4
30
48
46
38
36
40
36
32
40
36
14
20
30
40
40
20
10
34
52
66
60
28
20
22
4
18
10
34
42
38
48
54
68
68
46
24
10
22
32
56
76
72
54
24
12
18
16
26
24
18
18
24
28
10
22
38
34
16
40
38
20
10
16
26
20
24
16
14
16
20
18
20
12
6
8
4
12
10
6
2
4
4
14
16
20
10
8
24
24
12
2
14
20
18
18
26
20
10
10
10
14
18
10
8
22
24
16
12
26
20
44
60
94
160
244
255
255
255
255
176
144
146
150
116
54
28
32
72
116
162
218
255
255
236
150
76
44
58
76
80
68
32
10
10
32
48
38
16
10
6
4
4
10
16
60
120
160
160
106
30
0
4
0
4
2
4
4
2
2
4
26
58
80
76
64
70
96
120
98
42
20
22
54
66
50
44
50
68
82
82
80
74
76
84
98
122
144
156
162
164
166
164
162
154
134
126
128
132
130
124
128
124
124
128
124
126
134
136
134
124
106
84
78
62
68
84
84
74
74
114
180
230
250
236
200
168
160
176
250
255
255
255
255
255
255
255
255
255
148
146
255
255
134
52
74
136
160
134
94
66
46
28
20
14
8
10
10
12
16
28
8
38
108
198
255
255
255
255
255
255
255
255
255
255
255
255
255
255
255
255
170
128
60
100
156
172
148
112
76
50
46
50
54
52
46
46
56
66
50
20
28
14
26
30
24
18
14
20
32
30
20
10
4
54
144
202
168
54
114
42
42
72
68
72
100
130
136
134
146
186
232
240
218
190
162
122
110
154
182
180
150
96
44
64
58
50
60
76
88
86
88
98
110
130
154
182
208
252
255
255
255
255
255
252
156
82
24
2
4
4
2
4
0
0
2
4
4
2
40
130
186
158
94
100
154
204
216
204
154
72
10
64
82
84
76
58
58
54
52
50
38
24
18
10
6
8
12
20
28
28
22
18
26
26
16
4
10
34
46
32
26
10
10
10
18
12
6
22
28
22
8
16
38
66
104
96
80
122
126
90
60
90
86
62
26
36
32
22
22
34
56
70
66
48
32
20
22
20
16
10
14
18
16
12
14
16
18
36
42
32
16
4
6
8
16
24
20
12
14
14
14
24
34
30
20
12
2
6
12
12
18
18
20
16
12
16
18
12
8
16
16
8
4
2
6
18
20
18
22
24
24
18
8
4
4
6
8
8
10
10
14
18
16
10
6
2
12
24
32
20
6
4
12
6
2
8
8
18
16
16
18
10
6
8
12
12
4
4
2
8
10
14
32
20
20
28
52
24
184
255
255
255
112
72
60
28
14
36
52
48
26
4
10
8
8
16
12
4
14
20
22
20
22
16
12
8
6
16
18
30
32
26
26
24
36
72
114
132
106
50
72
62
22
18
12
30
44
100
144
166
148
96
114
116
72
64
48
50
80
94
86
54
40
52
66
64
34
8
18
18
26
32
28
20
18
30
42
52
42
24
20
36
32
30
48
42
14
16
38
58
66
46
22
20
8
20
10
16
28
30
20
14
14
10
58
116
162
184
200
216
194
154
134
72
36
46
36
18
6
8
12
18
26
18
24
26
28
12
18
32
32
12
24
24
4
10
10
8
10
14
12
20
22
16
8
14
14
10
6
2
8
16
12
10
22
16
20
28
32
28
24
32
24
10
2
12
16
6
4
8
6
14
28
26
16
14
12
14
22
28
58
94
160
250
255
255
255
255
200
140
116
106
94
66
22
28
66
106
146
198
252
255
234
150
122
100
64
56
78
72
52
24
20
36
52
50
26
6
12
4
2
4
4
22
74
128
150
130
76
20
0
4
0
4
0
0
0
2
4
4
16
46
72
64
34
34
54
94
100
58
14
8
32
62
60
46
34
38
50
60
74
78
78
80
92
98
122
144
150
146
148
160
174
172
158
162
180
190
184
176
180
180
188
186
174
164
160
154
144
136
124
104
84
70
72
86
98
92
72
216
255
255
255
255
255
255
255
255
255
255
255
255
255
255
216
110
92
232
255
255
255
186
22
12
76
158
158
112
70
48
34
18
14
12
8
8
4
2
12
18
6
26
74
116
130
122
136
150
162
166
186
220
255
255
255
255
255
255
255
255
255
255
234
80
54
140
164
148
112
72
52
48
48
48
40
22
38
66
74
50
24
18
24
28
28
22
18
26
34
26
14
10
8
86
174
212
152
2
84
50
24
50
54
66
94
126
144
148
150
168
206
230
232
224
206
180
164
198
206
194
166
116
70
86
82
70
74
86
96
96
96
102
116
138
158
184
222
255
255
255
255
255
208
126
56
22
4
0
4
2
2
2
0
0
0
0
0
4
38
124
192
174
118
128
178
230
250
234
168
72
44
66
74
64
42
36
38
34
42
56
52
34
16
8
2
14
26
36
38
30
26
28
38
34
20
18
40
68
64
44
60
44
14
12
10
32
42
44
50
44
38
28
18
28
52
38
58
138
140
68
34
68
74
70
46
32
12
16
22
26
36
46
48
46
42
34
24
12
4
8
14
12
14
14
26
30
8
24
42
40
32
16
6
16
26
34
22
6
6
16
30
40
40
24
6
10
18
16
16
14
18
18
24
20
8
6
4
10
14
16
16
8
4
4
10
16
12
2
8
16
24
22
18
16
16
12
10
12
14
16
14
10
6
4
6
10
18
26
28
16
8
8
6
4
4
4
4
8
6
10
20
14
8
12
16
16
8
8
4
16
14
20
36
14
10
24
66
38
178
255
255
255
114
50
48
12
14
46
46
32
8
10
18
14
14
16
14
10
14
14
8
6
8
10
16
20
16
6
22
32
30
30
40
44
32
26
48
94
94
48
50
38
16
26
28
42
38
40
84
126
128
84
54
40
12
30
54
84
102
98
82
44
4
22
52
70
54
18
18
18
20
22
18
18
10
16
24
20
24
32
38
34
14
16
40
42
42
40
64
94
118
116
88
46
22
66
88
108
138
172
218
244
255
255
255
255
255
255
255
255
255
164
112
90
30
34
62
46
22
14
14
18
22
20
18
16
22
20
12
24
36
24
30
22
0
16
14
10
12
14
18
18
10
2
16
20
12
10
12
8
4
4
12
14
12
8
16
26
28
20
18
20
10
6
4
10
18
20
14
2
12
20
48
78
90
86
58
32
34
44
82
138
224
255
255
255
255
212
142
102
92
82
62
34
4
48
78
94
124
178
220
208
156
92
80
84
66
76
70
50
36
28
38
46
46
36
18
8
10
10
14
16
12
26
88
148
154
108
52
10
2
4
2
6
4
2
2
8
12
12
10
24
54
48
14
6
18
54
72
56
30
14
20
40
48
48
44
48
58
64
68
62
60
70
86
86
84
106
114
110
112
136
166
166
150
188
212
234
220
182
168
166
192
216
228
228
224
222
220
220
212
198
188
180
176
172
178
182
248
255
255
255
255
255
255
255
255
255
255
255
255
238
130
26
188
255
255
255
255
255
238
72
36
6
102
168
152
96
46
26
18
12
14
8
4
8
4
4
8
12
10
6
34
58
54
28
8
34
42
40
22
4
36
88
146
212
255
255
255
255
255
255
255
255
255
124
54
106
146
136
102
74
66
60
46
34
30
40
52
50
36
28
30
34
36
30
18
22
34
36
30
18
8
120
218
255
240
106
130
80
16
14
20
24
62
98
128
146
146
144
158
180
202
220
220
208
204
214
212
208
194
158
122
130
128
114
110
112
118
122
114
120
140
168
186
214
255
255
255
255
228
150
78
28
4
0
4
2
4
0
0
0
0
0
2
4
4
2
36
124
198
182
158
180
216
248
244
210
138
50
62
92
82
56
28
34
28
2
18
40
52
42
22
8
10
28
34
34
28
24
34
42
46
40
36
52
76
84
60
38
64
70
46
20
22
28
14
18
48
62
68
66
62
62
58
20
78
138
114
64
38
42
44
52
52
42
24
14
20
32
46
44
22
26
36
38
32
22
6
16
16
2
22
28
24
40
28
2
24
30
34
28
20
20
30
34
18
18
6
20
34
34
22
0
18
28
26
22
20
10
14
10
18
18
10
10
14
14
8
14
18
8
6
8
10
8
14
10
12
10
18
20
20
20
20
16
6
12
12
10
0
4
2
6
10
14
14
16
16
10
10
16
14
10
8
8
12
16
16
20
26
16
8
12
16
18
12
12
12
22
14
22
42
30
18
38
74
38
162
255
255
255
130
54
48
6
6
28
34
26
12
20
24
18
26
26
18
18
26
14
10
18
14
8
2
16
30
34
26
18
18
26
34
32
20
24
40
48
64
44
24
20
12
22
40
30
6
16
38
52
60
44
12
32
40
50
76
80
68
58
48
20
14
8
24
54
58
40
16
4
2
12
26
30
16
10
30
36
32
42
40
20
6
12
40
68
72
52
34
30
32
52
98
156
208
252
255
255
255
255
255
255
255
255
255
255
255
255
255
255
255
210
110
82
112
76
18
68
58
30
16
20
22
20
12
12
6
10
4
14
30
28
30
22
12
20
12
4
2
0
4
4
16
24
24
14
4
2
6
8
18
24
16
6
20
20
2
14
18
10
4
4
2
6
8
10
14
20
26
18
8
34
88
122
102
126
92
40
40
58
106
176
254
255
255
255
210
128
76
62
72
66
42
16
26
60
70
72
114
164
182
158
120
100
110
122
106
84
58
40
36
34
36
26
18
18
16
20
22
20
24
24
24
28
104
168
150
80
28
2
4
0
4
2
6
4
6
20
26
24
20
24
44
42
12
4
28
58
56
44
42
40
36
36
34
40
50
60
70
76
78
60
50
64
74
62
54
70
74
68
68
96
134
138
158
218
214
222
226
180
136
142
162
200
248
255
255
255
255
250
232
204
186
180
180
166
150
146
255
255
255
255
255
255
255
255
255
255
164
32
78
160
255
255
255
255
255
255
255
176
142
118
68
58
136
174
146
82
28
20
22
14
16
14
10
8
2
4
8
12
12
6
8
26
36
42
32
16
6
28
46
60
70
68
56
34
8
20
62
156
255
255
255
255
255
255
255
102
30
100
112
94
84
86
80
64
40
24
20
28
34
32
36
42
46
40
22
16
24
34
36
28
20
164
255
255
255
170
102
38
22
34
12
14
50
82
108
124
122
116
126
162
208
250
255
252
234
238
250
255
238
204
182
182
202
192
174
168
176
180
178
178
206
238
254
255
255
255
255
210
130
60
16
2
0
0
2
2
2
0
0
0
0
0
4
6
6
2
22
106
194
210
244
255
255
255
208
154
88
26
58
104
106
76
34
18
10
10
14
24
48
44
18
14
34
42
36
32
30
38
54
56
56
58
60
72
80
76
52
40
42
38
26
32
56
88
138
188
226
248
255
255
255
255
255
228
194
170
126
56
14
28
22
24
34
38
32
16
20
38
46
30
14
16
20
32
32
28
16
14
18
4
28
38
24
32
20
10
18
18
20
20
22
24
26
22
8
18
10
16
34
32
20
16
20
12
12
12
10
4
4
10
20
22
18
12
6
4
4
12
24
24
18
10
6
4
4
8
12
8
2
8
6
8
16
16
6
14
16
14
6
2
14
18
16
14
12
16
18
10
4
4
6
8
6
4
6
8
8
14
18
8
6
12
10
10
10
10
14
18
6
16
32
24
12
30
62
30
150
255
255
255
120
46
40
18
20
44
50
40
16
8
20
8
18
30
18
8
22
14
10
22
14
12
22
20
2
28
44
38
30
34
50
64
56
38
34
54
74
82
68
46
40
38
32
22
12
14
22
36
60
66
56
46
78
90
68
34
12
20
42
30
18
6
24
40
46
46
36
22
10
6
14
22
24
32
40
46
54
62
54
26
12
34
74
138
218
255
255
255
255
255
255
255
255
255
255
255
255
255
255
255
255
255
255
255
255
255
255
255
255
255
246
255
255
255
134
28
80
58
32
32
38
34
26
16
10
8
4
4
14
20
22
16
18
24
18
16
20
20
22
18
26
26
16
12
12
22
26
32
28
6
12
16
18
26
16
6
18
20
12
6
2
2
2
6
8
6
12
18
6
46
88
68
6
64
60
10
42
76
134
200
246
255
232
176
128
80
38
50
62
46
20
8
34
62
78
106
160
208
220
190
160
148
150
144
112
88
72
62
54
36
16
6
20
26
12
10
16
12
12
14
24
38
128
182
130
42
2
14
14
14
8
4
6
4
6
16
14
6
14
16
36
46
28
16
32
58
62
52
56
70
76
70
50
36
48
54
54
60
88
96
86
72
66
50
54
74
72
50
34
52
90
104
172
192
156
158
200
194
160
168
194
208
216
255
255
248
204
152
96
76
98
132
170
182
154
150
246
255
255
236
98
112
108
114
126
156
112
160
238
255
255
255
255
255
255
255
158
118
126
116
72
108
168
180
140
76
30
20
20
14
12
6
2
2
0
2
4
8
10
6
8
14
20
28
30
30
32
24
22
32
58
88
112
130
132
138
130
98
38
100
212
255
255
255
255
255
255
156
88
50
84
86
74
62
48
34
22
26
36
32
34
42
50
50
34
22
22
32
34
24
14
168
248
255
255
194
88
52
40
26
46
74
80
82
102
110
104
98
140
174
208
242
255
255
248
254
255
255
232
202
198
200
208
222
200
192
210
206
218
224
254
255
255
255
255
255
212
128
58
18
2
0
0
0
0
0
0
0
0
0
0
0
4
4
4
4
10
88
190
254
255
255
255
208
128
86
88
48
14
74
98
80
38
2
12
8
26
54
64
38
6
34
44
38
28
32
42
56
66
60
60
66
66
74
84
96
88
102
108
98
96
172
234
255
255
255
255
255
255
255
255
255
255
255
255
255
154
60
18
42
20
6
16
22
22
18
16
30
44
36
16
8
2
18
26
30
30
22
18
12
20
42
48
32
8
12
20
24
28
26
22
20
24
22
8
14
8
14
32
32
20
14
2
18
28
26
16
10
8
20
24
22
12
6
10
8
6
4
16
26
30
26
12
4
6
4
10
8
10
8
20
28
26
16
8
12
18
18
10
18
22
18
10
8
8
10
18
14
10
10
8
2
2
0
0
0
0
6
8
4
12
16
8
2
6
8
10
8
4
14
30
22
10
26
64
38
156
255
255
255
124
50
40
34
32
42
48
42
24
10
28
24
20
24
22
14
26
30
28
34
40
22
14
34
26
2
36
54
52
40
44
68
92
92
74
72
80
98
106
84
54
28
14
20
28
34
48
66
80
86
88
98
104
74
26
10
20
22
44
46
30
16
32
42
30
32
38
40
28
10
22
28
24
26
32
36
36
50
78
114
154
204
255
255
255
255
255
255
255
255
255
255
255
255
255
255
255
255
255
230
174
162
160
114
66
88
198
255
255
255
255
255
255
255
255
130
22
58
50
48
50
44
40
32
24
20
14
12
12
10
8
10
16
18
12
22
30
26
30
20
20
16
6
14
28
44
44
38
22
34
34
18
16
20
20
10
18
30
28
16
4
8
16
22
22
22
18
16
8
32
102
130
110
132
84
30
64
108
162
208
230
218
166
154
158
142
106
62
38
28
26
40
68
102
134
186
240
255
255
240
206
174
144
120
92
86
80
62
38
10
16
18
22
32
24
8
2
12
14
20
8
66
152
178
100
16
8
10
4
6
2
4
8
4
6
20
26
16
6
10
28
40
36
36
54
80
82
60
62
72
92
96
74
52
54
38
32
46
62
74
90
74
54
52
62
88
90
64
38
48
88
134
156
136
94
86
138
176
178
194
200
170
128
138
122
154
240
255
255
255
255
255
255
255
255
255
255
255
255
255
255
208
128
134
146
212
246
255
255
255
255
255
255
255
218
128
62
104
120
104
60
144
176
164
120
68
32
24
24
18
16
12
10
8
2
0
0
4
8
4
6
12
12
12
12
18
36
54
58
44
16
18
54
92
126
134
136
142
124
94
48
34
164
255
255
255
255
255
255
118
20
54
60
54
52
46
32
30
38
34
36
44
52
56
44
30
24
32
32
20
8
106
178
244
255
196
118
90
82
82
116
124
114
102
112
124
122
136
174
194
210
206
212
234
226
248
255
218
178
156
160
150
122
162
164
176
194
192
206
222
242
250
246
244
218
170
110
48
12
2
0
0
0
0
0
0
0
0
0
0
0
0
4
4
4
4
12
84
194
255
255
255
178
76
56
104
122
108
68
72
78
60
36
18
30
30
30
30
18
22
40
46
36
24
26
46
62
70
70
60
56
58
68
100
142
182
196
208
255
255
255
255
255
255
255
255
255
255
255
255
255
255
255
255
255
255
164
76
16
48
32
14
22
28
28
24
0
30
48
42
18
10
8
10
24
32
36
30
12
12
16
22
20
30
22
14
12
18
26
28
28
28
24
22
14
18
6
16
30
26
14
8
18
26
14
18
14
10
12
16
14
8
6
14
18
18
16
4
2
6
14
22
18
6
4
6
10
2
6
4
14
16
12
12
14
14
16
20
26
22
12
4
2
2
4
8
12
8
4
6
10
12
8
6
2
0
0
6
10
12
16
12
2
4
6
6
8
6
8
22
44
34
24
32
62
38
174
255
255
255
126
62
46
22
18
24
28
34
38
24
16
10
8
20
22
16
20
22
24
18
20
38
32
18
20
30
30
46
50
22
12
28
50
80
72
62
54
58
72
70
52
26
10
22
48
62
68
78
76
64
52
60
44
24
4
10
8
4
18
34
38
34
46
38
16
16
22
36
40
30
26
18
16
76
138
192
254
255
255
255
255
255
255
255
255
255
255
255
255
255
250
200
136
134
120
162
186
182
160
132
104
58
66
64
28
42
136
255
255
255
255
255
255
255
255
255
148
32
48
58
48
40
44
40
32
34
34
32
22
8
6
10
16
16
4
14
18
8
18
16
14
10
6
22
36
32
8
26
50
46
22
24
24
22
22
28
28
26
30
18
18
16
16
14
6
6
8
14
14
6
54
86
90
70
34
66
120
154
190
222
246
230
168
96
96
138
162
148
114
84
84
114
154
194
220
248
255
255
255
255
214
158
110
86
68
64
42
6
24
40
34
22
24
34
22
6
10
28
28
20
32
100
156
146
70
22
0
12
14
14
10
8
4
2
2
8
16
16
14
14
18
20
18
30
50
76
76
46
30
42
62
76
70
70
68
72
52
26
16
20
18
24
40
48
54
80
90
78
78
122
142
142
126
104
86
86
104
130
156
172
142
106
132
255
255
255
255
255
255
255
255
255
255
232
198
202
255
255
255
255
255
244
190
162
212
255
255
255
255
255
255
255
206
142
74
20
40
84
110
94
96
156
160
134
92
50
20
12
14
12
12
8
8
12
6
6
8
12
18
16
14
14
10
4
6
12
18
38
56
62
58
58
52
42
54
36
46
70
86
88
80
58
10
74
176
255
255
255
255
255
194
46
50
80
70
48
28
24
30
34
44
52
58
60
50
36
28
34
36
26
14
40
106
174
208
178
136
122
114
136
142
130
114
102
106
122
138
166
186
186
174
146
124
152
162
186
168
144
148
114
102
90
76
90
120
150
152
152
168
176
178
168
158
152
114
66
32
8
0
0
0
0
0
0
0
0
0
0
0
0
0
0
4
4
4
2
10
82
204
255
255
255
182
92
54
76
90
88
70
56
68
54
20
4
8
18
36
56
68
70
68
52
30
20
34
58
72
80
86
90
100
116
150
204
254
255
255
255
255
255
255
255
255
255
255
255
255
255
230
196
140
96
240
255
255
255
176
74
12
40
36
24
30
36
40
40
16
16
36
36
32
26
20
10
14
18
28
28
16
4
18
26
20
26
16
10
14
22
34
46
50
46
34
26
20
14
10
20
32
30
22
18
18
12
8
20
12
4
4
12
18
14
12
16
12
16
18
8
12
18
18
14
18
12
4
2
8
8
12
12
26
32
32
32
30
32
34
36
34
20
8
2
4
4
6
8
8
6
2
4
8
12
16
18
10
2
0
2
10
14
10
6
2
6
6
4
6
4
12
30
50
34
28
38
58
24
178
255
255
255
132
70
58
14
30
38
26
18
32
32
18
6
8
8
12
12
10
10
22
26
12
18
42
36
24
36
22
30
44
30
20
36
8
30
40
40
30
20
28
42
46
30
20
56
70
60
58
64
58
38
16
14
12
22
14
10
16
20
14
12
44
62
50
24
4
10
12
24
40
46
32
8
80
178
255
255
255
255
255
255
255
255
255
255
236
140
52
74
110
144
182
192
166
130
108
106
92
66
94
110
142
96
86
130
130
144
222
255
255
246
255
255
255
255
255
255
255
118
36
58
34
22
34
32
24
26
28
32
30
18
12
12
18
20
8
24
26
12
8
6
8
4
12
28
24
28
34
56
52
28
6
14
24
28
32
34
22
20
32
30
18
4
6
10
14
24
22
18
20
20
12
12
8
34
80
132
170
194
220
248
255
248
176
102
40
52
116
150
140
110
126
176
220
255
255
255
252
255
255
230
166
102
62
48
36
26
16
36
50
38
42
36
42
32
10
6
26
42
26
26
80
140
170
140
64
16
6
22
40
40
40
26
6
6
6
4
4
8
16
20
18
14
16
26
24
54
64
46
28
30
40
48
48
72
64
80
78
48
34
46
48
30
28
28
34
64
76
64
122
146
130
108
96
94
94
96
104
110
98
68
68
255
255
255
255
255
255
255
255
255
210
146
86
68
54
48
90
172
255
255
255
254
206
154
255
255
255
255
255
255
198
128
78
52
16
18
50
72
92
80
112
144
130
100
62
28
6
0
10
12
12
8
0
10
10
10
12
12
20
20
16
14
10
6
6
6
2
10
24
36
50
74
98
108
96
66
82
92
86
64
40
24
42
50
26
26
110
224
255
255
255
226
56
60
90
72
48
32
24
28
42
50
56
56
46
34
30
34
36
26
12
32
84
144
178
162
144
142
130
128
110
94
88
88
96
118
148
170
180
172
148
118
98
100
104
96
70
78
94
92
84
98
114
132
140
134
120
118
124
116
102
90
90
84
44
10
2
0
0
0
0
0
0
0
0
0
0
2
6
8
10
14
20
18
18
12
6
78
202
255
255
255
172
72
22
40
50
40
22
10
44
66
78
98
128
150
150
140
134
128
114
88
64
42
44
62
80
102
130
166
212
254
255
255
255
255
255
255
255
255
255
255
224
178
146
122
96
70
54
44
22
30
204
255
255
255
170
72
16
30
26
18
24
26
34
46
38
30
50
54
44
28
22
32
28
18
16
18
16
6
6
14
22
30
26
16
10
4
8
24
44
58
54
40
26
12
12
22
34
36
30
20
12
10
16
16
6
4
10
14
22
16
6
4
4
12
16
12
10
8
8
10
10
8
6
4
4
6
20
22
22
20
20
26
32
40
38
36
32
22
20
20
16
10
6
10
12
10
4
8
10
14
12
22
20
12
8
8
8
6
4
10
10
14
12
12
10
6
10
34
46
22
18
38
56
10
174
255
255
255
130
68
62
14
14
12
4
8
14
16
14
22
24
14
12
6
16
20
24
14
22
12
12
20
8
32
22
26
42
40
12
18
20
4
12
22
24
18
22
40
60
56
52
72
56
20
30
38
32
22
20
28
34
40
24
12
16
24
28
28
64
72
44
14
12
12
14
22
36
50
38
34
140
244
255
255
214
190
168
128
88
44
24
22
58
86
100
118
138
140
140
142
126
110
102
114
136
140
92
68
128
118
70
114
102
62
142
184
140
60
126
122
162
255
255
255
255
242
28
50
24
6
12
12
8
6
16
26
22
16
20
16
12
14
4
18
24
16
6
6
8
10
20
22
18
16
24
26
20
10
6
8
10
18
36
50
48
46
42
26
6
20
20
18
10
10
6
2
14
32
38
38
56
90
122
162
196
224
252
255
255
212
132
74
74
52
24
50
76
76
132
190
228
255
255
250
248
254
236
166
98
50
28
24
32
36
16
16
32
20
34
40
38
28
22
34
50
50
22
46
112
162
170
120
50
8
72
196
255
255
255
188
60
4
2
4
2
6
18
28
32
26
20
18
6
26
50
64
64
62
62
52
46
46
24
40
58
70
72
56
38
28
30
26
12
54
70
68
96
82
62
64
76
82
76
66
68
52
28
190
255
255
255
255
255
255
255
194
146
102
74
54
40
52
58
68
116
120
158
214
240
242
236
255
255
255
255
255
192
94
44
62
94
86
40
22
48
58
60
54
102
116
96
66
34
10
6
6
10
16
16
16
12
4
16
16
14
8
6
2
6
8
10
16
16
8
6
8
6
8
16
36
68
92
92
72
76
78
72
56
36
16
20
40
44
30
16
54
152
255
255
255
254
82
48
102
104
72
38
26
30
36
44
46
36
26
28
34
34
24
8
32
76
134
164
148
136
146
140
118
96
74
76
86
102
122
146
160
162
152
126
98
80
70
58
52
52
56
64
72
104
134
152
152
130
100
86
84
84
68
50
44
48
38
12
2
0
0
0
0
0
0
0
0
2
4
4
4
4
2
2
4
6
4
10
10
6
74
176
248
255
255
186
120
102
130
144
140
142
188
230
255
255
255
255
255
255
255
255
242
202
154
110
70
60
94
136
176
212
250
255
255
255
255
255
255
254
208
168
122
80
36
32
32
30
32
34
34
30
30
12
34
226
255
255
255
156
62
14
24
14
10
14
20
30
40
34
30
50
52
38
22
12
30
38
38
20
20
14
12
10
10
18
24
20
22
22
16
14
12
10
32
42
40
30
16
14
24
34
38
42
40
34
24
16
12
8
16
18
14
20
20
8
8
12
20
20
8
8
12
12
12
14
14
8
6
4
8
18
12
8
6
8
18
26
34
30
28
24
24
18
20
24
22
14
14
14
6
6
10
12
14
4
12
10
6
4
4
4
10
8
16
12
18
14
10
10
10
4
34
52
26
14
36
58
10
198
255
255
255
114
68
64
14
14
10
4
10
12
18
26
22
16
10
16
12
22
24
36
34
18
10
32
28
14
32
30
18
30
48
42
20
14
10
10
18
26
28
26
32
52
64
72
74
36
26
40
36
26
28
52
50
58
64
42
14
20
20
26
32
64
66
34
14
20
12
4
14
30
52
46
54
148
206
170
80
92
160
226
252
248
220
194
172
142
114
98
84
66
36
40
48
48
62
56
50
94
144
136
58
74
108
42
58
90
56
32
120
114
44
162
182
66
212
255
255
255
255
112
60
28
10
14
4
6
20
30
26
12
6
16
24
22
16
8
16
22
20
10
14
16
20
18
10
12
4
6
20
26
18
14
18
12
2
20
34
34
28
18
10
10
8
4
12
12
14
18
14
12
20
40
60
78
114
146
184
214
238
254
250
224
158
92
54
72
86
72
50
22
32
94
156
200
230
234
222
214
202
164
102
54
24
10
16
26
34
22
26
46
48
42
30
28
30
24
30
32
20
18
60
98
124
118
80
104
206
255
255
255
255
255
255
154
4
8
8
10
6
12
18
26
28
22
10
2
4
20
50
74
80
80
66
42
28
26
34
48
62
86
108
94
50
28
42
46
54
74
66
64
50
48
60
68
62
48
34
18
68
255
255
255
255
255
255
255
118
38
6
4
16
28
32
36
48
66
104
118
72
112
186
252
255
255
255
255
255
255
116
12
66
68
86
122
114
56
18
44
44
30
50
78
84
66
40
16
6
8
8
4
12
12
14
16
6
14
22
22
16
12
10
10
6
4
8
18
12
6
4
4
4
6
10
24
44
48
44
42
52
52
44
28
14
14
16
12
2
12
20
12
106
250
255
255
255
82
58
118
102
62
36
26
28
36
40
30
20
24
34
40
26
6
34
58
116
146
132
120
128
138
136
126
104
88
100
112
120
134
140
134
118
90
88
70
58
56
62
74
80
74
92
116
132
126
106
76
64
64
56
56
44
30
22
18
10
4
2
0
0
0
0
0
0
2
6
12
16
16
16
6
6
10
14
18
18
18
4
60
164
255
255
255
240
236
236
255
255
255
255
255
255
255
255
255
255
255
255
255
255
255
255
255
208
142
92
104
172
234
255
255
255
255
230
186
158
140
132
108
66
32
28
44
62
66
62
48
34
28
32
32
52
26
40
255
255
255
255
132
38
8
18
10
6
2
14
32
38
22
6
30
36
28
20
16
16
24
28
22
22
30
32
24
18
14
10
6
8
12
12
12
18
24
32
34
28
22
22
18
22
24
18
20
30
38
34
20
16
20
26
14
14
16
24
22
12
16
20
14
6
4
8
12
12
12
12
6
8
8
8
14
14
12
4
10
16
18
20
16
12
16
16
8
6
12
16
14
12
8
4
14
14
14
8
12
30
30
20
18
14
12
12
20
16
0
10
10
4
4
8
4
32
54
30
18
38
58
42
240
255
255
255
96
68
68
16
12
8
10
14
10
12
26
30
30
22
22
14
18
16
4
12
16
20
16
8
10
8
16
12
12
28
40
32
6
6
6
22
34
40
28
14
26
54
74
64
50
60
66
64
56
70
66
46
54
64
54
28
32
28
28
26
52
54
22
12
18
20
12
18
16
42
48
48
104
202
224
180
132
120
128
132
134
134
120
92
60
54
68
74
74
64
70
92
108
110
84
60
78
126
152
106
22
58
52
14
82
100
28
102
152
58
78
172
154
34
255
255
255
255
230
56
8
16
14
2
4
18
30
30
16
12
16
14
20
26
22
22
26
24
16
16
16
16
12
6
4
6
8
10
24
24
24
20
20
14
2
16
28
28
18
6
18
36
40
36
22
16
14
16
22
24
34
50
76
128
168
196
212
216
208
188
164
122
76
42
42
48
42
40
56
72
94
138
190
214
204
172
138
116
98
70
42
20
8
14
22
32
34
22
12
22
20
18
10
6
4
16
36
44
30
48
116
186
236
255
255
255
255
255
255
255
255
255
216
14
22
14
22
6
2
2
6
14
20
20
6
8
14
14
34
52
62
62
52
52
62
74
74
54
58
68
84
70
60
98
100
80
80
74
76
86
84
74
58
36
22
6
70
255
255
255
255
255
255
180
64
32
30
16
10
22
22
22
20
56
126
180
142
14
126
218
255
255
255
255
255
210
90
28
112
142
116
110
144
142
82
30
60
40
6
36
54
56
40
20
6
6
8
8
2
8
10
10
12
12
6
14
16
8
2
4
8
12
18
12
4
10
10
8
6
6
4
8
16
20
20
26
38
52
48
38
22
18
14
12
8
4
6
20
20
10
102
238
255
255
240
70
50
88
80
58
38
36
46
50
36
22
24
36
48
46
32
16
40
86
112
100
72
68
80
98
112
106
90
92
100
102
112
112
96
70
56
66
58
52
62
70
80
90
82
88
100
94
68
44
26
26
32
30
30
26
18
10
6
4
4
2
0
0
0
2
6
6
4
4
6
8
6
10
8
44
86
120
154
182
196
214
254
255
255
232
162
224
255
255
255
255
255
255
255
255
255
255
255
255
255
255
255
255
255
255
246
186
136
100
174
246
255
255
250
210
172
122
72
50
40
58
66
58
50
36
30
30
34
36
28
14
12
16
14
46
32
44
255
255
255
255
92
10
20
22
16
6
10
12
26
42
30
4
34
40
26
18
12
4
12
16
14
18
28
24
14
16
4
8
12
10
4
4
8
16
30
40
40
28
12
10
12
18
24
14
6
12
26
32
24
20
24
18
12
10
6
18
26
22
14
6
2
8
6
12
16
16
14
14
10
12
16
14
6
2
4
8
14
18
18
16
10
0
10
12
8
8
10
8
0
4
4
10
18
16
10
4
22
32
22
12
12
6
4
6
20
24
12
10
10
8
8
12
12
36
56
30
22
38
48
68
254
255
255
255
96
62
58
10
12
16
6
8
12
14
22
24
24
22
12
6
12
24
24
26
26
18
14
12
10
6
6
18
18
4
22
26
10
10
14
16
32
50
42
14
34
52
50
32
44
56
62
56
40
44
34
38
54
64
58
36
38
38
40
28
48
44
14
14
10
12
14
22
18
14
20
20
68
162
218
216
176
122
76
38
20
36
64
68
34
28
60
62
84
86
88
102
126
150
138
118
118
134
158
144
80
6
62
38
42
102
60
66
148
108
64
108
156
52
200
255
255
255
255
138
26
24
24
12
10
6
22
34
26
32
24
16
26
32
14
10
12
10
6
6
8
10
10
16
8
8
6
2
12
20
20
16
20
16
10
38
48
28
34
22
30
32
28
24
18
14
16
28
38
32
28
40
72
124
150
158
162
156
146
136
128
100
62
30
42
38
22
10
38
94
166
222
244
226
172
112
70
66
78
70
52
36
32
42
42
36
26
20
14
10
16
16
18
14
24
34
40
50
46
22
98
224
255
255
255
255
255
255
255
255
255
255
222
16
28
12
28
8
4
4
6
0
12
24
18
10
12
16
2
18
36
42
36
36
46
64
74
54
32
42
60
56
82
116
104
66
66
56
74
84
68
50
34
16
2
76
255
255
255
255
255
255
92
52
12
30
38
30
34
32
12
18
52
100
148
150
50
106
226
255
242
232
224
170
100
34
44
104
128
100
32
48
104
100
74
60
96
68
58
62
62
64
52
34
16
4
6
10
4
4
10
12
12
14
8
10
12
6
4
4
2
0
6
8
6
8
14
18
14
4
0
4
12
10
2
14
34
42
32
20
8
8
10
6
2
4
4
4
6
22
24
104
252
255
255
212
52
60
104
90
56
44
54
60
48
36
30
32
40
44
38
16
32
58
78
72
36
20
2
24
54
68
68
62
72
82
92
82
52
18
16
30
32
48
58
56
54
62
60
58
62
44
18
6
2
2
4
4
4
4
2
0
0
0
0
0
0
0
2
8
16
14
16
4
8
14
16
10
90
226
255
255
255
255
255
255
255
255
144
72
168
255
255
255
255
255
255
255
255
238
188
168
156
136
90
68
178
255
255
255
204
94
92
152
234
255
242
196
152
116
96
76
56
50
46
46
38
32
26
14
10
18
26
26
22
26
18
20
16
42
38
54
255
255
255
240
56
16
16
24
18
10
14
12
10
36
44
20
36
34
32
20
10
4
12
14
12
8
20
20
16
16
10
4
2
4
6
4
2
12
22
22
16
12
14
22
28
32
28
10
12
8
6
18
20
16
12
6
12
10
2
10
20
24
18
12
22
24
22
24
24
22
18
16
12
14
22
24
28
24
18
18
20
28
26
16
8
10
14
12
12
14
14
14
14
12
6
12
18
10
4
16
18
14
20
26
24
16
14
2
14
20
16
4
10
16
18
22
14
32
50
24
20
34
34
70
240
255
255
255
88
62
62
16
8
14
16
20
22
14
12
20
18
12
2
4
4
4
18
26
22
16
6
4
6
12
12
24
34
22
28
22
8
6
12
8
12
44
54
30
32
30
20
16
26
24
22
24
24
28
24
14
50
70
58
30
30
36
48
40
50
36
10
16
12
6
8
18
26
28
20
10
16
58
114
166
198
192
158
108
66
82
116
150
124
90
90
72
82
102
106
92
88
120
152
176
188
180
178
170
132
42
60
82
12
74
66
30
90
68
8
88
138
82
104
255
255
255
255
220
46
38
58
28
30
24
28
48
52
40
20
18
22
18
16
32
28
20
12
10
6
8
8
14
16
4
4
8
12
10
10
12
18
10
8
26
28
18
30
24
34
34
30
30
24
22
30
46
56
48
38
48
74
100
96
102
120
138
150
150
144
108
54
8
26
40
32
72
158
248
255
255
255
214
126
68
50
64
82
76
62
54
56
54
36
18
12
16
30
34
20
16
10
6
18
14
14
4
38
106
240
255
255
255
255
255
255
134
178
255
255
255
216
16
26
4
28
8
4
4
6
4
4
16
20
16
10
8
8
2
16
22
12
8
10
6
28
40
40
52
60
42
70
82
54
24
32
22
38
34
14
6
10
4
62
255
255
255
255
255
234
68
16
48
36
20
20
16
18
10
26
56
82
96
80
118
106
200
210
140
44
18
32
38
46
80
114
116
64
36
114
168
172
110
16
96
128
94
106
106
92
88
74
52
26
10
12
16
6
4
12
16
14
16
14
14
12
4
6
6
14
26
26
18
10
18
22
22
28
20
8
4
14
16
8
18
32
28
10
2
4
4
6
4
0
0
0
8
6
20
28
24
138
255
255
255
160
50
120
124
76
50
56
64
56
50
40
26
22
24
20
28
34
40
66
84
68
30
26
34
30
40
42
50
68
86
84
62
30
6
8
14
24
44
38
28
24
28
32
30
28
12
2
2
0
0
0
0
0
0
0
0
0
0
2
6
8
8
4
4
12
8
12
28
106
174
228
255
255
255
255
255
255
255
255
255
226
128
142
206
255
255
255
248
198
158
130
100
58
14
10
10
8
26
108
254
255
255
255
240
128
52
126
210
240
220
168
116
82
62
66
74
70
66
64
64
56
44
40
40
40
38
32
18
10
22
16
12
18
46
38
70
255
255
255
222
42
56
20
14
6
12
16
20
20
22
24
18
20
26
38
30
18
14
20
24
18
6
18
24
18
12
6
4
10
12
12
10
4
10
28
32
18
10
10
18
26
22
8
8
12
4
6
2
10
12
6
4
10
12
10
10
18
20
12
16
24
18
20
24
22
18
18
18
16
14
16
16
22
28
22
20
30
40
30
16
8
14
10
8
12
12
6
8
10
14
6
10
16
6
14
18
8
6
18
20
14
14
14
6
8
12
14
10
10
12
12
18
14
24
46
22
18
28
22
74
242
255
255
255
88
62
60
18
18
20
20
18
26
28
30
20
14
12
8
8
8
12
16
18
14
14
12
6
4
10
10
12
32
32
24
10
8
2
12
18
8
22
44
38
20
16
22
24
24
16
24
30
18
10
32
22
16
44
42
18
16
16
28
30
32
20
0
8
10
10
20
30
28
16
26
22
8
14
46
98
152
192
212
202
162
128
132
156
152
116
108
118
130
148
176
154
112
110
146
188
202
182
164
164
162
100
30
78
46
66
48
36
84
66
10
74
124
96
30
246
255
255
255
255
68
56
54
20
18
24
52
64
52
28
4
4
8
14
18
20
10
4
6
10
10
14
12
0
10
8
8
16
22
8
10
16
12
10
10
18
24
20
16
14
28
40
42
36
26
32
46
56
56
42
28
36
54
88
114
132
156
180
198
200
202
188
154
116
86
88
114
176
250
255
255
255
212
150
94
70
72
78
84
74
60
54
48
32
18
18
16
30
38
28
14
16
16
12
28
28
30
30
94
212
255
255
255
255
255
234
48
214
255
255
255
255
182
16
26
10
28
6
4
4
4
4
0
4
8
12
12
6
6
4
6
12
16
18
12
14
2
16
30
50
60
44
54
54
22
6
14
10
18
12
14
6
12
18
172
255
255
255
255
226
70
26
18
48
42
24
14
12
16
16
42
60
64
44
70
96
156
164
108
74
96
100
90
78
90
108
106
66
12
88
132
140
124
68
58
88
108
72
100
108
84
66
48
42
34
16
12
16
14
10
16
18
12
10
8
8
8
8
10
22
36
38
28
32
18
32
36
26
40
40
30
20
24
16
6
28
36
20
2
6
4
4
4
2
0
0
0
4
6
10
20
22
46
174
255
255
255
80
82
130
96
70
70
70
58
50
40
24
16
18
18
26
28
24
54
94
112
96
80
68
48
44
38
60
78
86
70
48
28
26
26
22
28
26
10
2
2
4
8
8
6
2
0
2
0
0
0
0
0
0
0
0
0
0
4
10
10
10
10
4
12
14
36
204
255
255
255
255
255
255
255
70
124
255
255
255
255
255
255
255
202
150
120
100
66
36
16
2
4
4
0
4
20
68
162
252
252
186
104
88
94
140
198
210
188
152
110
78
62
58
76
88
78
66
60
58
52
46
44
36
22
10
4
14
16
24
30
20
28
42
32
100
255
255
255
214
46
78
52
50
32
6
8
18
24
26
20
10
12
22
34
38
34
20
14
28
24
18
8
12
10
10
6
8
12
12
12
14
12
4
18
26
18
14
18
24
24
18
22
26
22
14
2
6
6
10
10
8
12
16
22
20
20
18
4
6
10
6
16
26
30
22
12
18
26
34
34
22
10
4
6
18
32
34
16
20
18
12
8
4
8
14
18
18
8
10
4
8
16
10
16
16
8
10
18
16
18
24
22
8
6
12
14
10
10
10
6
8
8
18
46
24
20
30
6
98
255
255
255
255
90
68
72
34
34
32
10
2
10
32
56
56
36
24
22
12
8
18
26
18
4
8
20
24
20
30
34
18
10
18
18
10
8
12
2
18
20
8
16
24
14
2
4
2
6
18
40
66
72
54
32
18
38
46
24
14
8
4
4
6
6
4
2
10
18
14
4
28
52
44
18
14
28
38
50
76
94
118
168
222
232
190
140
120
118
110
116
158
172
162
222
220
166
128
138
174
186
166
144
144
162
144
62
28
40
52
18
38
52
78
40
44
116
122
54
116
255
255
255
255
126
48
52
44
26
32
36
36
22
10
20
24
26
24
6
20
28
30
20
6
8
20
26
16
10
16
16
16
30
22
10
14
18
16
16
22
20
16
20
18
24
22
20
22
24
38
48
48
40
24
16
28
46
58
80
100
132
172
210
230
240
240
230
214
196
180
200
226
236
208
164
114
80
76
70
74
78
72
70
56
40
28
10
10
6
10
26
28
16
24
24
28
26
28
36
34
16
52
168
255
255
255
255
255
206
142
102
255
255
255
255
255
120
16
20
12
20
2
8
8
8
8
2
0
0
2
6
6
6
2
12
16
12
24
24
24
16
10
14
30
46
44
44
44
20
12
14
14
12
6
8
6
8
98
255
255
255
255
246
74
56
52
28
42
36
20
8
12
16
26
36
36
40
48
52
88
90
60
22
6
18
14
16
30
60
68
66
46
40
54
84
96
82
22
70
126
106
32
58
82
92
106
94
70
38
4
20
32
28
18
24
24
12
6
4
6
12
22
34
46
42
24
14
24
24
44
46
32
42
48
44
38
26
6
30
44
36
14
4
6
4
4
4
4
4
4
2
0
0
4
12
10
36
76
238
255
255
190
32
92
100
94
94
82
64
52
38
24
18
22
30
16
16
12
30
58
80
86
78
66
62
54
50
70
72
60
44
30
18
18
22
20
16
8
4
6
4
0
0
0
0
2
2
2
0
0
0
0
0
0
2
6
10
10
4
8
10
8
10
82
188
255
255
255
255
255
255
255
255
168
186
255
255
255
255
255
255
255
220
134
68
34
26
26
22
22
24
20
14
4
6
22
66
122
182
204
152
156
148
134
158
196
196
156
112
82
62
56
64
82
108
110
88
68
60
56
48
40
28
12
4
16
26
28
30
40
34
14
26
24
28
156
255
255
255
198
42
68
44
52
48
28
18
8
8
18
18
18
16
18
16
30
44
36
10
26
36
22
6
4
4
8
10
16
12
6
4
8
12
2
16
24
22
16
14
22
26
18
24
16
24
24
14
8
4
6
10
10
12
14
22
28
28
24
8
8
12
12
16
22
20
16
12
12
18
28
32
26
22
16
14
16
20
12
8
24
22
12
4
6
6
2
8
14
10
6
2
6
12
10
12
14
10
10
16
18
18
18
12
4
10
14
12
6
6
12
12
14
10
22
50
28
28
38
12
140
255
255
255
255
96
62
70
36
38
44
22
4
12
8
34
50
44
26
16
12
12
22
32
26
16
28
34
30
22
28
40
42
30
16
20
16
2
12
8
6
14
10
12
8
12
10
10
12
12
12
14
30
48
56
42
20
34
22
8
16
16
10
6
2
2
4
6
8
8
14
18
8
20
42
32
16
28
28
38
66
64
58
112
108
176
200
182
166
162
142
86
94
84
52
138
174
146
110
110
158
210
228
206
166
146
140
110
54
40
28
16
16
36
82
80
12
88
128
116
56
254
255
255
255
240
38
28
58
40
64
68
56
34
30
32
22
18
26
22
26
24
28
30
22
10
8
24
24
12
18
14
6
22
24
8
6
6
8
4
12
14
12
12
14
24
22
22
26
26
26
26
32
44
52
58
68
86
98
90
76
66
88
136
176
198
206
206
200
194
168
158
168
166
128
86
108
122
120
84
54
42
46
48
40
42
34
18
18
6
14
20
12
2
14
22
28
32
28
24
28
10
110
255
255
255
255
234
154
142
110
170
255
255
255
255
194
60
14
10
6
10
2
8
4
4
8
6
4
2
0
2
4
4
2
12
8
10
18
22
20
16
10
16
14
24
28
28
26
10
6
2
4
4
8
6
8
62
238
255
255
255
255
102
16
32
50
44
36
20
18
16
18
20
24
20
22
36
38
50
52
34
14
18
26
34
40
38
42
56
80
100
96
64
46
42
92
118
90
58
118
120
48
58
100
118
112
80
46
12
16
32
40
34
20
32
36
24
16
14
16
26
42
56
56
42
28
24
18
24
38
40
34
40
52
44
34
24
38
46
40
20
4
0
4
4
4
4
4
4
6
4
0
0
0
8
10
44
12
152
255
255
246
80
46
94
110
114
98
80
70
60
48
34
30
28
4
4
2
8
14
18
28
36
44
56
58
58
64
50
30
20
10
2
0
2
4
6
6
4
6
4
0
0
0
0
0
0
0
0
0
0
0
0
0
2
6
10
8
12
4
8
36
144
255
255
255
255
255
255
234
88
255
255
255
255
255
255
234
150
104
76
42
10
16
18
16
20
26
26
36
28
28
26
20
42
86
132
172
198
194
144
70
66
98
142
154
126
78
48
42
46
60
80
106
128
116
82
56
46
40
32
20
2
10
18
20
20
18
28
46
48
18
16
14
36
216
255
255
255
170
34
46
14
26
40
38
38
34
34
28
10
14
32
32
22
14
34
46
28
40
38
14
8
4
2
4
8
18
16
12
14
14
12
2
16
22
22
16
10
10
10
6
2
8
8
16
20
12
2
2
6
8
8
6
8
20
28
30
16
2
2
2
8
18
24
24
18
10
10
18
16
12
12
14
20
20
16
16
28
32
22
12
2
4
12
12
12
10
4
2
4
6
4
6
8
12
8
4
2
2
4
8
8
10
12
10
10
8
6
6
8
16
12
30
52
26
36
42
34
188
255
255
255
255
90
42
48
16
22
40
32
10
10
20
26
22
14
12
6
12
14
22
32
24
26
36
30
16
4
8
22
38
48
44
26
8
6
6
8
8
6
4
10
4
6
8
14
12
4
14
24
28
22
22
30
36
26
14
12
16
20
22
20
12
4
10
18
24
20
10
26
36
32
8
24
30
34
28
26
40
52
38
32
34
28
104
156
190
212
198
118
8
60
46
70
70
70
56
54
104
200
255
255
224
148
120
122
102
38
20
30
8
34
70
104
50
48
118
150
80
136
255
255
255
255
144
34
44
30
50
66
74
62
34
20
6
4
18
32
40
30
8
14
24
24
14
6
12
6
6
10
6
10
16
12
16
16
18
14
24
26
22
14
10
32
40
42
38
34
12
14
36
80
106
108
110
130
142
132
118
98
66
34
76
106
122
126
122
120
100
60
90
118
110
84
52
76
122
136
124
96
66
48
40
42
38
22
16
16
16
16
6
8
12
14
24
24
8
42
52
34
172
255
255
255
230
154
128
124
92
180
255
255
255
255
96
22
10
4
0
4
4
8
8
6
2
4
6
4
0
0
2
4
6
8
10
10
2
8
6
4
10
14
8
6
8
8
4
6
16
18
20
14
18
8
18
154
255
255
255
255
190
58
10
44
58
38
28
24
24
24
24
22
16
8
6
16
26
32
32
28
24
24
30
36
32
38
56
70
84
102
112
108
96
70
58
46
76
106
174
150
50
78
104
98
88
66
36
22
34
38
38
26
10
26
36
30
24
20
18
28
42
46
38
30
36
38
20
6
26
28
22
18
34
32
52
64
52
34
14
2
4
4
0
2
4
4
4
2
4
4
0
0
2
10
12
46
18
92
236
255
255
138
68
82
116
118
100
84
74
72
70
52
24
8
8
6
2
4
6
4
8
14
22
32
36
36
34
20
4
4
8
10
10
8
6
2
2
4
4
2
0
0
0
0
0
0
0
0
0
2
8
14
14
8
6
14
10
22
128
255
255
255
255
255
255
255
230
128
214
255
255
255
255
255
254
142
54
52
82
80
50
50
34
26
20
16
12
22
20
18
22
24
30
80
128
162
186
194
182
132
56
22
72
82
66
42
34
40
62
80
94
104
116
120
94
54
28
18
16
12
6
10
8
6
8
16
20
32
34
40
32
18
14
68
246
255
255
255
140
42
54
10
14
28
24
22
24
36
40
22
24
36
30
18
8
12
28
18
20
14
10
14
8
4
4
6
12
14
8
6
6
6
2
12
14
18
20
14
8
4
6
12
14
8
2
8
10
4
6
10
10
16
20
20
20
22
24
14
6
12
10
14
16
14
10
10
12
12
20
22
12
8
12
20
20
14
18
28
24
18
14
10
10
16
14
12
12
8
6
6
4
2
4
16
22
18
10
4
8
12
10
12
10
8
6
12
12
8
6
6
12
10
34
56
26
46
46
56
234
255
255
255
228
74
42
52
30
36
36
16
12
16
26
34
36
28
14
6
8
2
14
20
12
28
30
14
8
10
6
8
26
34
44
42
30
10
2
2
4
8
14
10
8
4
4
6
8
12
16
20
18
24
20
20
32
30
14
6
14
4
6
20
26
20
16
16
14
18
26
20
12
34
26
20
16
22
24
16
6
30
30
18
36
38
30
56
60
110
168
182
144
100
72
70
82
86
60
10
30
92
202
255
254
180
132
126
116
58
26
32
12
40
50
108
80
12
102
158
122
76
255
255
255
255
255
96
18
32
32
12
32
36
24
14
12
14
22
24
26
28
22
6
16
24
22
20
28
22
22
18
6
4
8
12
12
10
2
16
22
16
8
8
18
32
30
16
14
24
16
12
56
100
106
90
94
120
130
114
88
54
28
16
18
40
62
76
84
92
86
54
76
104
102
90
76
60
52
62
88
88
68
44
32
30
24
16
18
20
18
16
10
8
16
18
14
10
22
58
46
64
206
255
255
244
172
134
132
132
88
172
255
255
255
228
38
2
6
4
0
4
2
4
4
6
6
2
6
4
0
0
4
6
6
2
4
4
10
8
8
10
8
6
0
10
16
16
10
8
10
8
8
8
18
8
42
252
255
255
255
255
124
68
36
50
46
24
24
16
12
16
18
20
22
16
8
14
18
22
30
34
30
24
20
24
26
28
48
64
74
84
90
96
100
98
74
40
10
66
96
60
28
98
110
90
88
80
58
34
40
36
26
8
6
14
14
12
12
8
2
14
34
42
40
32
28
36
34
26
44
58
60
44
48
72
76
58
28
6
8
6
6
4
0
4
6
4
6
4
4
4
0
2
8
12
12
36
20
62
186
255
255
212
92
46
106
108
86
62
38
34
46
44
28
14
74
78
88
90
86
74
54
38
26
18
12
4
2
0
4
2
2
0
2
2
2
2
2
0
0
0
0
0
0
0
0
0
0
0
0
2
6
6
4
8
2
16
64
216
255
255
255
255
255
255
90
200
255
255
255
255
255
255
184
126
72
34
20
14
16
38
32
12
16
26
16
10
8
8
2
8
12
28
64
116
156
174
182
174
150
94
30
46
48
48
48
38
36
66
90
102
104
102
94
78
46
10
8
12
22
14
6
18
22
16
16
22
38
48
30
14
30
6
16
88
255
255
255
255
112
54
60
16
22
32
18
16
14
18
30
24
22
22
24
12
6
16
20
12
14
20
18
12
6
6
8
8
8
8
6
8
8
8
6
20
30
28
20
10
6
8
14
14
8
8
12
22
20
8
14
8
14
32
32
28
24
28
28
10
8
16
10
16
24
30
26
16
2
14
30
34
18
8
12
16
18
12
8
12
10
12
12
14
8
12
8
4
8
8
4
2
0
2
12
26
30
24
18
16
14
8
8
6
8
4
4
8
10
8
8
0
10
6
32
54
24
54
48
76
255
255
255
255
174
78
58
66
40
38
32
16
12
18
20
26
28
22
22
14
6
10
20
14
8
24
18
12
20
10
10
16
22
8
18
26
34
22
6
14
18
18
14
8
6
8
14
18
14
6
18
24
18
8
4
8
18
26
32
26
32
32
38
56
48
28
18
0
12
16
20
34
28
10
14
16
14
2
6
12
14
10
32
44
24
20
48
62
88
70
38
138
208
240
242
204
124
102
48
20
20
64
112
178
220
198
160
136
116
62
30
30
24
38
28
100
96
24
72
144
136
50
190
255
255
255
255
150
14
68
56
44
42
40
18
8
24
24
32
24
20
12
12
8
6
12
10
28
40
30
36
28
14
10
4
4
2
10
26
38
38
30
24
16
18
32
34
24
42
38
6
34
68
84
78
58
52
70
70
42
4
32
30
22
16
14
30
52
74
94
110
102
106
104
94
100
112
116
122
124
120
104
76
48
34
26
14
4
12
18
16
12
6
18
24
14
10
16
24
42
18
78
208
255
255
196
154
138
124
138
92
142
255
255
255
220
26
2
8
4
0
4
0
0
0
2
6
4
6
2
0
0
4
6
4
6
12
12
2
10
16
12
2
0
6
24
32
30
26
6
12
20
22
12
18
8
86
255
255
255
255
174
92
74
50
34
20
18
20
10
6
4
8
8
18
20
16
16
16
22
34
34
22
14
4
16
26
34
42
46
46
52
52
54
56
64
66
62
72
106
142
138
106
128
108
68
58
58
48
28
28
18
12
12
20
26
26
22
24
20
20
24
44
58
64
66
64
64
54
38
42
60
76
76
72
78
56
26
10
10
8
8
8
4
0
4
4
0
4
6
6
4
2
8
12
8
12
24
10
42
140
246
255
255
134
14
98
102
78
58
40
34
36
28
18
14
214
255
255
255
255
255
255
255
255
255
224
178
124
62
10
8
10
10
10
8
6
2
6
12
12
10
6
4
2
0
0
0
2
8
14
12
2
14
14
32
154
255
255
255
255
255
255
255
116
126
255
255
255
255
255
255
220
150
92
62
40
18
8
10
2
18
28
24
22
18
10
4
2
10
20
18
14
48
98
152
182
184
168
134
90
30
24
52
44
28
26
40
66
68
68
70
74
78
60
32
22
26
32
22
28
20
20
18
26
18
12
22
36
30
26
10
28
14
26
128
255
255
255
255
90
48
60
30
34
54
44
22
20
22
14
18
14
12
32
36
16
16
12
4
2
2
6
6
4
4
8
8
6
4
14
16
8
4
18
30
28
14
8
10
10
16
18
10
2
6
14
18
18
14
24
22
28
36
26
12
2
10
16
6
12
14
10
32
40
36
24
18
16
8
14
24
16
14
16
8
14
12
12
22
32
26
10
8
8
12
14
10
10
6
2
0
2
8
18
26
20
8
10
14
18
20
16
10
12
8
2
4
0
4
8
4
6
2
30
56
22
56
52
102
255
255
255
255
148
58
46
50
22
16
10
2
6
16
24
30
24
10
16
14
8
10
6
14
26
26
12
14
22
10
20
20
12
20
32
30
26
16
14
16
12
6
4
10
4
8
14
10
16
6
10
18
20
16
8
20
30
32
28
18
20
36
52
58
36
32
26
12
14
18
16
10
14
16
12
8
10
6
4
12
14
10
12
32
28
4
16
56
58
58
58
106
124
138
222
246
176
128
50
58
40
68
76
116
168
184
170
146
128
86
34
6
34
42
18
88
112
72
26
110
134
76
74
255
255
255
255
212
6
70
40
34
22
16
4
12
12
10
24
34
26
16
18
22
28
28
18
26
24
6
26
34
16
8
10
10
6
12
26
28
18
6
6
14
20
18
16
28
36
12
30
62
70
56
78
90
84
78
76
62
78
84
58
60
44
24
26
32
58
84
122
150
146
104
100
132
156
152
142
128
112
92
76
68
56
36
12
2
12
20
22
20
14
26
20
8
6
4
8
36
28
84
194
255
255
206
134
118
106
126
102
116
255
255
255
255
62
4
8
6
4
8
2
0
0
0
2
2
4
8
8
6
2
4
10
8
4
4
6
8
4
4
2
0
8
24
20
12
22
14
6
10
18
16
12
26
190
255
255
255
248
92
62
72
46
18
16
20
22
10
4
8
8
4
12
18
20
16
14
20
32
28
12
18
8
22
32
36
36
28
22
22
22
24
26
38
50
58
70
96
130
138
118
114
96
72
50
28
26
14
6
6
12
18
22
22
22
22
24
20
18
16
20
30
38
44
48
42
32
22
22
34
50
56
44
42
24
8
6
6
6
10
14
12
6
6
4
0
2
6
6
2
4
10
8
2
12
20
6
26
96
198
255
255
164
32
120
116
90
82
60
28
32
28
10
2
255
255
255
255
255
255
255
255
255
255
255
255
255
255
180
108
68
40
22
12
6
2
6
4
2
4
2
2
2
0
0
0
2
6
6
6
8
30
90
255
255
255
255
255
255
244
76
236
255
255
255
255
255
255
255
212
164
130
98
86
68
32
24
14
10
10
24
30
22
12
6
6
6
14
10
2
42
102
154
186
186
166
130
84
40
8
44
62
60
60
70
82
80
56
44
46
58
66
40
12
18
32
22
20
30
32
22
8
18
14
8
14
20
8
16
18
44
20
50
164
255
255
255
255
96
36
36
26
26
56
60
46
24
18
6
6
10
16
24
46
38
12
4
14
16
20
24
24
14
18
18
12
6
10
12
20
22
14
24
24
12
6
10
12
18
20
12
4
6
10
10
10
14
8
18
16
16
18
20
12
18
26
30
12
8
18
24
40
36
24
10
12
20
26
36
38
24
14
8
6
12
18
22
14
32
34
20
16
16
14
18
18
14
12
8
2
4
10
14
16
16
12
10
6
10
18
20
18
16
14
8
6
6
4
4
4
8
6
32
66
30
72
60
116
255
255
255
255
134
34
26
34
14
12
14
10
14
18
20
32
42
36
16
2
6
4
20
30
26
14
6
12
16
10
22
10
14
36
46
42
32
20
14
14
8
6
10
12
6
16
20
12
14
10
0
4
10
16
16
18
18
20
32
32
26
40
40
24
6
18
20
22
14
18
24
22
16
8
20
24
24
18
12
10
10
14
16
24
20
8
12
34
42
60
58
106
110
48
120
234
234
118
54
80
58
52
42
82
126
156
158
136
124
104
72
34
52
34
14
58
102
108
44
52
104
102
58
182
255
255
255
255
64
54
36
24
14
20
22
8
20
26
16
24
36
28
20
32
42
36
42
52
50
28
48
42
10
14
12
10
14
12
32
44
44
40
34
18
12
10
4
20
18
16
48
58
40
30
66
98
100
90
86
82
108
98
82
92
80
56
50
58
78
120
164
166
176
166
118
168
182
148
110
76
58
48
62
74
60
32
36
18
6
16
22
24
18
12
6
10
4
16
22
46
30
60
196
255
255
255
186
110
90
124
108
96
255
255
255
255
120
20
6
8
6
10
4
0
0
0
0
6
14
14
14
12
8
2
8
14
12
6
4
10
8
8
4
0
8
24
26
26
30
14
4
6
0
8
10
100
255
255
255
255
168
44
38
62
40
16
14
22
26
16
8
8
4
8
16
24
24
16
12
16
28
24
8
20
12
26
32
30
22
8
10
14
14
10
12
20
28
36
44
54
70
80
80
74
72
64
46
28
18
12
14
16
14
14
12
10
12
12
12
8
2
2
4
4
8
14
12
16
14
8
12
16
16
22
12
6
4
4
0
0
2
6
12
14
8
4
2
2
8
10
10
6
4
8
4
0
12
18
4
22
66
166
255
255
206
56
148
132
92
98
106
80
50
26
8
10
170
255
255
255
255
255
255
255
255
255
255
255
255
255
255
255
255
255
216
142
90
46
6
12
12
10
6
2
4
10
10
10
6
2
12
12
136
255
255
255
255
255
255
255
94
184
255
255
255
255
255
255
244
196
162
124
98
86
72
66
46
34
46
50
40
16
34
48
40
14
14
30
26
36
38
58
128
200
224
198
148
106
74
50
34
28
46
52
66
80
86
88
84
74
74
78
84
78
42
20
12
10
18
40
40
24
16
10
8
8
16
20
22
10
8
26
40
18
72
174
255
255
255
246
100
44
36
26
8
30
40
46
34
16
12
16
20
22
8
34
40
18
8
18
24
30
32
24
22
26
36
40
24
4
6
12
18
20
18
12
10
16
28
32
22
10
8
16
10
14
16
12
10
6
20
22
22
34
30
12
8
16
28
20
6
4
16
24
20
16
10
10
20
28
26
22
10
2
10
12
14
22
24
12
26
26
10
6
4
0
2
4
8
14
16
12
6
8
10
16
18
16
10
2
2
6
8
8
10
14
16
12
4
6
8
6
10
12
44
76
28
82
66
114
255
255
255
254
112
20
32
38
12
2
8
10
16
20
14
14
22
32
30
16
12
18
18
8
6
16
20
20
14
8
16
12
28
34
36
30
20
20
8
10
12
4
6
14
10
10
24
28
10
8
8
6
14
28
36
46
48
42
42
44
40
30
8
20
32
26
16
16
20
18
12
0
10
18
12
8
14
20
18
20
22
30
28
20
10
6
10
16
38
44
28
56
90
44
88
248
255
248
98
82
106
108
82
100
124
138
146
118
102
102
98
68
42
4
18
14
58
104
88
16
52
90
102
68
255
255
255
255
234
38
26
24
16
20
14
26
22
10
16
2
16
14
8
24
28
22
38
52
52
32
42
36
14
24
16
24
26
10
14
14
8
18
36
44
38
26
26
30
22
32
60
64
48
40
66
100
106
92
76
90
102
90
90
104
100
88
92
100
112
130
138
114
120
162
148
200
186
118
58
42
36
16
44
56
40
16
42
38
16
6
10
16
8
22
30
26
18
24
26
46
72
90
240
255
255
255
206
150
106
114
98
84
255
255
255
255
176
58
16
8
4
10
4
0
0
0
0
6
10
6
6
8
8
4
2
8
10
10
6
2
4
8
4
0
6
18
20
18
8
10
18
16
14
4
44
162
255
255
255
255
140
40
40
68
46
12
10
26
32
18
10
12
8
12
18
28
28
20
18
24
34
28
10
18
12
22
26
20
16
8
18
14
8
6
14
16
18
18
22
28
30
30
30
38
40
34
20
12
12
12
10
8
6
6
6
8
12
10
6
6
6
6
4
6
8
8
6
10
10
2
8
8
2
16
14
4
2
4
4
2
6
8
12
14
6
2
4
10
14
8
10
8
6
12
8
2
14
18
4
18
66
174
255
255
188
38
144
130
74
72
96
104
102
80
46
28
90
222
255
255
114
90
76
120
168
210
255
255
255
255
255
255
255
255
255
255
255
248
172
104
66
40
20
4
4
4
0
2
2
8
56
192
255
255
255
255
255
255
82
212
255
255
255
255
255
255
236
194
158
112
78
52
44
44
34
26
14
8
22
48
58
34
42
60
46
32
34
36
26
38
52
112
196
255
236
164
94
58
44
36
30
26
54
66
90
92
82
80
84
86
92
94
92
76
42
44
40
28
44
46
28
8
12
16
10
12
18
20
20
10
6
18
24
6
74
198
255
255
255
218
86
42
38
42
24
34
36
40
38
18
4
10
14
12
8
28
38
26
8
20
26
26
18
20
14
22
24
40
38
16
16
14
10
16
30
28
18
26
30
24
8
6
14
16
10
14
22
22
14
16
32
36
28
40
38
22
8
12
22
18
12
8
14
24
26
24
14
14
14
10
6
4
4
14
10
18
18
22
28
32
40
32
14
16
12
8
8
10
6
4
12
16
10
4
8
10
12
12
10
4
0
0
2
4
6
6
14
22
22
12
8
8
12
26
54
76
18
86
64
134
255
255
255
226
80
12
40
38
10
12
2
4
12
16
6
4
6
8
24
24
20
14
2
16
24
24
20
18
20
20
28
22
28
26
24
14
2
8
12
10
18
10
6
12
16
20
20
32
30
8
8
16
18
22
32
44
58
60
58
58
58
52
32
46
42
24
18
20
14
18
22
18
18
12
14
10
6
14
18
26
36
34
36
22
6
10
6
10
20
10
6
32
72
76
86
228
255
255
218
128
128
140
134
98
96
122
160
132
98
94
100
86
42
24
20
10
18
74
90
40
60
98
94
8
206
255
255
255
255
164
44
46
22
10
4
28
30
10
8
6
16
14
8
26
30
20
6
30
42
28
22
16
4
20
20
34
20
12
34
38
22
16
14
42
50
44
32
24
20
28
62
80
70
52
64
90
96
84
66
78
82
70
78
100
104
100
114
112
116
110
90
66
62
98
148
168
124
56
16
24
24
16
38
42
44
18
16
22
16
8
4
12
24
34
26
24
30
32
20
70
160
134
255
255
255
255
194
160
124
124
90
84
255
255
255
255
208
70
16
6
2
10
2
0
0
0
0
6
12
12
12
12
8
2
0
2
4
8
10
8
10
8
2
0
2
6
6
8
14
16
18
18
20
8
70
198
255
255
255
255
126
38
38
64
38
4
4
20
32
20
12
14
14
20
22
24
16
12
18
28
36
28
10
12
8
14
18
16
16
10
12
6
8
10
14
10
8
4
4
10
12
6
8
14
12
16
14
2
10
12
6
8
10
6
8
12
14
8
2
6
6
2
8
14
14
4
6
10
8
2
6
6
6
12
20
12
6
4
6
6
10
12
16
14
8
6
8
14
10
4
10
12
4
14
14
6
14
18
4
26
74
182
255
255
172
20
132
126
64
40
52
76
106
108
78
48
76
206
255
255
132
126
118
76
46
22
20
50
112
180
254
255
255
255
255
255
255
255
255
255
255
255
166
84
20
8
10
10
8
108
255
255
255
255
255
218
68
124
200
252
255
255
255
255
250
212
156
106
72
34
32
30
26
20
6
20
26
16
26
16
22
20
30
40
20
22
48
34
14
26
70
134
196
222
178
110
80
54
32
30
52
62
104
132
130
104
80
74
74
68
66
62
54
40
18
32
36
24
32
20
4
0
2
6
10
14
16
12
8
6
22
32
48
14
92
255
255
255
255
204
64
22
10
24
12
22
36
50
46
28
16
24
28
18
10
34
42
32
12
22
18
18
10
10
2
10
10
20
24
28
18
22
22
26
34
36
40
40
28
22
10
6
10
8
6
16
26
30
20
14
20
18
4
18
30
34
32
32
32
20
10
8
12
22
24
30
26
18
16
12
14
10
8
12
2
14
20
20
18
22
18
6
8
14
6
2
6
10
16
10
4
4
8
2
4
8
10
14
16
12
8
8
8
6
2
6
14
18
30
28
22
14
12
30
50
66
8
94
62
160
255
255
255
190
48
18
20
32
18
14
2
4
14
24
20
14
14
8
8
18
20
16
12
10
4
2
6
12
18
18
18
20
24
28
24
6
18
30
34
18
26
22
14
20
28
26
18
20
40
34
18
8
16
12
4
12
28
46
62
72
74
64
44
50
42
30
26
18
14
8
4
4
4
4
8
8
6
10
18
20
20
10
24
28
14
12
16
4
20
22
22
46
74
92
46
158
244
255
248
162
96
56
102
68
20
106
178
176
134
100
90
78
48
16
4
22
12
52
68
30
38
82
100
46
90
255
255
255
255
255
92
82
50
20
12
32
28
10
8
8
18
24
14
18
42
50
30
6
36
38
12
18
28
16
14
14
10
32
30
14
18
34
26
22
28
28
24
8
12
8
18
48
64
58
56
70
78
74
68
72
68
56
54
80
96
100
96
92
102
96
80
70
76
92
92
66
32
22
18
32
40
42
44
26
34
38
46
44
38
22
12
18
28
32
26
22
26
36
16
114
220
164
255
255
255
255
216
176
142
124
80
96
255
255
255
255
255
82
14
16
10
16
2
0
0
0
0
2
4
4
4
4
2
0
0
0
0
2
4
4
4
2
0
0
0
0
0
8
16
12
10
12
20
8
82
234
255
255
255
236
100
38
36
60
40
10
4
10
24
18
10
6
8
18
24
28
30
36
32
24
28
20
6
6
4
8
16
16
14
12
10
8
4
6
10
10
12
12
12
12
16
14
16
18
8
10
10
6
12
16
10
12
14
12
10
10
8
2
2
2
4
8
10
12
8
4
8
6
4
8
6
4
8
8
12
6
6
4
8
10
6
8
10
4
6
8
8
8
2
12
12
8
4
6
14
10
10
18
10
32
84
188
255
255
196
38
142
138
76
34
18
30
68
86
74
50
92
212
255
232
68
62
58
32
34
42
48
72
84
78
48
30
116
230
255
255
255
255
255
255
255
255
255
255
208
118
66
58
140
255
255
255
255
255
80
198
255
254
198
170
188
224
254
254
210
148
84
46
48
46
42
42
42
38
28
38
36
26
34
30
18
6
24
26
26
12
38
50
50
38
94
156
188
180
124
62
52
58
28
64
92
122
150
156
134
102
82
72
60
44
34
30
34
30
12
8
20
18
8
6
4
8
10
12
6
10
18
20
18
16
34
24
54
20
132
255
255
255
255
180
52
10
20
40
22
26
34
48
54
42
44
38
50
38
14
34
40
24
6
12
14
24
28
22
16
22
30
34
24
14
26
38
32
32
30
26
36
50
46
40
28
6
14
18
10
10
16
18
16
10
8
22
20
14
4
16
30
36
32
18
8
4
8
22
24
22
14
12
18
16
16
12
6
12
4
4
12
12
8
0
8
18
26
24
16
14
8
6
14
12
4
4
4
6
6
10
18
18
18
12
10
12
18
14
4
10
12
6
22
26
26
30
30
28
42
56
6
104
54
192
255
255
255
154
18
18
8
30
26
14
6
8
18
26
18
10
12
14
20
20
24
24
20
16
14
16
18
26
32
24
10
2
12
18
8
14
28
28
18
10
16
18
20
28
26
16
10
4
20
32
30
12
14
24
28
20
10
18
40
58
68
58
40
38
32
30
32
28
18
10
8
10
12
6
4
10
12
8
2
10
20
18
24
28
18
6
22
18
16
6
26
62
114
94
24
120
228
255
220
168
108
20
44
50
30
50
140
188
184
140
98
74
50
26
20
18
12
48
54
24
32
84
96
62
8
152
255
255
255
255
96
72
66
34
28
46
38
20
20
26
26
32
38
24
10
32
34
22
20
38
32
36
32
40
22
8
28
24
16
30
44
38
8
18
24
22
18
18
16
22
18
14
38
60
58
60
66
66
70
68
60
50
52
68
74
70
66
72
84
78
68
66
68
54
22
16
26
16
8
18
34
48
40
24
14
44
56
58
52
48
42
38
44
44
38
36
22
26
48
182
255
154
226
255
255
255
255
206
180
170
150
188
255
255
255
255
255
148
10
14
6
12
4
4
2
0
0
0
0
0
0
0
0
0
0
0
0
0
0
0
0
0
0
0
0
0
0
6
14
18
22
16
20
8
90
255
255
255
255
192
88
42
40
66
58
32
14
12
18
16
10
6
14
16
16
20
24
38
44
38
34
22
6
4
4
6
12
12
6
4
6
6
6
8
12
12
12
12
12
14
18
12
12
20
14
10
6
4
14
16
14
18
18
16
10
6
4
0
2
4
8
8
6
8
4
2
8
10
8
10
6
4
2
12
12
6
4
6
14
10
0
8
18
14
6
8
8
6
10
14
8
2
6
4
4
8
6
22
16
32
98
212
255
255
208
52
150
150
96
52
14
2
32
42
40
26
70
196
255
248
94
116
106
68
64
68
58
32
4
38
56
50
26
4
40
90
134
170
226
255
255
255
255
255
255
255
255
255
255
255
255
255
210
40
172
204
210
206
196
202
222
222
202
172
122
70
34
24
34
30
26
28
32
32
28
34
24
6
12
22
22
22
28
28
18
8
16
30
46
78
144
196
196
156
80
26
54
94
112
116
114
118
124
120
104
90
86
74
52
32
20
28
34
32
18
10
14
24
14
2
10
18
14
12
8
6
10
8
6
10
24
14
54
14
158
255
255
255
255
116
38
14
16
20
6
30
36
18
40
54
54
46
54
52
22
32
48
30
12
12
14
16
18
22
16
20
20
20
16
14
14
16
12
22
22
12
16
30
32
28
26
18
16
24
8
14
22
14
4
8
8
2
6
12
14
16
24
42
44
32
12
4
18
40
44
38
24
16
8
12
20
18
10
14
6
2
10
10
8
12
16
20
22
12
12
14
14
8
10
8
2
4
6
8
12
20
20
12
12
8
4
4
16
18
6
8
8
2
10
12
12
26
40
36
42
44
22
106
38
232
255
255
255
126
48
10
16
10
14
10
8
6
12
22
20
10
6
20
32
26
30
32
20
6
14
12
16
26
40
44
38
32
32
34
26
24
12
14
22
28
14
6
16
12
4
6
10
14
10
10
18
24
14
2
18
18
6
8
16
26
38
38
30
24
24
24
34
38
28
12
0
8
6
8
10
8
8
16
36
42
40
34
28
30
20
12
18
32
34
46
40
28
114
120
24
128
234
255
236
188
114
24
28
40
52
22
56
144
200
190
140
92
58
38
24
20
32
50
46
38
10
58
76
68
64
62
255
255
255
255
252
44
40
34
34
52
54
46
30
22
14
20
38
48
38
54
48
24
8
32
36
32
18
34
20
14
18
8
32
38
24
12
30
48
42
26
8
18
18
10
22
26
22
56
64
64
64
68
70
72
66
54
48
52
44
40
48
56
54
40
36
40
36
14
18
20
12
10
10
20
20
20
18
32
38
34
40
46
50
66
72
60
50
36
20
26
26
56
146
252
248
106
158
255
255
255
255
255
240
255
255
255
255
218
255
255
255
255
120
12
14
4
12
14
8
0
0
0
0
0
0
0
2
6
8
8
6
2
0
0
2
4
6
8
8
8
6
0
4
8
16
8
14
2
96
255
255
255
255
154
74
28
22
46
54
44
32
28
22
16
18
18
20
20
12
6
8
22
30
34
38
30
14
6
2
8
12
16
12
10
6
2
6
4
2
2
4
4
2
8
12
8
8
16
12
4
2
4
12
14
14
14
12
12
8
8
8
4
4
2
4
8
10
10
8
4
4
4
6
8
6
6
8
14
12
8
10
12
14
8
10
4
8
10
2
10
12
8
12
8
2
0
2
8
12
12
10
30
16
36
128
248
255
255
192
46
144
148
104
74
42
18
50
54
36
14
82
202
255
255
108
116
118
88
86
98
106
108
94
62
32
20
20
68
104
120
114
100
90
64
92
198
255
255
255
255
255
255
255
255
255
136
138
170
172
148
152
174
200
220
222
190
148
114
70
38
30
36
44
36
24
12
12
14
14
16
10
18
38
40
22
10
14
20
16
6
12
34
68
116
170
182
144
82
24
64
112
132
124
108
94
88
82
78
76
80
86
70
46
30
22
18
22
24
24
22
10
20
20
6
12
12
4
4
6
16
22
16
12
10
20
34
58
12
164
255
255
255
166
28
40
42
28
18
18
28
20
12
44
50
50
56
58
60
42
50
54
30
16
14
4
4
4
4
6
4
6
12
2
16
30
34
38
54
40
14
4
16
28
30
18
12
16
14
6
24
26
12
10
14
18
18
10
4
8
18
38
52
46
30
12
14
32
44
38
26
14
20
12
16
18
10
4
10
6
10
18
14
10
12
12
12
10
2
8
10
12
8
4
8
6
4
2
8
10
12
10
4
8
14
16
12
14
12
4
6
8
2
10
6
2
14
36
42
38
36
40
98
22
255
255
255
255
90
78
22
14
18
14
6
12
8
10
22
32
32
12
24
28
12
18
34
22
6
14
8
8
10
20
30
32
24
20
30
36
30
18
16
16
8
6
10
10
14
18
18
18
18
22
20
16
14
22
14
6
16
14
18
24
24
18
18
16
20
26
26
26
34
30
16
10
18
12
18
8
6
20
38
48
38
34
28
12
16
12
8
16
30
36
58
78
30
86
122
48
112
254
255
232
198
110
22
30
28
36
28
22
100
170
188
160
118
80
52
30
20
26
24
42
54
24
34
70
80
100
74
142
255
255
255
255
148
14
22
30
32
36
48
42
28
18
10
18
32
54
54
30
6
24
34
22
32
30
30
8
10
10
22
32
14
12
34
54
50
22
24
18
18
34
30
40
34
14
36
42
40
42
50
50
54
62
60
54
40
36
38
42
34
22
10
18
24
22
20
10
10
16
18
24
26
48
44
24
44
60
60
52
46
40
40
58
52
38
28
12
20
72
144
218
242
162
40
104
255
255
255
255
255
255
255
255
255
255
180
154
255
255
255
255
190
72
12
10
10
6
2
2
0
0
0
0
0
4
10
10
10
10
4
0
0
4
8
10
10
8
10
12
8
2
4
12
4
12
0
96
255
255
255
228
132
70
28
10
26
34
36
38
42
34
24
24
20
20
22
14
12
20
26
26
24
32
30
22
14
8
8
8
12
8
6
8
6
4
4
8
10
10
10
10
8
8
6
6
12
8
0
2
8
14
14
12
10
8
8
6
6
6
4
6
4
4
6
12
16
8
4
6
4
6
6
4
4
6
12
16
16
16
14
14
10
18
16
16
12
2
8
10
6
6
2
0
0
4
10
10
8
18
38
14
54
164
255
255
255
182
56
132
118
76
68
66
52
42
38
22
6
80
212
255
255
92
70
66
30
18
20
28
52
78
82
68
48
34
54
58
54
56
74
106
130
148
162
162
144
100
168
192
255
255
228
90
68
102
150
180
192
194
194
196
188
170
142
116
94
60
42
44
46
46
32
16
6
4
6
6
10
8
20
28
12
18
26
30
40
30
18
38
64
100
136
150
116
112
88
70
100
110
100
84
72
68
66
56
54
62
74
80
60
42
50
38
18
28
38
32
16
6
18
18
6
12
20
22
14
10
18
18
10
14
16
22
38
44
4
172
255
255
255
94
30
38
54
46
34
0
30
42
38
36
14
20
46
62
68
54
44
36
14
4
8
12
14
14
14
12
12
14
22
20
4
16
28
58
68
42
40
20
16
42
38
16
6
10
14
16
20
12
10
30
24
20
20
12
14
20
18
26
34
26
16
14
24
34
26
26
26
14
10
4
8
16
18
16
10
6
18
14
8
6
6
6
10
12
8
10
14
16
16
12
16
16
16
14
16
12
12
12
8
6
10
16
18
20
12
4
10
14
6
12
6
8
20
40
48
32
26
46
80
30
255
255
255
255
42
68
28
8
12
12
14
22
16
10
18
30
42
30
14
28
32
50
50
20
16
14
6
8
8
10
22
40
36
22
12
18
34
42
34
34
36
28
6
22
30
24
24
26
18
14
14
12
6
8
12
8
16
24
24
18
10
18
12
10
24
26
16
14
28
26
20
16
18
24
18
12
20
30
34
20
4
24
24
8
12
10
12
26
36
26
26
70
42
72
96
64
70
244
255
255
224
74
34
42
46
68
66
56
104
142
146
132
122
108
78
38
12
6
20
42
68
52
64
84
112
128
94
70
255
255
255
255
255
78
12
34
22
6
16
36
48
44
20
4
24
30
14
16
26
22
14
14
10
8
10
6
8
4
14
20
14
36
50
46
16
18
30
26
18
24
38
40
22
10
14
12
2
10
16
22
26
36
46
56
54
48
46
30
20
18
4
12
14
10
28
14
22
20
24
32
14
36
46
54
102
114
96
64
36
10
24
58
64
34
14
22
70
146
206
218
156
60
8
68
208
255
255
255
255
255
255
255
255
255
255
160
110
255
255
255
255
255
118
10
12
2
6
8
2
0
0
0
0
4
10
10
10
10
4
0
2
6
8
6
2
0
2
8
12
8
4
12
4
12
0
100
255
255
255
236
134
66
26
12
22
20
20
28
38
40
36
34
24
16
16
14
20
20
16
20
22
24
22
20
18
18
22
26
32
28
14
12
10
0
6
4
4
6
8
6
10
12
8
8
14
10
4
8
14
16
12
8
8
10
14
12
6
2
0
4
6
8
10
22
16
2
14
12
8
12
8
2
4
4
4
10
12
12
12
12
10
16
16
10
2
4
6
4
0
0
0
0
0
4
12
12
8
20
42
14
70
198
255
255
255
168
90
148
120
42
38
66
76
68
54
34
22
82
216
255
255
90
60
50
24
22
20
8
10
36
54
62
64
70
78
78
70
52
62
108
150
194
230
232
186
106
34
150
188
138
56
78
66
114
170
212
220
204
182
158
128
108
96
88
80
60
48
46
40
34
22
8
2
4
8
6
10
2
24
42
34
42
42
36
52
48
32
56
84
118
138
120
82
98
92
88
106
102
82
64
56
60
60
48
48
60
72
72
46
26
38
42
24
30
36
20
6
14
18
14
10
16
24
32
30
26
22
10
4
4
10
20
36
34
16
206
255
255
255
86
34
30
50
44
44
24
22
28
32
8
24
28
10
40
56
50
30
12
4
18
24
24
20
18
22
26
26
24
28
34
30
18
16
34
28
8
30
32
10
44
52
40
22
8
2
6
12
10
10
22
10
12
18
12
14
22
28
32
28
24
22
18
20
18
12
10
18
20
16
10
8
8
8
8
8
14
12
4
4
4
2
2
6
10
8
8
16
18
14
6
8
8
8
10
16
12
12
14
14
10
4
4
4
2
6
8
14
16
10
18
12
10
22
46
58
38
10
34
56
54
255
255
255
255
28
66
20
18
18
22
22
30
30
18
20
16
30
28
10
8
26
42
34
16
28
20
12
14
12
18
36
46
30
28
38
22
12
22
20
38
30
38
26
26
10
8
18
20
12
6
4
10
12
10
12
10
14
16
16
12
10
22
18
16
22
12
26
40
36
24
18
24
26
18
24
22
22
24
30
30
32
26
12
4
8
4
4
18
34
36
12
44
38
42
64
76
10
186
255
255
255
124
22
50
58
80
74
66
120
148
132
102
94
104
98
60
22
14
34
32
78
96
102
82
140
150
104
66
206
255
255
255
255
138
20
52
24
28
12
8
34
54
40
8
20
28
24
28
18
10
8
8
4
2
6
6
10
8
8
16
20
42
44
20
14
30
22
12
18
18
20
12
12
12
16
18
8
10
12
18
20
20
22
28
40
38
28
16
14
14
6
10
16
2
24
24
24
10
18
34
16
18
30
72
100
88
54
36
12
38
70
90
74
32
26
70
148
212
216
164
72
8
4
26
110
255
255
255
255
255
255
255
255
255
255
236
96
124
255
255
255
255
255
146
62
18
6
10
6
4
2
0
0
2
6
8
8
6
2
0
4
6
4
6
4
4
4
2
6
10
2
12
4
12
0
104
255
255
255
238
138
66
26
18
28
18
8
8
14
22
28
34
32
24
18
12
20
30
30
30
28
20
12
12
10
10
14
18
24
26
16
6
4
2
6
6
8
10
8
2
8
12
8
8
12
10
6
8
12
12
8
6
6
6
12
16
14
6
0
2
6
10
18
22
8
8
10
4
4
12
8
2
2
2
6
8
4
2
0
0
0
4
6
6
6
6
4
2
0
0
0
0
0
6
10
18
18
16
46
18
88
226
255
255
255
116
106
166
108
38
34
66
88
90
78
52
34
82
218
255
255
98
80
66
26
20
20
26
16
12
24
34
30
48
68
82
86
68
100
120
136
148
130
62
42
132
188
190
140
76
32
28
100
178
228
230
204
170
136
102
72
62
62
64
66
56
42
32
28
20
12
6
6
2
10
10
14
14
18
34
36
36
28
18
36
46
36
62
92
120
124
94
48
36
42
72
98
100
80
62
56
64
68
54
50
60
70
60
26
2
16
18
18
22
20
24
18
14
14
14
20
26
20
22
28
30
28
18
8
6
2
10
30
18
78
255
255
255
255
98
46
8
32
22
32
42
36
14
20
38
30
20
14
10
30
32
24
14
20
30
32
20
10
14
24
30
30
24
26
32
38
42
44
56
60
52
54
34
2
26
44
54
50
38
32
24
18
26
30
42
30
6
10
10
8
20
30
26
24
22
20
26
30
20
18
20
16
8
4
8
14
14
12
12
14
10
6
2
4
6
4
4
4
8
8
8
16
16
10
16
20
18
12
8
10
4
2
4
8
12
6
12
22
22
16
10
12
12
4
18
16
10
22
50
68
50
28
58
70
62
255
255
255
254
20
62
14
26
20
18
18
24
30
20
6
10
26
24
6
12
24
28
18
6
28
28
14
10
6
8
20
28
22
12
24
36
32
30
26
26
22
40
34
16
30
50
56
48
42
32
18
4
10
4
6
14
22
22
4
16
34
42
30
28
44
44
50
42
24
16
20
26
20
2
18
16
24
40
52
52
38
16
26
26
22
18
28
50
58
42
10
18
16
6
38
80
46
110
255
255
255
160
22
46
62
82
54
24
110
162
146
98
66
70
88
76
46
26
36
18
78
122
98
42
134
158
110
44
102
255
255
255
255
222
10
62
12
26
14
10
20
28
42
34
8
26
24
4
20
22
16
8
6
12
10
2
4
8
8
6
10
26
24
8
18
14
0
6
22
30
24
16
18
2
22
42
42
28
24
28
22
10
6
8
12
16
18
22
20
8
10
10
8
10
4
12
6
10
28
34
22
16
30
40
42
54
40
50
62
74
82
72
46
28
64
144
218
230
170
90
20
8
10
6
30
128
252
255
255
255
150
224
255
255
230
188
148
66
90
212
255
255
255
255
204
78
8
4
6
10
6
0
0
0
0
0
0
0
0
0
4
6
6
8
8
8
8
10
8
10
2
12
4
12
0
104
255
255
255
238
138
60
22
22
38
30
14
16
20
20
14
24
36
38
32
16
12
24
36
40
36
24
10
8
4
2
10
18
20
20
12
6
4
6
10
12
8
2
6
2
8
10
4
4
10
10
4
4
10
12
6
6
4
0
2
8
14
10
2
8
10
12
16
12
4
10
12
12
16
18
10
6
8
8
8
6
4
10
10
12
12
10
6
6
6
6
4
2
0
0
0
2
4
10
10
10
18
14
54
24
100
250
255
255
240
66
94
178
142
72
60
80
90
90
82
60
40
88
230
255
255
74
74
64
30
28
28
20
16
28
32
26
18
28
40
60
92
110
98
118
140
132
58
68
182
234
212
144
66
42
42
98
160
214
230
196
150
110
86
78
76
80
78
68
58
46
40
38
30
18
14
6
2
4
4
8
8
4
6
2
8
8
2
2
8
20
34
68
100
114
98
60
20
12
34
58
74
70
52
44
48
60
62
50
52
64
66
44
12
8
14
8
14
16
8
10
16
16
24
28
26
14
6
20
20
20
24
16
8
4
10
18
12
26
166
255
255
255
255
66
90
24
58
34
12
30
48
36
20
32
22
24
24
8
22
26
20
20
32
38
28
20
8
14
26
24
22
18
12
12
10
22
32
46
58
52
30
10
10
14
10
26
36
36
40
40
38
20
10
28
30
18
4
12
22
28
30
22
20
22
16
12
24
32
26
10
8
14
14
20
22
14
10
8
6
4
10
6
8
12
10
8
6
8
8
8
16
16
6
18
18
10
10
8
8
6
4
2
2
10
14
20
24
18
24
8
14
10
6
22
16
4
24
54
68
44
22
58
72
68
255
255
255
254
18
62
10
26
12
8
6
6
12
12
12
20
30
20
6
22
34
52
46
22
14
8
8
6
4
8
24
34
30
18
4
10
16
18
28
34
28
26
22
24
38
36
28
12
24
32
30
14
2
4
2
6
12
18
22
26
32
36
34
34
38
40
32
20
8
10
18
20
18
12
26
10
14
26
24
36
40
34
40
30
32
26
40
48
32
6
20
24
12
10
16
70
84
62
255
255
255
174
26
42
78
120
110
28
80
162
162
114
64
44
64
76
72
56
36
6
70
136
122
24
88
140
112
62
50
184
255
255
255
255
80
58
16
34
4
24
28
14
16
40
36
10
16
16
8
22
16
2
12
10
8
8
16
18
18
14
8
36
42
24
18
8
2
2
10
20
14
16
12
20
32
30
42
36
14
20
16
6
4
10
10
8
30
34
16
4
12
12
4
8
10
10
14
22
28
30
20
10
18
36
62
82
84
68
72
66
44
18
16
54
138
214
232
178
86
24
4
8
4
6
4
40
90
116
96
46
106
186
204
176
208
232
254
248
232
196
126
246
255
255
246
114
16
6
6
8
6
2
4
4
4
4
4
4
4
2
2
4
4
4
4
4
4
6
6
6
4
12
4
12
0
102
255
255
255
254
142
56
12
18
46
50
38
24
12
6
2
16
30
38
40
26
12
16
30
36
32
22
10
10
8
4
10
12
10
14
10
2
8
20
18
16
14
8
6
2
10
12
10
12
16
10
2
2
8
14
12
6
4
4
2
4
10
10
6
12
12
10
8
2
2
6
8
12
14
12
6
4
4
4
4
2
6
8
8
8
6
6
6
4
2
6
10
6
2
4
4
6
6
6
6
6
12
16
58
22
110
255
255
255
248
88
108
174
144
84
80
102
98
78
60
42
28
102
234
255
255
80
72
46
16
18
20
24
30
20
24
32
32
32
32
36
68
120
138
162
184
138
20
114
194
198
132
44
30
94
146
186
204
208
190
138
88
60
62
88
108
110
92
64
44
38
50
56
42
18
2
12
10
12
12
6
16
28
28
34
28
14
8
6
8
12
34
74
100
96
64
40
32
38
46
52
50
38
28
34
46
54
52
48
54
60
50
26
8
8
16
14
12
10
12
12
8
28
38
32
12
16
34
32
20
14
16
12
4
0
16
18
12
78
234
255
255
255
198
40
90
34
64
26
18
6
32
34
8
38
42
46
36
26
32
34
28
30
34
30
12
20
14
14
32
16
14
26
34
32
24
16
10
16
18
22
18
14
12
14
12
12
8
10
22
36
46
40
22
28
22
12
12
24
24
20
22
22
26
28
20
14
14
22
36
36
26
10
16
18
16
4
4
0
2
2
6
10
12
16
12
10
8
6
4
4
14
16
6
18
16
10
10
4
4
6
6
6
6
14
18
14
14
6
10
8
12
6
16
30
22
10
20
56
72
42
16
42
54
88
255
255
255
248
14
68
10
24
10
10
12
16
24
26
22
18
20
8
14
26
16
42
50
38
28
22
16
6
8
6
6
18
18
12
16
20
22
18
4
10
8
14
32
30
14
22
50
50
34
20
20
26
10
4
4
10
26
40
34
14
16
24
30
24
20
14
6
6
6
6
20
24
20
16
32
28
46
60
46
36
40
40
38
20
20
16
16
22
28
34
34
20
18
4
16
80
108
40
240
255
255
192
60
46
76
126
132
64
44
150
180
148
88
38
44
70
96
90
54
12
54
120
136
78
42
106
114
100
80
58
255
255
255
255
216
32
36
28
22
20
14
14
10
20
42
40
14
14
24
22
16
12
12
6
6
16
34
42
42
42
14
28
46
40
26
22
20
20
26
34
20
22
10
24
28
12
12
22
14
16
16
14
20
20
8
18
34
24
2
12
10
10
10
6
14
16
16
12
16
22
18
26
52
68
68
68
76
70
50
32
12
18
42
132
216
230
174
90
20
2
4
10
8
12
8
6
40
94
170
246
255
255
255
186
92
182
248
255
242
114
42
164
210
214
204
138
54
14
4
6
4
2
2
0
0
0
0
0
2
2
0
0
0
0
0
0
0
0
0
0
4
12
4
12
0
102
255
255
255
255
136
52
4
16
32
48
50
52
44
28
16
14
18
26
34
28
16
14
30
42
36
18
12
16
18
12
16
22
26
30
20
18
28
32
20
20
22
20
12
8
12
16
16
18
24
18
8
4
8
12
12
10
8
10
8
6
8
8
8
10
6
2
4
4
4
2
2
2
2
4
4
4
2
0
0
0
4
4
4
4
10
8
6
4
6
6
10
10
6
10
8
12
10
4
4
6
14
18
54
16
124
255
255
255
255
126
146
180
130
70
76
110
112
82
48
22
6
96
222
255
246
70
52
42
14
12
26
28
14
12
22
32
30
34
50
54
56
120
198
234
186
62
84
188
212
168
72
28
96
154
196
210
200
182
154
104
68
62
74
94
94
74
52
38
36
44
56
46
24
22
20
24
26
16
22
16
26
26
14
22
22
12
8
10
8
22
40
66
82
74
44
16
28
46
52
56
54
48
48
54
58
64
68
62
48
34
22
14
10
4
6
10
16
18
12
8
30
44
32
16
18
34
28
10
8
6
12
14
8
8
24
20
26
120
255
255
255
255
150
20
60
24
48
14
28
12
30
38
26
24
36
38
34
40
44
42
38
46
60
56
28
22
16
10
32
24
14
22
26
20
12
22
28
20
8
14
22
26
26
26
14
4
6
14
22
24
30
32
26
26
20
6
6
10
10
10
18
22
24
24
18
12
10
6
16
22
24
20
12
6
8
6
8
8
10
12
12
8
12
14
8
4
12
10
6
6
14
16
8
16
20
12
6
4
8
2
2
2
10
18
16
8
12
10
10
4
8
6
20
26
18
12
22
50
62
42
22
34
30
120
255
255
255
234
12
76
18
20
8
6
8
20
32
32
24
14
10
14
18
20
10
16
24
22
14
16
24
22
8
6
12
20
12
12
16
16
22
26
26
14
12
28
32
26
32
36
40
50
52
34
6
18
16
14
14
20
32
30
14
0
10
32
34
16
24
22
6
4
10
10
24
38
36
28
38
34
30
56
64
42
44
46
42
12
14
24
24
32
28
16
8
20
26
26
40
96
112
30
214
255
255
224
96
40
36
100
122
76
16
132
196
192
130
48
28
60
110
116
70
18
36
78
106
90
14
72
114
126
112
6
230
255
255
255
255
124
56
42
50
36
32
16
2
8
18
34
34
20
20
12
10
14
12
12
10
28
36
20
14
42
36
16
32
32
26
32
38
40
48
46
30
38
40
42
32
10
8
18
24
36
34
20
6
4
8
16
24
24
8
8
10
14
12
12
16
12
10
4
18
36
38
56
64
56
46
44
56
68
60
32
24
76
164
236
242
168
76
22
4
4
6
10
6
20
64
130
234
255
255
255
255
255
255
255
220
176
118
104
164
164
92
180
255
255
255
236
154
92
66
48
20
2
4
4
4
4
4
4
2
4
8
8
6
2
2
4
4
2
0
0
6
16
8
14
0
108
255
255
255
232
108
40
6
20
26
22
22
40
44
36
24
18
16
20
26
20
16
18
30
40
38
30
22
20
22
14
8
14
24
34
30
32
38
32
18
24
28
28
24
16
18
16
8
8
16
16
12
10
16
14
6
4
4
8
10
10
12
10
8
10
12
12
12
12
10
6
6
8
8
8
8
10
8
4
4
2
4
6
6
8
8
4
4
4
4
2
6
10
12
8
2
8
8
4
4
6
12
20
56
18
138
255
255
255
255
92
140
198
158
82
62
88
114
108
74
34
10
80
208
255
250
80
60
44
8
12
32
34
24
22
18
24
20
20
48
70
132
236
255
240
98
66
186
230
196
118
8
92
146
178
190
182
164
144
118
82
68
72
72
68
46
22
22
26
38
44
38
20
18
4
20
32
26
14
20
18
10
10
22
28
26
24
18
20
18
16
44
64
76
68
38
10
32
50
56
66
72
72
72
64
58
68
70
48
18
16
34
28
14
12
28
40
38
38
38
16
36
32
2
28
34
20
14
18
12
8
10
14
14
20
38
30
32
150
255
255
255
255
124
16
42
12
36
10
28
14
30
34
22
16
18
16
18
34
46
42
36
48
70
74
50
16
10
6
20
18
4
18
36
36
20
8
18
22
8
14
28
34
36
42
38
28
20
16
20
18
12
16
18
18
14
16
20
26
24
20
20
26
26
20
14
4
6
6
18
30
30
16
16
12
8
4
8
16
16
16
14
4
12
22
22
10
12
14
14
10
14
16
10
2
10
10
10
12
6
6
8
10
12
16
12
4
4
8
8
8
12
10
18
18
12
8
22
46
42
26
16
20
12
142
255
255
255
218
8
74
24
24
12
10
18
28
26
20
8
8
6
14
16
8
12
22
18
14
10
6
10
26
30
14
20
12
6
12
8
6
2
10
28
28
6
26
26
16
34
40
24
8
34
42
26
26
28
22
16
18
16
18
20
6
14
16
34
38
36
16
14
4
12
26
22
38
42
28
30
24
18
18
40
42
42
50
38
8
52
66
50
48
36
24
22
12
6
16
34
90
128
108
255
255
255
238
144
70
4
74
112
92
28
88
182
218
174
74
46
42
102
120
78
24
26
46
74
88
52
38
106
144
132
30
154
255
255
255
255
210
72
46
54
36
46
46
22
4
4
12
32
30
12
14
20
16
18
18
16
28
48
48
48
54
26
6
18
12
2
10
14
16
10
8
16
16
6
4
4
14
14
8
20
32
22
16
30
24
16
10
34
44
30
12
8
8
12
22
30
20
16
22
34
50
60
54
40
24
24
30
32
48
64
60
102
198
255
254
172
72
8
2
2
2
10
36
82
156
254
255
255
255
255
255
255
255
255
255
255
255
255
255
255
252
148
214
255
255
255
255
255
252
218
194
148
106
76
56
36
16
6
2
4
8
6
6
6
2
4
6
6
4
0
0
8
20
12
18
0
118
255
255
255
190
104
60
12
14
40
30
16
8
24
30
24
20
18
20
24
16
16
24
38
52
54
44
32
22
20
14
6
6
10
20
24
30
30
20
16
20
24
24
24
24
16
6
6
16
10
10
12
12
22
20
6
0
0
4
12
14
12
8
4
6
12
12
12
16
14
6
4
4
4
4
4
8
10
8
10
8
2
2
4
2
2
4
4
4
2
0
4
6
12
14
8
12
10
6
6
8
18
18
56
18
164
255
255
255
204
38
84
162
166
104
58
60
84
116
106
62
22
84
212
255
246
76
52
40
6
12
30
34
26
12
6
18
18
6
48
154
255
255
255
128
48
158
198
184
122
34
76
160
184
174
154
136
116
96
70
44
40
40
36
32
24
22
30
42
40
30
18
8
16
22
14
8
10
10
12
14
16
30
30
22
12
12
12
10
16
40
76
96
98
70
20
24
58
70
68
74
78
72
58
36
30
40
30
6
18
16
36
46
38
38
46
44
28
30
32
8
32
46
28
34
14
12
18
14
14
10
4
12
26
22
48
38
38
178
255
255
255
255
108
16
30
24
44
14
22
18
34
42
28
18
18
10
4
16
32
32
24
34
56
68
56
32
12
8
18
14
2
14
20
18
16
8
12
14
16
6
8
20
28
32
28
24
26
26
24
20
16
16
18
16
12
12
14
20
22
22
20
24
24
22
14
6
8
16
20
24
16
6
10
14
12
4
4
8
6
6
10
8
0
8
16
16
6
8
14
18
18
12
8
6
8
14
12
6
2
12
18
20
34
32
12
8
8
8
8
8
10
10
14
16
12
6
14
34
40
22
24
22
36
144
255
255
255
204
8
74
16
34
28
22
28
42
48
42
30
34
26
18
14
8
6
8
12
18
14
6
8
8
24
32
20
6
10
16
28
14
16
12
16
28
12
28
36
28
34
28
30
18
16
22
22
22
18
12
6
2
4
10
20
16
8
18
36
38
38
36
36
32
32
28
8
8
18
26
28
30
28
28
30
38
48
50
22
46
96
98
74
86
80
76
76
102
120
132
148
204
255
255
255
255
238
210
164
84
40
86
136
138
92
28
126
206
200
112
36
30
80
106
78
32
10
40
78
112
84
12
88
152
152
72
70
255
255
255
255
255
84
38
36
8
14
28
26
12
2
12
24
38
34
38
40
32
22
24
20
16
24
32
24
8
28
44
48
46
50
64
82
92
116
138
136
146
142
122
116
106
100
92
80
66
46
46
32
8
28
32
30
54
58
52
52
58
60
62
66
52
30
36
48
54
44
38
26
22
36
32
16
18
32
104
194
255
234
138
56
12
10
14
32
74
124
200
255
255
255
255
255
255
255
255
255
255
255
242
255
255
255
255
255
255
230
244
255
255
255
255
255
255
255
255
255
255
255
255
236
176
124
84
46
12
6
10
6
2
6
4
4
4
0
0
8
20
10
18
8
138
255
255
255
206
112
68
32
14
26
14
18
6
12
24
22
18
20
28
36
32
32
38
44
48
46
40
32
22
20
18
12
12
12
14
16
18
14
8
10
16
18
14
10
14
16
16
12
6
6
10
10
10
20
26
16
8
8
10
16
18
16
10
6
8
8
4
4
12
16
6
0
0
0
0
0
2
4
4
8
8
6
4
0
2
2
2
4
6
4
0
4
4
6
10
8
8
4
8
10
8
20
20
58
18
206
255
255
255
186
54
58
84
106
112
90
50
40
82
100
74
36
84
214
255
255
82
56
48
12
12
16
14
14
12
8
14
24
62
176
255
255
255
150
44
162
170
136
102
66
40
138
190
176
136
106
94
80
60
36
36
44
36
20
20
28
42
48
46
30
14
12
6
2
20
32
30
22
8
2
12
32
32
14
10
10
16
22
8
26
68
100
106
86
38
20
60
82
82
70
64
60
46
22
16
12
34
38
22
28
18
20
38
42
40
36
24
8
26
34
28
24
44
36
16
10
16
10
12
20
10
10
20
24
14
52
46
42
212
255
255
255
228
84
20
8
48
56
32
42
44
48
68
54
30
18
4
12
24
24
14
8
14
30
46
46
36
30
26
20
10
12
28
32
20
2
14
18
14
10
16
12
4
16
24
26
16
18
30
38
36
26
18
16
18
12
8
10
16
18
20
26
30
26
16
14
8
8
18
30
30
22
10
6
14
10
6
6
12
14
14
14
6
8
18
18
14
12
20
20
20
16
8
2
4
10
10
8
10
4
14
28
26
42
48
26
4
12
12
10
8
8
6
8
12
8
8
20
40
42
18
26
20
54
160
255
255
255
180
24
80
8
46
32
24
28
38
48
48
42
36
32
24
16
14
16
20
22
30
30
16
4
12
10
28
40
22
20
38
28
20
20
14
14
30
14
10
18
20
28
24
14
18
18
12
6
8
6
18
26
24
16
10
16
18
18
36
38
24
34
36
36
44
44
28
10
4
12
26
42
54
52
46
42
38
32
20
42
104
134
114
84
116
124
156
208
234
248
255
255
255
255
255
255
255
174
138
162
112
68
74
132
158
140
62
68
150
184
136
66
40
78
88
78
44
10
28
80
134
122
46
56
142
158
104
16
160
255
255
255
255
120
56
70
34
32
24
18
28
26
18
16
28
36
48
42
24
18
18
26
24
22
34
56
78
88
88
90
100
124
150
166
192
224
238
228
232
240
224
206
202
198
190
182
178
172
150
126
120
128
132
128
114
96
82
62
42
14
18
46
58
54
62
64
50
24
28
26
28
38
20
20
18
92
180
224
194
106
24
4
10
28
58
116
202
255
255
255
255
255
255
255
255
255
228
178
146
120
106
98
94
116
140
174
208
222
220
236
255
255
255
255
255
255
255
255
255
255
255
255
255
255
255
194
118
46
14
2
2
2
4
6
4
0
0
6
20
12
16
20
144
255
255
255
242
134
76
46
42
52
30
20
6
8
20
20
14
16
26
36
36
36
42
44
42
34
28
26
18
18
18
16
18
16
12
2
2
4
4
4
12
14
8
4
2
6
16
22
16
14
10
10
12
16
24
22
14
14
16
18
20
22
16
6
4
2
0
0
6
14
8
4
4
4
2
0
2
4
4
6
4
4
4
0
2
4
6
4
4
4
0
4
4
2
4
4
4
4
6
12
8
20
22
60
8
248
255
255
255
174
128
92
138
170
138
78
38
42
68
68
62
40
84
212
255
246
76
68
64
30
34
42
36
32
24
10
4
50
184
255
255
255
166
50
180
194
126
68
44
58
78
152
168
128
88
74
78
72
52
34
36
50
50
44
34
30
36
36
30
20
8
14
16
12
12
18
20
22
20
12
24
32
20
4
16
16
8
12
28
56
76
78
54
42
42
60
78
80
70
56
44
36
22
14
24
36
34
16
4
16
16
12
12
16
14
8
4
22
30
20
26
20
18
12
14
18
12
10
12
16
8
16
12
10
16
62
46
50
255
255
255
255
194
60
16
20
62
58
52
74
44
14
60
68
54
26
10
26
30
24
16
14
24
28
26
34
32
36
46
48
30
24
22
10
14
26
22
16
12
8
8
8
8
20
30
18
10
12
22
32
36
28
16
10
14
16
16
16
18
18
20
28
30
20
10
8
4
6
16
28
32
30
22
14
14
6
4
4
6
10
12
10
6
10
14
12
14
12
12
10
12
8
6
2
2
4
6
10
16
16
20
24
10
26
36
28
12
24
22
16
12
14
12
6
6
8
8
18
38
38
6
14
6
48
172
255
255
255
194
22
72
16
48
18
8
18
22
24
18
8
10
8
18
22
16
8
4
0
8
14
8
8
12
12
18
30
32
38
22
8
26
14
12
18
14
26
26
22
18
22
24
20
16
12
6
6
4
16
22
24
32
34
28
26
22
28
34
28
14
24
20
20
28
32
52
54
38
36
46
62
74
64
54
32
14
40
94
148
176
166
124
92
122
192
255
255
255
255
255
255
255
255
255
255
255
152
140
154
120
62
12
68
118
132
90
54
78
138
136
100
74
74
86
88
64
28
26
54
114
126
78
14
114
150
120
70
56
255
255
255
255
198
74
60
10
12
24
34
40
46
38
20
18
26
26
16
18
42
44
40
50
82
124
150
152
138
130
138
156
178
190
196
212
228
230
206
200
204
194
186
202
222
234
242
255
255
255
255
255
255
255
255
255
255
255
255
255
255
186
96
28
70
80
66
44
30
22
14
16
36
26
28
104
184
212
164
76
10
12
14
30
74
138
216
255
255
255
255
255
255
255
255
208
162
134
104
80
60
52
50
44
60
66
66
90
98
114
130
152
206
255
255
255
255
255
255
255
255
255
255
255
255
255
255
255
230
142
66
12
4
4
0
4
2
0
2
12
4
10
20
134
255
255
255
255
158
90
54
54
72
56
32
18
12
20
22
16
12
14
20
20
20
28
34
40
38
32
26
20
16
12
10
6
8
10
6
4
4
10
4
10
12
12
6
6
2
8
14
12
10
8
12
18
20
22
20
10
8
12
10
8
12
12
6
2
0
2
2
6
12
12
8
8
10
8
4
6
6
4
4
2
4
6
4
4
4
6
4
4
6
2
4
6
4
4
2
4
4
2
2
4
16
26
62
26
255
255
255
255
120
162
146
150
146
96
50
34
40
54
58
50
36
88
216
255
248
62
72
64
30
30
38
28
18
6
10
56
186
255
255
255
170
66
200
210
144
62
16
10
40
100
146
140
98
72
70
82
80
58
46
56
72
70
56
36
24
28
28
22
16
4
6
14
16
14
28
20
8
18
16
20
22
16
2
12
12
22
44
60
64
56
34
42
52
52
64
66
60
50
42
30
20
16
22
44
54
42
36
26
16
10
8
8
16
18
18
22
20
14
24
32
38
40
32
8
16
28
18
6
20
12
10
6
12
24
60
38
58
255
255
255
255
134
36
24
38
64
52
48
90
86
40
38
46
54
34
10
26
24
20
22
24
24
14
20
32
32
32
42
56
52
28
4
14
30
30
18
16
16
20
20
12
4
24
24
14
10
16
12
18
24
18
10
2
8
18
26
22
22
22
24
28
28
16
8
4
0
2
10
20
24
24
24
20
12
4
0
0
4
6
4
4
4
10
18
16
12
6
2
4
8
6
6
4
4
8
10
10
10
12
8
14
24
42
32
18
24
30
24
16
12
16
18
10
2
4
4
12
32
42
16
18
14
72
200
255
255
255
202
10
72
30
36
16
10
12
14
20
30
38
30
22
8
20
20
12
20
20
24
22
8
8
18
18
18
32
42
24
14
40
36
14
22
42
50
50
42
14
34
44
46
32
26
20
12
10
18
20
20
16
20
32
32
28
24
34
28
16
8
16
10
6
20
14
28
56
70
54
66
76
66
34
34
62
106
156
206
226
210
178
144
146
196
255
255
255
242
228
236
255
255
255
176
208
255
202
110
114
118
98
48
24
72
106
92
48
44
92
126
124
104
90
92
100
86
50
20
34
84
108
92
32
76
136
134
114
76
200
255
255
255
255
70
16
46
40
34
22
22
26
26
16
6
8
8
26
58
72
60
58
88
138
170
166
142
126
136
162
186
196
192
186
180
170
150
102
110
98
80
86
112
152
188
236
255
255
255
255
255
255
255
255
255
255
255
255
255
255
255
255
255
196
128
86
54
38
18
18
16
20
58
126
192
204
154
68
0
18
14
22
56
120
198
255
255
255
255
255
255
254
176
132
106
92
88
70
48
38
48
60
54
70
70
44
22
6
12
40
58
66
84
120
156
174
182
188
210
238
255
255
255
255
255
255
255
255
255
236
110
38
12
8
8
4
0
2
12
4
10
18
124
255
255
255
255
170
94
50
46
66
62
48
34
24
22
20
18
12
6
10
14
16
22
26
36
44
44
36
26
16
8
4
4
10
8
8
8
14
14
8
14
14
12
4
4
4
4
6
4
4
4
6
14
20
20
16
6
4
12
16
16
14
6
6
6
4
6
4
8
12
12
8
6
8
10
8
6
2
0
0
0
2
4
4
4
4
4
2
2
6
4
2
4
4
6
4
4
6
6
6
14
16
30
54
58
255
255
255
255
52
160
174
168
144
92
52
40
42
56
60
46
32
80
208
255
238
58
70
48
12
10
24
12
26
14
72
226
255
255
255
176
84
232
228
144
64
8
28
48
76
118
150
148
118
92
84
94
90
64
50
50
54
46
32
20
20
32
34
26
14
4
10
10
24
34
24
2
12
12
12
12
20
26
18
26
22
44
62
60
44
24
28
28
30
38
40
42
42
36
34
26
22
30
40
46
28
20
22
20
16
20
24
18
24
24
22
14
4
14
20
14
16
16
26
22
16
16
24
14
16
10
8
10
8
16
48
30
62
255
255
255
244
52
10
30
46
56
40
24
70
88
70
52
50
42
24
2
20
18
18
24
16
4
10
18
28
28
24
24
34
50
52
32
18
14
10
8
16
30
28
28
26
18
26
22
6
8
12
10
16
30
34
18
12
12
18
32
36
32
28
28
28
26
16
14
12
8
6
8
20
26
22
20
20
14
8
4
2
6
2
4
4
4
6
10
10
6
4
8
10
10
6
8
10
8
6
4
4
10
12
18
22
24
24
6
16
24
20
14
8
4
8
14
14
6
2
6
20
44
44
6
20
16
80
222
255
255
255
190
40
56
32
22
4
14
22
22
20
18
24
14
18
16
8
22
20
16
14
12
4
10
18
14
12
22
34
44
40
36
38
26
24
48
114
188
192
218
156
46
32
40
22
28
40
38
36
28
12
12
12
10
24
22
12
32
40
28
16
8
16
22
12
16
42
36
42
50
62
68
58
4
82
156
204
238
255
255
230
196
184
192
220
250
252
224
182
152
148
146
136
130
116
64
118
206
200
102
34
96
102
60
24
64
100
100
74
18
56
114
134
112
88
90
106
102
62
18
34
70
92
100
62
32
114
140
136
66
122
255
255
255
255
196
46
40
18
30
42
60
58
42
20
10
10
22
52
74
78
70
86
122
148
134
90
60
72
118
164
190
192
184
172
144
104
54
40
58
58
18
32
70
106
134
148
148
140
142
154
162
166
176
188
190
242
255
255
255
255
255
255
255
255
255
255
255
212
104
40
80
122
160
188
176
116
52
6
10
8
8
36
80
138
212
255
255
255
255
255
224
164
106
78
60
46
42
26
12
20
38
42
32
40
52
48
32
20
34
40
38
52
56
62
70
84
104
120
138
142
144
172
210
255
255
255
255
255
255
255
255
178
88
38
20
14
8
4
12
4
10
6
88
255
255
255
255
176
82
30
22
40
46
42
36
34
28
18
18
16
6
18
22
34
38
34
34
40
44
40
32
24
18
12
10
14
14
16
12
14
10
8
20
24
20
12
10
8
8
8
6
6
2
2
2
12
22
20
6
4
14
18
12
6
4
6
10
12
10
10
12
16
14
6
6
4
2
0
2
2
0
0
0
0
0
2
4
4
4
2
0
4
6
2
4
4
8
8
6
8
8
6
14
12
18
38
126
255
255
255
255
32
154
172
186
190
156
110
78
56
52
56
50
44
88
218
255
246
64
64
44
12
26
36
42
14
86
255
255
255
255
182
74
236
254
164
58
10
36
60
74
90
114
134
134
108
82
80
92
88
66
50
38
44
56
44
18
22
34
30
22
14
14
14
18
26
18
12
14
14
8
8
12
24
30
16
18
16
36
40
26
12
14
22
20
22
30
30
36
38
32
32
30
32
36
34
20
16
48
46
22
8
22
24
18
14
16
10
12
22
12
12
14
16
24
32
30
14
6
12
10
16
10
8
2
4
12
44
28
72
255
255
255
180
12
10
40
52
46
28
4
38
60
60
46
50
44
28
6
22
22
26
20
4
18
22
14
22
24
18
12
18
34
56
54
44
40
42
40
30
20
6
10
20
24
22
18
8
16
12
16
32
36
32
10
20
18
16
36
44
32
20
18
20
18
10
12
14
14
14
14
24
24
16
14
18
18
10
6
6
6
2
6
4
4
10
18
12
4
16
18
16
14
12
12
6
4
6
12
14
18
22
26
22
14
4
10
18
14
6
4
2
0
2
8
14
8
4
12
26
44
36
14
44
44
106
246
255
255
255
192
36
32
12
12
20
16
12
8
4
18
34
36
22
12
2
18
26
24
16
4
16
24
16
4
8
24
38
50
48
30
10
10
14
70
152
210
144
222
214
94
16
34
8
16
26
32
34
36
20
12
20
10
26
24
8
32
28
28
24
8
16
32
46
30
44
62
64
52
46
38
16
92
184
248
255
255
255
232
190
164
168
188
206
204
168
124
100
98
98
74
44
42
88
56
48
156
206
160
44
68
110
92
76
70
98
106
100
64
20
68
106
90
66
80
112
120
74
12
38
56
76
106
94
14
86
142
146
84
102
255
255
255
255
255
138
16
82
82
62
60
52
36
30
14
12
46
70
74
76
84
112
136
134
98
52
38
68
120
156
164
150
130
102
68
50
46
92
114
94
56
82
80
68
64
42
24
58
104
136
150
156
162
158
124
70
2
86
176
255
255
255
255
255
255
255
255
255
255
255
172
80
138
154
110
46
10
4
8
10
20
66
110
158
234
255
255
255
255
214
146
110
70
48
32
18
28
28
16
18
28
20
8
8
26
38
40
44
50
42
30
54
72
76
66
60
70
88
112
118
104
100
110
138
174
216
255
255
255
255
255
255
216
114
48
20
10
2
10
6
10
0
64
220
255
255
255
172
82
24
12
30
36
24
24
28
28
22
22
20
12
24
18
36
46
44
42
44
48
44
34
30
28
22
18
18
18
18
14
6
6
6
16
26
24
16
16
12
14
10
8
12
10
6
6
14
18
16
8
10
18
26
24
16
12
14
14
12
12
16
16
16
12
2
4
4
4
4
4
2
0
0
0
0
0
4
6
4
6
4
0
2
6
6
6
4
8
8
4
4
6
4
14
16
4
40
206
255
255
255
255
54
170
180
188
200
186
152
122
94
72
62
48
38
78
206
255
244
68
64
60
34
48
26
20
122
255
255
255
255
128
78
210
236
182
86
4
52
76
86
86
86
92
94
82
58
48
62
80
82
70
56
38
22
40
56
44
28
24
10
10
18
22
12
4
10
16
18
8
4
6
6
16
18
18
16
14
12
30
46
48
38
22
20
24
36
42
40
44
40
34
34
30
26
18
16
18
38
46
30
14
24
14
8
10
8
12
2
18
20
10
34
36
22
20
28
32
16
14
18
14
20
8
10
8
6
16
46
28
100
255
255
255
164
26
16
52
56
40
22
2
14
24
26
26
36
34
24
16
24
24
32
32
20
22
12
4
12
22
20
14
20
20
42
54
52
54
66
80
88
86
72
46
30
16
28
26
12
20
26
30
36
26
16
6
28
18
12
38
48
30
14
18
24
18
8
4
4
10
20
16
16
22
22
20
20
22
10
6
12
8
8
8
4
2
6
12
8
22
22
20
20
20
16
6
10
14
16
16
12
12
16
18
14
12
12
14
14
8
4
4
4
4
4
8
16
10
6
12
22
38
32
22
54
44
142
255
255
255
255
156
26
56
20
20
16
36
30
20
12
8
10
18
18
6
6
12
18
24
20
12
28
26
14
14
10
20
30
38
40
32
18
14
26
48
182
250
170
242
230
104
14
38
10
6
8
12
12
18
24
28
36
20
36
26
10
40
26
14
22
14
30
34
58
80
108
112
92
46
24
46
114
180
230
252
250
236
206
174
148
124
112
108
110
106
86
76
88
102
90
66
70
48
60
70
58
96
218
244
138
22
122
130
84
52
78
94
110
102
62
106
120
76
36
64
116
140
94
22
48
48
56
104
118
54
70
134
150
94
78
160
255
255
255
255
255
88
126
72
44
14
8
24
26
6
36
74
84
82
88
102
122
132
132
120
104
104
122
142
142
114
68
20
28
74
104
114
120
118
86
64
98
106
96
76
48
24
16
32
48
58
66
76
94
104
110
106
90
68
30
32
102
156
214
255
255
255
255
255
255
255
255
255
156
52
20
4
18
22
18
48
108
152
204
255
255
255
255
216
118
70
50
22
16
12
10
20
24
26
26
24
18
12
10
10
12
8
14
16
16
14
22
46
64
68
58
46
50
74
102
116
118
118
120
124
134
168
230
255
255
255
255
255
230
122
48
14
4
10
6
8
0
56
194
255
255
255
224
106
26
8
30
36
26
22
16
18
22
26
22
10
10
8
16
32
40
46
52
60
56
40
34
32
28
24
18
14
12
12
8
10
6
8
16
18
10
14
14
18
12
4
10
18
24
22
18
26
26
18
16
20
26
28
26
22
16
10
8
8
18
22
20
16
6
4
2
0
0
2
4
4
4
4
6
8
10
8
4
8
8
4
4
6
8
4
2
8
8
4
2
6
8
18
30
24
98
255
255
255
255
255
66
190
206
202
198
184
166
156
150
134
108
70
38
76
200
255
242
72
74
74
46
58
90
180
255
255
255
255
76
110
214
242
202
124
34
38
76
82
76
68
70
80
82
72
66
76
92
102
96
82
68
48
44
32
40
46
36
14
2
12
22
14
8
14
12
12
14
10
8
6
14
14
6
10
12
18
20
32
46
56
54
38
30
36
46
46
38
34
26
24
24
16
14
18
18
22
32
26
10
8
18
12
6
4
4
10
2
18
28
30
46
34
20
14
18
16
6
22
20
6
16
10
8
8
16
28
48
24
134
255
255
255
148
32
16
60
58
36
18
6
20
18
4
16
26
20
16
16
20
18
16
22
18
6
6
10
8
14
20
16
12
8
22
36
36
48
54
68
82
92
96
80
54
26
22
24
18
10
18
24
22
10
16
12
20
12
20
36
42
32
16
16
22
18
10
4
6
20
24
10
10
18
24
26
22
22
16
12
14
8
8
6
4
6
2
10
14
18
10
12
12
10
14
12
16
12
8
8
8
10
14
12
4
6
8
14
16
8
4
4
6
8
8
12
20
14
14
20
28
40
32
34
56
24
148
255
255
255
255
124
14
56
26
46
14
18
26
26
18
6
8
8
10
14
8
8
14
24
24
18
22
12
6
12
14
18
22
28
30
32
32
12
8
22
122
228
236
248
170
58
10
32
22
6
20
20
18
2
22
38
34
28
46
46
22
34
20
8
22
42
64
84
106
124
128
108
68
44
58
118
186
218
222
208
182
160
132
116
102
84
64
62
76
82
72
74
86
92
74
52
78
64
56
58
84
80
162
255
230
66
132
124
64
26
34
40
72
84
66
98
96
52
16
38
92
126
90
18
40
30
38
84
116
78
56
102
132
90
24
66
238
255
255
255
255
168
132
78
74
40
14
24
18
12
60
96
104
106
106
112
120
114
110
110
118
142
162
164
134
66
30
86
138
162
158
134
116
94
52
42
92
116
122
118
90
44
88
120
128
124
118
96
64
28
40
78
108
134
148
142
152
138
106
52
110
254
255
255
255
255
255
255
255
255
184
90
18
4
0
60
140
186
232
255
255
255
255
138
54
22
28
30
26
18
12
16
8
24
30
28
26
16
8
2
6
4
6
10
14
14
10
22
36
50
54
44
40
50
76
108
128
132
124
110
100
110
140
208
255
255
255
255
255
240
140
62
6
10
8
8
0
48
176
255
255
255
234
88
38
14
34
34
26
20
6
12
20
30
26
12
6
2
10
22
26
34
44
58
62
50
40
32
28
26
24
22
14
12
12
10
6
8
10
14
14
18
16
20
16
2
14
16
22
26
22
26
26
20
16
18
18
18
24
26
22
16
10
6
14
22
24
24
16
10
4
4
4
6
6
4
4
4
8
10
8
6
4
8
8
4
4
4
6
4
4
10
8
6
4
10
12
28
46
40
170
255
255
255
255
248
86
162
204
222
232
222
206
194
190
192
180
150
118
80
204
255
232
64
84
68
40
92
224
255
255
255
254
36
124
198
224
220
170
84
32
60
80
68
52
54
78
102
114
118
132
148
146
130
104
82
70
54
66
64
74
68
40
16
8
14
20
18
16
10
6
14
16
8
12
12
12
10
4
10
12
12
8
8
18
32
40
36
32
32
32
24
14
8
2
6
12
10
14
18
16
16
14
10
10
24
36
26
20
12
0
10
10
14
26
32
30
12
6
12
4
22
34
20
8
28
30
20
14
32
40
36
42
16
180
255
255
255
120
30
8
56
50
28
8
18
28
18
14
24
20
4
20
38
40
30
14
8
16
18
12
6
2
8
12
10
4
0
4
10
14
20
16
12
20
32
54
66
66
58
40
32
20
8
6
12
12
8
4
2
10
24
40
42
36
22
20
30
26
12
10
10
10
16
14
8
8
14
22
26
18
18
18
14
10
2
12
16
16
16
14
10
8
12
16
24
22
12
18
20
8
8
8
8
12
16
16
8
4
16
16
14
10
6
2
2
8
10
8
12
20
18
18
28
34
46
36
32
60
24
184
255
255
255
255
114
16
44
6
44
40
18
14
20
22
14
6
6
6
16
18
18
20
26
26
14
4
12
8
4
18
18
18
26
30
32
42
48
42
28
30
50
66
52
20
14
10
20
34
36
32
20
30
38
38
30
16
26
44
58
58
72
58
42
48
74
108
130
124
98
66
50
40
74
128
180
226
224
198
166
136
118
92
78
64
52
70
82
114
116
90
70
58
50
34
18
28
40
28
42
86
74
54
210
254
150
118
90
98
92
76
44
24
24
16
26
48
48
32
58
114
126
76
12
32
34
32
62
92
78
34
62
104
84
46
52
128
255
255
255
255
230
130
130
128
106
90
70
46
44
88
120
130
126
112
112
110
84
60
64
90
140
168
156
94
44
88
154
184
180
156
124
96
60
20
18
68
108
130
142
132
102
136
144
128
106
84
52
26
14
6
22
44
60
66
72
80
70
74
66
28
54
100
110
226
255
255
255
255
255
255
255
190
36
22
90
170
202
224
255
255
255
194
90
38
24
30
26
20
26
24
14
2
18
26
24
24
20
10
12
12
18
16
24
24
18
8
8
10
18
24
32
36
34
38
56
82
98
100
90
82
94
118
168
218
255
255
255
255
255
255
176
64
2
8
6
0
38
156
255
255
255
255
74
38
24
38
40
30
24
16
16
18
28
26
16
24
26
32
28
16
18
26
40
50
48
42
30
24
26
30
36
28
18
18
12
8
8
8
12
24
22
22
24
20
4
10
10
8
14
16
20
20
16
16
18
12
10
10
18
24
28
22
12
10
14
18
20
20
14
8
6
4
4
2
0
0
0
4
6
4
4
4
6
4
2
4
4
8
8
6
6
6
6
4
14
14
40
52
48
250
255
255
255
255
202
68
86
148
202
254
255
255
238
212
210
218
222
218
80
216
255
255
70
90
88
134
255
255
255
255
170
34
158
200
194
172
136
76
8
52
82
88
84
84
102
126
136
144
154
166
166
138
104
76
60
56
44
44
52
52
38
16
10
10
8
10
16
14
6
6
6
6
6
6
6
8
16
20
22
20
26
18
8
12
20
16
4
2
6
6
4
2
2
2
4
8
6
6
10
12
12
6
6
18
40
46
32
36
30
14
24
30
26
18
12
4
6
4
8
18
26
20
24
38
36
30
20
20
36
38
26
16
54
246
255
255
255
114
48
22
74
58
28
4
20
18
8
20
26
10
20
38
44
34
18
12
16
28
24
12
14
8
4
6
8
4
0
0
0
4
12
20
26
26
22
18
24
36
42
42
32
16
8
4
10
14
12
6
4
12
32
38
30
28
28
30
28
12
2
8
14
14
14
16
14
20
28
30
24
12
10
8
10
6
2
12
14
14
12
12
14
10
8
14
24
26
20
22
20
4
8
10
16
16
14
6
6
14
22
16
8
4
6
4
4
8
8
4
8
14
12
4
20
30
40
38
40
64
28
204
255
255
255
246
98
18
60
36
18
20
20
20
26
18
6
14
12
8
26
22
10
10
26
32
30
18
2
8
10
16
6
10
18
26
24
34
38
50
40
4
20
28
34
20
10
28
26
38
52
58
54
54
52
42
28
26
30
48
72
86
84
72
68
76
100
114
100
58
20
24
64
112
170
228
255
255
238
186
142
120
112
88
66
46
38
56
86
112
104
74
54
44
36
22
14
12
20
30
48
74
66
24
118
184
140
34
52
90
96
88
66
30
34
44
54
82
84
78
82
94
96
74
26
18
28
34
62
82
70
24
38
86
88
76
52
52
238
255
255
255
255
172
128
112
104
112
116
106
96
132
152
148
124
100
92
78
50
38
68
118
150
130
56
44
114
156
172
164
142
112
78
70
44
16
22
22
34
54
98
154
178
164
132
92
60
34
20
8
8
12
10
2
14
18
24
32
32
54
66
52
30
44
42
18
106
255
255
255
255
255
255
255
255
178
142
154
168
198
242
255
254
158
92
48
32
36
28
38
38
28
16
14
18
16
10
14
18
18
12
10
12
18
28
28
16
14
20
22
22
12
20
34
36
28
22
34
56
76
78
72
80
96
134
174
208
255
255
255
255
255
255
178
66
18
4
0
26
122
255
255
255
255
104
46
30
46
50
42
36
30
28
22
30
32
26
30
24
38
40
22
14
16
18
28
32
40
36
26
24
22
28
26
16
18
20
18
14
18
24
26
16
22
26
24
10
14
10
8
10
12
18
18
12
16
24
20
12
8
8
14
26
28
26
22
18
18
14
18
18
14
12
6
4
4
4
2
0
2
6
8
8
8
4
2
2
4
4
8
8
4
2
4
4
2
18
16
52
54
68
255
255
255
255
255
142
38
20
58
100
158
194
212
214
202
196
198
208
218
98
240
255
255
72
126
208
255
255
255
255
76
120
206
202
172
136
86
60
62
74
94
102
114
136
156
166
156
142
144
146
140
118
78
52
40
36
36
26
22
18
12
12
6
6
8
4
4
4
6
10
12
20
24
20
6
6
14
26
20
6
10
12
16
12
20
30
36
32
32
30
22
14
8
4
12
18
14
6
6
4
2
6
12
10
28
40
34
14
26
30
22
38
32
10
14
18
10
6
4
16
18
12
20
42
38
14
10
14
6
20
20
8
20
124
255
255
255
255
94
64
32
92
74
38
10
14
20
16
22
16
8
28
32
22
18
12
6
12
18
14
8
18
18
10
8
10
4
0
2
2
6
20
30
30
28
30
22
16
8
6
10
18
18
12
4
14
20
16
14
10
10
22
20
14
18
20
24
28
18
6
6
8
14
16
16
18
26
24
16
12
10
8
4
6
4
4
12
18
18
12
10
12
8
6
2
8
14
14
20
18
18
18
12
20
16
8
8
18
16
14
2
6
4
6
8
4
14
8
4
6
8
14
16
38
42
42
26
56
78
58
216
255
255
255
214
88
20
52
54
38
26
14
6
6
8
28
32
30
40
68
52
54
28
30
40
44
38
24
16
16
10
6
10
12
20
22
18
10
22
36
28
18
22
28
40
48
50
44
44
54
64
68
60
52
44
44
42
54
76
86
76
64
62
64
84
84
56
24
44
78
98
140
204
255
255
255
255
238
172
128
118
118
96
68
46
38
48
60
66
56
44
46
46
38
26
22
26
26
34
58
76
58
16
76
112
104
112
110
72
78
60
36
12
52
70
64
90
104
112
132
140
130
98
56
20
4
22
60
80
66
36
32
80
96
98
78
32
144
255
255
255
255
224
104
46
38
60
90
114
128
152
154
132
98
72
56
44
42
72
130
162
132
66
92
182
202
180
146
120
94
56
46
50
44
34
36
62
110
174
224
234
198
140
88
46
18
24
28
30
20
16
4
16
30
36
40
52
70
86
84
64
46
38
36
48
56
44
96
212
255
255
255
255
255
255
255
150
176
224
255
255
220
118
92
62
44
46
42
44
38
30
24
24
30
28
22
16
12
20
20
14
8
12
20
20
8
20
26
14
6
8
12
22
32
32
20
14
24
52
66
64
68
72
94
132
172
220
255
255
255
255
255
255
176
86
26
2
20
96
228
255
255
255
120
40
32
46
54
50
42
36
38
30
34
40
30
16
4
14
34
36
30
20
22
20
18
34
42
34
28
18
16
16
12
16
24
28
22
28
24
18
16
20
24
26
16
26
24
22
18
14
20
24
20
18
24
28
26
22
12
6
12
18
28
34
32
28
18
18
22
24
26
20
14
12
12
8
4
8
10
8
8
8
4
4
6
10
8
6
4
2
4
4
4
4
18
12
56
52
108
255
255
255
255
216
82
24
22
34
38
52
62
94
126
150
154
138
124
118
86
240
255
240
40
255
255
255
255
228
28
140
210
184
120
74
44
22
48
58
78
90
106
136
164
170
150
122
118
126
118
98
68
40
32
30
30
30
28
28
22
20
26
24
22
18
8
10
8
6
8
6
10
8
24
20
4
14
20
20
22
22
10
4
6
12
22
30
22
22
26
26
20
14
10
16
14
10
10
12
14
14
8
8
18
24
18
20
18
22
8
10
14
6
24
28
12
14
8
4
10
10
14
22
28
20
14
4
6
10
24
34
6
44
180
255
255
255
255
56
54
20
86
76
40
16
16
10
0
10
8
10
22
18
14
18
18
18
14
10
12
6
12
22
24
20
14
6
4
6
2
12
22
24
16
14
20
24
20
20
18
12
4
8
12
6
14
22
14
14
16
14
22
18
16
12
14
18
16
14
16
8
2
8
14
26
28
26
16
10
10
8
6
4
2
2
4
6
10
14
14
12
12
8
8
10
6
0
10
16
12
14
20
16
18
10
8
10
12
6
6
10
12
10
12
10
6
20
20
14
10
6
2
20
44
48
44
6
70
86
78
246
255
255
255
214
100
32
32
34
32
38
36
34
30
28
42
36
48
72
48
16
72
76
46
50
48
40
36
30
32
24
18
16
14
22
26
26
28
26
30
32
46
66
74
74
62
56
56
62
70
72
76
82
76
72
72
58
48
46
38
26
28
40
60
60
32
20
64
104
134
168
232
255
255
255
255
254
186
124
92
92
102
96
84
76
72
70
60
54
54
58
62
52
38
30
30
36
36
38
54
66
54
30
88
136
138
146
114
78
92
78
38
18
48
54
50
64
102
116
122
124
120
106
82
48
28
8
36
70
82
64
34
80
102
104
78
20
72
216
255
255
255
255
124
42
12
46
74
84
92
100
102
90
66
44
32
42
74
122
156
132
56
58
154
190
166
130
108
98
72
22
36
42
44
42
36
70
130
194
220
192
134
74
60
54
28
48
48
32
12
14
38
56
60
58
62
72
78
76
60
48
50
54
50
36
8
30
44
40
80
216
255
255
255
255
255
255
255
255
230
198
182
124
78
54
48
56
48
42
36
32
28
28
28
24
18
14
10
12
12
8
12
14
16
20
20
30
20
8
8
8
4
8
20
30
28
22
18
38
58
66
78
78
84
108
140
180
210
248
255
255
255
255
250
158
64
10
18
92
222
255
255
255
152
54
48
52
44
36
30
26
34
32
32
40
44
32
16
10
12
36
50
42
30
22
16
26
42
48
48
36
26
22
20
24
32
36
26
20
14
12
18
20
22
24
20
22
14
16
14
10
14
20
22
14
10
16
22
28
24
14
8
6
10
20
30
30
20
12
14
20
24
20
12
10
12
8
4
6
4
0
4
8
8
6
4
8
8
2
2
4
6
4
4
6
14
16
52
62
182
255
255
255
255
122
46
18
28
32
30
50
72
94
114
136
134
94
50
20
118
255
255
242
254
255
255
255
106
98
144
168
130
64
72
52
30
22
22
30
48
78
114
146
152
128
96
84
98
108
96
72
52
42
40
40
40
40
44
48
44
44
50
48
40
32
22
12
4
10
20
20
36
30
12
20
16
12
32
42
36
24
16
8
4
10
26
40
32
20
18
14
12
14
16
12
4
2
2
6
12
20
24
14
20
20
24
28
36
28
22
22
30
30
28
10
8
12
8
6
18
24
10
10
26
20
10
2
10
12
18
34
12
64
226
255
255
255
226
44
42
14
76
64
32
12
20
22
20
24
14
8
18
16
8
4
10
18
18
10
12
16
8
16
20
26
22
14
6
8
6
10
18
24
18
16
6
12
20
22
16
10
10
4
6
6
12
20
12
4
12
22
32
26
12
12
16
28
38
38
24
12
6
12
28
40
34
22
10
8
12
12
10
6
8
6
10
16
16
6
4
6
4
2
2
2
6
8
12
8
2
2
8
10
6
2
8
6
6
10
8
12
12
12
18
14
16
32
32
22
20
16
14
24
46
50
34
22
82
84
84
255
255
255
255
224
110
40
32
20
12
24
32
42
46
32
34
26
42
94
102
94
130
98
42
58
50
34
32
38
50
48
50
40
26
30
38
42
60
62
46
38
76
90
78
66
66
58
66
72
74
68
62
70
74
76
76
60
26
8
34
32
30
50
44
22
36
78
100
126
164
226
255
255
255
255
220
170
114
88
76
62
82
94
102
104
94
76
58
62
74
72
58
38
30
32
32
34
30
28
38
40
26
12
74
170
232
192
94
76
122
82
20
26
32
54
46
28
84
120
116
100
76
92
96
66
34
16
62
90
88
60
18
68
100
104
70
22
18
100
255
255
255
255
182
40
42
60
62
36
18
26
48
52
34
22
26
64
110
136
120
58
26
82
112
104
82
80
90
84
50
12
38
46
48
50
60
82
108
142
136
90
42
40
60
66
46
58
42
10
26
60
80
80
68
54
52
52
38
14
4
22
28
18
14
32
36
16
10
22
40
50
38
190
255
255
255
255
255
246
138
192
242
178
92
50
50
64
58
46
34
28
22
16
10
8
8
8
10
20
24
16
10
8
16
26
30
24
10
4
4
4
10
12
10
18
26
32
28
36
52
66
86
90
90
98
114
140
158
196
246
255
255
255
255
206
112
36
6
82
224
255
255
255
184
70
50
64
40
22
14
10
18
22
30
32
50
52
28
4
6
18
44
56
56
40
26
24
34
50
60
54
44
36
34
32
34
36
26
12
8
12
20
22
22
20
12
4
6
18
16
4
2
8
14
8
4
2
6
20
28
26
16
6
4
8
20
24
18
6
6
8
14
12
6
8
10
4
2
6
10
12
12
8
4
6
6
12
14
8
8
2
6
4
2
6
8
20
32
56
255
255
255
255
255
50
58
32
50
70
76
96
106
98
80
70
82
112
112
96
100
255
255
255
255
255
255
30
122
152
128
90
44
46
72
76
62
48
38
34
52
94
138
156
138
104
90
102
114
112
96
76
68
58
48
46
44
42
38
34
26
24
32
42
44
42
34
22
10
14
18
14
18
32
30
12
24
38
40
32
40
34
22
8
2
6
18
34
36
26
28
24
18
20
26
24
10
8
12
16
10
14
28
26
20
6
8
16
18
20
20
20
22
22
14
16
16
8
4
16
24
28
34
16
22
22
8
4
8
8
30
36
6
92
255
255
255
255
184
28
30
20
72
60
26
2
12
16
12
28
22
8
24
22
12
8
10
14
14
8
8
16
20
20
12
6
10
10
6
6
6
10
22
32
34
36
30
18
12
14
14
10
10
4
8
6
8
16
16
4
8
18
22
14
6
14
32
42
40
28
12
18
8
10
26
38
28
14
8
10
16
14
6
4
10
6
16
20
16
14
14
2
8
6
6
4
4
12
8
2
2
2
2
2
10
12
12
14
14
4
10
14
10
10
14
10
16
26
22
14
18
16
16
34
60
48
12
32
90
74
92
255
255
255
255
202
90
42
52
48
32
30
32
32
38
34
12
10
18
40
62
88
94
52
26
48
50
38
30
36
36
30
40
42
36
40
48
48
52
72
66
64
94
90
72
70
76
72
72
72
62
40
22
12
16
32
50
54
32
8
54
80
78
54
28
42
86
120
128
142
178
244
255
255
255
194
152
132
92
90
98
78
88
96
98
84
50
22
16
42
58
42
18
14
20
30
26
20
12
18
26
28
34
38
2
102
224
250
132
52
112
86
18
18
28
52
66
48
70
146
152
100
70
88
106
72
36
18
50
58
70
70
32
38
80
102
76
40
30
38
162
255
255
255
255
110
48
46
34
2
8
22
44
42
36
46
56
80
114
110
72
22
20
48
58
66
78
86
74
36
26
26
24
44
56
50
70
120
146
142
102
80
60
52
54
46
24
34
18
20
58
76
66
42
26
18
18
16
20
32
30
36
50
40
38
36
20
20
26
18
12
44
64
46
76
255
255
255
255
255
255
128
138
198
158
100
72
68
66
66
56
40
28
16
10
6
2
6
20
28
28
20
16
10
12
16
12
8
2
4
4
6
6
4
4
8
12
22
28
36
50
68
88
90
88
88
98
118
124
156
206
255
255
255
255
246
168
84
22
50
194
255
255
255
200
70
40
58
48
38
26
10
4
10
12
14
40
58
46
20
10
8
18
28
40
38
28
22
22
32
42
42
38
34
32
30
32
30
20
8
4
8
14
16
16
16
14
10
8
12
10
4
4
6
16
14
4
2
2
10
18
24
24
18
10
10
24
30
24
14
6
8
14
14
10
8
6
4
6
10
8
6
4
8
10
12
16
20
16
12
14
6
2
6
12
12
8
18
20
142
255
255
255
255
184
14
38
42
50
64
64
56
108
184
255
255
255
255
238
196
88
238
255
255
255
255
42
166
174
84
76
32
6
10
20
38
48
54
62
56
80
130
170
164
126
100
112
134
128
108
88
74
68
50
36
32
30
26
12
10
14
16
12
6
22
32
32
26
18
10
8
12
10
6
28
34
42
32
14
2
22
36
30
16
10
10
8
18
18
18
30
26
26
26
36
32
20
24
24
28
30
18
18
24
24
16
10
12
16
14
8
8
2
14
28
30
14
16
2
18
18
6
32
34
24
12
16
12
2
4
26
28
2
120
255
255
255
255
132
24
18
16
60
54
30
12
22
26
10
16
20
8
26
20
8
4
8
12
10
6
6
6
16
32
34
26
22
24
16
14
14
16
18
20
24
30
30
26
14
12
22
22
18
12
14
8
8
12
12
10
6
8
16
14
16
34
42
34
20
16
2
16
12
10
30
36
20
6
6
16
22
16
10
8
6
4
16
20
12
8
18
10
10
2
6
4
4
12
8
4
6
6
12
18
20
14
16
18
26
24
14
12
8
14
16
6
12
24
28
18
4
8
24
50
60
30
12
44
90
60
130
255
255
255
255
140
50
40
44
62
56
46
32
24
22
30
28
22
26
12
22
42
30
14
6
32
46
48
40
26
14
12
18
30
44
58
60
52
44
64
72
76
84
70
58
52
60
60
46
42
24
14
44
72
82
90
94
64
22
90
144
132
72
36
52
88
124
160
162
168
196
248
255
248
182
132
122
122
90
72
98
104
94
92
78
46
4
30
24
64
76
52
32
34
42
28
10
2
8
22
28
20
24
52
56
70
154
224
156
62
112
76
24
14
24
44
78
62
50
152
192
148
100
100
116
108
54
50
62
62
80
96
76
38
54
90
82
60
66
44
80
255
255
255
255
190
52
24
44
18
4
28
44
28
20
38
72
100
108
80
38
10
32
56
76
104
116
94
40
36
44
44
20
20
52
90
142
182
180
144
84
54
56
60
62
42
8
12
6
46
70
52
20
30
34
18
8
18
30
30
12
20
36
36
26
14
12
26
32
28
22
22
10
28
52
28
54
196
255
255
255
255
136
62
152
148
112
86
76
80
74
58
44
26
16
14
6
14
28
30
26
20
22
24
24
22
18
18
8
8
6
6
10
14
12
6
4
8
14
20
34
54
72
72
72
72
82
100
98
120
170
234
255
255
255
255
218
140
62
10
140
255
255
255
226
78
44
40
38
50
48
26
6
12
20
8
18
42
46
28
14
14
28
26
12
14
20
20
14
24
22
16
16
18
20
26
34
32
18
6
6
10
16
14
10
10
14
18
22
28
24
8
12
8
22
24
16
8
6
8
10
16
24
26
26
26
36
40
30
22
16
16
18
16
16
18
18
12
6
8
8
16
22
22
16
16
20
20
12
14
16
14
8
16
30
22
34
4
72
248
255
255
255
255
138
12
10
14
24
84
188
255
255
255
255
255
255
255
246
184
148
220
255
226
130
48
118
160
78
28
66
46
20
24
8
6
10
38
54
74
110
160
186
158
114
104
126
132
102
68
44
34
28
12
4
4
12
20
16
10
6
12
24
22
32
30
16
14
16
16
22
14
6
8
20
40
32
20
4
16
2
30
40
20
14
20
8
18
14
24
30
20
26
16
22
12
24
40
20
20
32
24
12
6
16
16
8
2
8
20
18
24
12
10
24
22
6
20
8
14
28
26
20
20
18
24
28
30
20
14
36
34
2
146
255
255
255
255
76
10
4
24
60
54
32
14
16
26
18
16
14
2
24
28
18
10
10
12
10
8
6
8
14
12
20
22
22
28
18
12
4
10
18
20
28
32
30
22
10
20
30
24
10
6
10
10
20
22
18
14
8
8
12
22
38
42
32
20
10
18
18
14
10
18
38
40
20
4
2
10
12
6
10
12
4
6
18
20
12
2
10
6
4
6
6
0
8
10
4
4
6
14
22
22
14
8
8
6
8
22
22
8
18
22
12
2
8
18
26
24
10
16
34
44
42
32
30
42
74
60
160
255
255
255
255
78
20
32
20
28
38
44
38
28
20
32
52
60
44
38
46
38
28
28
30
36
46
54
54
48
40
32
44
60
70
74
76
76
72
76
70
62
62
52
36
12
10
20
20
22
36
52
68
70
52
34
14
48
116
162
144
56
50
94
112
126
164
206
212
222
244
255
255
204
138
106
104
96
62
48
56
70
88
92
82
52
38
40
14
32
62
56
40
38
50
46
26
8
14
30
26
2
14
22
36
54
146
176
116
26
88
72
28
4
20
48
76
62
12
114
176
160
124
118
130
114
30
42
50
26
48
84
82
32
32
74
70
56
74
62
70
200
255
255
255
255
88
44
76
54
54
70
58
50
48
72
120
146
120
70
20
20
66
120
148
140
116
70
10
26
28
40
46
34
90
140
162
164
134
86
34
34
46
62
82
80
48
18
24
52
48
34
20
18
26
22
12
22
18
12
14
12
4
8
12
20
20
12
12
12
8
12
14
4
42
76
80
30
90
238
255
255
255
198
78
90
128
120
98
84
78
70
54
28
10
10
12
18
28
26
18
12
16
22
24
26
22
16
14
14
12
6
4
8
10
10
4
16
18
10
14
20
40
48
58
64
76
88
80
94
140
208
255
255
255
255
252
186
106
26
88
255
255
255
255
138
58
30
8
26
44
38
20
22
28
30
32
34
24
18
14
20
22
8
12
18
20
26
24
24
12
12
14
18
16
26
40
44
32
20
26
26
34
32
22
14
14
18
24
36
36
22
16
12
20
22
16
12
12
16
18
20
24
24
26
28
36
42
30
22
22
26
26
18
16
20
28
30
24
22
26
30
28
22
16
14
16
18
16
22
24
24
18
30
46
30
62
18
130
255
255
255
255
255
106
20
48
166
255
255
255
255
255
255
255
255
255
255
174
48
170
196
194
132
96
106
100
46
38
90
82
46
24
40
22
16
26
42
66
94
128
162
170
134
96
90
100
90
58
32
16
12
16
16
16
18
22
22
18
12
10
6
14
30
30
22
14
6
4
20
30
30
26
6
24
30
12
26
10
12
10
18
38
26
20
18
6
16
12
16
10
2
10
4
14
24
42
36
4
26
28
20
16
22
30
24
12
12
14
18
12
26
20
6
32
38
16
10
12
4
16
30
38
42
38
30
28
32
28
20
44
44
4
184
255
255
255
164
54
18
22
40
70
58
30
12
8
12
10
8
10
6
18
30
28
20
16
16
10
8
8
2
12
18
14
6
14
18
10
12
30
36
34
38
38
32
26
16
6
26
30
16
4
8
2
18
28
22
14
14
16
22
32
42
44
32
18
12
4
6
14
16
12
30
46
40
18
4
2
12
16
12
14
10
0
10
18
18
12
2
6
8
10
8
4
4
10
8
2
4
8
16
22
14
14
8
6
14
18
20
16
10
22
16
4
0
2
10
16
14
10
22
32
28
38
30
26
24
64
60
178
255
255
255
228
40
34
22
20
6
6
28
40
36
28
34
52
80
92
74
60
52
56
62
60
50
46
52
58
62
64
62
74
78
74
68
66
58
54
48
28
6
16
34
48
80
102
108
108
112
118
114
98
72
38
12
36
82
110
96
44
100
186
196
174
178
214
252
255
255
255
255
220
154
116
102
86
64
34
24
32
52
74
84
80
74
78
78
62
40
24
34
36
36
46
52
42
22
36
38
26
14
20
18
32
50
140
186
124
34
86
74
22
4
16
56
90
84
26
58
126
138
126
128
138
112
44
78
62
18
12
48
66
30
24
60
52
36
54
48
42
114
255
255
255
255
162
62
86
56
66
108
102
92
92
106
132
128
84
36
20
82
150
192
176
122
78
36
14
22
14
14
40
78
130
154
144
120
76
46
34
30
38
46
64
78
66
40
48
44
30
34
20
22
26
12
4
14
16
28
26
22
26
32
36
30
22
20
30
40
34
24
18
12
4
10
26
44
44
12
126
255
255
255
244
82
50
110
106
78
68
70
58
30
12
4
14
20
26
20
8
2
6
12
14
16
18
16
12
14
20
20
16
14
14
16
12
8
6
16
22
22
14
24
40
52
70
82
70
76
112
172
254
255
255
255
255
208
138
52
50
220
255
255
255
222
134
64
18
24
28
28
32
26
20
26
32
34
28
22
16
18
28
24
26
18
20
30
30
24
18
16
18
16
12
22
36
44
40
38
42
40
44
42
32
18
12
14
16
32
40
34
22
10
16
16
12
14
20
20
22
22
20
16
16
20
26
34
24
14
16
26
32
22
16
18
26
34
32
28
30
28
22
16
16
12
12
18
20
26
34
36
28
40
54
30
74
30
206
255
255
255
255
198
92
160
255
255
255
255
255
255
255
255
255
255
255
255
255
242
84
126
154
194
150
72
20
34
68
70
50
22
14
30
32
22
44
84
98
110
126
142
144
112
72
52
50
50
42
28
12
10
8
6
4
8
18
18
24
14
4
8
12
16
12
10
10
10
14
26
24
8
20
10
22
30
20
34
20
14
18
24
26
18
8
10
8
4
4
8
22
30
20
16
24
32
30
8
26
34
26
12
4
8
8
12
18
24
24
10
10
20
16
8
12
30
32
16
8
8
10
10
12
6
4
10
16
10
14
4
34
48
52
255
255
255
255
74
48
10
34
56
80
62
26
2
20
20
8
6
8
8
10
18
16
14
14
18
12
8
10
16
28
30
32
30
24
18
16
28
36
30
16
12
6
2
12
18
18
34
32
14
18
10
20
28
24
10
8
16
28
36
40
40
34
22
12
6
4
8
4
12
22
28
36
30
12
2
2
8
8
4
6
8
10
12
12
18
14
6
6
14
18
14
10
10
10
4
4
8
12
16
14
0
14
16
12
8
4
10
12
6
16
14
6
6
12
20
18
4
14
26
26
16
24
18
16
10
44
48
204
255
255
255
200
46
44
26
26
16
14
20
36
40
34
30
40
52
64
74
62
52
66
62
48
38
38
40
46
52
58
54
48
44
40
24
10
60
106
120
116
124
150
176
192
202
198
188
192
204
208
198
178
160
144
150
164
178
186
180
140
220
255
255
244
246
255
255
255
246
220
182
144
110
104
96
72
56
40
34
38
52
64
62
46
62
66
64
60
48
24
16
24
36
42
46
46
38
32
20
8
8
14
16
42
58
172
212
126
32
100
78
28
22
26
62
92
90
46
18
80
112
124
138
146
122
58
64
36
24
24
48
56
40
36
64
52
36
36
16
10
44
188
255
255
255
224
24
48
12
10
68
108
102
60
34
48
74
88
82
78
140
186
174
116
56
30
18
14
28
26
24
58
98
136
152
146
120
66
26
28
36
46
36
42
66
80
80
60
40
34
36
34
26
12
4
6
16
28
26
18
24
36
40
36
28
26
30
38
38
28
32
40
34
36
46
32
22
16
34
12
64
180
255
255
244
110
78
68
60
52
56
54
34
12
12
24
32
30
20
8
2
8
12
14
10
10
14
4
16
30
36
44
44
38
34
34
38
44
40
26
12
10
20
36
48
64
78
68
66
84
122
190
254
255
255
255
224
154
62
30
172
255
255
255
255
220
136
52
26
28
32
34
22
14
12
14
12
18
20
12
6
16
18
14
8
16
28
34
32
24
18
12
4
4
16
28
34
32
36
38
40
44
38
30
18
14
20
22
28
36
40
34
20
22
22
18
28
26
24
22
20
16
12
10
14
22
30
22
10
8
16
28
28
24
20
16
18
18
16
18
20
20
22
24
20
16
24
28
28
34
42
38
44
54
32
80
52
255
255
255
255
252
130
255
255
255
255
255
255
255
255
255
164
60
255
255
255
255
242
76
156
218
210
106
4
46
48
38
24
16
26
42
40
8
44
90
116
116
114
116
122
120
88
50
34
40
54
50
36
26
26
28
30
30
12
18
34
26
4
22
20
8
20
28
28
24
18
6
22
40
36
6
26
20
8
34
38
24
18
22
24
18
8
4
8
14
12
12
22
30
26
30
12
18
10
6
26
40
32
22
10
10
8
18
30
36
32
18
8
20
14
4
16
12
8
26
28
12
6
12
12
20
34
38
38
30
20
20
22
26
32
136
255
255
255
255
34
56
2
50
68
80
54
24
22
18
10
8
8
8
14
34
40
32
28
24
26
22
16
16
22
24
16
20
30
26
22
16
24
24
18
6
14
16
18
18
22
16
32
28
14
24
16
26
24
12
8
2
20
34
38
36
32
26
16
8
2
4
12
12
22
24
24
28
22
6
6
8
14
16
14
12
12
12
10
8
14
14
8
2
16
22
14
18
16
12
2
8
10
12
12
6
10
20
18
6
6
8
14
18
14
22
22
12
12
18
20
12
6
16
20
18
14
16
6
2
8
24
24
234
255
255
255
170
50
50
46
48
30
24
22
30
38
38
28
26
30
20
36
46
36
46
30
12
10
14
14
14
14
14
14
26
32
52
78
138
196
218
202
188
206
238
244
232
216
196
188
196
202
202
202
210
222
230
242
255
255
255
255
250
255
255
255
255
255
255
255
255
216
164
116
100
98
98
78
52
44
38
34
36
46
50
34
10
28
38
40
42
48
48
32
2
26
42
44
44
44
40
32
20
28
30
36
46
32
164
226
154
36
100
80
42
44
42
70
106
110
74
18
68
98
110
134
142
122
74
30
10
10
20
42
32
40
44
54
44
38
36
6
8
52
98
255
255
255
255
110
42
30
54
94
82
98
104
96
98
106
112
100
80
124
138
98
42
16
12
22
12
26
30
46
80
110
136
148
142
108
44
16
46
44
62
54
86
104
96
68
40
36
40
36
16
16
24
18
14
24
26
18
16
32
44
38
26
24
22
28
30
22
16
20
36
34
48
52
50
66
48
24
22
36
16
118
224
255
220
112
70
50
56
66
48
32
18
16
28
36
32
22
14
10
14
14
16
16
16
12
6
28
36
30
40
48
42
32
40
52
60
78
70
40
20
20
32
44
58
74
72
72
78
94
144
202
255
255
255
255
190
80
12
120
255
255
255
255
255
212
140
86
46
38
44
36
34
40
46
42
26
12
4
16
20
20
22
18
22
30
36
38
32
26
22
10
2
10
20
24
22
30
28
34
44
38
30
22
24
26
20
20
24
34
40
32
30
28
28
34
26
30
26
20
14
10
8
10
20
32
30
18
10
8
12
18
24
24
18
12
6
10
16
24
26
28
32
30
22
32
36
34
32
36
44
38
38
26
86
194
255
255
255
255
212
255
255
255
255
255
255
255
184
24
130
255
255
255
255
255
255
138
60
142
200
180
70
24
42
24
22
34
48
78
78
50
38
82
110
114
112
120
126
122
102
68
54
62
74
76
52
24
18
20
24
20
36
24
20
32
12
26
36
26
42
30
6
12
20
30
36
22
8
34
48
48
46
34
30
22
14
18
22
20
12
4
8
8
12
16
16
10
20
12
12
6
8
28
38
40
32
26
20
20
14
10
20
22
12
6
22
16
10
20
26
14
18
10
6
18
10
12
16
10
24
34
28
24
26
24
24
30
12
58
214
255
255
255
220
18
40
22
66
68
62
28
18
32
32
20
16
6
12
28
42
36
22
18
20
30
30
18
10
8
16
20
18
18
12
12
2
14
22
20
6
6
8
6
2
8
4
20
20
0
12
8
14
10
2
6
8
24
30
32
34
30
18
6
2
4
12
16
22
24
22
26
32
24
10
10
14
14
12
8
4
2
8
12
12
12
8
6
2
18
26
12
16
18
12
0
8
6
6
8
4
14
18
14
4
8
4
18
20
8
10
14
10
16
18
14
6
14
16
14
16
22
32
20
24
4
12
56
255
255
255
255
136
38
46
50
40
22
22
22
22
24
32
28
14
18
8
8
16
10
12
20
30
32
38
42
44
62
84
108
126
136
164
208
244
250
222
192
188
202
202
170
144
128
124
124
120
106
104
122
148
172
180
198
194
202
234
255
255
255
255
255
255
255
255
255
255
184
126
94
102
104
78
38
66
56
16
12
8
36
60
52
24
14
18
30
36
42
52
52
34
2
32
44
40
36
36
34
20
26
28
42
64
18
132
186
122
10
90
80
42
34
36
60
120
142
116
58
72
90
96
114
120
108
88
50
16
12
24
16
14
28
28
28
36
50
44
10
14
56
32
234
255
255
255
208
42
30
52
72
72
54
40
54
66
70
70
52
6
62
104
88
36
22
32
30
14
24
36
64
108
134
140
126
96
48
14
58
58
44
66
80
72
56
50
36
28
34
32
28
40
38
46
38
22
24
20
14
26
44
50
36
20
18
12
26
30
22
18
12
16
20
26
26
20
32
40
38
14
22
28
30
92
170
202
170
90
58
62
58
38
18
4
4
20
32
24
16
14
20
24
16
2
20
32
32
20
26
18
10
6
16
16
8
24
40
36
66
82
60
34
18
18
26
40
62
72
82
92
104
142
188
254
255
255
255
255
136
24
64
190
255
255
255
255
255
228
200
154
118
98
68
48
46
52
56
44
28
28
38
36
34
46
50
48
46
44
44
42
42
44
34
20
16
18
18
18
26
22
34
50
48
40
32
30
22
14
14
18
26
38
34
28
26
26
28
20
32
32
26
22
20
20
18
20
32
40
38
28
12
8
12
16
28
34
32
20
22
28
36
34
32
38
40
32
40
42
38
36
42
50
52
30
58
190
255
255
255
255
255
255
255
255
255
255
255
144
52
98
255
255
255
255
255
255
255
170
68
64
140
190
168
64
42
46
20
4
42
82
96
64
70
72
112
114
106
112
134
134
108
74
48
54
68
70
58
32
10
14
30
28
6
30
30
16
24
20
32
26
8
32
42
28
12
8
22
44
52
24
42
64
38
42
56
30
8
6
14
14
14
14
2
10
10
14
12
16
12
20
28
14
4
24
44
34
26
12
22
16
20
34
32
46
46
22
44
40
22
22
26
16
14
14
12
12
22
6
16
16
18
30
22
18
30
40
30
30
26
26
114
255
255
255
255
178
16
36
40
72
62
44
12
6
22
28
28
26
24
22
22
26
16
8
8
14
26
18
10
8
10
20
26
24
20
14
10
4
12
20
18
8
8
16
18
8
8
4
18
22
10
2
2
6
6
4
10
20
26
28
30
30
20
12
10
2
16
26
18
14
14
16
28
36
24
12
10
8
6
4
8
6
4
10
14
14
16
14
10
4
12
28
28
24
16
4
4
8
4
4
6
6
12
12
10
6
14
18
24
20
4
10
6
6
14
12
6
2
12
20
22
20
26
28
12
26
18
6
114
255
255
255
255
134
22
18
18
20
6
2
2
4
12
22
24
14
24
28
32
34
30
30
38
50
54
58
64
80
128
170
196
214
230
255
255
255
254
214
198
196
186
156
118
104
98
102
108
98
76
74
100
120
114
88
100
76
46
38
92
160
188
184
196
236
255
244
202
212
196
148
100
100
72
22
14
62
86
66
32
16
28
52
44
20
10
14
20
22
30
52
72
70
38
40
50
34
28
30
32
20
12
22
44
60
14
130
180
124
16
82
76
48
42
36
16
86
124
112
62
40
60
98
108
104
90
78
58
28
20
18
4
26
24
24
8
26
50
54
32
36
62
18
146
255
255
255
255
130
26
94
86
78
66
42
22
22
32
46
44
8
44
88
88
52
38
28
24
24
30
46
76
120
132
114
76
36
34
46
54
16
52
100
88
48
68
86
78
58
50
48
54
54
44
54
52
38
26
14
12
28
38
34
18
8
8
6
20
20
14
12
8
6
4
12
16
12
12
10
24
32
20
12
28
18
60
124
160
140
76
56
46
38
18
12
8
18
30
24
12
6
16
24
28
20
8
22
36
30
14
10
20
20
24
14
4
30
44
38
48
80
78
60
32
26
18
14
36
56
78
94
108
138
168
224
255
255
255
255
196
74
12
110
236
255
255
255
236
216
218
202
174
148
108
72
50
42
46
38
28
42
44
38
38
42
58
64
60
52
44
40
44
50
48
42
38
34
28
28
32
28
40
56
56
48
38
38
38
26
22
22
22
34
34
26
22
22
24
18
32
36
30
28
28
30
28
22
24
30
40
44
30
14
14
18
22
36
42
34
30
34
36
32
28
36
42
40
46
48
48
52
62
70
74
80
132
255
255
255
176
255
255
255
255
255
220
36
90
166
242
255
255
255
255
255
255
255
144
58
20
48
130
188
174
80
70
66
28
32
64
86
60
38
78
124
134
120
112
122
138
116
72
38
18
40
52
38
18
12
14
18
28
30
14
24
34
18
6
16
10
20
30
26
12
14
12
14
12
18
44
32
36
50
42
40
40
38
20
6
8
10
14
12
4
8
12
18
12
14
16
8
10
16
4
30
32
6
16
4
22
14
24
42
30
36
52
32
44
26
38
42
22
4
14
18
12
6
14
6
14
18
18
20
22
70
88
86
76
82
44
36
172
255
255
255
255
128
34
10
46
74
62
40
12
4
8
6
10
18
30
40
40
36
28
14
4
10
22
20
14
12
14
14
10
12
14
10
4
2
10
14
20
16
4
4
10
6
4
12
18
14
8
8
8
12
16
16
20
26
30
36
38
26
12
14
10
12
34
32
14
8
4
14
30
32
16
8
4
0
2
6
8
6
6
12
10
8
12
12
12
6
4
10
20
16
4
10
10
10
10
10
6
6
8
8
10
8
12
20
24
20
12
14
6
4
8
4
6
6
4
14
28
34
28
22
24
54
30
42
200
255
255
255
255
130
46
56
56
56
46
44
40
44
52
58
60
56
58
64
66
58
52
44
46
60
70
70
80
116
184
236
255
255
255
255
255
255
255
248
250
236
210
196
180
172
166
170
176
186
196
158
166
146
82
58
74
102
106
88
140
154
150
184
255
255
255
255
176
26
86
142
134
70
12
36
20
28
60
78
72
52
50
72
58
32
20
12
24
24
22
28
68
94
70
54
56
32
12
22
28
24
28
50
86
86
60
158
216
172
50
54
86
72
64
60
22
56
82
72
30
10
46
92
118
114
90
62
40
18
22
16
22
28
20
24
18
10
32
36
34
50
72
50
72
255
255
255
255
255
38
90
110
66
44
20
20
44
50
36
48
48
98
124
104
58
32
22
2
24
40
56
86
108
100
74
42
30
24
30
14
58
110
120
78
26
14
42
62
62
50
38
30
22
26
38
48
48
40
26
14
18
26
26
20
14
10
8
18
22
20
10
6
10
4
6
8
4
10
6
2
8
18
20
14
6
12
62
120
150
130
74
36
34
22
10
14
28
44
36
20
4
6
8
20
30
24
14
8
24
26
20
12
12
16
22
44
68
74
62
48
78
94
92
66
34
14
4
12
34
62
78
90
114
130
172
238
255
255
255
234
130
42
48
180
255
255
255
198
140
132
142
154
162
142
114
78
50
44
32
36
38
28
20
20
22
24
44
52
50
38
26
28
36
42
46
52
54
46
38
40
36
44
56
56
48
36
40
50
46
44
38
28
34
40
38
32
34
38
36
46
48
36
26
24
28
30
28
24
18
26
42
48
38
22
26
26
26
36
32
28
32
30
30
30
30
36
44
56
64
76
88
96
98
90
118
178
240
255
255
255
255
255
255
248
88
46
140
240
255
255
255
255
255
255
255
188
84
24
8
14
56
126
172
140
46
44
26
24
66
84
56
18
100
148
160
142
116
106
108
108
78
40
16
6
26
48
52
38
16
22
22
24
22
16
2
22
28
18
4
24
36
38
42
34
20
14
10
20
18
18
22
20
30
42
40
30
24
28
20
18
18
16
6
4
4
6
16
16
2
20
22
16
10
12
22
32
22
22
10
22
14
22
46
38
14
20
8
12
14
18
30
32
20
4
16
16
6
8
10
4
10
12
4
32
66
62
40
58
92
62
44
224
255
255
255
240
90
44
14
48
64
48
26
6
10
18
12
16
4
18
36
44
40
36
32
20
18
26
26
16
6
8
12
8
2
4
6
6
6
8
8
18
24
16
12
12
10
8
12
16
16
14
12
14
20
24
18
16
22
28
34
32
14
6
14
4
20
34
22
14
10
6
20
28
22
10
8
4
0
2
4
4
8
8
6
10
14
10
6
10
8
4
6
4
12
16
10
6
6
10
8
4
10
10
4
8
14
12
12
14
12
14
18
8
4
10
6
12
8
8
6
26
36
30
22
32
62
22
90
255
255
255
255
255
112
72
84
76
76
66
62
56
58
60
58
58
60
62
56
50
42
32
22
48
90
124
144
182
236
255
255
255
255
255
255
255
238
232
234
236
218
200
208
216
206
204
212
214
208
236
224
166
120
84
92
94
84
84
78
116
174
196
224
255
255
255
255
255
255
182
36
74
110
82
30
8
22
46
70
84
84
76
70
60
44
64
102
120
116
150
130
56
30
74
90
84
56
44
48
52
60
64
72
86
76
76
158
202
166
66
38
88
84
64
44
14
74
102
88
46
32
48
78
108
116
100
68
38
4
18
8
28
38
22
22
28
18
34
20
12
32
52
48
10
126
255
255
255
255
100
114
92
54
78
92
72
102
172
184
154
120
100
144
120
58
10
28
38
8
28
58
84
112
128
116
74
40
24
18
42
88
100
76
38
16
20
26
26
42
42
34
20
20
40
46
38
32
30
26
22
22
34
38
28
18
8
6
10
16
26
26
16
20
16
16
16
12
12
4
2
12
22
18
16
16
26
38
66
114
140
120
58
30
18
18
20
26
38
32
22
12
6
4
10
22
26
28
18
10
22
32
36
40
46
62
82
90
80
60
40
60
88
110
108
88
48
12
6
14
40
60
74
100
118
156
212
255
255
255
255
176
82
2
114
255
255
255
246
160
112
100
116
146
150
152
138
116
108
90
68
40
16
4
10
16
16
24
38
40
30
16
14
24
34
40
44
50
46
36
38
36
42
50
48
42
32
34
42
46
54
54
44
40
44
48
44
48
50
50
60
64
54
42
38
38
36
38
40
30
28
36
48
54
46
42
38
30
40
40
42
48
46
48
48
48
54
58
66
82
110
126
122
108
98
106
100
88
242
255
255
255
202
50
86
182
255
255
255
255
255
255
255
255
224
98
24
14
14
12
4
58
140
198
172
74
72
62
106
116
78
8
100
166
178
158
122
94
82
76
68
44
22
14
22
46
56
50
36
20
18
12
6
14
28
28
10
14
26
22
34
28
18
20
34
24
14
10
18
20
12
2
6
8
20
22
16
10
16
24
26
22
14
12
8
4
4
10
18
18
20
22
8
24
34
26
10
6
6
12
22
18
18
48
54
40
30
28
32
36
34
28
16
10
10
4
14
20
14
4
8
10
12
4
26
64
78
68
68
102
74
52
255
255
255
255
172
66
36
30
44
50
44
26
8
18
20
10
22
18
4
16
30
28
22
26
28
26
24
18
12
6
10
12
8
6
8
8
4
8
10
8
10
18
18
16
14
8
6
18
20
16
14
8
10
14
16
8
4
14
24
24
16
4
6
8
6
18
26
12
12
12
14
28
28
20
10
8
6
6
8
12
10
6
6
10
10
12
12
4
8
10
2
10
12
18
12
6
4
4
8
8
14
16
12
6
6
10
18
18
20
16
10
16
10
4
12
10
10
6
12
6
22
32
24
14
24
48
4
138
255
255
255
255
186
96
74
76
62
68
60
52
42
36
32
26
22
30
32
20
24
28
10
42
110
180
236
255
255
255
255
255
255
244
222
216
200
182
172
162
154
144
140
140
150
158
166
174
166
146
164
176
160
134
126
150
178
196
202
168
102
38
60
58
76
156
255
255
255
255
255
255
134
38
142
134
60
66
52
66
80
108
134
156
176
178
206
242
250
236
255
255
250
130
94
118
104
96
80
88
86
82
66
42
40
34
50
128
174
174
128
56
90
88
78
46
16
54
68
62
40
34
62
80
94
104
106
86
48
8
16
4
34
56
22
38
62
40
60
28
12
8
6
18
62
74
196
255
255
255
180
92
54
48
68
112
148
246
255
255
255
255
255
156
94
68
84
28
28
28
58
74
64
92
124
132
100
58
30
32
52
64
42
26
30
32
22
12
12
18
26
32
28
36
58
66
62
56
36
14
16
12
18
28
24
20
12
22
34
44
46
34
16
20
18
16
18
18
24
18
14
16
20
18
6
8
28
38
28
50
96
122
98
46
8
14
10
34
46
34
14
12
14
14
12
12
16
18
22
22
28
40
46
52
64
78
84
70
48
26
18
32
64
102
128
136
108
56
22
14
26
44
62
94
124
172
228
255
255
255
255
214
114
36
46
166
255
255
255
255
190
136
116
128
136
158
180
186
190
180
150
94
36
6
20
32
26
24
36
36
28
18
32
46
38
40
30
24
22
24
30
28
34
42
38
34
32
34
34
34
44
54
56
50
48
54
52
58
54
54
64
72
70
68
70
68
56
50
64
68
64
58
52
56
60
60
58
56
62
64
78
86
82
84
82
78
78
76
82
104
134
136
110
78
54
16
56
126
182
196
148
64
32
138
252
255
255
255
255
255
255
255
255
116
32
4
6
8
24
34
34
68
150
204
178
88
74
80
108
74
28
80
144
168
152
120
94
84
80
74
62
38
18
12
24
50
54
34
10
26
42
36
16
16
20
32
28
10
4
6
8
22
26
12
12
22
18
22
12
10
8
6
2
18
22
16
20
16
10
10
16
14
10
14
16
14
12
20
22
8
16
30
34
34
26
22
24
20
14
22
22
18
12
28
40
40
26
18
20
18
20
16
12
10
10
8
10
10
14
8
6
4
8
14
22
48
72
86
60
88
60
60
255
255
255
255
86
30
54
38
44
42
32
26
10
18
12
4
12
24
20
22
24
22
12
4
8
16
20
22
14
2
6
10
6
6
10
8
4
6
12
10
6
6
8
6
6
12
14
16
26
26
14
4
8
18
16
6
8
14
26
30
20
8
4
10
4
16
32
20
10
4
20
32
28
18
8
6
10
14
12
10
10
8
4
10
12
16
16
6
8
10
8
14
16
14
6
4
4
4
6
4
6
10
8
4
4
4
16
20
20
18
6
14
12
6
6
6
6
8
12
6
32
44
40
32
42
66
14
172
255
255
255
255
146
88
54
50
32
50
54
52
48
44
32
22
8
22
34
28
30
22
94
196
255
255
255
255
255
255
255
255
232
200
182
174
160
138
120
104
96
94
90
86
84
92
102
104
96
92
110
136
156
166
174
200
234
255
255
255
255
250
190
142
102
92
66
112
220
255
255
255
255
210
10
128
158
106
30
28
80
140
210
255
255
255
255
255
255
236
242
255
255
242
124
54
38
38
46
64
66
58
30
4
42
48
36
142
226
220
140
56
94
106
102
60
26
44
78
90
60
38
60
102
118
126
130
120
86
36
28
20
50
60
18
58
62
26
72
56
14
18
24
38
72
48
90
255
255
255
255
124
34
26
8
54
208
255
255
255
255
255
255
255
196
38
102
98
52
36
48
74
68
58
60
90
84
50
28
46
62
54
48
30
22
30
32
24
12
16
26
34
44
60
74
74
62
48
26
16
16
14
16
22
22
28
36
40
46
42
24
4
10
8
4
16
24
20
28
22
14
20
24
16
2
12
28
36
32
26
22
74
98
86
54
18
30
40
36
24
6
2
6
10
14
24
28
28
32
30
34
44
44
50
62
66
56
32
16
10
6
10
30
60
94
128
134
106
70
42
32
28
36
66
100
160
226
255
255
255
255
240
140
54
16
96
196
255
255
255
234
164
122
110
106
120
148
166
176
184
176
136
80
32
50
42
22
24
38
42
34
28
48
48
32
42
34
18
18
30
30
24
30
36
30
24
38
40
42
36
40
52
62
58
46
48
54
64
54
60
68
72
66
68
78
84
72
68
96
108
118
114
88
68
70
72
74
76
80
86
100
102
96
98
98
100
104
108
118
128
122
80
24
22
64
104
142
138
82
50
98
188
255
255
255
255
255
255
255
255
255
148
28
24
22
2
8
12
14
20
22
70
142
184
154
66
24
28
20
32
92
126
138
130
104
82
78
86
94
90
72
42
14
12
26
44
38
20
36
36
56
54
30
10
4
12
22
22
22
24
26
32
38
28
8
20
32
22
0
14
16
8
12
30
28
14
16
16
16
12
24
18
4
16
20
26
20
18
12
26
46
46
30
8
12
8
4
16
18
20
16
12
12
2
12
18
18
18
30
32
24
18
10
12
18
10
2
14
16
4
10
16
28
26
22
18
12
24
22
44
38
96
255
255
255
198
16
30
84
60
54
52
34
12
8
14
6
6
12
18
28
32
30
30
22
16
18
28
28
14
16
10
10
8
6
4
4
6
6
4
10
8
4
2
8
12
14
16
8
14
34
32
8
8
8
22
22
12
6
10
24
30
20
8
4
6
4
8
24
20
8
10
24
32
24
12
4
6
16
16
4
4
8
8
4
14
20
22
20
8
12
10
14
12
6
4
4
4
4
2
8
10
12
18
12
2
0
2
4
12
16
16
4
14
12
6
10
10
8
6
12
18
48
60
54
38
48
74
16
208
255
255
255
240
80
68
32
24
18
26
42
48
52
56
52
42
32
6
14
22
80
182
255
255
255
255
255
255
255
255
218
176
158
160
156
148
134
110
94
86
84
84
72
62
48
46
50
50
52
58
78
114
150
178
192
204
220
240
255
255
255
255
255
222
172
124
74
64
68
80
198
255
255
255
255
76
120
200
170
82
186
255
255
255
255
255
255
255
255
246
164
154
200
234
202
136
108
80
82
60
28
2
26
38
40
60
24
146
230
194
78
32
72
102
134
120
62
24
54
90
86
48
22
98
136
150
154
144
114
64
36
34
72
74
20
74
88
28
42
70
50
18
30
38
48
42
78
246
255
255
255
255
148
72
128
242
255
255
255
238
114
255
255
255
255
190
8
82
106
120
112
82
92
94
94
90
80
78
86
88
78
50
30
34
34
22
16
28
28
42
50
54
64
72
68
54
30
16
12
24
24
26
32
42
48
50
46
38
28
8
22
36
36
32
28
14
18
6
20
32
30
26
18
16
12
14
40
62
68
68
50
26
46
82
86
52
26
20
30
26
6
8
16
22
26
26
26
28
32
32
36
38
34
40
44
34
18
10
10
10
10
10
8
18
36
72
108
124
116
92
70
40
20
30
54
114
186
246
255
255
255
255
174
78
6
50
120
198
250
254
220
166
124
98
74
74
76
90
98
112
132
136
116
78
64
32
16
20
34
48
48
38
42
32
24
44
48
32
42
46
38
40
44
42
30
36
44
38
50
44
52
56
66
68
50
46
60
62
56
64
72
76
68
66
78
90
80
102
134
132
140
154
132
98
86
88
92
96
96
102
110
106
100
102
108
116
122
128
126
102
50
24
82
112
124
116
90
36
44
134
255
255
255
255
255
255
255
255
246
124
38
16
36
20
8
8
6
6
12
22
26
44
124
178
156
56
20
40
58
90
118
124
118
104
82
70
70
78
86
78
58
32
8
2
16
42
42
26
34
18
34
36
20
10
4
2
12
12
16
14
8
14
28
26
14
32
36
20
12
16
12
2
20
30
18
8
22
18
4
18
20
8
14
24
12
30
26
14
26
46
44
22
4
20
20
24
22
10
0
6
10
10
10
4
12
18
22
18
16
26
30
32
30
22
8
6
10
14
10
8
8
8
12
8
8
16
26
30
16
38
38
162
255
255
255
138
56
12
70
72
60
46
22
6
12
10
6
10
18
20
24
22
20
24
20
14
16
22
18
8
6
4
2
6
8
6
6
8
4
6
8
4
6
8
12
10
10
2
12
32
44
28
2
14
8
14
14
8
4
12
30
32
20
4
4
4
2
4
14
16
12
24
30
28
18
6
4
12
22
14
6
8
10
4
8
16
20
20
14
2
10
14
12
8
10
14
12
8
10
10
8
6
6
14
12
6
6
8
12
20
24
20
10
20
14
12
20
16
16
4
8
18
46
60
48
24
44
74
32
254
255
255
255
186
52
30
26
12
18
14
12
16
16
22
32
28
24
36
112
200
255
255
255
255
255
255
255
254
218
166
124
102
108
122
118
110
100
84
78
82
90
90
72
74
58
36
40
40
44
58
72
80
104
134
148
150
150
150
164
194
240
255
255
250
230
198
144
114
140
104
32
106
255
255
255
255
132
62
192
218
234
255
255
255
255
255
255
255
255
255
226
164
154
188
198
174
138
118
112
102
88
68
76
56
46
60
14
152
228
176
66
66
52
42
94
122
90
30
30
80
98
86
38
38
88
110
124
128
114
78
38
30
58
72
32
56
98
74
16
46
72
58
34
28
22
18
52
150
255
255
255
255
164
92
255
255
255
255
228
244
192
100
255
255
255
255
220
76
86
142
148
114
98
80
80
92
104
110
104
80
50
30
36
50
30
14
8
36
44
58
56
50
48
42
38
48
42
30
16
2
4
12
30
48
52
40
22
10
16
14
28
26
14
22
32
34
32
44
66
68
56
46
40
38
48
62
72
74
74
88
96
76
38
20
70
78
54
22
28
24
14
10
14
20
22
20
22
26
30
36
38
34
32
32
24
10
2
8
8
10
12
12
10
14
16
30
58
90
114
122
118
86
48
34
38
80
140
208
255
255
255
255
246
132
36
16
72
136
182
204
204
176
140
104
62
46
36
56
80
92
104
114
110
88
70
56
34
24
32
52
64
56
40
30
26
46
54
40
46
40
26
38
52
54
44
48
44
32
40
40
56
56
62
78
70
66
72
64
60
70
84
100
102
98
104
108
94
120
128
94
92
114
112
98
100
110
114
114
110
110
114
118
130
148
154
140
112
82
52
38
56
90
96
82
56
34
72
140
236
255
255
255
255
255
255
255
234
114
32
32
52
46
26
12
12
4
6
18
28
34
32
76
146
188
166
42
60
82
82
86
96
102
106
106
94
78
64
62
64
52
34
20
14
16
16
28
20
4
14
30
56
60
40
14
6
8
8
2
10
22
24
28
30
12
12
26
28
22
18
32
32
14
16
30
20
28
32
14
12
10
4
6
20
16
8
28
26
16
38
36
12
14
24
18
6
12
24
28
24
20
16
10
6
2
10
18
28
32
26
14
6
10
24
32
26
8
10
20
12
12
18
30
30
24
12
20
14
10
16
28
38
240
255
255
255
116
74
58
88
82
56
32
6
8
12
8
10
14
16
14
10
6
8
12
8
2
4
8
10
12
14
12
8
8
8
8
12
10
10
10
4
2
8
12
24
28
18
18
34
46
40
14
8
12
4
26
36
28
20
14
28
28
14
4
6
4
4
8
12
18
26
32
28
18
8
4
8
18
22
8
8
8
8
0
8
12
14
12
12
10
16
14
10
14
18
14
10
6
8
14
16
14
14
26
24
18
18
18
16
20
24
18
10
22
16
16
18
12
16
10
2
12
42
50
28
2
38
62
66
255
255
255
255
146
42
30
18
12
14
8
18
38
42
38
42
24
36
150
255
255
255
255
255
255
255
190
150
146
144
118
86
68
74
84
76
72
66
60
60
72
86
80
72
80
70
56
60
56
48
52
56
60
58
60
68
70
68
64
66
78
112
148
174
206
234
240
194
120
130
104
128
72
72
248
255
255
255
226
94
220
255
255
255
255
242
206
120
188
255
255
255
255
192
160
150
144
124
106
100
98
102
104
88
68
74
74
28
166
232
158
46
70
52
30
30
62
68
34
14
64
96
102
80
60
82
88
84
74
82
70
46
62
82
66
38
10
64
84
56
12
62
80
56
22
6
22
24
52
194
255
255
255
138
156
255
255
255
255
58
124
255
238
122
255
255
255
255
238
60
142
152
118
94
70
60
70
100
96
64
24
10
6
28
32
16
28
16
38
60
64
48
28
10
30
52
60
56
40
28
20
16
24
36
42
30
4
24
32
40
30
24
14
4
16
36
58
90
112
116
104
90
84
86
94
102
100
88
72
64
80
98
112
112
74
10
42
56
30
28
20
10
10
12
20
20
16
20
26
34
40
34
26
26
24
14
4
4
8
10
12
12
10
12
22
24
22
26
42
74
112
140
130
94
64
48
66
102
162
255
255
255
255
255
196
74
6
50
108
150
182
200
190
162
124
74
42
30
50
96
120
118
106
90
74
70
72
56
34
48
52
58
62
52
38
34
44
52
46
34
22
18
26
44
54
54
46
30
20
22
40
54
54
52
76
86
84
84
74
70
86
112
122
130
134
134
126
110
112
90
38
46
64
80
110
140
152
152
144
140
142
148
158
176
184
156
140
110
56
72
98
94
62
52
60
60
118
204
255
255
255
255
255
255
255
212
84
14
16
30
14
18
12
6
18
22
16
18
22
22
16
8
80
168
210
156
24
78
80
68
66
68
72
92
116
112
86
62
60
66
56
40
30
20
22
14
22
20
14
24
48
68
60
32
24
22
8
6
8
14
18
14
14
18
10
10
18
24
24
16
24
32
20
12
34
28
20
10
10
18
10
6
8
22
22
8
18
22
18
24
10
6
12
14
14
10
2
8
18
22
22
24
24
18
8
10
22
24
26
30
32
28
26
24
20
14
6
2
14
18
14
8
16
16
16
6
14
14
38
36
12
104
255
255
255
255
104
42
44
72
72
54
34
10
10
18
12
16
16
12
8
14
12
8
10
6
6
10
10
10
10
6
4
4
6
10
16
16
8
10
14
8
2
8
8
8
24
24
30
38
32
16
10
12
12
18
38
44
28
30
18
28
26
14
2
4
10
12
16
20
26
30
26
18
8
4
8
12
16
16
2
8
10
12
2
8
12
14
12
8
6
12
8
2
10
8
6
6
6
4
4
10
10
18
30
28
22
18
14
12
14
18
12
6
16
14
10
8
6
16
16
10
16
46
62
40
24
40
40
106
255
255
255
255
120
60
26
18
20
16
12
22
38
46
42
24
64
202
255
255
255
255
255
255
218
136
92
80
90
102
88
62
50
58
68
58
52
60
60
48
52
60
50
50
70
68
58
60
48
36
38
46
46
22
18
32
42
40
48
66
76
88
96
98
118
160
204
200
132
80
78
106
96
66
110
255
255
255
255
220
202
255
255
255
172
146
106
80
122
186
255
255
255
226
146
96
96
108
124
142
140
122
94
68
66
100
114
80
200
250
162
16
68
66
62
72
88
62
28
4
40
82
104
98
68
84
88
82
62
48
52
78
88
64
28
46
44
8
58
70
30
40
82
76
46
14
26
8
54
64
255
255
255
186
255
255
255
242
46
114
174
162
254
240
88
186
255
255
255
255
255
174
60
106
128
124
108
84
54
26
28
30
28
28
26
14
18
4
48
70
58
30
12
16
16
32
42
52
44
26
10
10
16
34
50
34
46
68
70
68
80
84
92
96
108
132
162
180
178
164
150
140
134
132
130
124
112
94
78
68
70
78
104
140
154
128
88
82
50
48
40
24
16
30
40
30
22
26
32
40
34
14
18
32
34
20
6
2
6
10
10
12
12
10
20
26
26
26
24
40
80
122
132
110
80
56
62
76
114
204
255
255
255
255
212
88
10
46
102
144
178
198
194
174
146
104
74
46
36
70
108
124
114
92
76
76
84
72
44
38
28
26
32
34
32
32
38
48
56
48
38
32
30
36
42
46
50
42
28
38
56
64
62
60
64
72
88
102
102
102
112
120
112
108
132
144
138
126
104
82
84
96
134
190
230
234
222
206
200
216
236
246
238
202
134
98
74
98
110
104
70
18
40
72
84
102
166
254
255
255
255
255
255
255
144
32
36
48
18
22
26
32
36
28
12
4
4
4
8
10
6
2
54
156
222
188
56
78
72
62
60
54
58
96
132
116
76
52
58
72
64
46
30
16
18
6
10
18
18
26
44
52
34
10
20
26
16
4
10
16
22
22
22
20
12
14
26
32
26
8
14
24
22
8
18
22
12
26
28
20
12
16
16
30
30
10
16
18
4
18
20
6
14
24
24
16
8
6
12
16
8
16
30
34
28
6
14
14
8
8
20
26
28
32
30
20
4
10
14
10
20
32
38
34
28
16
22
30
50
30
38
160
255
255
255
255
88
24
8
48
60
50
34
12
8
18
18
16
8
4
4
14
16
14
8
6
12
14
10
6
12
14
12
10
14
18
18
12
2
6
12
10
6
6
16
10
6
12
24
20
12
12
8
8
12
22
34
30
12
18
20
24
20
12
8
6
12
16
20
24
26
24
16
14
8
2
10
12
12
14
4
4
8
14
4
10
14
18
14
12
10
18
10
2
10
14
16
18
12
8
8
8
0
16
28
26
14
6
4
4
6
12
8
4
10
10
2
10
6
8
16
16
18
36
50
36
24
22
18
152
255
255
255
255
84
60
24
18
28
24
16
16
24
30
12
102
255
255
255
255
255
255
212
142
100
90
76
58
70
84
70
44
36
48
58
46
36
38
44
36
18
24
18
6
30
40
36
34
34
30
20
36
30
4
36
40
32
36
58
90
112
120
110
88
74
88
138
174
156
118
96
118
126
98
52
136
234
255
255
255
236
252
255
255
255
150
100
128
150
188
236
220
202
190
136
72
66
98
144
188
202
184
130
68
54
108
152
136
234
255
154
24
84
90
74
76
70
44
24
22
26
58
88
90
60
40
48
54
54
66
84
96
72
24
22
38
56
30
36
60
42
16
62
74
60
28
26
8
62
20
190
255
255
255
255
255
255
70
102
200
186
100
128
212
255
244
154
255
255
255
255
255
164
12
78
114
134
152
148
116
78
58
50
44
28
8
14
36
66
70
46
30
18
10
20
40
38
34
32
36
42
32
18
18
52
60
94
108
118
138
160
184
202
212
224
238
248
234
208
190
180
168
150
130
116
104
94
88
80
72
60
52
62
96
142
170
162
140
124
116
102
78
52
34
30
20
14
14
30
42
26
8
18
40
48
32
10
4
6
4
4
6
12
12
18
24
26
30
28
26
50
90
112
110
92
64
62
62
78
148
240
255
255
255
214
94
12
38
90
136
176
200
196
178
154
122
104
74
38
36
60
90
96
82
68
66
74
68
48
18
0
14
12
8
12
26
38
42
54
60
56
50
42
40
34
34
44
50
48
64
74
76
72
68
70
78
100
120
118
110
106
98
84
74
96
120
130
134
128
120
150
206
255
255
255
255
248
232
236
255
255
255
242
210
140
136
166
140
84
58
68
94
96
88
90
126
194
255
255
255
255
255
168
92
38
8
22
6
22
42
36
20
32
34
28
16
12
12
16
16
8
6
62
130
192
182
84
102
108
92
74
66
84
130
150
104
48
26
36
48
46
34
22
14
14
2
16
30
26
22
30
32
18
2
20
28
20
8
12
14
18
18
20
24
20
18
30
34
22
10
16
16
28
28
16
22
30
28
16
22
12
18
14
22
36
26
12
10
6
4
18
24
16
12
26
22
4
12
20
14
4
10
16
32
42
32
32
28
10
10
12
6
4
2
6
12
16
16
4
10
14
10
2
8
14
12
8
18
36
6
68
202
255
255
255
230
82
16
4
48
50
38
28
14
16
24
18
16
18
18
12
18
22
24
24
18
14
6
2
2
6
12
14
14
20
20
12
4
4
8
10
8
8
4
10
10
4
4
8
10
8
10
8
6
12
16
18
22
16
4
12
18
14
8
8
8
12
18
22
24
24
20
14
10
8
10
14
14
12
8
4
2
4
12
8
8
12
16
20
14
8
22
24
18
8
8
14
12
6
4
4
2
6
18
22
16
6
10
8
6
8
14
8
6
8
8
4
2
2
4
2
12
28
46
48
18
8
18
70
216
255
255
255
255
46
60
18
10
14
8
14
32
36
18
150
255
255
255
255
255
255
170
104
64
50
60
72
54
76
90
68
32
24
36
46
32
6
16
22
10
8
6
24
28
20
6
24
26
36
32
6
26
26
6
28
36
40
42
48
66
86
102
110
112
106
98
118
148
162
174
178
170
142
98
42
26
116
244
255
255
255
160
174
255
255
204
100
138
190
255
255
255
226
156
108
92
128
198
220
200
236
255
252
188
124
124
156
170
238
216
88
52
122
110
76
56
50
38
44
58
56
48
68
68
48
8
38
64
64
78
84
72
40
24
12
22
40
20
26
52
42
12
36
54
56
40
18
4
44
46
156
255
255
255
255
255
164
44
88
162
152
90
94
202
255
255
255
230
48
152
255
255
255
255
174
70
100
228
255
255
230
136
82
58
34
40
50
62
68
58
34
14
8
26
48
54
52
58
64
60
38
8
38
56
82
116
138
160
198
244
255
250
242
250
255
255
255
226
196
192
192
178
142
100
76
70
68
62
56
54
46
32
14
22
58
86
112
122
122
124
132
142
146
146
142
124
106
90
70
56
50
40
30
12
40
40
20
12
12
10
10
14
16
18
24
26
22
22
20
18
36
78
116
136
128
90
70
58
64
122
210
255
255
255
255
134
24
20
56
98
150
196
210
202
170
126
108
94
68
42
46
72
68
52
44
40
32
36
38
32
26
24
22
22
40
44
40
30
32
42
48
52
52
48
44
38
44
66
78
78
76
78
84
98
114
124
130
120
92
80
80
90
94
88
82
86
98
126
146
170
206
238
255
255
255
228
218
218
210
206
160
126
110
152
198
172
110
44
58
116
158
164
136
132
156
216
255
255
255
255
238
144
68
24
20
14
6
12
26
28
22
10
10
10
16
12
8
8
12
18
18
14
48
112
162
152
76
128
130
94
66
74
104
134
126
64
16
6
20
48
64
62
48
28
10
6
30
38
20
10
30
40
30
12
34
40
26
16
12
8
8
16
18
14
28
42
40
30
14
6
8
8
20
30
28
24
24
16
8
6
8
10
6
6
24
32
22
8
6
10
6
22
30
36
40
22
16
14
12
4
8
8
0
16
34
36
34
22
16
20
18
26
32
36
34
28
20
10
8
12
16
26
36
38
38
40
32
42
46
10
90
214
255
255
255
212
84
2
14
44
50
46
32
14
24
24
4
20
26
26
18
14
16
20
24
26
28
20
12
4
8
4
8
14
14
12
4
4
6
12
12
8
4
12
22
18
12
4
10
12
12
8
4
12
18
12
8
14
20
20
12
12
10
10
8
6
12
20
20
18
20
18
16
16
16
16
14
12
12
8
2
2
8
14
8
4
14
24
20
10
8
10
22
28
26
12
4
2
4
2
0
4
10
14
18
20
14
16
14
14
16
14
4
8
8
6
4
4
4
2
10
26
38
60
70
40
36
50
132
255
255
255
255
210
20
58
20
6
22
12
24
38
14
154
255
255
255
255
255
202
124
88
68
48
36
32
52
54
74
78
52
24
20
36
48
30
22
24
14
10
16
18
14
18
32
28
22
12
32
36
14
22
26
8
28
40
46
42
34
34
40
56
80
110
132
132
132
134
146
190
240
255
248
186
120
62
116
148
255
255
255
180
188
255
255
234
62
130
255
255
255
255
180
88
74
154
238
250
216
188
236
255
255
255
255
196
154
170
186
118
10
102
132
94
48
22
24
34
58
68
48
36
46
46
44
20
36
66
78
74
66
60
54
44
32
38
50
28
42
60
48
20
42
38
32
34
18
8
8
44
86
220
255
255
180
164
148
104
172
240
162
152
198
255
255
255
255
255
255
255
32
238
255
255
255
255
198
255
255
255
255
230
138
86
54
54
60
62
50
36
24
20
36
52
54
48
52
62
58
30
22
80
122
142
164
186
210
248
255
255
255
236
212
234
255
255
214
202
170
162
180
190
162
108
64
46
42
32
24
24
30
28
30
38
58
38
4
36
54
66
80
106
140
174
190
178
166
164
164
136
62
10
24
6
32
38
34
26
18
16
12
16
14
12
22
26
20
14
12
12
22
56
104
146
154
116
80
56
58
110
192
255
255
255
255
188
46
10
24
48
100
158
194
212
190
136
102
96
98
84
68
76
64
60
62
56
40
18
22
38
52
56
54
52
64
56
44
40
38
40
48
58
64
66
60
46
78
98
96
86
84
92
108
134
152
150
132
96
72
60
80
106
112
102
90
66
92
132
166
188
196
198
190
182
170
146
130
144
122
88
54
170
250
246
170
102
128
118
166
200
202
186
182
180
234
255
255
255
255
255
172
98
50
20
6
8
6
8
14
22
26
24
26
20
12
4
4
10
8
10
16
16
68
134
168
136
50
120
96
42
26
56
82
88
72
30
20
18
26
42
52
52
42
26
14
24
38
32
8
0
24
42
42
24
38
30
6
8
6
6
10
14
14
18
34
28
18
6
8
10
8
10
12
8
4
10
10
10
14
8
2
4
10
10
2
14
28
28
14
10
8
4
10
14
6
4
10
20
22
12
12
10
12
14
22
20
14
10
14
20
34
36
32
26
20
18
16
18
22
24
26
22
18
14
14
24
30
44
46
2
84
210
255
255
255
204
98
22
12
36
42
42
30
6
10
10
16
22
8
16
22
16
12
10
12
10
14
18
18
16
16
10
10
8
2
6
8
4
6
16
16
10
8
12
20
12
18
14
12
34
30
28
18
6
22
24
18
14
16
20
14
6
2
2
4
8
16
22
14
12
12
16
18
16
14
10
6
6
10
10
8
10
16
12
4
12
22
24
12
10
12
8
2
14
22
14
2
6
6
6
2
4
10
14
16
12
8
10
14
20
16
4
8
10
6
6
4
8
8
2
6
20
38
64
68
26
30
68
202
255
255
255
255
174
18
58
38
10
18
18
20
38
180
255
255
255
255
255
148
84
50
52
62
50
36
28
30
36
44
42
28
18
34
60
70
58
74
94
86
60
38
40
38
30
42
40
24
0
16
30
24
28
32
12
8
8
12
20
26
30
28
34
64
86
112
124
132
126
124
162
228
255
255
255
188
130
130
98
108
202
244
208
224
255
255
196
48
255
255
255
252
154
96
128
192
242
242
210
176
170
220
255
255
255
255
255
188
130
98
42
54
96
90
46
36
28
14
28
34
22
10
46
66
66
52
22
36
66
86
96
92
80
70
70
80
88
80
36
26
64
66
34
44
32
20
22
28
20
16
36
66
114
174
198
152
120
160
104
138
255
228
212
255
255
255
218
252
255
255
255
190
138
164
255
255
255
255
255
136
108
254
255
210
138
92
70
54
40
24
14
18
34
58
58
44
32
24
36
36
60
112
168
210
234
255
255
255
255
255
255
238
184
178
214
222
174
160
166
134
124
160
212
232
196
132
70
40
36
24
18
26
36
26
16
58
72
54
42
44
44
26
26
26
28
68
82
102
148
214
255
234
170
106
64
48
66
54
28
12
8
6
6
6
4
6
14
16
14
12
12
14
24
58
106
134
116
84
56
58
104
170
255
255
255
255
222
62
10
18
24
62
110
146
184
196
162
120
102
114
130
118
100
98
104
94
62
30
26
44
54
54
66
70
62
66
64
74
88
98
96
90
84
84
90
82
60
94
110
108
108
120
130
140
154
154
134
106
110
102
88
106
116
98
98
98
74
118
156
164
160
160
168
170
166
148
106
68
76
58
114
182
214
178
82
100
130
154
148
182
194
192
202
218
242
255
255
255
255
255
168
102
74
54
30
20
18
8
10
14
18
14
8
10
10
14
6
6
14
10
8
12
12
76
146
184
146
54
94
50
20
10
48
66
56
42
22
8
4
8
16
26
36
42
42
38
38
40
26
10
8
14
34
40
24
18
14
14
18
10
8
8
16
18
24
24
8
10
14
10
10
10
24
28
34
28
10
2
4
8
10
2
10
10
10
12
12
14
26
26
20
6
4
8
14
18
18
6
10
24
24
18
22
26
18
18
14
10
6
12
28
32
20
14
8
10
6
8
18
26
24
22
10
10
16
16
4
14
40
50
16
96
232
255
255
255
172
100
42
28
40
44
36
22
12
12
20
12
12
22
40
30
18
16
16
20
16
8
4
12
16
12
10
8
6
14
14
12
6
8
16
10
6
8
16
18
4
14
16
26
44
28
32
28
12
32
34
24
22
26
24
14
4
4
6
6
10
16
18
12
14
18
18
18
12
8
2
6
6
6
8
10
12
14
4
10
18
22
18
6
8
12
14
16
24
26
12
2
4
2
6
4
2
10
16
16
8
2
2
12
20
16
12
16
8
2
6
12
16
16
8
10
26
48
62
52
6
10
100
255
255
255
255
255
144
30
56
56
36
30
34
42
188
255
255
255
255
240
116
54
46
44
60
68
46
28
20
16
14
16
16
18
30
52
70
70
70
86
102
124
106
64
38
34
58
60
48
24
14
18
28
34
50
44
16
12
14
12
2
20
32
26
46
66
62
58
80
106
110
104
128
184
255
255
255
255
226
180
118
32
78
168
190
234
255
244
94
160
255
255
206
255
255
255
255
255
255
240
212
208
240
255
255
255
255
255
255
188
74
34
56
72
68
60
48
40
40
36
24
12
24
50
62
58
48
32
12
28
52
70
82
80
72
60
58
76
98
108
76
10
46
68
50
30
20
22
32
34
18
20
42
58
62
80
114
122
86
100
54
150
255
255
255
255
255
220
62
184
255
255
255
202
126
52
76
152
255
255
255
255
255
178
156
150
112
78
80
90
70
24
8
18
36
44
20
20
42
72
102
130
172
218
255
255
255
255
255
255
255
255
218
148
138
150
168
146
90
108
120
100
86
108
162
218
228
190
118
56
32
20
24
26
24
36
18
14
46
60
48
66
78
68
88
106
90
100
62
18
44
126
212
255
250
214
170
130
88
46
14
8
2
4
0
4
4
4
2
8
10
8
8
6
16
48
76
94
94
76
50
50
90
140
226
255
255
255
244
68
8
14
16
40
84
118
160
194
184
154
126
122
140
142
138
146
164
166
136
94
82
86
80
70
70
74
70
66
84
112
128
122
126
112
94
96
110
114
90
116
126
122
128
140
136
136
140
130
104
76
96
98
98
110
102
72
86
96
92
138
158
142
126
132
150
158
140
94
32
30
88
146
182
168
98
122
154
164
164
168
178
202
216
234
255
255
240
196
192
226
214
142
76
62
56
54
34
34
34
24
8
24
40
36
38
30
10
8
10
8
16
20
18
26
26
36
110
168
156
72
80
42
36
44
78
82
62
38
20
26
44
50
52
54
58
56
46
36
34
36
22
20
16
12
24
28
14
8
12
14
12
8
8
6
2
14
20
20
10
20
22
16
6
8
16
10
14
26
22
10
10
10
12
2
10
10
8
10
14
4
4
12
22
20
10
4
8
2
6
10
10
4
14
24
28
22
12
18
22
26
22
26
24
14
8
12
14
12
2
10
10
8
4
12
12
10
2
12
8
18
54
54
14
94
255
255
255
255
154
78
46
42
54
58
38
18
16
12
8
20
30
36
30
10
4
4
6
12
8
6
8
4
12
12
8
4
10
20
10
8
10
8
14
14
22
22
22
14
8
10
2
20
28
10
20
26
12
24
24
14
14
16
14
12
10
8
8
6
10
16
18
14
14
16
22
18
4
4
8
12
12
8
8
6
8
8
8
14
14
10
10
8
4
4
8
12
16
14
8
6
6
4
8
8
6
2
10
16
12
2
12
20
20
8
14
12
12
10
4
14
10
12
16
8
40
60
58
44
14
44
160
255
255
255
255
248
120
36
48
54
46
32
42
176
255
255
255
255
242
122
54
42
64
70
68
48
16
8
2
6
12
12
12
22
38
54
52
34
32
38
22
44
68
50
16
26
38
38
36
44
38
34
44
66
66
52
52
52
30
18
18
22
30
20
26
24
22
18
22
60
82
84
104
148
222
255
255
255
255
255
204
98
50
102
162
206
180
68
100
220
200
148
228
255
255
255
255
255
255
255
255
255
255
255
255
236
255
255
255
152
94
86
94
74
56
44
34
28
34
38
30
2
32
42
34
22
36
46
32
36
46
54
62
52
36
24
18
34
62
76
64
40
20
46
46
30
16
24
30
26
10
10
24
38
46
60
84
88
32
40
140
254
255
255
255
255
255
90
255
255
255
255
255
146
72
70
94
100
100
176
255
255
255
255
255
255
152
60
34
74
88
62
36
38
56
64
58
112
152
182
204
238
255
255
255
255
255
255
255
255
216
142
120
120
106
110
102
82
80
98
98
74
52
44
58
94
126
142
122
74
34
18
26
24
20
18
14
18
26
36
54
68
58
32
28
46
58
62
58
76
72
42
10
62
116
162
200
226
228
188
112
42
6
6
6
4
2
2
2
6
10
8
8
16
36
58
76
84
72
62
42
38
68
104
186
255
255
255
255
80
6
4
4
24
78
124
166
202
198
178
152
130
122
106
102
118
152
178
168
140
118
118
104
90
86
82
80
86
110
122
108
76
86
86
78
86
110
134
136
148
144
132
126
114
94
96
110
114
92
64
66
54
74
90
82
72
88
92
112
142
152
132
114
116
120
102
48
26
88
120
140
154
132
62
68
108
142
152
172
210
254
255
255
255
255
255
224
170
38
118
144
88
26
36
28
38
24
28
30
26
4
30
40
22
30
28
12
8
16
10
8
18
20
18
12
30
72
124
126
70
56
44
48
80
106
106
84
58
46
60
74
68
60
58
60
52
38
28
26
26
10
20
24
14
18
28
24
14
8
4
4
4
4
4
8
12
12
14
10
20
24
24
20
12
16
24
24
16
12
10
4
16
22
16
16
14
10
2
12
10
8
6
12
20
18
16
14
10
8
4
12
10
12
26
22
10
10
16
24
32
34
24
8
6
8
6
12
18
8
8
8
12
18
20
8
10
10
4
18
26
52
44
6
114
255
255
255
238
114
66
44
48
74
64
34
14
4
12
18
34
34
20
10
14
16
14
12
12
4
2
8
12
24
16
20
16
4
16
18
4
6
4
6
14
26
26
20
8
10
8
8
14
24
14
8
20
16
16
20
26
20
12
8
6
12
12
12
8
4
16
18
18
20
18
22
22
14
8
12
14
12
8
8
10
12
8
8
12
10
6
8
10
4
0
4
4
4
6
4
6
8
8
10
8
8
6
8
12
14
12
16
16
14
2
8
4
2
10
8
12
12
18
14
14
48
56
44
38
38
102
234
255
255
255
255
210
96
26
40
42
50
46
184
255
255
255
255
232
114
62
50
60
78
70
50
22
8
14
8
6
8
4
8
26
52
64
38
2
32
66
66
72
76
46
12
20
32
28
10
26
34
40
60
62
42
40
46
58
50
34
30
28
36
30
8
20
34
22
2
30
58
88
86
102
164
240
255
255
255
255
255
160
114
138
154
124
62
104
184
150
16
130
232
255
255
255
255
255
255
255
255
255
255
238
126
132
255
255
255
248
132
92
90
72
60
52
42
48
62
64
44
22
42
42
34
30
34
40
34
36
56
74
80
60
34
22
38
74
94
86
60
32
6
18
32
30
16
16
20
22
10
6
16
16
26
44
72
84
54
86
154
222
255
255
255
255
44
255
255
255
255
255
136
66
18
8
38
50
48
46
62
130
212
242
230
164
80
36
22
38
82
98
94
86
70
40
32
92
156
222
255
255
255
255
255
255
255
255
202
152
92
50
62
82
80
60
48
42
60
84
82
56
34
60
122
182
198
166
100
68
44
30
34
34
38
42
40
36
36
48
56
48
26
6
10
10
16
18
26
66
96
114
116
108
84
28
98
172
236
255
226
150
84
42
20
10
18
14
14
10
12
6
8
18
32
48
64
76
70
54
36
32
52
68
134
255
255
255
255
124
8
4
4
12
54
102
148
186
190
180
162
136
114
82
64
72
104
138
140
126
102
92
84
90
94
94
90
104
110
98
68
36
52
60
58
80
98
118
132
134
126
114
98
72
56
68
94
108
82
74
66
38
70
84
70
66
74
92
122
146
150
128
102
84
58
10
52
102
114
94
76
66
106
112
114
128
124
138
184
238
255
255
255
255
255
164
212
196
70
124
156
84
8
20
8
16
8
20
26
20
8
26
34
24
36
30
10
6
10
10
18
24
14
16
20
42
76
98
84
32
32
48
66
88
108
114
100
78
68
72
64
44
36
40
44
38
28
20
16
18
10
30
32
8
24
34
20
2
8
16
16
16
14
6
10
12
8
8
2
8
12
12
14
16
22
28
28
20
6
16
34
48
48
32
30
16
12
8
10
10
12
10
6
10
8
8
4
2
4
2
4
10
18
20
8
8
6
12
16
20
24
32
22
16
14
14
8
8
4
6
6
4
18
18
12
8
14
26
30
20
32
42
12
124
255
255
255
184
112
76
48
58
82
58
32
22
24
18
18
22
16
8
26
20
16
12
16
14
2
4
4
8
14
4
10
20
20
12
10
10
6
4
6
14
18
14
8
18
12
8
12
16
18
8
6
12
18
20
18
18
14
14
18
18
16
6
6
14
10
10
10
18
26
24
22
18
14
14
8
8
12
12
10
8
12
8
8
12
10
4
4
10
8
2
4
6
8
8
2
4
6
6
8
6
2
2
2
6
10
16
16
10
8
2
10
12
14
6
6
10
2
10
8
22
44
46
42
44
76
170
255
255
255
255
255
174
58
26
32
28
48
174
255
255
255
255
216
104
46
44
52
50
46
30
18
12
12
14
6
6
12
12
16
40
78
78
28
24
26
40
46
28
24
44
36
10
18
42
42
20
10
34
36
16
14
30
28
14
26
28
24
24
36
48
46
26
12
34
58
66
66
62
40
46
98
176
248
255
255
255
255
224
144
124
90
26
120
182
144
66
106
166
176
166
156
152
150
148
132
130
124
136
108
48
108
255
255
255
255
214
78
48
72
74
66
66
74
90
92
70
40
28
50
66
68
52
30
18
14
42
68
70
48
44
34
30
38
54
60
54
52
52
34
6
20
28
18
6
14
24
20
10
18
14
6
14
42
76
92
124
170
210
255
255
255
255
255
255
255
255
158
144
72
30
20
32
62
96
122
126
98
58
24
38
80
96
72
46
28
54
86
108
142
150
104
110
106
202
222
234
255
255
255
255
255
242
190
144
110
92
74
66
56
54
52
40
22
6
28
58
70
66
78
116
170
192
174
132
82
52
34
36
48
56
60
60
62
58
58
62
48
30
44
44
38
42
30
24
24
30
52
64
74
66
52
44
34
0
68
160
236
252
216
154
90
38
26
18
24
18
14
14
20
22
30
48
62
72
68
56
38
36
48
44
88
226
255
255
255
202
54
10
4
10
22
46
88
132
156
168
162
140
120
94
72
62
70
90
92
78
52
30
44
62
80
98
98
94
82
68
54
46
58
64
66
72
74
76
76
78
82
84
74
58
60
78
100
104
70
86
86
66
98
92
58
50
60
90
122
144
138
110
72
34
26
74
90
66
54
84
98
114
134
140
126
116
124
156
196
214
200
168
130
94
56
58
158
222
174
194
174
74
4
20
6
28
42
44
30
8
14
12
28
34
28
8
18
20
10
14
22
24
16
10
8
60
90
102
78
20
60
80
86
94
106
104
84
62
52
46
28
18
16
18
18
10
14
22
26
30
20
28
24
2
26
26
16
16
28
24
16
18
18
8
6
10
12
12
8
24
30
22
10
10
16
14
16
22
16
28
40
40
28
22
28
34
26
14
18
16
8
6
4
10
10
14
10
8
6
2
0
8
20
18
8
6
2
8
14
16
8
22
24
18
12
16
12
4
10
14
12
16
20
16
14
16
22
30
22
12
18
38
12
126
255
255
255
172
100
74
60
68
70
52
32
24
20
28
34
36
26
18
24
8
14
20
14
6
8
10
8
12
20
20
12
4
10
10
8
14
10
12
10
14
22
20
2
16
12
6
8
12
14
10
10
8
10
12
8
8
8
10
14
12
16
18
16
6
2
6
2
10
22
26
26
20
16
18
16
22
20
22
22
14
20
16
16
20
14
4
2
8
10
6
0
4
8
10
4
4
4
6
14
12
6
4
0
4
8
14
16
10
6
6
8
8
14
16
10
4
2
8
4
22
44
54
56
84
140
244
255
255
255
255
255
102
26
24
22
18
138
255
255
255
255
226
110
64
50
48
36
24
30
28
22
8
18
22
22
18
14
18
36
66
82
52
4
30
26
10
24
12
12
34
44
46
28
4
26
32
30
22
16
28
48
46
24
12
16
20
20
24
32
44
66
64
48
70
72
56
42
28
20
22
46
112
192
255
255
255
255
255
186
104
56
124
208
176
56
74
132
104
80
72
60
26
6
2
14
16
18
36
4
100
255
255
255
255
255
98
30
14
62
66
52
54
64
66
46
16
6
18
34
50
74
72
46
24
38
64
76
60
32
22
26
46
46
40
66
78
76
72
56
24
8
24
20
10
10
10
14
8
12
12
8
12
24
54
76
120
192
255
255
255
255
255
255
255
210
220
255
248
174
64
78
86
98
124
158
168
132
100
202
255
255
255
255
242
188
128
96
58
90
136
158
196
180
242
255
255
255
255
248
178
156
128
86
56
44
44
52
58
50
36
28
34
38
52
70
92
104
110
134
164
180
158
124
94
64
48
32
36
50
52
40
32
38
44
46
40
20
12
28
50
52
40
28
22
28
32
32
16
22
18
18
32
56
68
52
6
102
190
234
228
186
126
66
14
26
36
26
22
28
34
40
58
70
74
68
54
36
38
52
44
82
204
255
255
255
232
86
20
8
8
8
16
50
94
130
156
156
136
116
96
80
64
54
62
72
68
44
16
46
70
80
80
80
76
60
52
54
54
54
52
50
52
52
50
48
52
58
60
56
60
82
100
106
92
52
76
78
70
94
76
50
48
60
90
112
120
98
58
48
42
72
70
28
28
64
98
110
100
94
98
102
100
138
172
178
146
94
44
24
42
50
46
64
144
158
154
106
34
10
20
24
36
42
32
24
14
10
6
24
22
28
12
14
12
16
22
18
18
16
16
20
52
98
124
106
50
110
112
100
94
86
64
40
24
26
18
2
18
30
28
18
16
28
36
42
44
30
14
14
4
26
28
18
28
32
16
16
16
14
8
6
12
18
16
18
34
36
20
26
18
8
10
8
6
16
12
24
42
42
38
56
52
26
20
22
24
22
20
4
14
22
18
10
8
4
4
4
12
20
14
10
16
18
24
28
36
30
36
28
16
10
4
10
18
24
12
8
22
30
18
8
8
6
16
18
12
20
42
12
126
255
255
255
180
106
94
78
60
56
56
50
32
10
8
22
30
22
6
12
10
16
16
14
14
16
10
8
4
6
16
24
22
16
24
18
16
12
14
16
22
28
22
4
12
10
4
12
20
22
14
8
4
4
8
14
14
14
12
22
16
2
14
26
28
20
8
6
12
18
16
22
22
18
18
18
16
12
14
16
8
16
12
14
22
18
6
4
6
4
6
6
2
6
12
8
8
8
12
22
14
12
6
4
6
10
18
24
22
14
6
4
12
10
6
18
22
16
12
6
26
62
90
104
146
210
255
255
255
255
255
142
30
24
24
26
130
255
255
255
255
234
112
72
78
66
34
14
32
38
30
24
18
12
14
22
42
58
68
70
66
44
48
30
30
24
8
18
28
22
4
20
46
58
46
28
32
28
18
20
34
28
8
22
38
30
24
22
18
26
22
46
58
48
50
36
22
22
22
28
46
48
64
140
244
255
255
255
255
204
106
124
248
255
144
50
82
98
116
122
138
154
130
86
96
82
68
50
26
52
244
255
255
255
255
106
28
16
20
54
46
30
26
26
54
68
58
44
34
18
10
46
66
56
44
72
76
68
52
52
72
94
96
68
36
6
40
64
74
68
36
6
18
18
14
18
14
8
2
10
12
8
10
16
28
30
42
78
158
255
255
255
255
255
24
204
255
255
208
158
160
128
106
102
82
100
106
210
255
255
255
255
255
255
255
255
246
112
82
126
172
202
178
98
92
255
255
255
242
102
82
66
58
32
12
10
22
28
38
46
50
64
70
76
86
90
102
120
148
186
194
166
120
88
72
48
30
18
38
60
56
46
50
56
44
18
2
6
14
32
34
32
24
10
20
36
34
18
12
18
16
10
4
8
10
30
50
40
18
100
178
220
212
168
96
18
34
36
18
16
26
36
56
72
74
68
52
30
26
46
46
92
214
255
255
255
202
84
24
8
4
4
12
44
82
120
154
158
136
110
88
72
54
42
52
78
98
88
56
82
84
62
42
36
50
52
50
48
42
40
30
32
48
62
70
70
70
64
52
52
74
104
110
98
70
52
58
52
52
74
64
56
60
70
92
92
76
36
16
56
70
44
50
62
76
50
38
46
34
18
26
56
108
150
156
124
70
28
10
4
2
6
10
10
20
28
22
10
12
20
26
30
24
10
2
12
20
14
14
12
6
22
18
14
24
30
20
8
12
8
6
6
56
106
138
124
86
124
108
82
64
46
26
24
16
4
14
12
6
18
22
16
14
22
18
24
34
28
10
24
16
38
38
16
20
14
4
12
18
16
6
2
6
16
18
26
34
24
12
20
20
12
18
20
18
4
18
34
48
58
38
40
24
8
16
12
12
16
18
12
6
24
24
8
8
10
4
4
12
16
8
12
20
24
32
34
40
42
38
24
12
8
8
16
26
12
12
30
40
34
16
2
6
12
20
26
16
36
38
8
126
255
255
255
172
98
86
64
46
44
46
52
50
42
28
24
20
18
4
6
10
16
16
2
8
6
6
10
8
8
2
10
16
14
22
12
14
14
8
4
14
18
14
2
12
12
4
4
12
20
18
14
12
8
8
8
4
12
26
24
8
12
18
12
20
20
16
14
18
20
18
18
14
6
4
4
0
6
10
10
2
8
6
12
20
18
12
8
8
6
4
4
2
8
14
8
8
8
12
20
8
14
10
6
6
12
22
26
18
4
6
14
16
14
12
10
14
16
10
12
40
88
122
126
158
222
255
255
255
255
236
68
4
12
20
74
252
255
255
255
255
136
60
54
68
44
8
4
20
42
46
36
18
12
20
20
50
66
62
46
18
20
44
46
22
10
22
12
4
16
20
14
12
36
50
50
44
30
10
8
10
14
34
40
38
24
20
26
16
14
10
6
22
32
28
24
28
38
42
50
64
50
56
106
216
255
255
255
255
166
132
255
255
255
206
194
152
116
90
84
110
150
146
96
82
76
72
56
20
190
255
255
255
255
128
10
28
24
34
40
38
44
42
14
22
40
62
62
54
42
40
58
46
18
38
48
38
28
28
50
74
86
76
48
44
40
10
30
60
68
44
6
14
12
10
14
10
8
6
10
12
10
8
10
12
20
34
18
32
114
232
255
255
255
252
164
226
255
226
188
142
96
50
12
96
228
255
255
255
255
234
136
52
30
60
112
172
200
174
154
172
176
124
130
255
255
255
255
236
62
12
12
16
30
22
28
40
42
46
46
50
68
78
86
92
94
106
128
160
180
150
100
68
60
56
36
18
18
36
52
40
22
26
44
52
40
16
10
22
36
22
26
26
4
36
40
24
18
22
26
28
26
14
6
16
12
30
62
68
52
44
122
180
210
194
126
46
10
22
20
22
28
48
72
82
68
52
28
16
28
22
68
202
255
255
255
218
88
20
4
6
2
6
30
64
106
154
178
168
136
104
84
62
48
56
78
104
106
84
98
84
46
20
14
26
44
52
50
52
54
46
66
86
92
90
82
82
80
74
84
104
120
110
88
68
80
84
80
86
98
84
66
76
90
102
84
46
8
52
66
42
30
54
64
42
12
16
24
26
16
48
94
130
130
98
54
18
10
12
14
16
12
8
22
34
36
30
22
16
18
22
20
12
16
10
8
22
24
14
4
12
12
14
26
26
16
6
12
20
24
16
12
64
106
130
112
70
90
64
34
20
14
12
14
20
8
8
16
20
22
16
10
8
24
26
28
40
24
20
44
34
48
48
18
10
14
18
24
18
8
10
10
8
10
20
24
14
8
28
24
6
10
12
18
28
18
36
40
22
36
26
6
30
34
28
18
14
20
20
12
6
24
22
10
10
8
2
4
10
12
4
8
14
18
24
30
32
32
36
36
24
8
6
12
18
16
34
42
42
28
14
10
12
16
10
14
10
46
56
14
122
255
255
255
164
98
90
66
46
42
30
34
44
52
48
32
12
14
16
12
8
22
26
22
26
18
18
16
14
14
18
14
8
6
10
6
22
24
18
18
24
26
20
4
8
14
14
24
30
34
28
24
22
22
26
20
24
34
28
8
8
16
12
18
34
36
28
18
16
18
20
24
24
16
12
12
18
22
20
14
10
10
8
16
24
22
12
6
8
10
10
8
2
10
10
6
6
4
8
18
10
14
12
6
8
14
18
20
16
14
18
12
4
6
14
16
12
10
4
16
52
108
134
114
132
212
255
255
255
255
176
42
2
2
20
154
255
255
255
255
192
92
42
26
44
46
18
30
68
86
72
46
32
14
12
42
60
42
10
20
34
32
24
34
28
10
16
32
32
20
10
24
28
18
14
24
30
32
32
26
24
36
36
20
8
8
8
18
28
18
8
20
16
24
32
44
54
56
52
54
58
40
52
66
146
255
255
255
255
92
255
255
255
255
255
255
255
196
94
38
46
90
100
56
14
78
116
32
146
255
255
255
255
182
22
46
30
54
42
40
58
82
74
48
66
36
36
44
28
30
58
66
52
30
40
34
30
36
48
60
62
58
46
22
8
32
30
30
54
58
48
14
8
8
0
6
2
2
8
14
18
18
16
14
20
24
18
12
22
8
24
142
255
255
255
255
138
226
255
255
230
162
80
154
255
255
255
255
255
186
18
142
255
255
255
255
255
255
126
70
96
106
68
238
255
255
255
255
242
54
30
28
26
22
26
26
22
14
14
22
40
60
68
78
90
102
120
136
142
124
76
48
52
60
52
30
22
20
50
72
66
58
60
58
40
20
10
6
12
30
36
28
2
34
46
28
10
18
30
36
40
46
42
36
30
22
30
32
34
50
60
48
50
138
210
224
172
78
6
26
30
28
44
70
86
78
58
30
16
16
8
22
156
255
255
255
255
130
26
0
10
6
12
10
38
76
130
180
202
182
138
106
82
68
68
68
78
80
74
90
76
66
56
36
50
56
52
52
62
74
84
116
120
102
82
70
82
96
104
114
114
110
92
74
74
98
112
120
128
122
98
78
80
96
96
64
32
30
44
26
28
28
22
6
6
20
32
48
62
82
112
132
116
70
24
2
4
4
2
20
30
28
28
32
26
12
14
10
18
18
12
6
0
6
22
24
24
26
24
16
8
14
22
18
8
10
10
12
16
22
18
12
42
82
104
88
34
36
18
18
14
12
16
6
14
22
14
10
16
10
4
12
8
6
18
30
32
10
24
32
10
26
44
32
6
8
18
18
10
6
2
6
10
10
10
4
14
24
28
20
16
14
8
6
20
16
24
20
12
26
22
14
8
10
10
6
10
12
12
4
10
20
16
8
10
10
8
10
12
14
6
8
18
20
12
18
20
10
10
14
16
16
10
8
12
20
32
38
32
14
12
14
12
10
12
14
8
30
56
20
120
255
255
255
152
96
96
78
58
50
28
14
14
24
32
34
22
4
14
18
16
24
22
14
22
16
10
10
14
14
16
18
16
12
12
18
26
24
14
8
14
18
16
6
4
4
18
28
28
28
20
14
8
6
14
14
26
26
12
4
8
4
8
28
36
30
24
18
18
22
22
22
20
12
8
8
16
18
14
12
16
12
8
10
16
14
8
6
6
6
2
6
10
12
4
6
8
4
8
14
12
14
14
12
12
12
12
14
12
12
12
4
8
6
2
8
8
6
4
20
58
116
136
120
158
255
255
255
255
255
130
28
12
34
114
255
255
255
255
230
110
58
34
18
20
30
34
50
60
52
30
16
30
36
22
18
62
66
40
42
42
18
12
22
20
20
14
10
16
14
18
22
36
46
38
20
4
8
18
20
30
30
16
12
18
18
26
16
10
30
20
6
26
32
36
48
50
44
34
28
36
34
52
100
255
255
255
255
52
255
255
255
255
255
255
255
255
255
198
90
46
54
80
70
60
90
78
60
255
255
255
255
240
68
20
28
46
62
48
48
58
56
42
38
58
24
30
48
16
26
46
46
30
32
38
28
18
22
42
62
72
76
72
60
42
30
12
22
48
50
44
24
4
6
4
4
8
10
4
6
16
20
24
26
26
24
20
10
16
38
66
38
136
255
255
255
255
84
255
255
255
252
150
244
255
255
255
194
64
128
255
255
255
255
255
255
255
152
18
88
158
150
90
255
255
255
255
255
84
34
52
32
44
38
50
46
34
22
28
48
60
58
54
70
98
120
136
140
132
118
94
88
92
82
66
48
46
64
90
98
90
82
72
58
42
36
34
32
24
14
10
24
46
48
28
6
4
4
12
18
26
38
42
46
44
28
22
22
30
48
52
54
36
24
114
202
240
194
104
24
24
34
46
70
78
70
60
38
26
24
6
18
124
255
255
255
255
178
46
0
12
6
14
2
22
44
78
124
166
176
144
110
92
88
84
62
48
40
64
84
80
96
102
82
80
70
50
46
46
64
94
116
108
86
70
70
90
104
102
92
76
70
60
54
64
74
88
94
96
96
88
84
70
54
34
20
38
50
28
12
22
22
14
14
30
44
50
54
68
84
92
88
54
12
12
14
8
8
16
30
32
32
32
30
16
6
16
10
10
22
14
2
4
16
28
16
10
14
12
18
24
28
20
14
14
10
2
12
16
16
10
4
20
42
66
58
20
22
28
24
18
20
12
10
20
24
32
30
14
4
8
14
24
28
26
12
6
8
18
36
36
26
22
42
32
14
8
8
10
6
10
14
8
8
20
22
24
16
14
12
16
22
16
6
6
6
10
22
30
26
8
18
30
30
24
16
10
12
18
8
8
12
14
8
12
16
16
16
14
14
4
20
30
20
6
22
42
42
36
30
14
6
18
22
14
6
20
26
16
4
16
14
12
14
20
16
18
32
54
20
130
255
255
255
156
84
76
66
56
56
38
14
18
22
18
14
22
14
6
18
22
18
14
6
8
4
2
4
10
8
4
10
12
8
14
20
18
10
8
24
30
26
14
0
2
6
16
20
16
12
6
16
24
22
14
10
10
8
6
4
8
12
16
22
20
16
20
20
20
18
14
12
10
4
0
0
8
10
4
4
14
12
8
2
18
20
14
12
10
12
10
16
14
8
2
6
4
6
8
6
4
12
16
14
8
6
8
8
4
4
6
10
10
6
6
6
10
14
12
26
64
120
154
170
242
255
255
255
255
206
84
18
24
108
255
255
255
255
255
132
48
30
30
32
52
64
54
32
42
54
52
36
8
20
38
24
32
38
30
16
14
12
22
18
16
18
22
24
34
38
26
10
14
28
38
36
28
20
12
14
18
10
8
20
16
6
22
32
18
16
38
34
12
34
48
30
20
14
4
22
50
32
84
255
255
255
255
112
255
255
255
255
252
248
255
255
255
255
255
198
102
100
118
82
36
50
78
130
255
255
255
255
118
34
34
22
36
48
50
54
40
30
76
122
114
82
80
60
32
64
54
24
8
32
44
40
28
20
26
32
38
42
42
42
48
48
40
32
50
46
30
24
14
0
8
10
6
10
16
10
4
14
22
30
38
40
26
26
36
22
42
78
32
132
255
255
255
166
226
255
255
255
142
168
128
210
255
255
255
255
255
255
255
255
204
130
164
144
160
130
228
242
130
255
255
255
240
94
136
102
58
28
30
54
74
70
54
48
66
90
82
60
58
90
134
154
152
144
144
152
144
132
116
92
84
84
92
106
114
102
80
58
36
26
32
42
46
42
36
44
58
70
66
38
22
8
6
8
6
6
2
16
24
34
36
24
20
32
32
20
18
10
30
40
22
82
186
238
206
116
26
30
56
84
82
62
48
36
34
38
16
28
120
255
255
255
255
202
62
0
12
6
12
4
10
22
38
72
102
130
120
98
90
102
106
78
46
32
64
80
78
82
104
102
84
68
58
42
32
48
68
74
68
60
62
76
92
90
64
38
24
30
36
40
48
40
28
24
36
56
60
74
62
28
42
62
66
44
10
12
16
20
40
64
74
66
48
36
32
30
26
26
28
20
10
4
4
14
24
18
20
22
30
30
24
24
24
24
24
18
12
10
8
12
18
20
30
24
6
20
26
20
18
20
20
14
24
32
28
24
20
16
16
48
72
68
32
12
24
24
18
22
14
22
14
2
16
26
20
2
10
8
4
16
26
16
4
16
16
2
12
16
2
26
36
28
16
12
18
24
18
8
8
10
8
18
14
10
12
10
4
14
14
12
10
12
6
6
4
2
6
12
14
14
18
14
6
6
10
10
12
10
10
10
10
14
18
20
14
6
22
36
26
4
18
24
22
30
28
22
14
12
12
18
16
8
30
28
14
8
10
4
4
10
12
8
14
34
50
16
138
255
255
255
164
94
86
66
38
40
32
32
30
22
16
10
14
18
16
26
22
12
12
10
8
4
2
4
10
12
8
8
10
12
14
6
4
10
20
20
16
12
8
6
6
12
20
22
14
4
8
14
16
20
20
14
10
10
12
6
14
18
16
18
18
20
26
20
10
0
10
16
12
8
4
2
6
10
8
6
8
6
6
4
8
14
12
12
10
8
6
8
4
4
6
2
6
10
10
2
8
14
14
8
2
4
10
12
8
2
2
8
6
2
4
8
10
8
2
28
74
136
192
240
255
255
255
255
255
130
42
10
38
190
255
255
255
255
184
84
32
28
38
44
58
56
32
10
20
30
34
34
28
18
2
16
28
22
18
20
24
28
22
18
16
12
12
20
22
10
10
24
28
24
16
10
10
10
12
16
10
4
14
28
38
32
24
18
20
22
20
42
40
34
34
44
34
22
4
4
34
66
240
255
255
255
196
255
255
255
255
190
166
182
188
236
255
255
255
246
150
150
110
44
4
26
36
108
255
255
255
188
66
48
66
50
32
34
54
74
54
60
64
64
30
60
116
110
48
80
78
44
30
44
44
32
12
6
24
44
50
46
32
14
12
30
62
80
70
48
22
14
14
8
6
16
18
8
10
18
12
6
10
18
26
38
40
28
18
10
26
32
44
20
122
255
255
255
26
254
255
182
52
66
146
255
255
255
255
255
254
212
188
144
40
96
208
254
236
176
230
255
154
255
255
255
36
200
192
96
64
32
22
30
42
36
24
28
50
70
58
54
88
148
200
202
172
146
132
116
88
74
70
66
72
80
92
102
96
74
48
24
16
14
20
26
28
28
30
42
48
48
40
28
40
36
20
18
12
12
14
14
16
26
32
24
18
20
4
18
32
38
22
28
46
22
58
164
224
192
98
26
70
84
74
58
36
22
28
36
18
36
126
254
255
255
255
206
68
0
10
6
12
2
6
20
44
66
102
120
102
76
70
98
124
116
88
68
74
64
46
32
40
54
56
56
58
48
36
48
52
44
40
42
54
70
78
66
36
20
16
34
48
50
46
26
16
12
32
48
34
48
56
58
56
50
30
10
20
28
30
42
62
68
58
38
38
28
12
20
18
12
20
26
18
4
16
26
20
8
16
36
28
20
24
30
26
22
22
14
4
12
12
10
16
24
20
8
14
18
6
4
8
18
20
12
20
18
8
4
2
0
32
54
74
64
10
40
48
22
4
24
22
12
8
20
22
16
18
12
10
22
18
24
38
20
12
24
28
28
26
14
4
16
18
28
24
12
12
26
38
36
14
12
24
20
2
6
4
10
16
20
12
2
12
6
12
22
26
24
8
18
30
30
32
26
20
18
8
10
16
8
4
12
6
10
18
12
8
24
36
28
4
10
12
16
12
6
10
18
16
10
10
22
20
2
22
28
18
4
6
6
0
6
8
4
6
26
38
10
144
255
255
255
154
82
76
62
44
48
48
38
22
8
8
8
8
8
18
24
16
4
6
8
8
4
4
6
4
10
14
6
8
12
6
16
18
16
8
6
18
20
10
10
10
14
22
20
8
4
10
14
14
18
22
14
0
6
10
16
16
10
6
14
22
26
26
10
8
18
16
26
20
10
6
4
6
10
2
14
16
10
2
8
14
12
8
6
6
4
0
2
4
4
2
6
14
14
8
4
10
10
4
4
4
6
12
16
14
12
8
8
8
4
4
6
6
6
12
44
94
174
254
255
255
255
255
255
186
64
12
2
68
255
255
255
255
226
116
66
34
32
44
44
42
26
6
8
28
46
40
14
16
34
36
18
26
28
34
34
26
20
24
14
8
6
6
2
10
28
34
30
24
20
24
24
22
22
16
10
14
4
22
38
46
52
56
40
20
20
18
8
26
26
6
40
54
56
44
42
106
220
255
255
255
255
255
255
255
255
192
50
82
132
154
166
202
255
255
255
255
168
68
10
16
64
70
142
255
255
255
158
46
54
76
48
26
26
72
108
78
128
132
84
124
180
180
118
46
76
76
46
30
34
24
18
14
14
26
42
48
44
40
40
58
84
102
90
56
26
8
10
14
14
8
12
22
24
8
10
22
24
18
12
16
22
40
46
40
22
24
14
8
16
104
230
255
255
255
242
210
156
178
220
232
236
255
255
255
184
40
158
174
108
50
180
255
255
234
126
142
222
184
255
255
255
44
210
156
56
76
56
22
16
38
28
24
30
48
64
64
88
144
204
230
200
152
112
74
34
40
62
60
42
40
46
54
56
46
28
12
8
18
30
34
22
10
12
12
12
14
12
10
14
30
44
38
32
28
24
24
18
16
22
30
30
20
4
12
20
18
24
32
16
14
48
44
34
144
198
162
66
70
74
74
56
36
12
14
26
12
26
122
246
255
255
255
204
68
0
8
2
10
4
16
24
30
76
124
136
102
60
42
68
106
120
112
86
58
30
14
24
14
6
16
24
38
44
46
50
44
34
34
40
48
54
54
42
40
38
30
56
70
62
48
32
38
42
52
40
8
50
68
54
40
38
32
44
44
42
44
54
54
36
16
12
22
24
20
36
30
20
10
12
20
8
24
26
14
22
14
28
36
20
6
20
18
10
8
10
8
6
10
14
16
8
10
20
18
10
16
16
8
8
14
4
10
16
16
16
16
16
26
60
76
58
10
42
28
10
12
2
6
14
16
8
4
6
18
22
8
20
24
30
48
38
34
38
32
20
28
26
14
14
6
12
20
14
10
10
26
42
38
16
14
16
12
14
18
28
28
24
18
22
18
16
28
26
16
22
20
20
24
30
28
22
20
14
16
16
4
16
24
20
26
12
14
24
32
36
24
8
10
8
4
12
20
18
16
20
10
6
10
10
14
22
24
14
20
16
10
10
8
8
12
8
8
30
44
12
158
255
255
255
144
62
54
46
34
40
36
24
14
6
4
0
8
6
16
14
8
2
6
6
10
12
10
6
4
8
12
16
12
2
16
18
6
6
18
20
18
24
20
10
2
6
16
14
6
4
10
14
20
24
22
14
8
10
18
22
10
6
10
20
20
22
16
4
16
16
8
22
22
10
8
8
10
10
8
14
10
12
10
10
10
8
10
8
6
2
10
12
12
10
6
8
6
6
4
8
6
8
10
12
10
8
12
14
14
16
10
10
14
12
12
8
2
4
14
54
128
244
255
255
255
255
255
248
116
30
4
34
158
255
255
255
255
144
74
52
32
38
54
52
42
22
6
12
32
46
26
22
20
18
36
38
32
20
18
12
8
4
4
6
12
14
14
12
10
14
14
14
16
18
18
8
2
6
10
14
14
14
18
18
22
20
36
40
22
6
28
42
40
52
64
52
62
66
124
232
255
255
246
76
186
255
255
255
255
174
96
48
66
126
182
192
208
255
255
255
255
156
66
34
58
92
72
142
255
255
255
234
104
72
72
34
2
44
110
130
60
108
112
48
138
168
130
56
46
70
74
50
24
26
20
12
6
12
22
46
60
60
52
34
36
48
44
26
28
28
24
24
18
18
8
6
12
20
16
28
40
44
54
46
24
8
30
44
48
40
36
32
34
34
110
146
255
255
255
152
100
228
216
128
80
76
102
100
210
248
204
230
255
212
250
255
255
255
146
18
100
54
236
255
255
196
100
198
132
36
26
40
36
50
104
118
114
116
132
150
156
170
188
194
172
124
76
38
22
10
16
36
52
56
54
52
56
60
56
36
20
12
12
30
38
30
16
12
10
8
10
16
20
20
8
8
12
10
6
12
16
14
16
16
24
34
38
30
20
24
26
12
16
34
34
10
56
56
54
126
184
152
44
56
92
66
40
10
6
20
6
14
112
246
255
255
255
210
64
0
8
0
8
6
12
12
22
56
106
134
116
76
40
34
50
60
66
62
54
42
22
36
36
28
32
24
18
28
38
42
44
48
52
50
44
38
34
30
34
44
40
64
70
54
38
34
46
56
42
14
42
72
64
30
40
48
56
56
46
38
34
40
32
12
2
8
18
26
28
26
10
14
18
12
8
8
20
18
14
20
30
38
30
16
6
12
20
22
12
2
8
10
10
12
10
20
26
22
8
8
8
10
6
6
22
20
16
12
4
6
8
8
24
54
82
76
26
24
26
10
6
14
20
10
10
22
26
22
24
30
30
52
52
48
66
64
44
30
18
0
10
18
22
12
4
4
12
14
8
2
10
24
36
32
20
6
12
26
30
32
20
18
10
18
24
22
20
8
16
20
18
24
18
12
12
12
12
4
14
20
14
32
34
24
30
30
10
24
32
22
6
6
6
0
8
12
12
14
10
10
4
6
2
12
26
24
16
2
12
20
20
12
8
6
10
8
14
34
56
16
180
255
255
255
140
68
60
48
30
36
40
36
26
12
8
10
12
10
24
26
10
4
4
8
16
16
12
10
12
8
4
16
18
8
14
12
14
24
24
8
10
16
20
20
16
16
20
14
8
6
6
12
18
14
10
10
10
18
24
16
2
16
14
28
32
22
10
6
8
10
24
32
20
6
8
8
12
12
6
10
8
10
12
8
6
4
12
12
6
8
20
20
20
22
12
2
10
14
8
8
2
10
14
14
12
6
8
8
8
12
4
8
10
14
18
14
6
8
14
78
188
255
255
255
255
255
255
176
78
16
24
112
255
255
255
255
210
84
36
30
26
44
62
58
44
30
26
8
24
34
6
24
28
24
54
50
22
4
16
28
34
34
32
36
38
32
32
36
40
48
54
56
54
58
60
48
40
42
40
38
26
26
40
60
64
46
32
30
24
24
38
56
82
114
128
118
136
212
255
255
255
255
246
126
174
246
254
192
100
126
136
108
92
124
190
224
255
255
255
255
255
168
142
110
134
128
72
70
255
255
255
255
206
152
142
106
62
74
110
80
20
100
76
28
110
112
56
22
38
60
72
58
34
18
22
24
28
32
20
22
56
76
84
82
76
66
66
70
72
70
58
46
30
16
2
16
20
24
30
40
50
56
58
72
58
34
4
16
30
36
40
34
44
80
134
172
216
255
255
194
66
255
255
255
198
196
204
126
255
255
148
118
202
148
255
255
255
170
56
182
146
132
255
255
255
150
132
168
98
56
20
24
56
128
184
188
174
172
190
210
204
184
156
122
86
54
70
78
66
42
68
68
42
38
58
60
64
78
90
74
46
22
10
24
34
28
20
14
14
14
8
4
16
30
36
28
28
26
18
18
8
8
14
18
30
34
48
48
34
32
40
42
28
8
42
40
38
58
60
20
116
180
132
56
94
82
38
6
12
28
14
26
124
255
255
255
255
194
54
0
8
2
10
4
16
16
16
28
56
92
104
88
56
30
32
20
14
28
44
52
48
66
62
56
60
46
22
28
34
40
52
64
62
50
38
28
32
26
20
32
48
58
52
34
24
32
44
32
32
40
64
62
38
6
26
44
44
38
32
28
16
16
12
2
2
8
20
28
26
14
12
14
8
2
2
10
12
14
18
24
30
32
24
8
16
34
38
26
18
12
16
18
20
24
20
22
16
6
4
8
6
18
8
16
28
14
12
16
14
16
14
12
14
44
74
80
48
12
12
14
12
14
18
28
32
24
28
30
32
32
38
44
30
18
26
32
32
20
2
22
30
18
14
24
26
22
22
24
22
14
12
10
10
14
16
10
20
26
18
6
12
24
22
18
10
6
10
24
20
6
16
32
38
30
10
6
6
6
8
10
18
30
26
10
14
20
24
22
12
10
16
18
16
6
10
8
6
10
8
4
2
2
4
14
14
2
8
10
8
0
8
6
6
4
8
12
28
38
72
40
200
255
255
255
156
82
66
58
38
28
26
38
42
26
12
8
16
16
24
26
10
4
6
6
16
12
8
8
20
18
2
10
12
6
10
14
12
6
12
16
16
10
10
12
16
20
26
22
14
6
8
14
16
8
10
10
14
18
16
10
10
14
12
32
32
20
10
2
8
28
36
32
20
8
10
10
14
12
6
12
12
8
8
8
8
10
14
10
6
18
22
12
2
14
14
12
8
10
6
2
6
12
12
12
14
6
8
14
20
24
10
12
10
12
22
28
8
8
34
132
255
255
255
255
255
255
214
132
56
10
54
200
255
255
255
255
138
38
0
14
32
56
64
50
32
28
38
22
24
34
18
26
38
38
54
36
6
20
30
38
44
54
60
62
60
52
52
56
60
72
72
72
68
72
78
70
64
62
68
70
54
46
56
70
88
86
72
48
44
46
46
46
66
116
188
255
255
255
255
255
255
255
255
255
255
255
190
122
62
10
72
92
80
82
126
176
248
255
255
255
255
255
255
255
255
255
255
132
164
255
255
255
255
204
150
122
106
80
62
74
104
104
18
88
134
102
38
26
42
54
66
64
44
14
10
14
24
28
30
26
14
22
38
48
54
52
52
62
68
76
70
58
40
20
22
32
28
26
30
36
38
40
34
58
80
84
66
38
10
16
28
26
40
82
150
178
156
154
255
255
130
202
255
244
158
152
190
132
204
198
204
230
186
112
180
168
84
116
255
255
140
250
255
255
134
114
134
130
92
66
72
94
126
158
170
146
122
120
138
152
134
106
80
62
50
26
34
56
74
86
80
42
22
12
42
46
42
58
84
88
68
40
20
26
38
38
32
20
12
8
16
20
22
22
28
24
10
6
6
16
12
4
8
30
38
28
44
42
22
16
28
46
52
34
28
38
44
28
44
72
12
94
154
118
124
76
28
14
34
50
36
24
116
255
255
255
255
170
44
0
8
6
12
8
0
4
14
38
48
54
64
74
68
52
30
10
34
58
78
76
40
24
20
20
44
52
42
50
50
46
46
48
44
40
40
36
26
32
22
40
58
48
34
26
26
28
14
24
60
70
58
32
12
14
22
22
14
16
20
22
10
6
10
4
4
10
18
18
20
26
16
20
26
28
22
12
10
14
18
24
26
20
8
16
32
38
26
12
18
20
20
14
8
10
10
12
18
16
6
2
2
10
10
16
22
26
28
18
8
10
24
32
14
32
54
64
48
24
6
4
12
24
36
36
22
14
14
18
24
26
24
12
8
22
24
22
18
16
22
36
28
22
16
20
26
26
22
24
24
18
16
12
8
8
16
18
16
16
10
16
26
30
26
24
28
18
22
22
14
22
22
30
40
40
28
10
4
6
8
8
14
20
14
8
30
28
6
26
38
28
24
20
22
8
6
4
2
4
4
6
8
8
8
8
22
24
14
2
14
18
12
4
8
12
18
24
36
32
66
46
188
255
255
255
152
86
84
78
48
28
2
20
40
36
22
8
6
18
32
24
6
2
6
4
14
18
16
8
18
24
8
8
8
12
10
12
8
16
20
16
8
6
4
2
8
16
20
18
14
10
10
12
10
2
6
8
12
12
8
8
14
20
30
38
30
16
8
4
18
32
28
20
14
14
14
12
16
14
8
12
14
4
4
6
10
14
12
6
4
14
28
28
16
20
22
12
6
10
10
6
4
8
6
4
12
8
16
24
26
22
16
20
10
2
14
32
18
14
70
190
255
255
255
255
255
246
162
96
38
2
104
255
255
255
255
206
94
54
24
28
50
60
54
38
22
12
34
32
36
48
38
26
36
22
24
20
24
40
46
52
60
68
66
60
58
52
52
52
58
60
48
54
50
50
60
64
64
64
70
74
60
52
56
52
68
78
78
64
44
50
34
22
40
94
184
255
255
255
255
255
255
255
255
255
255
255
255
255
240
152
44
36
60
52
66
110
184
255
255
255
255
255
255
255
255
255
255
255
138
178
255
255
255
255
196
126
110
94
72
112
102
64
96
150
128
68
18
8
28
38
50
62
56
30
6
14
26
28
26
44
48
62
66
52
26
10
36
34
44
60
62
56
40
22
34
36
26
18
22
26
34
46
34
18
48
88
106
92
60
32
18
22
40
66
110
174
184
255
255
228
28
168
232
180
98
48
50
48
40
140
202
255
192
255
255
255
226
255
255
255
202
255
255
252
118
90
98
102
118
134
144
146
150
146
126
88
64
58
62
62
40
22
14
18
24
18
12
40
76
84
56
12
26
10
26
22
10
18
46
66
62
40
24
26
38
48
50
36
20
24
34
26
16
12
14
12
10
12
14
12
8
10
16
28
24
10
30
34
16
6
14
32
44
40
36
38
32
50
22
48
74
30
68
114
98
50
36
40
52
52
42
26
116
255
255
255
255
142
34
0
8
8
6
10
10
6
26
38
44
54
50
58
74
82
70
44
88
96
92
98
56
8
26
8
20
38
46
52
46
38
32
30
28
34
44
44
30
24
38
58
56
32
28
24
22
8
42
80
84
60
28
24
26
18
8
20
22
16
18
20
10
4
8
4
4
8
12
10
14
18
22
30
34
30
34
20
14
14
8
20
38
44
26
16
22
18
4
6
16
24
20
12
14
30
36
30
32
30
16
22
22
16
14
6
28
36
34
14
10
24
40
42
16
26
42
52
38
18
4
6
8
10
14
6
10
12
10
6
4
10
12
12
24
24
16
16
28
40
42
28
2
20
18
14
12
14
12
22
34
34
20
2
14
20
26
16
12
20
26
10
16
30
30
16
22
12
16
12
16
30
18
20
32
38
42
34
20
6
14
6
10
18
10
16
36
24
20
10
30
50
40
26
28
14
12
10
4
2
2
10
18
18
18
14
18
22
30
22
14
14
20
20
28
32
28
20
26
18
46
14
154
255
255
255
150
92
96
76
36
14
16
2
18
26
30
20
12
12
6
8
8
6
2
8
12
8
16
16
12
16
14
6
8
18
16
6
10
14
8
6
8
6
6
8
20
32
38
40
28
12
6
10
12
8
2
8
12
12
10
12
14
12
14
14
14
12
8
6
14
22
16
8
4
8
6
0
4
6
6
10
18
14
6
8
16
14
6
6
8
6
8
18
16
16
14
6
10
14
8
0
4
10
14
12
16
16
20
20
14
4
12
16
16
14
14
26
16
32
108
232
255
255
255
255
255
182
108
58
16
34
172
255
255
255
255
152
74
42
44
62
64
52
40
28
20
4
18
22
36
48
38
18
24
12
16
32
46
56
62
74
76
60
38
34
36
38
36
30
20
16
10
18
16
12
34
42
46
50
50
44
30
26
34
32
36
46
52
48
32
34
22
24
38
96
208
255
255
255
255
220
252
216
255
255
255
255
255
255
255
255
206
60
40
28
30
64
110
148
200
255
255
255
255
255
255
255
255
255
255
166
160
255
255
255
255
174
102
58
88
88
60
116
180
140
50
16
38
46
44
30
22
38
52
46
32
36
44
38
32
36
44
50
48
30
8
18
32
16
34
54
64
50
26
18
32
30
16
12
14
16
26
44
58
52
32
32
80
102
92
74
52
30
28
34
22
128
238
255
255
232
178
255
255
238
134
70
52
54
68
94
112
94
78
170
230
210
144
242
255
255
255
255
255
255
96
42
62
102
134
138
130
132
142
140
122
94
78
64
48
32
38
30
22
30
48
48
36
48
62
86
84
54
38
28
30
28
16
22
40
58
58
40
24
10
22
40
56
48
24
22
18
8
8
6
12
14
16
16
12
10
4
6
20
30
30
24
30
28
28
24
22
26
22
10
4
6
12
26
38
20
24
66
62
20
46
66
62
56
40
30
26
30
148
255
255
255
255
118
26
0
8
10
4
8
8
4
20
38
52
58
54
58
76
98
100
52
68
40
34
74
76
50
50
42
32
30
26
18
18
26
32
32
30
36
42
42
42
44
60
60
38
18
30
18
10
52
88
88
52
14
10
22
30
30
18
14
24
34
34
24
10
6
10
6
8
10
8
12
28
34
38
38
24
8
24
24
16
12
10
8
6
22
20
10
28
34
20
4
16
28
28
20
28
36
26
14
20
38
46
68
62
82
52
10
44
22
20
16
26
54
52
36
14
34
62
68
42
12
6
10
18
26
30
24
18
16
12
10
14
14
10
24
26
16
10
14
34
42
24
8
26
14
10
24
22
18
16
24
32
26
4
22
34
34
44
28
12
26
30
30
18
28
40
34
28
18
22
20
16
22
16
16
18
18
22
28
24
22
16
18
4
24
18
14
32
20
20
14
12
38
40
28
22
12
16
14
8
4
4
12
14
10
16
26
24
16
32
38
24
4
24
38
36
24
20
10
18
24
64
32
180
255
255
255
166
92
86
68
30
8
20
16
22
12
24
22
6
4
12
14
12
10
8
6
6
4
10
14
10
2
12
14
6
16
26
22
6
12
20
14
2
8
12
12
24
32
34
32
16
16
6
2
6
6
6
10
12
12
14
16
8
8
4
14
18
12
4
2
16
28
20
8
4
10
10
4
8
10
6
6
12
14
8
8
16
12
2
4
10
12
10
8
6
8
6
4
8
10
4
4
6
6
10
14
20
22
20
14
10
6
14
6
8
12
10
20
8
46
136
255
255
255
255
255
232
122
66
30
2
72
222
255
255
255
220
128
94
88
80
76
58
40
32
26
18
6
6
6
22
26
20
14
32
34
32
32
40
52
62
72
56
30
24
8
24
24
32
32
20
14
18
24
16
12
28
22
26
38
42
30
16
12
18
8
6
16
26
30
22
16
16
28
26
42
162
255
255
255
255
255
255
255
126
110
255
255
255
255
255
255
255
244
104
48
34
24
32
14
22
20
50
114
104
114
182
255
255
255
255
255
255
54
255
255
255
255
92
38
76
34
104
180
172
68
40
82
68
60
54
44
36
34
24
20
18
28
36
34
28
22
24
32
36
24
24
30
32
12
50
76
76
48
10
10
16
8
6
8
10
22
28
30
42
60
54
26
30
44
54
58
60
72
110
164
210
255
230
212
255
255
255
255
255
196
94
58
76
88
64
16
54
94
102
146
132
106
110
254
255
255
255
255
255
255
108
54
84
128
134
112
102
114
120
112
98
84
80
72
56
44
38
30
22
18
20
34
60
70
52
46
60
56
42
36
50
40
30
36
58
78
72
50
26
10
6
14
36
42
22
6
6
8
10
4
12
16
18
22
24
18
10
8
14
24
28
24
14
10
22
28
34
42
36
18
4
4
2
8
16
38
36
24
86
102
54
50
54
46
12
22
12
40
180
255
255
255
254
98
16
4
6
8
8
10
8
8
18
36
60
72
64
56
66
90
102
62
8
36
50
38
50
60
62
46
36
28
20
12
16
28
30
28
32
38
38
34
38
50
60
54
38
26
22
30
46
74
72
40
6
24
26
22
20
30
34
26
22
28
24
24
10
14
8
4
8
10
14
30
42
48
46
32
12
4
8
20
18
12
14
18
24
32
24
12
20
38
36
16
6
16
16
12
24
20
2
10
4
34
60
76
46
86
80
30
50
46
22
2
36
44
24
8
16
42
68
58
14
18
24
16
16
18
24
28
22
8
8
10
12
6
16
28
26
14
12
16
20
32
24
38
18
14
22
14
12
18
22
28
36
34
20
32
22
20
40
34
16
18
18
42
42
24
2
10
8
18
18
12
8
20
18
18
22
26
32
42
42
20
10
24
16
12
16
4
26
40
38
18
12
16
12
8
10
10
10
6
10
8
8
16
20
18
14
28
34
16
24
36
32
22
38
38
22
6
34
42
30
42
72
30
184
255
255
255
148
68
66
68
40
18
10
16
10
6
18
16
8
8
2
6
6
6
12
18
18
16
14
8
4
8
6
16
18
8
12
22
18
10
6
16
18
20
18
16
22
18
26
30
20
4
8
12
14
12
8
8
10
12
12
6
4
6
6
16
22
12
0
2
12
22
16
6
6
10
6
2
10
14
8
4
12
14
6
6
14
8
2
8
12
8
8
4
2
4
6
4
6
6
6
6
4
2
2
6
16
20
18
14
6
6
10
8
8
10
12
22
10
56
170
255
255
255
255
255
170
76
40
16
16
100
242
255
255
255
196
126
118
110
78
56
36
30
34
32
20
4
4
2
18
36
44
46
46
28
12
14
16
28
38
34
14
18
16
10
28
26
32
44
52
62
72
80
52
10
30
20
10
30
46
46
24
8
28
24
14
12
14
22
22
10
6
14
4
34
50
74
208
255
255
255
255
255
255
244
42
170
255
255
255
255
255
255
255
212
160
124
128
114
122
124
126
136
76
42
68
132
255
255
255
255
255
255
128
255
255
255
94
58
34
76
140
154
98
38
102
110
64
50
46
44
54
62
60
48
40
40
38
30
16
8
18
38
48
36
48
54
50
38
70
86
74
38
8
10
22
26
28
26
28
34
44
36
40
50
36
32
62
78
68
20
72
182
255
255
255
255
255
126
64
180
222
240
184
92
38
36
58
46
46
48
60
54
66
90
88
90
220
255
255
174
234
255
255
255
112
100
160
152
128
108
112
114
90
58
38
34
44
54
62
82
98
98
94
94
92
106
112
88
50
22
18
38
56
62
54
34
26
36
58
70
58
36
18
22
30
38
36
28
14
6
2
8
6
2
8
12
8
8
12
12
16
20
16
8
6
6
6
8
10
14
24
54
72
66
48
28
14
10
10
16
18
26
30
86
100
56
4
32
18
44
34
58
188
255
255
255
234
70
10
14
2
4
6
4
2
2
6
16
36
50
46
40
46
68
86
66
32
34
24
6
24
28
26
28
26
28
36
42
40
32
24
28
40
44
38
30
32
38
48
58
58
32
20
44
60
46
26
24
34
28
16
8
4
16
28
36
36
26
14
26
26
16
4
14
20
30
34
40
42
40
30
18
12
14
16
14
14
8
4
10
10
6
20
26
14
16
34
28
14
24
16
12
14
12
12
10
12
20
74
100
64
90
82
28
24
22
4
8
26
40
44
42
22
50
68
48
0
22
16
14
14
10
12
18
26
22
10
2
2
12
24
22
14
16
12
4
8
24
32
24
14
18
14
10
30
24
20
32
42
42
30
16
8
16
22
28
14
4
4
24
44
54
40
20
28
30
20
14
16
20
18
16
24
34
42
42
26
4
0
16
28
20
8
14
32
42
44
40
22
26
28
26
26
24
20
16
6
4
8
14
16
20
22
28
20
18
22
18
24
28
34
26
8
18
34
30
14
26
48
26
210
255
255
255
114
42
56
52
36
30
12
2
6
14
34
30
14
4
12
14
8
10
12
16
18
16
12
8
8
4
4
6
18
22
10
8
14
20
14
26
22
14
10
14
18
10
18
24
24
20
14
12
12
8
6
10
16
16
8
4
6
4
18
26
24
12
4
4
16
26
18
4
4
4
4
12
18
14
4
8
14
12
6
10
12
6
6
10
8
4
4
0
0
2
4
6
6
2
4
4
2
2
4
10
16
12
10
10
6
8
8
8
8
16
18
32
20
68
216
255
255
255
255
246
108
36
20
6
34
128
255
255
255
255
176
116
108
86
44
26
20
24
26
14
4
8
6
4
6
20
30
32
22
16
16
28
42
48
50
46
34
26
12
12
24
18
12
26
48
54
66
92
78
22
24
36
22
26
28
40
32
8
16
20
10
6
2
10
18
20
18
34
32
34
30
44
16
116
255
255
255
255
255
255
255
252
62
214
255
255
255
255
255
255
255
190
108
68
64
72
50
38
48
62
76
66
134
255
255
255
255
255
255
255
255
255
154
128
116
152
160
126
62
66
144
158
134
134
146
134
124
126
124
118
112
92
76
66
46
30
38
52
44
20
24
20
24
48
80
90
68
32
12
20
32
38
36
24
20
18
46
64
60
44
20
26
58
66
18
92
210
255
255
255
255
255
255
248
116
104
112
92
40
0
2
16
18
12
44
54
54
34
52
96
152
218
248
184
130
254
255
255
255
255
126
250
224
158
130
122
124
112
82
50
34
30
36
48
66
92
102
102
98
94
92
96
90
66
42
34
48
70
74
60
46
30
28
42
56
56
42
26
18
28
44
42
32
24
8
6
8
14
16
16
12
10
18
24
16
4
12
22
24
14
14
10
6
14
26
26
22
22
48
58
58
50
26
6
18
8
18
26
14
40
96
100
56
8
32
64
46
66
196
255
255
255
194
36
6
16
6
2
2
0
0
0
6
14
22
38
34
26
24
38
60
56
42
20
18
36
32
12
8
10
12
32
52
60
60
48
30
50
68
62
48
44
44
46
54
56
38
30
50
62
50
28
28
40
36
22
10
2
14
18
18
22
34
36
30
38
26
6
24
32
32
34
28
22
16
16
18
10
8
16
6
16
20
16
8
14
8
12
16
30
32
8
16
16
2
16
12
16
22
20
8
4
6
12
54
90
84
86
52
18
40
34
12
2
18
32
40
44
24
58
74
50
12
34
20
2
10
12
10
10
20
30
34
30
22
28
24
4
12
26
34
26
8
6
2
4
16
26
30
16
14
28
22
6
18
28
26
12
4
6
12
20
16
8
8
12
16
36
46
34
22
16
4
2
8
14
20
22
22
26
26
16
6
6
8
24
26
38
30
28
32
16
16
32
28
24
22
18
20
26
30
38
32
10
6
8
4
8
18
12
8
26
24
8
16
22
20
12
2
12
28
40
34
38
46
46
216
255
255
255
100
32
58
58
28
24
26
18
6
32
50
38
32
24
12
2
18
16
8
8
18
24
16
6
10
10
10
6
6
14
14
8
2
14
10
14
16
12
4
12
20
16
16
20
22
22
12
6
2
2
6
14
20
16
4
4
2
10
20
22
18
14
14
8
18
24
18
6
12
8
14
16
10
2
6
6
10
10
10
12
10
8
6
4
6
6
4
2
4
4
4
6
4
4
0
0
0
2
4
10
22
26
26
16
4
8
10
12
14
20
16
32
32
90
255
255
255
255
255
162
48
8
2
6
58
168
255
255
255
246
150
90
68
40
14
16
20
16
18
24
24
16
8
4
10
20
20
16
16
26
24
14
36
52
54
44
32
24
20
28
34
30
30
40
56
54
44
64
58
34
22
34
42
38
46
50
36
8
6
10
10
16
18
18
34
44
44
40
46
54
70
78
58
50
56
152
255
255
255
255
255
255
255
178
122
255
255
255
255
255
255
255
138
32
22
14
8
10
16
32
38
46
58
112
170
255
255
255
255
255
255
255
208
150
172
182
156
102
16
88
172
226
255
255
255
255
204
150
140
150
146
104
70
66
64
52
52
76
92
90
82
62
44
38
68
72
44
10
4
14
36
28
34
26
22
24
16
74
110
104
48
40
94
88
152
255
255
255
172
130
170
178
255
244
156
64
44
30
32
10
20
24
6
20
40
28
46
82
138
182
202
164
56
252
255
255
255
255
255
38
255
255
236
148
132
132
122
110
100
86
76
60
48
44
44
46
38
32
22
14
10
4
16
20
20
24
38
52
52
40
34
36
44
54
56
48
36
26
22
30
34
22
16
12
10
6
16
30
38
36
40
20
26
26
12
18
10
12
18
24
24
14
22
12
18
26
24
18
40
28
14
38
40
24
26
10
16
22
20
16
64
102
96
44
54
64
46
84
228
255
255
255
144
10
12
14
6
2
2
0
0
0
6
12
24
38
36
30
34
62
72
52
42
36
54
64
42
40
24
10
22
44
50
42
46
56
50
80
92
76
62
62
66
66
54
22
24
66
78
62
36
6
16
22
20
28
30
20
22
24
20
10
12
14
16
22
8
18
40
36
20
12
6
8
18
28
42
44
34
18
14
28
26
24
16
24
14
10
6
14
22
10
28
36
24
38
30
10
6
12
14
16
12
10
22
32
28
20
8
20
28
16
10
8
10
14
14
12
16
54
84
66
14
24
28
16
10
10
12
12
16
20
30
34
26
20
10
12
18
16
32
44
30
12
4
2
8
20
30
28
12
16
30
22
8
20
22
6
12
20
20
18
16
18
20
14
8
12
24
30
18
8
2
6
8
8
12
14
20
20
16
18
10
8
24
34
24
30
26
10
12
20
34
40
34
24
20
14
14
20
18
22
34
26
12
18
16
24
16
8
20
22
22
26
16
6
2
6
14
10
4
22
24
34
44
64
232
255
255
255
118
48
52
50
22
6
12
16
26
42
44
20
26
32
26
18
24
10
4
16
28
24
8
4
8
12
16
20
14
8
2
6
8
8
12
6
8
12
12
16
20
16
20
26
22
14
6
10
8
4
6
8
12
8
2
6
4
16
22
18
12
10
12
12
16
22
18
4
10
6
8
4
6
10
6
4
4
4
6
2
8
6
6
4
6
6
2
6
10
8
8
4
6
6
2
4
4
6
10
10
16
20
28
26
10
6
4
8
10
26
28
24
40
140
255
255
255
255
255
112
46
20
6
6
80
220
255
255
255
224
138
76
44
22
16
24
20
14
8
10
10
6
12
14
12
18
26
32
28
26
14
4
12
34
44
38
26
20
24
40
52
48
56
64
84
94
72
84
78
58
40
30
34
22
28
32
18
4
2
10
26
34
34
42
56
64
54
34
34
50
76
78
48
28
16
22
60
250
255
255
255
255
255
255
255
6
250
255
255
255
255
255
255
255
130
68
38
38
44
44
56
78
84
60
66
94
140
255
255
255
255
255
170
120
112
102
66
28
50
122
178
238
255
255
250
255
168
46
10
62
120
112
64
26
20
26
14
16
36
54
62
82
98
114
116
100
70
62
58
72
70
26
44
48
20
38
46
48
110
138
110
156
204
255
255
255
255
112
14
102
178
224
216
140
98
114
102
74
34
44
76
80
78
102
118
114
88
54
28
102
148
255
255
255
255
255
255
255
138
216
255
255
200
124
118
130
122
114
108
96
92
84
60
32
18
42
66
70
56
54
64
58
72
66
44
26
22
38
44
38
36
42
40
36
34
32
28
24
20
20
16
4
4
8
14
8
16
36
42
28
46
36
28
24
14
26
26
20
10
12
18
8
10
2
22
24
14
34
44
26
18
14
44
48
28
16
10
10
18
16
22
70
110
90
50
52
52
114
255
255
255
255
114
4
10
10
2
2
4
0
0
0
4
8
14
24
34
44
46
50
62
68
68
66
76
66
44
58
48
26
32
32
16
16
6
20
60
82
80
60
42
46
54
46
18
22
60
78
70
48
18
10
12
14
6
6
22
30
20
14
8
6
10
10
12
20
30
42
44
24
4
4
6
10
20
24
26
42
52
42
20
22
16
16
14
26
30
14
6
12
16
18
40
42
26
40
46
34
16
20
22
12
2
4
8
8
10
18
20
18
14
4
16
12
6
18
32
36
18
40
80
86
52
18
12
18
22
6
10
18
16
10
12
18
20
12
4
14
18
12
18
38
48
38
22
14
14
8
14
22
32
26
16
12
18
30
14
14
28
30
36
26
24
40
38
36
24
10
10
8
14
16
18
6
12
16
16
18
24
22
18
10
16
34
40
32
8
20
28
24
22
24
32
38
40
36
30
18
10
26
30
34
50
38
18
32
16
26
30
6
24
26
14
16
26
20
12
26
38
34
40
38
46
48
22
94
255
255
255
232
112
58
66
58
24
16
28
40
40
32
24
18
18
18
26
16
8
4
6
14
24
14
2
10
8
14
18
20
22
18
12
10
14
10
10
10
16
24
24
18
14
10
14
16
10
8
4
8
8
2
6
14
20
18
8
0
10
20
22
14
8
4
2
6
12
18
16
4
4
2
6
10
12
8
6
6
10
10
6
6
6
4
8
12
10
10
6
12
14
8
8
10
12
6
6
8
8
12
14
10
10
14
10
20
20
16
6
4
10
30
42
18
52
204
255
255
255
255
216
92
36
18
8
10
118
255
255
255
255
210
140
80
48
32
28
26
12
18
24
26
36
32
26
16
8
12
18
16
22
18
6
10
14
14
28
36
30
24
36
40
54
54
64
60
64
70
54
64
74
62
38
18
20
14
20
40
40
22
16
28
34
32
32
42
54
54
30
12
6
30
50
38
8
22
30
24
44
58
110
255
255
255
255
255
255
255
138
64
250
255
255
255
255
255
255
255
228
178
148
140
166
188
228
222
176
132
46
66
152
172
140
86
38
40
32
46
56
78
110
116
114
194
222
120
74
228
255
200
182
218
234
182
110
82
68
72
66
66
82
84
58
6
56
122
166
170
138
114
106
132
142
96
68
48
18
40
56
32
58
116
206
255
255
255
255
255
126
50
48
64
64
66
98
142
164
152
110
62
88
110
120
122
122
126
150
162
134
110
255
255
255
255
255
255
255
255
255
144
168
255
255
220
136
84
88
110
100
84
66
48
54
68
64
38
10
22
54
72
70
70
78
64
90
98
82
60
46
50
56
50
42
32
18
32
42
40
24
22
16
12
10
6
10
10
14
12
12
36
38
10
20
32
28
26
20
28
34
30
20
16
32
26
28
16
14
24
8
20
26
16
14
2
32
58
58
38
22
12
6
26
20
28
94
118
94
58
82
158
255
255
255
255
94
2
8
8
2
2
4
0
0
0
0
0
2
6
20
46
66
82
98
104
100
86
64
44
40
54
62
50
26
2
26
40
44
32
58
56
40
22
10
10
8
8
30
48
58
58
46
24
4
16
8
14
20
24
34
32
18
20
14
6
10
14
16
40
56
52
34
8
4
4
10
20
38
38
18
4
34
46
24
6
26
30
18
14
30
30
22
20
18
30
34
20
4
10
28
32
24
18
18
2
8
12
10
4
10
16
16
16
14
18
24
14
12
46
62
62
10
30
60
74
56
30
12
4
24
22
12
16
10
8
10
16
26
26
12
10
18
22
18
12
34
32
14
6
6
4
14
10
14
20
10
16
22
10
18
32
26
20
32
26
38
48
38
52
48
34
16
4
4
8
22
28
16
8
14
26
26
18
18
12
24
34
34
22
14
22
34
28
20
16
22
32
40
42
32
14
6
12
24
26
36
24
12
38
26
20
16
14
6
20
14
10
12
10
10
36
46
36
46
46
50
32
22
146
255
255
255
216
106
48
52
52
30
24
30
32
26
12
14
16
10
2
10
14
18
16
12
16
20
16
2
8
14
16
10
2
6
14
12
8
6
8
8
6
12
20
20
14
10
2
14
26
24
22
16
10
8
6
4
6
10
12
12
10
10
16
16
10
8
4
4
6
8
12
12
6
2
6
14
14
12
6
2
4
4
4
4
4
6
8
10
10
4
8
12
12
8
4
10
10
6
2
4
2
10
16
10
6
18
16
2
6
14
18
10
12
22
40
54
44
88
232
255
255
255
255
176
72
36
14
14
58
172
255
255
255
255
214
160
98
60
38
26
20
10
12
24
40
40
30
24
20
14
18
20
10
10
16
18
8
4
4
18
32
36
40
42
38
38
38
38
24
32
38
32
46
52
32
10
14
22
20
8
14
34
36
24
16
10
18
24
28
34
36
28
36
32
38
62
66
44
14
8
14
14
46
42
38
214
255
255
255
255
255
255
238
20
162
255
255
255
255
255
255
255
255
255
255
255
255
255
255
188
132
102
100
102
88
74
82
84
88
86
102
96
76
40
76
156
255
255
255
255
255
255
206
154
176
186
146
98
104
98
110
108
98
104
122
134
128
94
28
38
68
60
68
90
134
180
166
114
84
86
104
122
92
108
202
255
255
255
255
196
232
158
82
16
78
144
182
172
158
128
100
144
170
176
170
136
62
50
126
130
100
136
255
255
255
255
255
255
255
255
164
12
136
206
238
255
210
126
58
58
60
32
26
28
24
34
48
54
50
48
48
52
74
90
106
108
90
102
104
88
64
58
68
62
44
24
10
12
22
34
40
32
22
14
14
20
20
18
10
14
14
12
24
40
30
8
14
18
18
22
28
32
40
36
32
48
34
38
30
2
24
18
6
18
16
6
4
4
20
36
44
46
40
18
14
30
20
58
110
124
102
150
222
255
255
255
255
66
6
10
10
6
2
2
0
0
0
0
0
0
2
10
30
48
60
72
74
72
66
56
50
46
52
66
68
52
30
20
10
40
68
62
34
14
14
18
8
24
56
76
80
70
54
30
6
10
6
10
18
28
38
38
28
12
6
14
14
14
18
32
44
38
20
14
8
0
12
18
16
34
44
40
28
8
24
24
20
24
36
36
22
10
16
12
10
24
28
14
6
12
12
10
14
16
12
16
10
16
18
12
4
8
10
16
20
16
18
20
12
34
44
32
16
20
30
42
46
32
20
20
16
12
22
24
18
8
18
30
28
36
42
32
20
20
26
26
12
40
42
22
14
10
12
18
16
20
30
38
26
12
30
46
32
8
16
12
14
34
32
14
36
50
50
38
14
8
14
14
28
42
34
14
26
26
6
6
4
16
22
26
20
22
42
44
20
8
10
14
24
32
34
18
12
12
12
6
2
22
26
6
28
36
26
12
6
14
10
4
18
26
20
20
36
36
20
20
20
22
12
78
194
255
255
255
206
116
70
70
58
32
24
20
18
14
8
8
8
4
12
30
40
34
26
24
22
24
16
4
4
12
20
22
22
18
10
4
2
10
18
18
24
26
24
20
14
6
4
8
14
24
28
26
16
8
4
12
18
14
6
4
12
12
12
12
8
8
4
4
6
6
12
10
4
2
12
16
6
8
8
4
6
8
16
16
12
10
8
8
6
4
14
12
6
12
14
10
6
10
8
12
10
14
10
10
12
18
12
4
4
8
14
14
20
30
50
74
72
104
232
255
255
255
255
122
44
26
8
76
154
234
255
255
255
255
234
170
96
52
28
18
18
20
22
26
24
14
12
14
18
18
26
22
12
8
12
26
28
22
16
16
22
34
34
24
16
12
10
4
10
14
14
14
24
18
18
16
16
12
26
38
26
14
34
44
36
44
52
64
78
90
88
72
54
40
40
52
64
74
74
72
74
74
76
72
52
8
108
255
255
255
255
255
255
255
86
8
94
236
255
255
255
255
255
255
255
255
255
255
216
146
106
106
130
158
200
246
236
234
184
126
120
96
64
92
138
184
255
255
255
255
255
202
72
22
50
74
62
40
46
68
86
78
58
52
58
94
150
186
164
126
116
68
66
76
82
146
172
156
138
132
144
170
150
128
234
255
255
214
202
208
242
168
84
30
88
74
58
62
166
230
236
218
192
148
84
34
220
255
255
255
255
254
255
255
255
255
255
200
96
28
14
56
106
170
246
255
255
216
128
72
66
78
94
92
98
118
132
128
110
98
98
106
116
122
124
104
106
100
84
84
90
90
80
54
20
10
12
28
54
60
52
30
16
16
18
32
28
16
10
8
8
20
26
24
22
18
10
4
4
12
18
14
30
34
32
38
18
28
32
16
8
16
10
8
6
4
6
18
20
14
12
44
58
42
10
16
16
24
86
136
160
216
255
255
255
255
208
40
8
10
10
8
0
0
0
0
0
0
0
0
2
4
8
12
14
18
18
20
20
26
40
48
50
60
72
74
64
52
70
96
94
64
28
20
36
36
26
54
94
106
98
74
44
14
2
6
20
28
26
30
34
26
22
22
18
4
10
18
24
28
32
30
18
16
6
10
16
10
2
8
16
24
30
22
36
38
18
10
22
30
30
30
32
18
12
18
12
10
10
10
12
12
12
6
8
18
20
24
34
34
18
20
10
4
18
20
4
16
10
20
50
58
52
14
32
56
60
28
6
20
28
18
6
20
30
18
28
32
20
30
38
42
38
38
42
36
20
32
24
10
6
12
14
16
18
24
28
22
6
38
56
48
26
28
16
4
10
18
14
4
14
24
32
34
26
12
20
32
16
16
32
16
18
38
32
18
12
16
22
26
16
6
28
40
28
8
6
10
16
30
34
18
24
30
24
16
14
12
16
12
18
26
28
18
20
16
12
12
12
6
12
32
36
28
18
14
14
14
24
100
216
255
255
255
184
130
72
64
52
32
30
24
22
22
18
12
8
14
30
40
38
26
20
18
12
12
8
2
2
8
14
16
18
20
14
4
4
14
18
10
18
20
24
28
32
28
10
10
6
10
22
26
20
14
10
18
18
14
12
12
18
18
14
12
8
10
10
8
8
18
20
10
2
8
14
6
10
14
10
6
4
8
14
12
8
10
8
12
12
10
12
6
6
10
12
10
8
2
6
8
10
6
2
6
12
14
6
2
4
2
8
14
24
36
58
84
80
112
254
255
255
255
230
62
18
16
38
152
254
255
255
255
255
255
240
138
56
24
14
12
24
30
26
20
10
2
2
2
4
10
22
16
18
18
14
24
36
38
28
14
24
24
20
14
8
10
10
10
8
8
8
4
8
14
18
28
28
30
18
10
22
8
20
40
44
62
68
76
78
94
90
72
62
64
76
92
100
110
128
138
134
144
158
170
178
180
182
168
162
255
255
255
255
255
255
255
255
255
255
255
222
204
206
182
144
120
108
138
184
186
166
166
254
255
255
255
255
255
255
255
244
196
166
126
128
108
194
254
255
240
174
108
48
36
56
56
54
38
40
56
56
32
28
22
8
32
42
82
72
26
10
38
98
114
82
70
98
96
82
64
62
90
96
54
154
236
255
255
255
255
242
200
190
168
228
255
230
255
255
255
212
130
70
112
255
255
255
255
255
255
255
255
240
222
255
255
255
255
176
66
22
44
86
164
244
255
255
255
224
142
98
122
126
130
160
192
200
182
162
160
164
162
144
110
88
70
62
108
130
128
120
104
80
44
6
4
16
40
58
46
28
8
16
28
32
26
12
10
12
6
20
30
34
32
26
14
14
10
6
10
14
8
8
8
8
12
8
14
32
34
28
24
14
10
4
6
14
16
8
18
20
14
40
42
24
8
22
22
66
150
208
224
242
255
255
255
168
32
6
8
8
6
0
0
0
0
0
0
0
2
6
8
8
8
8
16
22
20
14
14
28
36
40
46
64
84
88
76
92
90
72
50
32
36
38
4
52
96
104
80
50
34
34
22
10
30
38
32
24
26
28
20
20
24
26
20
4
16
26
30
38
40
32
22
8
20
14
4
20
28
24
10
12
24
34
26
2
18
20
8
6
10
6
6
12
18
14
14
12
12
18
20
18
16
18
18
12
6
10
26
34
20
12
8
8
24
16
18
40
54
48
24
8
24
46
62
54
14
14
16
22
28
20
2
26
32
24
12
8
12
16
28
36
46
54
42
22
6
26
28
16
4
6
14
22
20
14
14
36
50
46
26
18
36
34
16
6
16
18
10
30
38
32
22
26
20
6
36
44
26
24
18
16
30
42
38
28
22
24
22
18
22
38
40
26
12
8
8
12
24
32
24
42
48
38
34
30
16
20
18
12
10
36
40
20
12
18
6
14
34
42
40
24
18
22
20
30
32
40
116
244
255
255
254
172
126
92
72
44
30
32
30
34
36
24
12
18
28
32
28
18
6
6
6
2
4
10
8
4
6
4
4
6
8
10
4
4
12
14
12
24
14
6
18
34
40
26
4
8
12
18
16
14
12
14
14
8
6
12
20
24
20
14
12
4
8
14
14
14
24
16
6
8
14
10
6
16
8
2
6
4
6
10
10
8
4
4
16
18
18
22
10
6
6
8
8
14
14
10
4
4
6
6
6
8
10
8
4
4
12
18
20
30
44
62
86
92
146
255
255
255
255
152
16
2
6
76
236
255
255
255
255
255
255
188
84
24
16
12
12
28
26
14
12
8
6
6
4
6
12
14
8
12
18
20
30
26
38
32
12
12
6
18
22
16
8
4
8
14
16
12
4
8
4
12
28
34
50
60
40
28
24
24
34
50
54
56
62
54
72
76
60
58
90
108
130
136
154
160
146
148
160
192
228
255
255
255
255
255
248
166
255
255
255
255
255
255
255
255
255
255
255
255
255
255
255
255
166
54
148
160
202
255
255
255
255
255
255
255
255
255
255
240
210
150
60
34
82
96
92
76
66
62
56
54
26
56
88
104
122
138
118
78
46
44
58
92
144
142
106
90
100
104
64
64
70
104
114
110
96
88
94
80
38
156
255
255
226
144
104
108
174
240
244
216
255
255
255
255
186
66
58
146
255
255
255
255
255
255
192
255
255
255
188
255
255
255
255
255
162
30
54
42
108
204
255
255
255
255
212
134
126
110
114
150
170
158
124
124
110
104
82
48
38
86
144
176
180
158
126
108
82
56
30
20
12
18
38
52
36
22
14
14
26
38
42
26
12
8
10
26
30
34
30
18
2
12
18
12
10
12
14
14
10
8
12
12
4
20
32
42
42
42
38
22
12
18
28
30
32
20
12
34
36
28
10
28
30
42
146
246
255
226
252
255
255
150
30
4
4
4
4
0
0
0
0
0
0
0
6
14
14
12
14
8
12
30
36
32
28
32
22
26
28
40
64
80
74
54
40
34
38
38
36
18
64
114
118
80
30
26
24
24
14
20
36
30
16
14
16
20
10
8
12
14
18
12
16
20
24
28
28
26
26
20
20
8
20
34
30
20
16
16
18
18
4
12
18
16
12
16
22
28
20
6
10
20
20
10
14
24
24
22
22
24
28
28
32
40
48
36
6
12
12
8
16
26
50
84
100
94
88
84
20
40
56
48
10
18
12
0
14
20
12
18
34
32
20
20
14
4
6
14
30
46
40
24
6
8
12
14
16
20
28
38
38
22
16
26
22
26
26
10
14
30
30
10
10
22
22
30
24
18
14
20
28
18
8
22
28
20
22
20
12
22
34
36
30
24
20
4
14
28
34
22
12
10
14
18
20
10
30
54
56
36
40
28
6
8
14
20
40
44
22
6
12
18
16
22
24
20
12
6
2
0
4
38
44
36
150
255
255
255
224
152
110
80
72
60
34
26
24
38
42
24
30
34
28
18
12
12
12
8
4
6
8
10
14
12
6
4
10
8
8
8
6
10
10
8
16
22
10
12
6
10
24
24
14
6
14
24
26
24
22
20
14
8
10
20
22
16
8
10
14
8
8
4
16
26
30
18
4
10
12
6
12
18
14
10
10
8
6
6
10
14
14
8
12
6
10
14
8
2
4
6
2
4
10
14
14
12
8
4
2
6
10
4
10
24
30
32
32
46
64
78
106
136
214
255
255
255
255
96
4
2
2
130
255
255
255
255
255
255
198
104
56
30
28
28
24
24
8
6
10
8
2
4
10
10
12
14
12
10
6
8
12
4
24
26
10
10
20
30
24
4
20
28
18
16
12
10
6
18
14
28
38
26
18
42
54
52
58
62
64
62
58
58
60
48
66
86
82
108
132
126
112
114
126
118
110
110
106
148
196
222
206
188
184
148
70
40
154
255
255
255
255
255
255
255
255
255
255
255
255
255
255
255
255
200
112
88
130
228
255
255
255
174
234
246
218
182
176
206
228
234
200
128
130
156
156
130
104
90
84
96
122
136
120
88
82
88
90
84
76
74
90
110
100
52
6
40
54
114
170
194
222
216
188
152
110
78
62
38
18
80
142
150
128
158
158
162
184
178
140
136
144
164
148
70
50
148
186
220
255
255
255
255
54
182
148
90
242
255
255
202
255
255
255
255
255
116
98
42
20
128
218
255
255
255
252
178
120
88
50
40
46
62
80
110
124
150
180
216
246
255
255
228
182
132
84
54
60
48
22
22
34
26
36
40
34
24
12
8
20
28
30
20
6
10
10
18
18
18
10
6
14
8
16
16
6
6
6
8
20
22
20
18
16
14
16
20
20
32
40
32
20
14
10
12
12
2
16
22
28
34
18
26
32
16
118
240
255
255
255
255
255
138
26
4
6
6
8
4
2
0
0
0
0
0
6
10
4
0
4
10
8
18
26
28
20
14
6
14
16
24
38
44
50
38
14
32
42
34
12
54
120
136
102
54
18
4
10
4
12
22
20
10
8
8
10
20
20
28
24
16
6
10
12
6
6
14
14
14
22
26
22
10
28
26
8
10
22
18
12
6
8
12
8
14
16
16
16
10
8
16
18
14
20
16
20
26
12
8
10
10
10
12
24
32
34
16
10
20
18
10
20
58
90
110
102
80
78
76
16
36
52
46
10
20
20
14
12
10
8
10
28
32
22
14
10
10
12
14
14
26
32
26
20
34
24
14
24
24
28
34
38
26
12
8
20
28
30
24
10
12
28
26
10
14
14
6
16
28
22
14
18
22
22
16
4
6
14
8
6
18
24
30
36
30
16
4
16
28
32
16
10
16
14
16
16
8
32
44
34
18
34
40
18
18
14
36
40
18
8
16
6
18
22
16
6
12
10
2
16
20
22
48
40
32
196
255
255
255
174
124
110
78
58
58
48
44
38
40
38
16
32
42
40
30
18
12
14
12
4
10
10
4
14
16
10
4
8
6
6
4
10
14
8
4
10
12
4
12
16
20
24
18
12
10
14
22
26
26
22
18
10
6
16
20
10
4
4
10
18
12
20
10
8
24
36
30
14
6
14
10
16
22
24
20
14
10
6
8
10
12
16
12
12
12
20
16
6
2
6
4
6
8
4
4
8
8
4
0
0
6
8
6
24
34
30
28
32
58
82
90
122
174
255
255
255
255
255
70
2
2
30
208
255
255
255
255
152
122
98
70
62
48
38
28
18
6
10
14
12
8
6
4
8
14
12
0
16
20
22
26
28
24
36
38
28
22
26
26
12
14
36
32
24
22
22
4
14
18
12
22
42
52
40
14
32
52
62
66
62
58
64
68
72
66
70
94
118
138
128
94
76
68
74
64
70
76
86
116
126
98
52
50
90
132
134
110
84
76
68
48
32
24
34
34
32
18
8
28
34
58
108
190
255
255
255
238
255
255
255
255
255
255
255
255
255
255
162
98
156
200
216
184
190
202
188
162
148
148
152
160
158
126
116
98
92
118
160
188
190
168
134
104
60
28
22
44
66
98
130
156
158
128
100
60
28
64
78
90
124
182
248
255
255
255
202
220
255
255
255
202
144
126
168
210
244
248
214
178
168
255
255
255
255
255
255
255
252
255
255
255
210
255
255
255
255
255
255
255
234
196
220
210
172
122
88
66
82
114
134
148
184
228
255
255
255
255
255
255
255
255
234
176
122
78
36
22
64
76
48
36
38
34
38
32
18
18
10
14
24
32
34
22
6
12
12
22
24
30
30
20
2
14
26
26
16
16
12
36
50
48
42
36
20
4
12
22
14
4
22
26
22
14
10
8
8
10
8
20
32
42
32
18
34
16
78
214
255
255
255
255
255
114
20
4
8
4
8
6
4
2
4
4
4
2
6
14
14
12
14
14
6
2
6
12
12
6
6
6
8
24
22
16
28
30
14
40
36
6
50
114
148
130
80
52
50
38
22
22
22
14
0
12
16
16
22
32
38
30
20
8
4
10
10
14
24
30
24
20
18
22
26
20
24
20
18
22
24
14
8
4
12
6
6
14
28
32
20
18
28
24
8
6
2
12
20
12
12
20
18
16
12
14
20
16
10
14
22
10
6
24
58
80
84
80
62
48
52
60
16
38
56
46
10
12
10
2
6
12
12
14
24
24
16
8
12
20
24
28
22
24
24
28
44
48
42
46
30
12
26
24
20
26
22
20
18
12
8
14
12
4
18
26
26
22
16
22
18
30
26
14
4
8
16
30
34
22
8
4
8
16
22
24
30
36
34
20
22
34
34
14
4
16
26
28
22
8
32
50
38
42
70
54
22
18
8
26
18
16
16
8
26
24
16
28
36
28
12
14
24
14
8
34
30
40
224
255
255
238
122
98
106
74
52
44
36
40
42
46
34
6
22
34
30
18
10
4
8
16
12
10
12
2
8
12
12
4
12
12
10
6
8
8
6
10
10
8
8
6
4
14
24
26
20
14
12
16
24
22
16
12
6
8
18
14
4
12
4
16
16
2
14
16
8
14
16
20
20
18
20
20
14
2
6
10
10
10
10
14
10
12
16
12
10
12
14
10
4
4
6
2
8
8
10
10
10
14
12
8
8
14
18
18
26
20
10
14
24
74
104
100
126
192
255
255
255
255
230
58
2
20
94
255
255
255
255
130
48
82
108
96
76
44
18
8
12
14
14
4
6
10
10
10
10
8
10
18
24
20
22
30
28
30
42
48
34
16
12
12
10
32
42
22
16
28
22
14
12
10
16
24
24
22
40
42
36
28
18
20
26
42
68
82
92
94
100
118
120
106
78
60
58
58
64
60
64
84
110
118
88
28
44
98
128
124
78
30
8
14
30
32
46
68
96
118
126
118
104
104
86
54
34
20
88
138
142
122
118
146
208
255
255
255
255
255
200
138
76
54
52
92
120
116
110
94
58
18
2
8
10
14
14
8
56
146
255
255
255
255
255
255
248
214
228
255
255
255
255
255
255
255
250
172
198
234
252
246
230
228
255
255
255
255
188
62
92
178
218
190
166
188
202
255
255
255
255
244
180
120
62
160
255
255
255
255
255
255
255
255
255
194
90
206
255
255
255
255
255
255
255
255
255
255
255
255
255
255
255
255
255
255
255
255
255
255
240
208
180
156
140
124
102
78
60
60
60
44
50
70
64
34
16
26
30
24
14
16
20
24
34
44
50
46
42
38
30
32
26
22
22
30
30
18
22
28
24
28
24
42
48
38
30
38
36
28
16
10
10
8
16
18
20
16
8
4
4
8
10
8
14
32
34
4
22
22
34
180
255
255
255
255
206
72
14
2
10
4
8
4
4
16
24
22
24
16
2
6
8
8
8
6
2
0
0
4
10
12
10
10
10
16
8
6
22
26
24
36
14
40
110
156
158
122
68
52
54
44
28
22
22
22
22
8
4
4
14
24
18
20
20
12
10
14
10
16
24
24
14
14
12
8
14
18
14
4
10
22
24
14
2
14
16
8
8
6
20
30
18
18
26
14
10
2
8
6
4
12
20
12
2
12
12
2
20
24
26
40
20
42
86
98
86
52
42
84
80
80
104
110
12
36
54
44
12
24
26
18
18
16
14
14
24
24
20
10
22
26
20
20
18
6
10
26
34
20
26
44
44
36
44
24
6
14
20
22
20
18
14
18
16
6
12
16
18
24
22
20
18
28
28
20
10
18
14
12
30
34
18
2
14
14
16
16
26
34
38
30
30
38
34
20
10
2
14
32
42
24
16
54
54
58
70
36
28
24
10
32
20
8
26
14
16
38
36
36
30
48
38
22
24
8
12
38
30
44
240
255
255
194
80
76
106
78
52
44
34
36
36
44
36
12
36
46
36
20
6
0
2
10
8
6
14
10
10
6
10
4
14
14
12
12
18
12
10
14
8
2
8
10
14
14
22
22
8
2
10
16
26
30
28
22
14
12
14
12
8
6
8
16
12
6
8
8
18
28
22
6
12
20
18
14
4
16
18
16
6
6
10
8
6
12
14
8
4
4
6
6
6
8
4
4
8
6
6
10
16
18
14
12
12
14
16
16
18
10
6
16
44
104
124
104
128
216
255
255
255
255
186
42
6
50
162
255
255
255
226
54
28
98
136
106
62
20
8
18
22
20
14
10
12
10
10
6
4
4
18
26
22
12
10
20
20
30
44
48
28
24
6
10
10
26
48
38
16
16
18
6
6
20
28
34
28
18
16
38
56
66
58
46
36
32
58
68
70
70
72
64
40
28
28
24
28
38
38
40
56
76
86
66
32
48
98
114
98
68
58
38
20
12
28
28
38
34
28
16
28
36
28
18
10
22
42
50
44
50
52
54
62
80
102
100
100
78
54
38
30
48
52
68
76
48
10
18
12
42
82
114
126
124
130
130
134
124
94
178
255
255
255
255
255
255
255
255
255
255
255
255
255
255
255
255
255
255
255
255
255
255
255
252
255
255
232
114
48
192
255
255
254
172
34
114
222
255
255
224
172
134
86
46
20
34
82
118
120
102
174
255
255
255
210
128
76
138
255
255
255
255
255
255
255
255
255
255
255
255
255
255
255
255
255
255
230
196
162
128
88
48
8
18
20
12
22
32
38
54
68
80
102
100
66
28
18
24
26
26
18
6
10
22
34
44
50
48
42
36
38
34
24
14
10
22
36
38
34
26
16
26
24
34
32
16
2
16
28
36
40
32
18
10
18
22
20
12
14
18
20
14
16
14
12
18
26
10
14
22
30
124
255
255
255
255
138
32
24
8
8
6
8
4
10
26
34
24
34
28
10
0
0
0
0
0
0
0
0
2
8
12
12
14
8
8
6
2
20
22
26
20
22
102
166
174
136
76
24
24
34
28
16
16
20
22
34
20
6
8
18
26
18
26
28
18
6
10
20
26
26
16
4
8
8
4
6
8
10
12
12
20
18
8
8
16
14
12
18
12
8
22
14
16
18
4
14
6
8
6
8
20
12
12
16
16
24
12
8
12
36
42
48
80
112
94
74
48
10
78
110
148
164
148
14
40
56
42
4
30
30
22
32
38
32
6
16
28
36
28
28
18
6
12
16
18
16
4
16
36
38
18
16
28
24
22
22
12
8
20
18
12
8
16
12
2
16
14
8
8
6
4
14
28
34
26
10
16
36
32
30
26
18
12
16
12
20
26
30
30
26
16
18
26
30
28
18
22
18
6
28
36
16
22
32
34
34
6
22
34
20
26
16
6
16
20
12
26
36
40
22
8
28
24
24
24
16
38
30
44
248
255
255
166
46
60
108
98
74
52
34
34
36
40
26
4
28
34
22
10
2
2
10
24
26
20
26
20
2
8
14
8
12
12
12
10
20
16
12
12
2
4
2
16
30
26
16
16
18
18
20
18
14
14
18
18
16
12
10
8
2
6
12
10
8
6
4
6
20
20
10
12
10
6
2
4
14
12
4
2
2
2
6
8
8
14
14
8
4
4
6
6
6
14
12
6
6
6
6
4
4
6
6
8
8
8
6
6
18
28
32
54
90
134
136
112
154
255
255
255
255
255
132
22
12
80
210
255
255
255
184
40
24
96
122
78
32
6
8
10
10
10
16
24
28
22
12
6
6
4
14
20
14
4
2
4
18
38
48
44
24
40
32
14
6
24
30
16
12
26
28
24
18
14
8
10
4
8
14
22
42
54
48
42
40
48
68
72
64
60
62
68
76
66
40
24
28
32
34
40
52
62
62
72
118
150
162
148
118
78
40
24
24
30
30
26
26
36
44
42
26
6
20
24
24
22
2
34
54
66
66
56
56
66
80
90
84
70
44
20
8
36
68
92
84
64
58
32
54
76
88
82
66
50
56
56
80
128
200
255
255
255
255
255
150
132
255
255
255
255
255
255
255
255
255
255
255
255
255
255
255
202
166
146
108
80
22
58
114
108
70
72
94
110
112
152
164
132
68
12
42
60
54
50
54
62
68
58
44
42
58
78
92
90
58
52
48
42
46
68
106
148
176
194
196
204
208
196
178
158
140
118
98
74
54
48
52
60
76
80
84
84
66
40
40
50
56
56
52
52
72
100
104
80
52
32
34
36
36
40
42
42
28
10
14
16
16
12
10
14
22
26
20
6
14
14
24
28
34
26
6
6
16
22
18
18
12
2
10
18
28
32
32
30
18
16
16
8
16
14
24
26
12
10
10
16
20
14
16
16
58
60
255
255
255
255
158
50
38
20
2
2
2
4
12
22
26
12
26
24
10
0
0
0
0
0
0
0
0
0
2
4
4
8
8
4
2
4
8
8
10
14
82
172
204
156
68
10
42
46
40
22
6
14
12
12
24
16
2
4
10
22
34
54
60
48
46
16
42
48
34
20
12
8
10
8
12
10
6
8
12
20
14
10
12
12
10
4
18
18
2
22
24
22
14
2
8
6
10
8
10
18
12
18
14
4
20
18
10
8
24
20
46
110
120
66
14
74
74
86
172
210
194
144
16
42
56
40
6
38
30
12
20
32
42
30
8
18
30
32
16
8
30
38
32
18
4
28
48
44
32
24
12
8
2
12
20
18
28
36
28
32
32
22
10
14
26
24
20
16
16
12
18
22
26
26
20
8
18
30
30
22
6
4
6
6
16
28
34
34
24
10
14
20
26
26
14
20
32
28
22
28
28
12
10
12
26
22
12
16
20
20
8
8
12
8
28
40
24
28
44
32
6
18
18
34
26
40
26
42
255
255
255
148
22
56
124
116
78
46
32
36
42
48
32
12
32
32
20
8
2
4
12
28
30
18
28
26
10
8
14
10
8
8
12
6
14
6
8
8
2
2
10
24
32
22
8
8
14
8
14
22
30
30
26
20
14
10
8
6
8
12
8
6
4
6
12
12
14
10
8
6
12
14
12
10
10
4
6
4
4
14
14
14
8
12
14
10
4
6
8
8
6
12
14
6
2
4
8
10
12
14
8
8
6
8
4
8
32
52
64
84
102
126
126
122
198
255
255
255
255
220
78
8
16
112
255
255
255
255
156
44
38
96
108
62
26
14
22
24
18
10
2
12
24
32
30
22
16
2
14
22
22
16
18
28
36
44
42
30
12
28
30
18
12
24
18
6
26
36
36
22
20
2
12
22
22
12
12
2
26
46
48
40
22
38
68
90
100
104
102
124
118
120
86
56
62
80
82
90
102
120
138
164
176
174
156
130
102
72
54
46
38
32
26
20
22
36
42
50
58
40
8
34
44
26
32
30
34
34
16
8
36
58
42
12
36
62
62
58
58
60
68
72
52
58
64
46
48
50
38
38
40
48
50
46
32
22
116
250
255
255
255
255
255
255
218
255
255
255
255
248
255
255
255
255
255
255
255
255
255
214
124
84
44
28
38
28
80
156
210
244
252
244
178
126
84
52
70
120
132
116
94
82
76
70
64
46
30
26
22
16
6
18
14
14
44
62
82
112
136
138
120
112
114
138
140
124
104
90
84
82
76
74
68
66
62
36
4
38
74
106
124
114
82
86
88
72
56
44
58
76
64
62
64
40
38
40
42
40
38
48
42
28
30
38
44
42
34
30
32
34
28
18
26
34
42
34
28
32
24
18
10
10
14
14
14
10
10
8
10
20
28
36
34
30
26
10
8
6
20
28
20
12
8
10
12
16
26
20
66
20
242
255
255
255
204
72
42
22
4
4
2
2
10
22
32
28
32
22
8
0
0
0
0
0
0
0
0
0
0
0
0
2
4
6
2
6
0
2
14
70
158
224
198
96
46
76
66
48
28
14
4
8
6
16
20
20
8
10
8
18
38
54
54
50
62
32
42
38
10
16
14
10
12
4
12
16
24
30
22
8
12
10
6
8
14
8
14
16
16
18
26
18
10
8
8
12
14
12
12
22
24
10
10
18
20
10
4
2
24
30
12
80
142
144
78
64
110
138
218
238
188
108
20
46
58
36
16
42
20
12
18
6
26
42
40
26
6
20
30
40
52
44
24
22
28
36
22
10
28
24
10
10
6
6
16
12
18
14
8
18
38
38
26
26
36
28
10
10
10
8
26
36
38
26
10
18
18
12
6
8
12
16
12
10
10
12
24
34
32
18
22
18
16
24
14
2
18
24
12
14
24
16
12
14
16
20
18
16
12
4
6
12
10
18
34
30
20
12
14
30
28
18
4
24
20
26
18
52
255
255
255
134
32
50
126
114
66
36
34
44
48
44
22
8
30
30
20
8
6
8
24
34
26
6
14
24
18
8
4
8
6
4
10
20
26
12
14
10
10
8
8
18
28
18
4
16
22
24
34
40
36
20
6
14
12
14
16
14
12
10
8
12
16
18
16
10
6
6
6
2
4
8
8
4
2
2
4
8
18
20
10
12
10
12
18
12
4
6
10
10
2
8
12
6
2
2
4
4
8
16
18
14
8
14
10
22
48
62
68
72
74
92
108
144
252
255
255
255
255
138
38
4
20
160
255
255
255
255
116
42
52
100
106
68
38
20
22
26
24
24
26
20
10
16
28
28
26
18
24
40
44
48
56
58
46
38
28
10
14
34
36
20
10
32
38
36
36
24
8
12
20
12
6
4
12
16
22
40
62
72
58
28
10
26
46
60
72
76
72
70
68
92
86
66
94
102
90
94
102
134
154
142
126
110
88
62
32
8
2
4
6
16
24
24
26
26
16
14
42
54
38
52
42
10
26
40
38
18
22
40
30
64
60
22
48
62
50
38
30
22
20
24
14
26
44
40
26
20
36
40
48
52
50
56
74
74
52
48
92
116
236
255
255
255
255
255
255
255
138
54
58
58
68
96
160
255
255
255
255
255
192
100
66
70
108
152
174
170
154
120
126
150
158
120
60
20
50
60
54
52
58
64
64
60
54
36
24
22
28
44
56
68
80
58
32
12
26
22
42
62
54
34
38
48
46
34
20
14
8
20
32
42
38
28
26
26
28
46
64
70
92
96
72
58
72
52
54
34
18
36
24
14
34
28
26
30
28
14
8
20
20
14
24
30
26
16
10
14
18
22
32
56
78
70
50
10
30
42
30
28
24
20
20
16
14
16
10
4
2
12
20
26
30
28
26
16
6
8
18
20
18
16
10
8
4
12
28
16
58
4
208
255
255
255
230
86
48
14
12
12
6
0
2
6
10
10
10
6
2
0
0
0
0
2
4
4
4
2
0
0
0
0
0
4
6
4
4
14
68
152
220
222
134
36
76
88
38
30
22
12
14
20
16
4
22
36
34
26
20
22
26
28
20
10
38
26
16
44
38
40
18
18
16
6
12
26
42
46
44
34
14
4
6
8
12
8
28
32
26
10
12
8
10
14
18
18
12
6
8
8
20
14
14
10
12
24
28
14
14
22
28
28
48
90
122
112
102
154
228
234
164
82
20
48
60
38
24
42
20
34
24
20
10
32
52
52
34
34
40
42
40
20
16
28
34
14
22
48
46
26
10
2
4
4
12
4
8
16
18
10
28
40
32
18
26
12
12
18
6
18
32
36
32
20
6
14
20
28
22
16
12
14
10
4
8
16
18
18
26
16
8
2
10
22
26
16
6
10
8
4
10
12
10
10
6
6
8
10
12
12
4
6
4
20
34
26
24
32
22
18
18
26
18
12
14
18
16
68
255
255
255
126
56
36
132
118
62
34
36
44
44
32
12
18
38
36
24
10
10
6
16
34
36
22
22
22
12
10
2
4
8
8
8
16
14
10
18
16
8
14
4
10
24
22
16
26
26
26
34
36
24
4
4
14
18
20
18
12
6
6
12
16
16
12
6
4
4
2
4
4
0
4
4
0
0
2
8
12
20
18
8
10
8
12
18
10
6
8
12
10
2
8
8
2
8
10
8
8
16
24
24
16
10
16
14
34
54
60
62
64
70
98
142
214
255
255
255
255
212
70
14
4
34
214
255
255
255
174
106
80
64
90
90
62
38
20
24
28
28
28
32
36
24
8
16
26
26
26
42
56
58
60
58
44
40
22
16
10
26
44
30
16
40
46
52
42
26
12
16
28
26
12
4
10
14
18
28
44
56
52
24
10
32
36
34
36
38
38
26
14
28
52
60
70
92
86
66
66
82
104
96
70
60
40
30
12
12
16
18
18
10
12
20
20
20
12
16
20
20
16
22
26
12
10
22
30
44
34
36
32
8
42
54
28
56
56
34
16
6
10
20
36
34
14
10
24
20
4
12
26
30
32
30
34
52
68
88
124
170
184
154
98
186
255
255
255
255
255
255
255
120
32
0
0
8
66
202
255
255
255
240
120
88
174
198
192
138
110
56
44
48
22
60
86
80
56
40
42
48
46
44
54
60
60
50
34
32
40
62
90
100
88
104
102
90
84
82
76
94
96
86
72
76
94
96
84
76
82
86
86
92
92
104
94
60
42
46
54
48
26
38
54
50
42
56
28
46
38
0
36
40
22
22
4
8
12
16
18
24
30
14
8
20
14
12
24
26
14
4
16
42
62
72
48
68
44
16
40
36
32
30
22
20
20
22
16
8
4
4
10
18
24
28
28
26
20
14
12
16
18
20
18
10
4
4
6
22
6
58
12
176
255
255
255
255
116
52
4
12
14
8
0
0
0
0
2
4
4
4
2
0
0
0
4
6
4
6
4
0
0
0
0
0
2
6
2
18
74
158
224
226
154
36
62
98
68
16
22
14
8
18
22
24
16
18
24
32
34
24
4
18
38
38
22
28
24
18
24
30
22
18
20
16
12
18
24
28
18
22
32
28
18
8
10
10
12
22
20
10
8
10
6
8
8
10
6
6
2
6
4
12
20
14
8
32
28
34
28
12
16
40
78
130
176
184
142
120
162
224
226
170
110
16
44
58
44
30
56
32
32
10
20
26
18
40
52
44
20
24
24
20
10
28
30
26
20
42
42
22
30
22
16
16
10
12
14
8
14
28
24
16
30
30
6
20
20
14
16
26
28
26
24
16
6
10
16
8
18
18
18
10
16
24
24
20
16
10
6
14
8
12
8
10
14
24
24
14
4
4
8
6
6
8
6
6
14
30
38
28
12
14
14
16
22
36
28
16
22
22
14
16
10
18
10
10
20
16
90
255
255
255
102
80
24
136
128
64
30
28
36
38
24
4
20
34
30
20
8
12
14
14
14
22
20
22
22
12
6
6
8
10
14
16
14
14
16
22
14
4
6
12
26
36
34
26
16
2
2
14
16
6
2
6
22
30
24
10
4
6
8
14
10
4
6
4
4
2
6
8
2
4
6
4
2
4
6
14
14
14
14
8
12
8
6
14
6
4
8
12
10
2
8
14
12
20
16
12
4
12
18
16
8
6
10
14
36
54
62
72
88
104
148
220
255
255
255
255
255
134
26
4
4
76
255
255
255
226
118
78
84
72
68
62
42
28
20
22
30
34
30
26
30
24
14
2
18
22
40
56
64
58
44
26
6
16
14
10
16
38
46
24
52
60
38
34
28
20
18
18
16
10
8
10
8
16
34
46
40
28
26
28
44
46
38
28
30
30
26
22
20
30
44
46
64
68
54
38
40
48
46
26
14
26
26
16
8
8
16
22
22
14
14
16
14
14
6
8
22
28
26
28
24
20
16
18
16
28
30
16
10
28
34
32
38
64
52
26
10
4
10
18
12
20
28
16
6
20
22
22
18
12
24
16
22
38
40
16
24
56
80
98
90
54
78
148
255
255
255
255
255
255
168
28
0
8
46
114
206
255
255
186
90
132
158
100
44
56
110
110
80
42
28
46
76
90
76
58
50
54
64
68
70
68
56
36
36
36
52
64
66
50
32
38
68
86
96
88
60
52
48
44
30
20
36
56
64
58
44
30
20
22
28
36
64
60
28
30
36
36
26
30
14
30
40
36
14
36
46
30
28
14
10
20
16
20
20
18
14
14
14
4
20
20
4
18
16
30
28
12
16
54
102
102
44
36
60
38
10
38
42
34
20
16
20
28
26
14
6
10
10
16
26
32
32
28
20
16
14
16
18
20
18
10
4
8
6
28
10
60
24
154
255
255
255
255
168
46
12
12
14
8
0
0
0
0
4
8
8
10
8
2
0
0
4
6
4
6
4
0
0
0
2
2
2
2
22
86
170
234
234
160
48
54
100
88
46
14
14
12
16
18
14
28
34
32
18
4
18
20
22
20
38
34
16
20
18
16
22
28
22
16
16
14
18
18
14
28
38
38
18
6
22
14
10
10
10
12
26
24
2
18
22
18
10
16
20
12
6
10
4
10
16
20
14
20
20
8
28
24
22
56
120
186
222
214
174
158
188
234
240
206
162
20
46
56
42
4
34
20
2
24
40
34
22
24
40
46
28
16
20
16
10
18
14
20
18
24
16
4
20
20
22
20
22
26
16
10
24
26
16
6
20
26
16
12
20
16
30
28
18
12
26
32
26
4
16
20
22
18
10
10
30
34
24
14
10
6
8
20
24
18
6
4
10
18
20
16
12
8
6
12
16
12
4
6
20
36
38
30
38
26
6
20
28
28
16
0
4
8
14
16
10
8
10
2
18
8
128
255
255
255
56
90
20
142
128
54
22
30
36
36
16
8
22
22
28
26
18
16
6
8
8
10
12
20
20
10
4
8
10
6
10
12
6
8
14
16
6
8
8
20
34
38
30
16
4
6
8
16
16
10
8
10
22
30
22
6
8
8
14
14
6
2
4
4
4
8
8
6
6
6
4
2
2
2
0
8
14
14
12
0
10
12
4
12
10
8
12
10
8
2
6
10
16
22
12
16
10
10
16
12
4
2
10
26
46
64
74
86
108
124
168
244
255
255
255
255
224
90
12
4
40
150
255
255
255
196
118
90
86
72
68
62
42
28
24
22
24
32
36
32
30
22
16
12
20
40
62
68
64
52
36
20
12
12
8
6
4
26
48
44
58
40
6
22
28
20
10
20
28
22
24
22
14
10
10
38
50
42
36
48
42
32
24
16
26
36
38
34
28
24
38
50
56
48
32
24
26
18
4
22
16
2
12
20
14
20
26
20
12
4
8
16
16
16
8
12
20
22
18
26
28
18
4
6
8
8
20
22
16
18
4
24
52
60
44
24
18
18
24
24
12
6
14
24
16
6
8
18
24
28
28
22
60
74
60
36
46
36
22
38
46
94
122
106
78
206
255
255
255
255
255
255
206
146
192
255
255
255
255
142
44
74
52
60
134
178
182
136
76
44
54
80
94
88
68
60
62
66
68
66
64
50
28
18
24
34
46
44
34
34
34
18
18
36
58
68
44
14
14
16
10
10
10
18
24
32
28
18
6
24
36
20
22
44
34
20
20
26
26
22
16
20
18
8
8
22
42
44
32
16
14
18
10
4
12
12
8
10
22
16
10
14
20
18
4
14
20
10
10
28
78
114
106
44
28
56
34
12
38
34
18
12
16
22
20
16
16
14
20
18
14
12
26
30
22
16
10
14
18
20
22
14
8
4
16
38
22
56
28
122
255
255
255
255
206
56
8
10
10
6
0
0
0
0
4
8
6
8
10
4
0
0
2
4
4
4
2
0
0
0
4
2
4
6
66
170
240
238
160
46
50
96
86
54
26
6
4
10
14
12
6
18
28
34
30
12
10
24
22
12
24
30
12
6
12
28
38
30
30
18
6
20
28
22
6
24
38
38
44
28
6
20
18
16
8
10
16
26
24
24
24
28
22
26
22
24
20
8
6
14
10
8
2
16
26
18
12
28
20
72
162
226
242
234
216
218
246
255
255
226
178
26
44
52
52
24
38
34
36
48
42
26
14
6
20
34
34
22
32
24
18
28
26
18
4
18
20
8
12
16
18
18
28
38
36
14
14
28
24
6
14
26
22
10
10
26
28
12
14
10
6
22
28
18
12
8
2
12
14
12
24
24
6
12
20
20
18
24
38
44
32
12
6
16
16
10
10
14
10
16
16
14
14
4
22
40
36
4
32
46
36
30
18
28
30
16
10
8
6
2
14
4
8
10
12
22
182
255
255
255
14
92
20
144
130
58
26
32
48
38
10
16
24
14
24
30
30
32
32
26
14
6
8
14
10
8
8
8
18
12
22
24
12
14
8
6
4
8
16
16
20
16
6
2
4
10
14
16
6
6
12
24
28
26
16
10
12
8
20
14
4
0
2
8
12
8
0
8
12
8
4
2
4
8
8
16
18
8
14
12
4
6
8
6
8
16
18
10
4
6
6
8
12
12
8
14
14
12
20
14
6
8
24
50
70
82
84
88
108
118
152
222
255
255
255
255
174
68
8
24
104
230
255
255
255
206
134
98
94
82
72
60
42
34
24
14
6
14
28
36
36
24
22
30
42
60
74
66
54
48
42
38
42
32
22
20
20
4
20
34
24
2
22
34
32
20
12
4
20
28
42
40
42
46
34
38
20
22
30
26
16
8
4
8
14
24
36
40
32
16
30
40
38
24
16
14
14
16
10
8
18
16
6
8
8
8
12
18
24
16
18
18
14
16
16
10
14
28
26
20
30
30
18
20
16
14
14
32
40
40
42
52
54
50
36
30
30
24
18
12
8
16
14
4
16
18
16
18
14
16
32
56
80
66
28
18
26
18
30
42
36
20
32
48
72
54
104
255
255
255
255
255
255
255
255
255
255
255
192
84
36
66
114
160
178
174
152
104
76
72
68
68
54
44
38
42
44
40
38
36
48
50
34
16
8
20
24
20
18
20
22
26
24
12
22
32
30
16
14
14
4
4
16
24
12
8
16
30
32
18
20
18
6
24
32
26
18
8
6
8
18
20
12
18
6
14
22
34
32
16
16
34
44
38
18
24
28
30
26
28
20
34
28
16
18
20
8
4
8
8
12
50
90
82
24
32
52
24
40
36
16
10
20
26
16
8
18
44
54
52
48
24
16
30
34
28
22
22
16
14
24
22
12
10
24
42
26
44
26
92
246
255
255
255
232
56
6
8
8
6
0
0
0
0
4
10
10
10
10
4
0
0
0
0
0
0
0
0
0
0
4
2
2
36
128
228
240
156
28
66
96
78
44
24
14
6
6
6
4
4
6
14
20
22
22
14
12
32
40
26
10
26
18
14
28
24
6
6
6
16
10
18
46
44
8
24
30
4
28
38
16
18
30
34
28
18
22
34
28
12
12
22
34
28
6
16
24
18
10
14
14
16
14
8
18
30
22
28
42
118
214
255
255
255
255
255
255
255
254
190
134
14
34
42
36
16
42
42
36
28
16
10
2
8
12
12
18
22
34
30
22
34
42
42
24
10
14
14
18
22
22
22
28
32
34
24
4
18
26
16
14
20
24
16
16
24
22
14
2
12
12
26
32
26
4
16
22
18
20
0
20
20
4
14
16
14
8
6
12
26
30
22
6
14
16
10
6
12
16
14
10
12
20
18
14
22
32
18
16
34
36
24
8
26
38
30
18
10
10
18
18
6
18
14
6
54
222
255
255
255
16
84
24
138
124
52
26
44
56
36
6
18
24
16
10
2
10
14
20
20
14
8
10
16
10
16
12
6
14
8
18
14
2
12
12
6
2
4
14
22
32
32
20
12
6
16
20
16
8
6
6
20
32
34
18
6
12
12
24
16
6
4
4
8
4
4
8
14
14
8
6
6
4
2
2
12
12
2
6
12
14
6
2
4
10
14
10
4
2
6
8
8
10
8
2
6
12
16
26
22
18
24
46
76
86
86
80
80
102
122
174
255
255
255
255
222
136
50
4
42
152
255
255
255
255
192
124
86
82
68
60
54
40
32
22
18
20
32
32
30
32
36
40
50
62
68
64
46
34
28
16
16
24
30
26
14
22
26
24
12
14
32
34
32
24
12
2
12
24
36
40
32
34
40
32
18
4
14
14
8
10
10
12
24
30
24
18
18
16
4
22
30
24
26
28
26
24
24
20
8
16
20
14
0
8
2
14
26
30
26
36
34
20
8
10
16
22
32
38
28
32
26
14
22
24
24
20
32
44
54
54
52
48
46
34
28
26
24
12
16
24
26
28
24
10
4
2
6
6
6
24
48
54
30
4
30
30
4
28
36
32
20
24
18
28
80
62
64
255
255
255
255
255
255
255
240
208
160
112
96
114
136
148
152
138
120
90
46
34
44
36
30
24
32
42
46
38
32
30
34
44
46
36
26
12
10
22
30
32
30
22
20
24
20
30
24
22
26
18
12
2
2
8
22
24
14
6
10
26
26
16
6
6
4
16
22
22
16
14
16
14
10
8
6
8
14
6
14
28
20
28
32
28
36
18
24
24
18
8
24
36
28
18
24
24
10
6
6
14
4
8
10
44
70
48
14
32
32
44
32
14
14
20
20
10
8
22
30
24
18
32
28
20
44
44
32
22
18
14
6
10
18
20
20
26
36
18
24
24
64
184
255
255
255
255
64
8
10
10
8
4
4
4
4
2
4
8
8
6
2
0
0
0
0
0
0
0
0
0
0
2
4
38
110
198
232
158
36
96
126
90
46
24
22
16
8
6
0
4
6
8
12
10
22
32
26
4
22
40
38
24
32
30
24
16
4
10
4
2
10
22
14
26
52
36
2
30
32
22
26
40
52
48
66
70
54
36
20
12
20
10
12
38
50
40
18
10
12
6
10
18
14
12
38
46
46
36
38
92
184
255
255
255
255
255
255
248
222
176
120
78
26
42
46
36
16
34
24
6
18
26
18
8
16
18
14
2
14
22
18
10
14
28
48
52
34
16
16
26
28
26
30
32
24
18
18
16
16
6
14
12
8
20
14
8
16
14
14
6
4
28
42
34
10
20
36
26
20
22
14
26
28
10
10
22
22
16
16
30
36
20
22
24
28
20
14
10
8
16
20
14
10
12
22
24
34
36
28
12
6
16
28
28
16
30
30
26
10
12
20
10
16
24
12
6
80
240
255
255
246
8
76
30
138
126
68
46
54
56
30
4
22
30
34
34
38
38
34
40
40
28
16
14
22
16
14
6
4
8
2
12
16
14
16
12
8
6
2
6
16
28
30
20
16
16
16
18
10
16
8
2
16
26
30
24
4
4
14
24
16
8
8
0
8
8
8
10
12
8
2
4
8
4
10
10
16
12
2
4
4
14
12
8
10
8
4
4
4
2
6
6
8
12
14
12
6
4
18
32
32
30
38
64
90
86
78
74
80
114
160
242
255
255
255
255
182
106
34
0
54
174
255
255
255
228
166
106
70
68
58
56
54
42
36
24
22
34
42
44
48
54
58
60
66
68
56
38
24
14
6
36
54
50
22
24
42
48
36
14
12
36
42
34
22
10
2
14
24
26
24
18
10
12
16
10
8
12
14
12
14
14
24
36
44
56
66
68
48
40
28
36
54
62
68
58
58
50
34
26
16
22
24
20
10
4
10
14
16
14
8
28
38
28
30
36
34
22
16
16
12
8
6
6
14
24
30
28
34
46
44
44
34
40
46
30
26
16
12
18
36
36
22
26
30
28
32
30
38
28
8
18
30
28
16
12
28
20
8
28
30
14
4
20
24
10
8
14
42
68
46
134
255
255
255
255
228
68
70
108
146
152
126
96
80
64
52
28
16
12
2
8
10
28
52
64
58
38
20
32
42
46
40
30
26
10
6
16
30
44
50
40
24
12
14
14
4
20
30
26
14
6
0
2
4
12
14
18
14
2
8
10
4
4
8
4
6
10
4
4
6
8
10
10
14
16
4
16
16
12
24
20
8
24
18
6
14
8
14
22
30
30
34
32
32
16
10
12
12
20
26
14
22
40
38
44
26
2
20
32
22
16
16
12
24
22
12
8
30
44
46
40
12
24
44
36
20
10
10
12
8
6
6
22
28
34
44
28
2
22
40
132
255
255
255
255
86
8
8
8
6
6
4
4
4
6
6
2
0
0
0
0
0
0
0
0
0
0
0
0
0
6
36
108
188
216
158
60
90
144
118
60
40
26
30
22
10
2
8
10
8
8
4
6
24
42
46
30
4
20
26
36
48
32
6
16
16
6
16
12
10
20
30
20
20
46
44
16
14
24
38
56
60
54
60
90
84
52
22
14
16
14
16
26
46
56
44
20
10
14
14
30
40
48
62
52
50
62
98
174
255
255
255
255
255
234
184
148
122
100
72
50
24
48
58
38
30
42
20
22
18
28
24
10
18
14
8
6
10
18
18
24
26
20
2
28
36
24
8
30
26
8
14
30
26
16
10
20
20
18
10
12
8
18
16
2
14
18
12
2
10
24
22
4
30
44
36
18
20
30
20
22
24
12
12
16
6
8
18
24
12
12
26
28
24
16
14
12
6
6
20
28
26
12
10
12
12
20
34
30
16
24
30
16
8
30
44
36
10
20
12
6
28
24
6
16
102
252
255
255
236
14
76
30
132
128
78
50
50
48
20
6
24
38
40
32
28
36
32
36
30
14
4
2
6
4
4
6
8
10
4
6
6
6
10
8
4
6
10
8
10
18
20
14
14
20
22
18
6
16
8
6
22
26
22
20
6
4
12
14
10
6
8
2
2
0
0
2
6
4
2
8
6
6
10
10
20
18
8
6
8
12
12
8
4
2
2
4
8
8
4
2
6
8
10
10
6
8
20
30
26
22
32
60
84
78
74
78
98
154
220
255
255
255
255
250
166
92
26
12
80
196
255
255
255
222
170
114
74
60
52
58
60
46
34
16
20
30
40
50
58
68
74
70
62
50
38
28
24
12
22
44
40
14
20
40
34
26
18
14
26
40
38
28
10
12
10
12
10
12
16
14
6
8
18
18
22
32
40
42
42
46
58
66
66
62
52
64
58
46
42
48
52
52
46
48
48
38
26
22
22
28
28
24
20
28
40
36
18
10
36
48
50
50
44
24
4
14
22
14
6
6
6
18
32
30
24
18
18
24
22
24
26
34
34
18
26
20
12
38
40
18
10
10
10
22
34
28
42
44
28
28
30
20
18
16
22
20
14
24
22
20
8
10
22
24
34
32
44
88
76
58
52
156
252
248
168
98
100
134
166
136
80
42
24
8
6
4
4
10
8
8
18
36
50
50
40
22
4
18
42
64
68
60
44
18
2
2
10
30
48
48
30
6
18
18
26
20
6
20
22
16
6
6
4
2
8
14
14
8
4
12
8
4
8
4
10
12
8
8
12
8
8
8
10
6
10
10
8
22
18
22
14
10
8
18
14
8
8
20
18
10
24
30
20
8
8
12
24
18
8
14
24
22
30
40
38
28
16
26
22
16
8
6
18
22
16
10
20
28
32
30
28
26
28
28
22
16
12
8
6
18
20
26
36
38
42
30
16
20
22
100
255
255
255
255
102
8
8
8
4
4
0
0
0
2
6
4
0
0
0
0
0
0
0
0
2
2
2
0
4
32
94
168
198
148
46
56
112
108
66
28
36
32
40
30
14
12
20
14
10
18
20
28
12
16
38
34
12
16
6
18
22
18
24
16
20
18
8
14
10
10
24
34
28
4
30
34
18
12
18
32
58
56
26
24
56
56
42
18
20
26
20
18
22
40
48
36
18
28
32
38
44
48
48
44
70
126
198
255
255
255
255
255
244
168
126
100
88
84
66
50
38
54
54
32
24
48
28
10
8
20
12
4
10
6
14
14
6
12
30
44
38
48
42
16
14
22
6
22
36
34
16
26
28
18
14
22
18
28
18
18
18
18
20
2
20
26
12
8
12
38
38
38
52
44
16
20
32
36
16
18
20
8
24
26
16
12
10
16
26
34
24
10
12
10
12
12
10
8
6
24
32
30
16
6
16
28
44
46
18
10
26
22
36
48
44
22
6
22
18
18
30
18
0
28
122
255
255
255
224
10
72
24
128
130
78
42
36
32
12
16
30
36
32
24
6
6
10
12
6
6
12
16
22
20
14
8
8
8
0
12
18
18
14
6
6
10
12
8
16
28
24
18
24
22
16
14
10
18
8
8
22
22
20
16
8
6
6
16
18
16
12
8
10
12
12
12
12
6
4
10
6
10
10
2
12
14
10
8
10
8
10
8
6
4
6
14
12
8
4
2
2
8
14
18
12
12
18
20
18
14
28
56
80
74
72
84
122
196
255
255
255
255
255
216
138
68
12
34
110
210
255
255
255
224
168
110
70
58
46
46
56
50
36
10
12
20
34
48
56
66
68
56
42
32
34
32
22
12
28
38
38
32
44
28
2
20
18
16
26
32
26
16
4
12
12
12
6
10
14
14
14
10
24
38
52
58
58
56
58
68
76
74
60
34
20
22
20
22
30
30
20
8
6
16
26
20
4
8
14
26
28
22
26
48
60
44
48
36
64
72
64
48
18
18
34
36
28
18
16
8
8
28
34
18
14
8
6
22
24
4
10
22
8
14
20
18
22
36
18
18
32
22
18
16
14
6
20
32
32
38
36
16
2
12
6
14
28
36
26
8
12
8
6
20
18
26
72
104
72
16
68
192
255
255
248
134
134
198
166
102
38
16
32
26
16
18
26
30
24
22
24
26
30
42
36
18
10
12
10
50
78
86
76
44
8
10
12
4
32
48
36
6
28
28
38
44
22
2
18
24
14
8
4
4
6
10
16
20
12
20
16
4
4
2
6
8
8
8
14
18
20
22
16
4
12
20
28
26
8
20
34
34
34
26
20
24
32
32
18
22
28
22
26
22
34
38
40
48
36
16
22
32
32
32
32
32
32
26
18
14
8
6
8
10
12
20
24
26
18
10
22
36
40
36
28
20
18
12
24
34
30
28
42
42
40
28
22
26
14
72
255
255
255
255
104
8
8
8
6
6
4
4
4
4
6
4
0
0
0
0
0
0
0
0
4
2
4
0
22
88
158
178
132
40
42
82
78
46
16
10
16
28
36
26
30
24
16
8
4
26
34
46
46
18
26
26
10
22
18
42
42
22
20
20
20
18
14
16
6
20
22
22
42
34
26
16
28
26
24
38
70
96
96
58
50
32
42
34
26
24
16
10
2
14
28
30
16
28
34
42
42
34
30
50
110
196
255
255
255
255
255
246
170
118
102
96
94
90
70
58
14
34
46
40
22
46
30
26
36
30
16
10
12
16
22
18
12
12
18
20
10
26
40
34
8
18
28
20
12
16
18
14
26
28
14
6
12
16
18
22
16
18
24
8
24
20
2
14
2
20
22
26
34
20
12
26
34
32
16
26
36
20
20
10
8
16
22
38
36
22
8
12
10
2
8
4
4
12
10
10
16
22
16
4
16
16
18
26
16
4
24
28
38
32
20
6
4
18
20
16
22
14
0
42
158
255
255
255
188
16
76
28
134
136
78
38
28
26
10
22
34
34
24
20
18
12
4
6
8
10
12
12
12
6
6
8
8
10
12
24
22
22
24
14
18
18
10
14
24
26
18
12
18
22
22
22
12
12
6
14
22
20
18
14
8
4
4
8
8
12
14
18
16
12
10
12
14
8
6
14
8
6
14
12
20
16
6
6
6
2
6
10
10
6
10
10
2
6
6
8
14
20
20
18
12
10
14
18
16
26
46
72
96
84
74
90
142
220
255
255
255
255
238
166
88
32
6
38
118
220
255
255
255
194
122
66
40
36
36
42
50
50
44
22
6
26
36
50
58
58
50
38
32
32
32
14
16
42
48
18
18
34
30
10
8
12
6
8
24
34
28
22
22
36
40
42
36
32
26
24
22
16
22
34
46
50
46
42
44
52
52
46
32
24
20
32
24
26
20
8
4
8
16
30
40
30
14
14
4
22
30
22
24
36
36
16
48
62
50
28
4
16
38
50
36
22
10
10
14
16
22
32
36
20
16
12
4
12
22
14
6
10
24
32
22
8
12
24
14
38
38
20
28
34
28
14
6
12
8
20
20
14
18
16
24
30
30
24
10
4
6
10
14
12
4
18
36
78
88
84
96
148
226
255
255
130
96
186
178
86
18
2
16
22
24
30
32
28
20
14
8
8
24
36
48
46
34
46
42
16
28
60
78
68
40
10
12
10
20
50
48
16
18
18
26
30
18
8
6
14
12
8
4
6
2
8
16
24
20
28
28
16
10
8
10
10
8
6
2
4
8
14
12
8
12
16
20
18
14
24
36
44
44
38
32
32
40
52
52
56
54
42
44
34
36
28
18
26
28
16
8
18
32
36
30
20
30
42
28
14
10
4
12
10
6
14
20
26
22
12
16
18
26
28
26
18
14
14
32
36
24
24
44
50
48
36
32
28
10
36
222
255
255
255
108
8
8
8
8
4
4
4
4
4
4
2
0
0
0
0
0
2
2
2
4
2
2
24
78
158
186
132
40
44
82
78
48
10
10
8
10
14
6
12
24
32
22
26
22
36
28
10
26
18
14
28
14
8
8
14
32
36
18
4
6
22
28
20
24
30
22
12
22
24
16
6
12
22
20
20
30
50
62
52
24
18
18
24
18
16
8
8
12
18
20
16
2
14
24
40
40
34
44
82
150
230
255
255
255
255
254
182
134
100
98
102
96
86
70
66
34
52
54
38
8
32
40
46
36
20
18
14
14
18
16
12
12
22
32
36
28
12
12
28
24
22
22
30
24
12
4
8
10
26
18
12
20
8
6
10
2
12
16
8
16
14
10
8
8
18
14
18
32
24
22
28
30
30
18
10
32
30
10
14
16
10
22
24
10
16
22
18
8
4
2
4
4
4
10
24
34
30
22
18
24
38
40
26
8
14
16
20
16
4
10
8
4
8
14
12
12
12
0
60
202
255
255
255
154
32
70
38
142
134
72
32
28
26
6
20
30
28
20
8
12
14
8
6
4
4
4
8
12
12
22
18
14
16
14
18
6
18
30
20
16
26
24
20
24
18
12
8
16
26
28
26
14
0
10
18
20
18
16
12
8
4
4
4
2
2
4
14
22
14
8
12
16
16
10
18
18
6
4
6
14
12
6
8
4
0
4
12
10
6
8
12
8
0
10
16
18
20
16
12
10
12
24
36
40
54
72
94
112
92
76
94
150
220
255
255
255
234
192
120
48
8
4
44
136
252
255
255
244
152
116
90
70
64
52
46
46
44
46
38
20
30
48
62
56
38
26
22
28
30
14
16
46
58
42
26
20
8
2
8
8
16
18
16
24
32
30
26
38
54
58
58
50
46
40
24
18
10
8
18
30
30
22
16
12
16
14
14
8
24
40
50
40
44
48
34
16
10
24
34
36
20
12
20
10
10
22
22
8
18
30
16
34
58
70
64
48
58
56
38
24
16
8
2
8
16
26
38
48
40
22
8
6
20
24
8
8
22
34
28
16
14
24
36
34
40
30
14
20
34
36
24
8
12
8
18
14
12
22
38
44
38
28
20
20
20
12
16
14
8
22
32
26
14
36
76
130
202
255
255
255
255
124
186
168
110
42
10
10
10
30
48
44
22
6
10
4
10
32
56
64
56
40
46
62
56
40
40
38
56
56
36
6
10
8
40
50
30
6
28
50
44
24
8
12
10
10
16
14
12
12
8
18
26
22
22
32
28
24
24
26
24
20
18
24
24
24
28
30
26
24
20
22
30
40
50
50
46
50
50
46
42
40
54
68
74
68
64
62
50
32
12
16
22
20
8
20
40
50
42
28
10
20
46
50
34
16
12
14
6
0
4
10
16
10
8
20
26
26
24
22
18
8
16
26
24
10
14
36
50
52
40
38
38
20
12
184
255
255
255
116
8
8
8
8
2
2
0
0
0
0
0
0
0
0
0
0
4
2
4
2
2
30
86
150
188
148
56
24
68
68
48
26
14
4
14
12
8
20
26
10
24
32
28
30
42
52
42
28
12
4
18
18
14
22
22
14
24
34
12
28
32
28
36
38
28
16
12
12
14
6
4
4
4
6
10
32
40
32
14
14
12
12
8
2
2
2
10
16
26
34
30
18
28
32
52
52
46
64
108
180
252
255
255
255
242
182
138
114
90
92
92
76
66
62
62
16
46
66
60
34
50
40
34
24
12
8
4
6
4
2
6
8
8
12
20
24
22
12
10
32
34
20
12
12
10
6
6
6
12
18
18
10
6
8
8
14
20
14
6
10
8
4
8
14
18
14
14
28
32
26
24
20
34
44
40
14
20
24
24
20
36
44
38
26
30
24
8
6
8
4
4
4
2
8
24
36
30
22
18
20
16
14
22
24
40
36
16
2
4
6
14
16
8
4
12
6
14
0
74
236
255
255
255
130
14
40
58
140
124
76
44
38
32
6
18
30
28
22
14
14
16
12
8
6
6
4
4
0
10
18
18
14
16
6
12
14
26
24
18
6
4
12
24
30
24
18
6
4
8
10
14
12
8
8
14
18
20
16
12
10
6
6
6
2
8
14
20
20
8
14
20
24
22
12
16
20
14
20
22
34
26
8
10
4
2
6
8
10
12
12
8
4
8
14
16
14
12
10
10
18
32
50
64
68
78
90
106
118
98
84
104
156
212
234
242
234
208
164
100
44
8
14
80
194
255
255
255
212
138
88
62
56
66
60
54
50
42
40
38
42
66
82
76
48
22
20
24
28
18
12
28
30
18
14
18
22
24
30
28
20
16
18
12
24
36
36
30
42
46
40
30
16
20
24
20
4
6
10
22
38
32
14
8
12
16
18
18
10
36
60
56
26
20
24
22
16
28
46
44
28
4
8
12
20
14
4
8
12
4
18
16
36
44
28
24
22
24
12
8
22
14
10
12
8
8
10
14
30
38
38
30
16
18
12
6
16
18
10
10
6
18
28
34
34
28
18
8
4
16
28
28
18
10
4
14
20
22
30
40
40
42
42
50
54
54
36
10
6
8
20
20
8
2
12
38
70
116
206
255
255
255
132
114
158
142
96
56
24
18
40
76
104
90
36
10
18
16
38
46
46
42
22
12
28
44
44
42
40
32
36
40
26
4
10
22
30
32
18
22
20
4
12
20
10
16
32
34
34
32
32
26
30
28
16
4
18
26
30
32
38
42
40
44
42
38
36
40
46
44
44
44
50
62
66
60
50
44
46
52
58
58
62
70
68
62
58
64
66
62
54
38
20
14
18
14
14
20
32
30
22
24
30
42
54
54
44
24
14
12
10
6
14
26
18
14
20
16
14
18
24
24
12
12
14
14
8
4
24
42
48
42
58
48
30
26
162
255
255
255
126
8
8
10
4
4
6
4
4
2
0
0
0
0
0
2
2
4
2
6
14
38
94
156
176
142
62
12
42
42
32
6
14
24
16
26
24
12
20
12
18
18
10
16
18
4
20
36
26
14
22
26
30
20
8
22
24
10
20
8
16
22
28
46
32
14
6
14
20
18
10
6
4
2
8
22
28
14
18
24
24
22
24
26
30
24
8
8
18
38
42
26
22
28
56
84
80
60
62
114
216
255
255
255
236
176
132
106
94
76
72
60
44
42
42
46
18
28
52
56
32
34
16
34
38
28
18
8
4
6
12
14
12
12
10
8
6
12
18
12
10
30
36
30
16
2
10
8
12
26
26
14
8
6
4
12
16
20
12
12
12
16
20
18
14
10
6
6
6
16
22
18
6
16
38
58
48
26
26
20
12
20
40
44
36
16
6
14
14
10
8
8
10
4
12
26
32
24
14
4
18
14
36
42
24
34
42
30
8
8
8
6
20
20
4
14
6
16
0
86
255
255
255
255
102
14
36
72
132
106
70
44
42
38
12
14
30
30
26
20
14
14
16
16
6
10
10
12
10
12
10
8
2
16
20
16
22
22
12
14
14
12
10
24
28
22
16
14
22
26
22
16
6
8
14
16
22
22
12
6
10
8
6
6
6
12
18
22
16
4
14
18
20
16
4
10
14
14
34
30
42
40
16
8
2
4
6
2
10
14
12
10
8
12
14
12
8
4
6
14
32
50
64
74
74
78
84
98
112
98
94
124
172
218
236
242
234
202
154
98
44
4
40
134
244
255
255
255
186
126
92
60
40
44
52
56
56
48
38
36
68
90
90
66
40
30
28
26
22
18
18
18
12
26
36
30
12
20
24
24
26
26
20
10
14
32
36
28
36
32
18
12
10
12
12
12
8
12
26
44
50
32
6
16
16
14
16
14
20
46
56
36
10
32
34
16
18
48
52
36
12
12
8
6
14
24
20
8
6
6
10
26
48
56
40
20
18
18
26
26
14
4
14
14
10
20
16
8
6
18
32
36
28
18
8
16
18
6
12
16
26
24
28
22
22
22
16
6
10
14
12
18
20
14
16
26
32
34
38
44
48
58
62
64
76
84
68
38
18
14
26
30
22
18
22
30
30
20
74
192
255
255
164
28
126
152
134
100
52
38
62
62
98
122
80
16
18
30
44
34
46
58
56
38
16
16
26
36
36
26
12
30
38
28
16
20
16
30
34
28
22
22
28
16
14
42
46
34
38
34
30
26
22
14
14
14
16
22
24
34
44
56
66
68
64
60
54
56
64
62
62
64
70
78
70
56
46
40
40
46
58
62
68
62
50
42
44
52
58
62
66
62
48
36
30
24
4
22
42
46
36
34
32
26
38
48
52
42
20
12
20
14
12
30
24
14
14
6
12
20
24
24
16
2
12
16
14
6
12
34
54
66
66
40
40
36
152
255
255
255
134
8
6
10
2
4
4
4
6
4
0
0
0
0
0
4
2
0
4
8
42
94
150
170
126
50
20
46
32
28
48
34
10
6
20
28
26
20
32
24
10
10
38
44
28
28
20
16
28
34
30
28
24
4
12
8
24
22
18
6
12
26
40
34
24
28
16
22
24
18
12
18
14
8
18
18
18
26
36
40
38
30
20
24
26
34
18
6
20
32
18
10
34
58
80
94
74
34
38
126
255
255
255
255
184
144
114
88
74
56
44
28
22
28
26
22
10
24
30
22
12
14
14
18
24
22
16
12
10
14
14
12
8
4
2
4
2
6
16
22
26
12
6
12
18
20
16
20
20
24
22
12
8
0
8
12
10
10
12
26
22
18
20
14
14
6
12
16
26
18
10
14
30
24
6
22
30
16
10
16
18
20
16
10
12
18
24
22
22
6
8
8
12
18
8
24
36
20
6
10
8
4
18
26
24
40
40
28
12
2
12
8
10
18
6
16
4
16
2
108
255
255
255
208
52
18
8
80
138
120
68
34
30
36
18
14
26
24
18
16
12
10
14
20
10
18
14
2
18
20
6
12
20
22
14
10
14
12
10
6
4
6
12
24
24
14
6
14
24
18
14
8
2
6
16
24
26
18
4
2
6
8
6
8
10
10
10
8
2
6
12
14
16
14
14
14
6
12
18
4
22
28
12
4
2
4
6
6
8
4
2
6
8
12
14
14
14
10
12
24
38
48
56
56
50
52
62
82
98
96
112
156
204
252
255
255
250
198
140
88
38
2
60
164
252
255
255
226
152
92
70
54
44
42
36
48
52
50
42
60
82
84
66
44
44
56
60
48
26
6
8
6
14
24
20
34
42
36
28
20
6
6
12
18
16
14
24
22
34
32
20
12
4
2
6
16
26
44
52
52
36
10
12
20
10
12
12
4
24
34
28
34
16
18
18
26
48
48
28
4
16
18
6
18
12
16
14
6
22
38
46
52
52
42
22
12
14
18
14
6
12
14
10
10
22
28
16
8
8
4
22
36
36
22
4
14
16
12
20
10
28
32
22
6
6
8
10
14
12
6
6
6
14
20
20
30
42
54
62
66
68
68
62
52
64
86
92
82
66
56
60
52
40
40
50
64
44
14
36
126
236
255
202
72
58
126
134
110
62
22
30
34
44
72
88
56
22
50
60
42
18
32
56
56
34
22
20
20
12
8
12
20
36
42
30
20
26
40
44
30
14
2
8
16
32
32
22
8
16
18
10
6
12
8
12
16
20
24
34
50
68
82
90
82
86
82
76
74
78
74
70
66
66
68
56
46
44
42
44
46
50
56
52
46
38
34
38
46
52
58
64
66
60
46
30
24
18
8
14
12
8
8
4
10
26
32
32
42
28
6
26
22
4
18
16
8
14
12
10
10
12
14
14
12
14
20
18
16
16
46
68
62
52
28
50
42
136
255
255
255
138
10
8
12
2
6
4
4
6
4
0
0
0
0
0
6
2
4
4
18
78
138
152
112
38
22
52
46
34
34
28
12
14
18
18
14
10
6
20
26
28
36
38
20
4
16
22
20
28
26
24
18
10
6
10
18
22
26
16
2
12
20
16
0
16
30
26
28
28
22
20
20
26
22
24
12
8
22
18
18
24
24
10
8
20
30
18
6
20
36
38
60
80
88
84
70
40
16
44
174
255
255
255
202
154
144
116
78
52
30
24
20
22
20
14
12
18
28
42
50
38
32
24
10
16
18
8
6
10
12
8
8
10
10
12
12
10
12
20
20
30
34
24
38
38
26
14
28
38
38
30
12
10
8
8
18
18
16
28
30
16
6
16
10
10
16
16
12
22
26
20
8
18
36
32
28
22
10
4
14
28
36
40
34
28
38
36
18
30
16
6
8
4
16
12
20
30
30
8
8
10
12
20
28
46
50
40
22
4
8
10
4
16
22
6
16
4
16
2
130
255
255
255
146
8
30
36
94
138
116
66
34
30
28
16
28
42
40
32
28
18
12
12
8
6
10
4
14
26
16
10
18
14
6
10
22
20
10
2
4
4
8
8
14
22
20
14
16
16
6
4
4
8
12
18
24
24
12
4
4
8
12
10
10
8
6
12
14
12
12
10
10
14
12
14
8
4
10
20
22
34
32
14
6
4
2
4
4
2
4
6
6
8
12
16
22
26
20
24
36
40
42
42
34
32
40
58
84
104
114
132
164
202
250
255
255
250
186
118
68
26
6
76
174
238
255
255
190
120
88
78
58
34
28
34
44
46
44
42
72
80
70
50
40
52
68
68
48
48
26
10
8
16
12
6
12
32
46
50
46
34
16
18
30
22
10
12
16
30
26
26
26
18
12
16
24
38
46
42
30
8
8
14
10
4
8
6
12
26
20
20
28
22
8
24
36
36
16
6
16
16
8
10
18
6
14
12
16
42
52
52
46
34
22
12
12
12
8
18
32
28
18
14
14
26
34
20
6
14
18
38
48
40
18
8
18
16
4
18
26
34
26
18
16
22
14
4
10
16
16
20
20
20
20
24
40
56
72
78
76
72
62
50
36
48
68
84
92
86
80
88
78
60
58
70
92
78
40
42
96
176
218
196
122
18
66
98
88
52
14
32
56
70
58
48
66
50
52
46
26
24
8
24
44
36
26
22
22
22
24
20
12
26
36
30
20
24
40
50
38
20
16
20
26
18
22
38
38
30
28
30
32
26
20
16
26
30
30
32
44
56
68
72
62
72
76
76
72
72
66
60
54
52
50
38
32
34
36
36
36
40
38
34
38
34
30
32
42
48
52
58
66
72
64
40
24
20
26
30
24
14
14
18
34
42
34
26
40
40
8
20
24
10
14
18
16
24
20
16
16
18
22
22
20
14
26
22
16
20
48
54
50
56
30
46
54
124
255
255
255
148
16
16
20
8
4
4
4
4
2
0
0
0
0
0
6
2
4
16
60
132
162
118
44
16
36
38
36
40
50
48
34
14
6
22
30
28
28
40
38
26
18
6
12
12
8
4
12
12
20
28
32
24
10
22
22
14
20
22
6
18
18
4
10
10
12
16
18
16
12
14
4
22
36
26
8
20
18
8
14
16
18
24
40
46
38
14
10
8
16
46
76
94
94
72
46
22
36
134
255
255
255
242
164
132
132
106
70
42
22
26
28
22
6
14
20
12
34
52
46
20
20
24
16
16
14
6
0
6
8
4
8
14
26
36
28
28
28
30
16
6
18
22
34
26
8
6
18
38
58
72
66
50
32
18
14
10
16
18
12
4
8
18
20
2
18
22
14
30
30
12
14
14
6
22
26
10
8
10
22
24
16
16
20
24
40
36
20
34
26
8
6
12
6
4
18
24
20
14
6
4
6
2
8
14
14
8
8
8
10
8
8
12
14
2
16
4
16
2
152
255
255
255
104
60
20
66
96
112
82
38
16
20
22
8
32
42
36
24
16
10
8
16
20
18
22
16
10
18
8
20
14
8
24
18
28
28
22
16
20
20
20
12
28
34
28
16
10
22
20
16
12
16
14
14
20
20
8
4
4
14
16
10
4
6
8
8
4
10
18
16
12
10
6
8
10
6
2
6
10
12
16
12
10
8
4
4
6
6
6
6
8
10
16
20
26
26
20
32
42
42
44
42
40
48
60
80
110
134
138
134
140
166
212
244
254
230
162
88
42
20
16
90
180
228
250
224
166
116
72
66
74
70
64
56
54
48
38
50
72
76
66
52
44
46
52
38
30
40
26
10
26
24
12
4
8
6
14
28
32
30
20
22
38
28
16
12
8
14
12
14
16
8
6
16
16
20
12
14
12
4
8
12
8
2
10
16
22
24
16
8
8
16
22
20
22
26
20
12
4
6
10
6
14
14
2
18
40
40
26
20
16
14
16
24
28
20
22
38
46
32
28
24
20
26
44
56
40
36
14
30
36
22
4
16
10
18
22
14
18
20
8
12
30
28
26
18
16
40
42
30
14
8
20
38
54
66
74
72
66
62
52
40
30
40
48
56
66
68
70
86
90
80
74
76
96
96
68
68
102
154
178
146
112
56
96
108
80
44
32
34
30
28
30
38
48
58
60
46
20
6
20
46
48
26
32
50
54
52
34
12
10
24
26
14
6
10
14
38
50
48
32
12
2
14
30
40
52
50
30
32
26
14
24
28
34
38
26
16
46
58
54
30
22
34
42
50
48
48
44
42
40
38
32
22
22
24
24
24
24
24
14
12
20
22
18
20
32
42
44
50
62
78
82
58
28
12
16
12
8
6
8
20
32
26
10
14
40
50
26
22
24
18
16
26
24
26
16
12
12
10
14
18
22
20
30
30
16
16
32
44
50
62
48
28
52
116
255
255
255
160
18
20
26
14
0
0
0
0
0
0
0
0
0
0
4
4
26
74
132
174
146
70
20
26
18
22
32
34
34
34
54
50
34
10
14
26
28
22
8
16
24
22
16
10
6
10
10
8
12
16
22
22
26
20
4
4
12
22
22
34
28
14
26
22
12
10
10
12
16
24
18
42
44
22
6
16
16
16
20
20
26
36
44
32
22
26
20
12
20
28
56
82
90
70
60
76
148
255
255
255
255
212
134
98
100
88
66
46
30
34
28
22
22
10
6
24
44
54
38
8
22
26
20
16
12
10
8
16
12
6
6
16
26
24
22
28
32
36
28
12
4
6
14
16
22
16
12
36
52
64
74
66
54
42
28
14
10
2
6
12
6
12
22
10
14
14
12
20
12
8
16
20
20
14
22
16
8
18
22
10
6
10
0
14
20
16
8
18
20
16
6
2
4
10
18
20
16
12
10
16
16
14
22
32
30
14
0
12
16
6
4
14
20
8
14
6
14
14
204
255
255
255
56
90
22
74
90
92
80
50
26
24
22
6
28
34
24
6
4
6
4
12
18
10
18
18
2
18
12
12
8
22
24
6
16
16
10
10
12
14
20
28
42
38
22
18
8
12
18
24
22
14
10
6
18
20
8
2
6
10
8
2
6
8
14
14
2
8
12
10
12
18
16
14
10
8
4
2
2
6
14
12
8
6
4
4
8
10
12
12
12
16
22
22
22
18
18
32
36
40
48
48
54
64
76
98
126
146
142
136
150
186
230
248
238
194
116
48
22
18
18
100
192
240
252
220
168
124
74
32
48
66
78
72
64
52
34
48
62
60
48
36
24
16
18
6
32
44
20
16
30
18
26
10
16
18
18
26
18
22
28
34
42
24
18
20
8
6
8
18
20
8
10
16
14
12
8
20
30
24
10
14
14
16
22
16
12
12
14
14
12
8
18
30
40
40
32
24
8
6
8
6
6
14
26
38
36
12
12
34
36
20
10
20
18
16
30
40
30
10
14
18
16
36
60
58
22
34
14
22
36
24
18
18
10
6
20
24
16
10
8
18
26
18
28
28
22
44
30
10
12
6
32
56
68
72
70
64
52
42
32
22
20
26
30
32
38
40
42
56
68
72
76
78
94
106
100
116
160
192
180
134
82
40
86
96
74
46
26
28
34
26
16
32
36
44
62
66
52
30
16
30
24
8
44
58
52
68
60
36
24
24
24
20
18
22
16
8
32
52
54
38
20
30
36
34
30
40
28
24
24
20
36
50
50
30
10
6
28
60
78
68
40
20
22
20
22
24
26
26
26
24
22
20
16
14
12
14
16
10
6
2
6
8
10
10
20
32
30
32
44
64
80
66
34
10
4
10
12
6
6
10
18
18
14
18
34
44
30
24
30
24
10
18
16
18
12
12
12
10
16
26
30
20
24
30
16
16
26
34
38
50
48
28
54
118
255
255
255
170
12
18
26
16
0
0
0
0
0
0
0
0
0
2
6
24
72
122
150
138
80
18
18
24
20
26
32
30
26
18
32
44
38
20
20
16
14
18
30
30
26
24
16
6
4
8
18
16
24
26
28
28
28
16
6
6
8
16
26
28
22
14
22
20
14
18
22
18
14
18
28
44
38
10
6
12
12
14
14
10
16
20
30
26
18
26
32
26
30
54
64
94
104
82
76
114
218
255
255
255
255
160
104
78
86
82
62
46
32
32
20
18
24
16
8
22
46
58
44
10
30
36
26
14
6
12
22
22
12
8
6
22
34
24
14
14
20
26
20
10
10
16
22
34
34
34
42
34
30
16
32
34
44
58
56
38
20
8
4
2
8
10
14
18
14
10
12
26
36
24
6
36
32
4
18
20
10
22
20
8
12
14
8
6
20
30
24
18
8
18
22
24
20
18
14
14
18
14
6
16
18
14
18
22
20
12
10
12
22
18
12
10
12
14
8
8
8
62
255
255
255
246
40
76
8
70
90
92
72
36
24
30
28
2
26
32
22
12
20
18
16
28
30
18
22
18
8
8
6
8
14
12
8
22
34
28
16
16
18
28
36
34
26
22
12
16
10
4
12
24
22
14
4
4
18
18
10
4
8
12
14
10
10
6
12
20
10
8
18
16
8
12
4
4
2
8
8
4
8
10
12
6
2
4
4
2
4
10
12
14
16
20
24
20
16
14
18
26
30
44
56
58
64
66
80
104
122
136
140
164
212
255
255
255
212
146
80
40
22
20
20
114
220
255
255
222
168
118
62
24
6
22
50
62
60
50
30
38
44
32
14
12
14
16
18
16
34
34
10
14
18
4
28
24
14
16
16
18
4
28
40
46
32
8
6
16
18
20
20
20
16
8
18
22
26
24
26
16
10
32
30
8
28
32
16
4
6
10
16
18
10
8
16
20
22
26
22
26
20
8
10
10
2
18
34
30
10
14
8
20
28
26
24
24
22
18
18
46
60
50
32
20
8
32
64
64
30
40
20
22
38
28
16
10
16
16
30
30
20
6
8
18
22
10
8
22
14
26
34
38
26
22
44
66
74
72
64
54
34
16
16
8
10
12
18
20
26
28
24
26
34
46
60
72
90
104
112
148
218
255
255
188
88
14
48
66
56
30
20
20
22
22
28
30
32
32
34
40
40
40
46
54
46
20
36
36
24
46
62
56
48
42
40
42
38
20
14
16
12
22
42
40
24
18
18
12
8
16
12
24
36
30
48
66
82
72
36
6
22
30
44
62
58
40
18
6
6
10
8
8
8
8
12
14
12
8
4
6
8
10
10
4
4
4
8
8
10
16
10
10
26
42
58
58
38
16
16
16
14
12
10
16
26
28
24
24
28
30
22
20
26
12
8
10
8
16
18
16
16
22
36
42
32
4
20
22
12
24
38
52
54
58
44
36
62
126
255
255
255
180
6
14
26
16
0
0
0
0
0
2
2
2
0
8
28
66
104
112
92
54
32
22
44
46
36
30
30
34
28
8
20
46
54
42
24
6
36
44
30
16
18
30
20
2
2
4
14
20
24
20
16
14
20
14
12
14
10
12
8
4
6
12
20
10
4
6
10
12
8
8
22
30
22
4
8
12
14
8
4
6
18
30
40
44
36
34
36
22
16
66
104
132
138
104
84
124
228
255
255
242
160
102
88
84
92
80
54
40
26
22
8
20
28
22
16
16
42
52
34
14
40
32
8
8
10
10
12
4
6
10
8
8
26
28
18
10
18
26
18
2
8
12
18
16
10
20
40
48
36
24
32
4
26
52
70
60
34
18
12
10
10
4
8
10
12
6
18
22
22
24
40
44
14
10
14
16
10
16
18
14
8
14
14
8
4
10
12
8
16
28
38
38
34
20
8
6
16
14
2
12
14
8
18
24
24
16
12
6
14
14
14
12
4
12
8
8
12
116
255
255
255
190
44
94
16
82
96
92
68
28
18
28
30
6
24
32
24
18
22
12
10
18
22
18
16
8
2
14
16
10
4
8
22
28
26
16
6
8
18
28
26
16
22
26
16
10
6
12
22
18
16
18
10
10
14
16
14
10
8
8
6
2
2
6
6
12
14
4
8
18
16
6
10
10
6
8
18
20
16
8
10
6
10
10
10
6
4
14
14
10
10
12
18
18
16
16
20
26
36
54
62
62
66
72
98
120
124
132
148
190
236
255
255
220
180
126
64
40
28
14
42
144
248
255
238
184
138
108
58
32
26
26
28
32
42
38
22
28
28
8
18
26
18
10
8
10
24
22
10
10
20
18
38
30
14
16
14
12
14
38
42
32
32
12
6
4
12
10
18
22
20
10
8
22
22
22
32
44
30
24
16
16
36
26
8
12
6
18
20
16
6
16
22
20
20
28
20
14
16
8
8
6
2
16
30
26
4
16
16
28
22
12
18
22
28
28
16
8
30
42
44
42
36
46
34
44
32
28
12
18
30
28
16
14
20
34
36
22
6
10
8
12
26
26
22
12
8
16
20
24
18
30
44
54
56
52
44
36
22
12
12
14
14
10
8
10
18
24
20
14
16
30
44
58
76
84
90
136
224
255
255
248
134
16
52
68
48
20
14
24
34
30
22
16
24
34
44
50
34
6
24
52
68
48
38
26
14
22
24
38
48
48
50
54
54
34
18
18
14
10
20
30
26
10
10
18
26
26
12
18
30
18
30
48
72
80
66
38
24
22
20
44
60
52
32
12
8
6
0
0
0
0
2
4
8
8
4
2
2
8
4
4
4
4
8
10
8
16
18
28
46
52
48
44
40
26
18
12
14
16
10
6
14
24
30
40
44
34
18
8
14
4
14
4
12
20
20
16
18
36
42
32
14
14
26
12
12
34
50
60
56
56
38
42
54
116
255
255
255
172
8
10
26
14
0
0
0
0
0
4
2
4
0
18
64
112
118
86
48
46
40
32
46
38
20
12
28
34
20
12
34
44
34
20
14
38
54
44
18
24
38
30
6
10
10
14
16
8
20
26
24
22
16
6
2
8
6
4
6
6
8
14
18
8
12
10
14
18
6
14
16
16
16
14
10
2
8
10
4
6
8
20
26
34
30
14
10
20
40
70
102
148
184
174
164
196
255
255
232
154
102
86
94
94
94
80
56
38
18
8
10
38
42
36
30
20
46
54
36
28
44
18
20
30
22
10
12
16
10
4
16
16
16
12
4
4
20
26
12
4
10
2
12
26
34
36
38
30
30
24
16
22
46
34
66
72
50
30
20
12
4
6
6
6
12
6
24
28
34
50
48
20
14
18
10
8
2
12
18
24
16
0
8
14
16
22
30
36
32
38
38
34
38
28
18
14
22
18
6
16
16
6
14
26
24
16
8
4
8
2
4
10
14
14
12
6
32
156
255
255
255
146
58
82
28
102
102
80
52
34
22
26
32
12
22
28
18
12
8
8
18
16
8
4
6
10
14
16
8
4
12
18
14
8
14
16
16
18
16
16
18
18
16
12
8
10
10
10
12
4
8
14
14
10
6
12
14
12
10
16
16
12
14
12
8
8
8
12
16
20
14
4
12
4
10
16
16
30
34
30
20
14
20
16
18
16
12
22
18
6
2
6
16
22
24
24
28
36
48
62
62
58
64
80
114
132
130
140
160
188
202
196
182
166
160
132
84
46
20
18
76
172
248
238
184
158
148
128
84
44
24
18
20
18
26
28
16
38
30
18
20
18
18
16
12
14
26
18
8
6
8
20
34
26
12
16
12
8
24
40
24
4
24
22
10
20
26
20
14
8
12
12
4
26
42
36
8
32
46
38
22
14
24
14
8
20
20
22
16
10
6
12
24
30
30
30
16
10
8
2
4
4
2
16
32
32
10
12
22
28
20
12
4
8
16
22
34
36
28
18
12
30
52
54
44
30
12
8
4
8
18
22
20
24
34
40
26
22
14
18
20
10
4
18
28
36
26
10
18
22
26
30
42
64
74
66
44
28
26
24
20
20
20
8
2
6
6
14
18
16
16
24
32
40
52
52
48
88
176
255
255
255
176
48
46
74
54
28
26
38
44
38
36
40
52
56
54
52
34
26
22
16
46
66
56
30
10
40
36
18
20
34
48
54
56
46
24
8
14
10
14
18
22
14
2
8
22
20
22
36
42
26
24
26
28
48
64
68
48
28
22
34
52
56
44
22
14
8
0
2
4
4
4
4
6
4
2
8
12
14
10
10
6
4
10
14
18
28
32
40
50
50
46
40
32
28
20
14
14
22
16
4
12
8
18
44
62
52
28
0
16
6
6
18
26
24
20
20
24
34
28
12
12
18
18
2
20
40
54
54
42
40
28
50
60
128
255
255
255
178
8
10
26
14
0
0
0
0
0
4
0
4
0
30
96
136
112
64
30
14
28
26
30
12
8
10
34
52
42
22
18
28
46
50
42
42
40
26
16
36
36
16
18
14
16
20
10
6
10
24
34
30
14
8
10
8
10
4
4
6
8
14
22
12
2
6
10
8
8
18
12
16
28
30
34
22
6
12
12
12
8
2
0
16
28
26
26
34
36
40
102
162
240
255
255
255
255
248
176
118
100
102
104
96
90
80
58
32
8
10
28
52
50
44
36
26
52
58
34
22
32
10
22
16
18
22
12
8
10
8
8
10
6
4
6
14
20
16
14
14
14
10
20
26
22
18
16
18
18
14
14
30
40
20
50
74
68
50
30
16
10
4
8
16
16
10
16
26
38
38
18
16
38
34
22
14
8
10
10
18
14
2
4
4
20
32
38
38
34
36
28
24
34
30
22
20
22
14
8
18
24
20
26
32
24
14
6
14
12
10
10
0
8
10
8
6
62
204
255
255
255
110
74
82
32
102
96
66
40
34
30
32
34
12
20
24
12
8
6
12
18
14
12
12
12
12
8
6
10
16
16
12
0
8
12
12
12
14
12
12
16
22
22
18
10
6
2
6
4
0
4
12
18
12
4
2
8
14
12
16
14
8
6
4
6
8
4
14
20
18
8
6
8
4
12
16
12
14
32
38
32
14
20
16
18
22
18
20
10
4
4
10
22
28
30
28
36
50
64
76
72
62
60
68
94
112
122
146
168
188
190
172
160
154
152
126
78
36
8
24
86
172
230
216
168
140
140
134
106
88
64
42
34
26
30
32
44
70
54
68
56
20
38
20
18
32
26
6
6
6
4
22
30
20
6
6
4
8
18
36
38
22
32
24
16
16
24
22
12
8
16
28
26
14
18
36
34
18
20
34
38
28
20
12
14
14
14
6
8
8
10
10
8
10
14
18
12
6
8
14
6
4
2
12
24
28
20
14
10
12
14
14
14
20
22
14
10
14
22
20
14
20
20
16
12
10
10
12
8
8
6
8
16
20
26
24
20
28
28
14
16
26
24
16
14
18
28
44
42
34
26
26
38
42
54
64
56
40
32
30
22
18
14
4
4
6
2
6
12
12
12
16
18
20
28
24
30
54
132
228
255
255
186
76
64
90
76
38
22
26
30
26
30
34
34
28
32
38
20
8
32
36
38
44
64
58
44
32
14
8
6
12
34
48
56
52
38
32
32
26
22
18
22
14
4
4
14
12
10
34
50
46
38
36
32
26
40
60
62
52
40
36
42
48
44
26
14
8
2
8
10
8
8
6
6
6
6
10
12
12
10
14
14
14
24
30
36
42
40
44
50
56
58
54
46
36
30
24
16
32
34
16
8
12
8
12
40
52
44
22
6
6
10
22
26
26
22
18
14
16
12
6
16
26
24
10
28
46
54
48
32
28
22
42
48
128
255
255
255
168
10
16
24
14
2
6
8
8
8
4
0
4
16
60
118
122
68
22
26
6
10
24
28
16
24
18
10
30
34
20
8
6
20
32
32
16
16
30
22
30
34
24
14
0
24
26
10
8
14
30
34
24
10
4
2
6
6
4
12
14
12
14
18
12
4
2
2
2
2
10
12
18
24
18
28
28
16
12
12
16
12
2
14
26
22
10
12
24
26
46
108
196
255
250
224
212
206
188
150
124
114
108
102
94
84
66
40
14
6
12
34
58
64
64
56
28
52
58
30
16
36
14
12
18
28
20
8
26
22
8
8
18
14
14
16
12
6
12
18
22
16
24
34
36
28
20
18
18
12
8
18
38
44
20
22
56
72
70
48
24
12
4
18
18
10
8
2
8
8
12
20
38
44
36
30
26
14
20
30
32
20
8
4
6
20
30
30
28
28
26
16
16
28
30
26
20
16
10
10
18
30
36
40
36
24
10
4
4
4
8
10
0
4
6
4
10
98
255
255
255
255
84
86
84
56
102
90
54
28
26
30
36
34
12
20
24
10
6
8
18
18
8
6
4
4
2
10
18
22
18
8
2
4
6
6
12
22
26
18
12
10
18
24
16
10
8
8
12
8
2
6
8
18
20
12
14
20
14
8
18
12
2
8
6
10
8
12
18
14
6
10
8
4
4
12
20
24
12
8
24
28
14
12
10
8
18
18
10
2
8
2
22
32
34
32
30
42
60
74
84
78
60
50
52
74
96
116
148
172
196
198
178
166
152
138
104
50
16
24
34
78
164
226
226
188
138
104
104
92
96
94
86
80
60
46
36
72
90
66
96
96
56
34
4
36
38
14
8
10
10
16
28
24
6
14
22
20
24
26
20
20
16
22
18
14
6
8
18
24
26
24
30
42
40
26
18
30
40
24
20
26
26
22
16
12
10
18
12
16
14
12
6
20
22
26
18
2
14
16
24
22
8
2
16
32
32
18
14
14
20
16
12
12
22
32
40
44
38
24
22
14
20
30
42
40
32
18
2
10
10
6
6
14
12
10
8
6
22
40
42
12
18
38
42
32
44
62
56
32
20
20
28
56
64
58
48
46
48
36
26
12
4
2
0
4
6
4
4
6
4
2
6
8
8
14
8
30
36
104
194
255
255
224
116
100
126
82
22
2
28
44
42
36
26
26
40
56
74
70
46
12
38
44
28
38
56
56
52
34
18
4
14
26
40
58
56
40
42
38
40
36
26
18
6
4
6
16
24
14
14
32
40
34
22
22
22
18
26
38
46
48
44
42
44
44
32
18
8
8
14
12
8
10
8
8
10
8
10
12
12
12
14
20
30
44
52
52
46
42
48
58
70
70
64
56
46
40
32
22
32
42
36
22
4
18
34
30
28
48
46
24
2
16
22
26
30
20
6
14
24
20
4
14
26
28
12
32
46
48
40
24
20
18
50
48
128
255
255
255
158
6
18
26
12
8
14
16
14
18
6
2
16
56
100
118
80
48
24
28
16
18
34
38
32
44
42
26
20
10
14
22
30
26
14
26
32
26
40
32
28
12
16
10
22
34
24
8
4
8
20
26
16
10
12
14
12
10
20
24
16
6
12
20
12
2
10
14
10
8
12
10
4
14
28
50
44
14
16
26
24
12
12
16
10
14
28
50
48
40
84
148
202
212
226
162
136
140
146
140
130
116
104
102
94
72
42
14
6
10
14
38
72
92
94
82
14
42
56
34
6
30
22
6
10
14
6
14
18
8
10
12
10
4
8
10
12
16
24
22
18
12
14
24
34
36
26
16
14
8
6
14
26
38
32
10
16
46
72
74
56
26
4
20
14
2
6
6
14
20
22
28
24
14
6
14
22
28
36
36
26
12
14
16
24
34
36
24
16
14
8
2
6
16
20
24
26
26
24
22
28
28
28
28
24
18
12
10
12
12
14
12
8
6
6
4
14
128
255
255
255
255
86
92
62
54
120
92
40
30
30
36
48
44
20
26
32
16
2
10
20
20
10
4
10
14
16
16
12
8
6
10
12
12
10
8
14
18
16
12
12
16
26
26
8
6
10
12
16
12
6
6
2
10
18
20
20
18
8
6
14
12
2
8
4
14
12
4
20
20
8
10
10
8
6
10
14
20
20
12
14
14
14
6
8
12
18
18
26
24
16
22
34
40
40
36
36
46
60
68
70
62
52
60
74
98
114
126
150
162
178
178
162
154
138
122
88
32
4
16
38
88
176
240
242
206
158
120
80
38
42
46
52
60
56
46
36
62
62
30
58
74
56
22
22
40
26
2
14
8
12
28
26
8
10
18
16
14
22
24
18
10
6
12
12
10
10
12
18
20
18
12
14
16
26
26
16
10
32
28
24
28
26
24
18
6
8
20
18
28
30
24
18
38
36
48
52
30
22
12
12
20
18
12
16
30
22
12
12
14
26
26
18
8
2
10
20
34
38
22
14
12
6
16
16
26
26
22
28
28
26
22
16
28
24
18
10
8
10
26
42
34
10
22
40
34
42
44
34
16
14
18
38
58
56
48
44
44
46
38
24
10
2
4
4
6
8
8
8
6
2
0
4
8
10
14
14
30
24
86
170
255
255
252
104
94
166
112
28
18
22
30
30
32
26
18
22
32
54
74
78
50
46
46
26
18
50
56
50
32
20
14
14
24
38
58
58
36
26
28
34
42
36
24
18
12
4
6
22
36
32
10
16
26
18
12
14
16
18
20
28
38
40
38
40
48
46
34
22
12
16
12
8
12
12
12
14
14
22
28
26
22
22
28
40
56
60
48
38
42
54
66
72
62
50
44
42
40
30
16
20
28
30
30
26
18
18
4
8
30
46
36
14
8
26
36
34
18
22
4
20
24
16
8
12
20
16
28
36
36
32
16
16
10
44
36
134
255
255
255
158
8
18
26
14
8
6
8
2
12
10
4
36
84
106
90
50
24
14
24
28
36
40
24
10
16
20
14
8
14
20
18
26
32
32
42
40
30
26
30
24
14
20
26
26
22
8
4
6
8
22
28
20
10
8
14
22
30
34
24
12
8
18
14
8
10
12
14
28
32
30
24
18
22
40
44
24
4
20
28
22
14
24
26
10
12
6
24
54
70
96
134
168
192
192
190
178
148
128
108
104
110
118
126
106
66
30
6
10
16
26
56
96
118
112
90
28
48
56
34
0
20
24
16
14
14
8
4
16
16
8
12
22
28
28
24
24
26
24
16
16
16
6
6
14
28
24
16
10
6
14
24
26
22
26
24
16
8
46
76
84
60
20
16
26
14
4
8
6
10
14
10
4
18
28
34
34
32
30
20
10
8
18
34
42
46
40
22
12
8
2
0
2
6
8
10
12
14
12
10
20
14
10
12
12
12
10
6
6
8
10
8
6
6
6
6
18
152
255
255
255
255
68
126
90
80
136
88
26
28
40
48
54
38
12
16
30
22
8
20
28
22
4
14
22
22
14
6
10
14
14
14
16
22
16
6
10
8
14
16
8
18
28
24
10
10
8
10
18
16
12
8
2
8
14
20
20
12
2
8
20
20
8
18
8
8
14
6
10
18
16
10
12
10
6
8
8
10
12
14
12
4
8
6
6
12
18
18
24
36
34
28
34
42
44
38
38
48
58
58
52
48
56
82
100
118
126
134
152
152
160
160
148
144
132
118
84
28
0
12
50
122
206
254
242
202
154
110
76
48
46
52
54
42
20
28
20
28
34
26
44
50
44
36
34
30
14
10
14
0
22
28
12
12
18
10
4
16
20
12
10
12
18
16
12
6
4
6
14
24
28
24
24
16
8
8
14
4
14
14
20
26
28
24
12
4
8
20
22
26
40
36
26
38
32
36
58
50
22
2
6
4
16
20
24
32
26
16
10
6
20
26
24
20
18
18
14
18
30
18
10
14
20
32
22
30
44
46
42
30
30
32
34
46
38
34
32
20
10
22
24
36
34
12
14
20
16
18
22
22
24
34
44
46
38
36
40
46
46
34
24
14
6
6
4
4
4
4
4
6
6
4
4
6
12
18
14
22
14
72
152
250
255
255
148
44
160
150
76
34
38
48
36
22
10
6
8
8
6
38
66
64
46
42
24
10
40
52
44
24
12
12
24
34
38
46
50
34
18
28
22
38
48
46
40
28
10
6
18
36
54
44
14
12
14
4
6
14
20
26
32
32
30
32
34
44
50
46
38
18
16
14
12
16
18
18
20
26
38
40
32
26
26
32
44
58
54
38
32
42
60
70
62
40
26
28
32
26
16
12
14
14
10
14
28
40
34
20
12
14
30
32
20
12
32
38
28
8
28
20
12
16
18
14
10
2
10
22
24
38
44
32
20
10
50
44
152
255
255
255
156
22
38
46
32
8
4
14
16
14
8
20
56
88
86
62
38
18
8
24
36
34
18
12
32
36
36
36
34
28
22
16
12
14
28
30
24
14
6
12
18
20
28
26
14
8
10
14
14
18
28
30
16
8
12
18
32
34
26
20
16
14
12
12
14
12
6
18
40
56
58
48
28
22
24
14
16
10
8
32
40
34
34
28
16
28
36
64
80
70
68
92
138
210
252
254
208
138
92
62
74
104
122
126
96
52
20
22
20
30
42
74
120
144
130
98
16
40
56
46
18
34
32
22
18
18
14
8
14
20
22
10
20
22
18
16
14
6
4
14
16
16
14
18
12
32
44
28
14
16
22
18
14
24
24
24
22
12
14
52
86
94
74
36
12
8
10
14
20
14
8
4
12
16
12
8
6
18
34
36
26
20
32
38
34
30
22
12
8
6
4
4
4
4
2
22
48
70
90
110
142
176
188
186
174
172
182
190
190
186
176
144
98
58
30
10
26
184
255
255
255
188
16
96
70
88
138
82
22
16
42
50
48
40
30
24
22
16
16
18
16
10
14
24
20
8
8
18
16
10
18
16
4
12
12
16
26
16
6
12
18
22
26
16
12
16
10
6
20
22
16
12
12
18
20
20
16
18
16
8
14
10
4
14
8
6
12
10
4
4
10
8
6
6
8
10
8
6
4
6
8
6
8
6
6
14
20
20
16
18
24
18
32
48
50
42
44
56
62
60
58
60
70
84
84
94
114
142
176
186
192
186
170
162
144
118
78
26
0
24
86
168
234
254
222
170
116
70
48
38
50
56
42
20
2
18
14
8
26
38
58
68
64
50
36
24
8
4
6
8
20
18
12
24
24
24
22
8
20
36
34
14
10
20
20
6
4
4
6
18
26
26
24
14
8
14
16
10
14
28
34
26
16
10
16
20
22
28
24
14
34
38
24
24
12
2
22
36
32
14
8
12
14
20
20
24
24
20
8
4
12
22
22
14
6
8
18
38
42
26
30
34
18
14
2
22
32
22
24
18
26
36
44
42
22
16
18
26
24
14
16
32
42
38
16
12
22
38
50
50
48
50
54
54
48
42
34
30
34
34
28
20
14
4
0
0
0
2
4
6
8
8
6
6
8
18
8
12
18
56
134
236
255
255
178
4
114
128
86
62
54
48
28
12
6
12
14
16
16
12
38
42
32
30
26
14
26
40
46
32
16
26
22
28
24
20
32
38
32
22
20
32
46
56
58
50
32
18
24
16
46
56
36
8
6
6
6
22
32
36
32
22
30
38
36
36
42
46
46
32
20
20
20
22
26
28
30
36
36
26
20
24
32
40
54
64
54
42
42
54
68
66
46
24
18
22
22
12
12
26
30
28
24
16
8
22
28
22
16
16
24
26
22
14
28
32
28
8
12
16
10
10
2
6
8
8
14
26
30
26
28
36
42
28
36
38
154
255
255
255
146
30
40
40
42
28
22
8
4
8
24
52
80
86
68
40
14
6
26
38
26
8
16
22
18
18
20
18
8
6
4
16
20
18
16
10
8
4
2
4
16
28
26
12
2
12
12
8
12
24
30
32
28
20
20
30
26
8
6
18
24
22
20
14
10
14
8
22
26
14
12
24
16
8
8
6
2
4
8
8
16
24
24
16
8
16
28
40
44
38
70
114
160
200
214
182
154
112
66
60
80
96
90
80
52
36
10
28
46
50
54
92
154
182
162
122
20
42
62
58
26
40
32
18
12
12
12
16
12
2
18
26
20
12
4
14
26
30
22
14
4
18
28
22
18
30
52
52
38
20
12
8
14
26
22
18
16
16
10
18
52
84
98
84
54
28
24
16
24
28
28
22
12
8
16
18
16
14
22
30
36
46
40
28
16
8
0
6
10
16
28
44
60
76
100
138
166
174
194
244
255
255
255
255
255
255
255
255
255
255
255
255
224
138
64
12
30
212
255
255
255
164
78
116
44
78
124
70
18
14
38
52
52
48
40
36
20
12
14
22
22
16
18
20
8
12
26
20
0
14
14
18
16
18
2
28
36
30
28
4
18
26
22
6
8
14
12
8
14
22
16
16
22
22
18
10
8
16
24
22
20
24
22
22
14
8
10
10
10
12
14
10
8
8
12
12
10
8
6
8
10
4
6
4
14
20
24
22
10
2
8
18
40
52
48
42
48
60
66
68
70
68
64
62
54
68
108
154
198
210
202
184
166
156
130
96
62
22
0
36
116
188
220
212
170
170
138
88
56
40
42
30
8
10
16
12
14
14
22
32
50
58
52
38
26
18
10
12
12
6
16
20
16
24
24
24
36
36
24
30
56
46
16
30
24
8
10
4
4
4
14
18
26
32
18
22
22
26
32
34
26
22
10
12
24
28
30
30
22
10
20
26
16
4
10
18
22
24
22
18
14
10
12
26
24
10
14
20
14
6
4
16
22
16
10
12
36
42
30
18
24
38
42
34
30
36
36
36
42
40
38
36
34
38
28
36
44
38
18
4
12
24
36
42
32
32
48
64
68
58
48
44
48
52
46
32
16
36
44
38
28
20
20
12
2
0
0
4
6
4
4
6
8
8
6
12
6
8
26
52
106
210
255
255
204
46
68
94
78
80
74
44
16
8
12
28
28
22
36
22
26
20
8
20
22
24
28
36
40
36
26
22
18
26
30
18
16
32
42
34
28
32
30
44
54
58
50
26
16
2
22
44
44
32
14
4
6
26
36
30
12
14
34
46
40
30
34
46
52
46
34
32
32
32
30
28
30
30
20
14
16
24
36
46
62
66
52
44
48
54
56
46
28
16
16
14
22
22
22
30
28
20
12
10
10
6
8
14
20
24
30
28
24
12
20
26
28
14
12
6
6
8
6
6
6
12
20
32
38
30
12
18
46
48
24
30
150
255
255
255
140
38
40
14
24
26
30
22
12
22
42
64
76
64
44
38
26
36
50
38
6
26
26
14
12
36
34
28
28
32
26
18
20
20
2
10
10
6
8
8
22
26
16
20
12
8
4
8
14
16
24
34
40
32
22
28
36
32
18
6
20
26
26
18
10
10
14
12
26
42
40
28
12
4
6
12
16
10
6
20
28
14
8
16
6
12
16
20
36
48
74
110
160
214
226
218
194
160
112
78
74
60
42
44
56
50
36
50
66
58
52
104
188
226
208
162
26
56
70
48
4
40
34
14
6
12
10
14
20
22
10
18
30
32
20
38
42
26
18
20
20
16
14
16
22
26
36
48
52
46
36
20
10
20
22
20
18
10
16
10
4
30
64
82
80
58
34
22
16
20
28
32
30
18
4
16
32
40
50
64
70
54
28
12
2
18
46
72
102
140
190
238
255
255
255
255
255
254
255
255
255
255
255
255
255
255
255
255
255
255
255
255
228
150
76
14
32
228
255
255
246
90
68
90
44
108
122
60
10
8
38
46
36
24
10
12
6
14
28
28
16
6
8
14
10
22
18
4
22
22
12
2
6
6
10
26
16
8
20
8
18
26
22
12
20
20
12
8
10
20
22
26
22
10
8
8
10
12
24
28
26
28
28
20
8
4
4
8
16
22
24
22
20
14
12
14
14
10
6
2
6
14
18
22
28
34
36
28
14
12
24
40
50
48
40
36
44
56
66
68
64
56
50
56
60
84
124
156
184
178
150
126
114
114
88
64
46
18
2
46
122
162
162
162
174
172
136
86
56
50
62
48
18
12
12
8
18
22
22
26
34
30
22
16
14
12
8
12
14
4
10
14
16
18
16
16
16
40
42
12
26
42
28
32
18
8
14
6
4
8
14
22
28
22
6
20
30
24
18
20
18
22
14
8
10
12
20
22
18
16
14
16
8
4
14
12
12
20
18
12
8
12
24
32
22
6
6
18
24
18
8
12
24
32
28
44
50
30
14
6
6
8
16
20
26
38
42
36
30
20
12
12
18
28
20
32
32
18
2
10
2
16
30
42
52
60
60
54
42
26
18
16
18
18
8
2
6
26
38
32
22
18
26
26
14
8
8
8
2
4
4
8
10
6
6
14
14
16
36
52
84
172
255
255
255
106
34
94
100
102
94
68
40
24
28
36
46
48
56
30
42
32
4
12
8
24
40
42
40
28
10
6
16
32
40
28
18
24
32
28
22
16
16
26
36
48
52
38
18
4
8
26
38
46
38
24
24
36
44
34
22
28
38
52
46
34
34
48
60
62
58
52
44
34
26
22
18
22
26
34
32
32
44
52
62
60
44
36
36
34
34
30
20
10
8
8
8
8
12
14
20
24
24
24
18
14
6
6
18
28
38
36
28
16
22
24
18
4
2
4
6
10
6
6
12
18
24
28
26
10
8
10
28
44
12
26
152
255
255
255
140
36
46
26
24
20
18
10
6
16
32
40
46
38
28
24
18
42
42
20
28
24
10
24
22
6
24
28
20
16
26
18
4
16
6
20
28
16
18
2
22
20
2
20
18
10
22
24
24
18
4
4
22
26
20
18
12
14
12
6
8
8
12
18
20
18
12
8
8
10
12
18
16
16
18
16
8
8
26
22
38
38
16
16
4
32
38
20
4
32
70
138
200
230
202
164
134
126
122
82
46
26
22
32
36
32
36
60
76
60
52
124
236
255
255
224
32
54
56
40
32
56
36
16
6
16
14
4
26
30
38
14
12
26
16
36
28
16
42
46
24
16
10
20
16
26
24
28
36
46
50
34
18
28
20
18
16
2
8
14
16
8
18
42
62
66
56
40
22
26
30
38
50
48
38
68
86
80
74
70
54
24
8
38
80
146
206
240
255
255
255
255
255
255
255
255
238
222
232
228
196
170
178
214
234
188
154
108
106
144
206
250
218
154
78
12
58
255
255
255
236
56
46
58
40
118
134
72
20
12
36
42
32
44
38
22
14
30
42
38
28
26
28
28
20
14
6
16
16
6
2
6
6
8
14
20
26
22
14
8
22
22
16
20
20
16
6
6
14
24
26
22
10
10
12
10
6
6
14
18
16
16
20
20
10
6
2
12
20
24
24
26
30
24
12
16
14
10
10
8
14
26
26
26
32
38
34
22
14
20
34
42
40
36
34
34
42
52
62
60
54
52
58
76
86
108
132
144
154
130
114
116
130
142
120
82
48
16
10
60
116
140
162
172
178
176
134
76
40
32
54
54
32
14
10
10
20
22
22
24
20
24
30
26
20
12
4
8
12
6
4
4
6
6
8
12
14
28
40
34
14
14
20
18
6
6
14
14
10
18
24
28
28
16
10
26
24
18
24
38
40
30
8
12
22
26
22
10
6
16
28
30
14
20
22
34
30
18
20
22
20
22
26
26
12
4
4
10
20
22
16
12
14
24
38
42
28
2
8
2
2
4
8
8
8
18
28
28
22
10
2
4
12
16
10
22
20
4
8
2
18
38
52
62
68
66
48
28
10
4
12
18
26
34
28
16
12
20
30
30
24
22
32
38
28
16
12
12
10
6
4
6
8
10
14
20
18
22
34
46
80
138
240
255
255
178
36
64
104
108
90
70
56
38
40
36
48
58
54
42
58
58
30
10
8
12
36
48
46
34
16
12
24
36
50
48
34
26
24
22
20
14
12
16
16
22
34
36
28
16
12
18
28
46
48
42
44
48
56
52
38
28
36
50
50
44
42
48
56
58
58
58
54
44
32
24
14
28
42
48
42
44
56
58
58
52
38
32
30
28
26
20
10
4
6
14
10
4
8
8
14
30
34
34
34
32
14
2
6
20
38
42
34
20
28
26
22
12
10
8
4
6
8
12
14
20
26
24
20
10
10
8
28
42
8
16
164
255
255
255
130
26
36
32
34
30
26
20
16
24
42
48
50
38
20
12
24
32
18
8
24
36
30
4
28
28
8
14
24
36
26
14
20
14
12
36
38
26
34
14
14
20
6
12
16
26
34
32
28
20
22
18
26
28
22
24
22
20
14
4
16
16
6
10
20
24
16
6
16
32
26
8
16
20
26
24
18
14
18
12
14
30
26
10
26
58
52
40
40
54
124
188
230
255
242
216
180
144
108
82
68
52
40
36
30
26
50
68
82
76
90
192
255
255
255
255
20
44
58
40
22
30
12
10
18
30
18
18
26
18
42
40
20
10
2
18
14
34
50
34
16
28
22
22
6
22
26
18
12
18
32
32
22
22
26
34
26
2
4
2
8
10
2
8
24
44
58
56
42
38
40
36
52
54
58
84
78
44
22
16
34
54
92
162
255
255
255
255
255
255
255
255
212
146
136
126
108
82
80
58
38
98
158
180
162
226
255
255
255
255
255
255
255
150
60
20
142
255
255
255
210
28
54
42
36
110
118
58
8
0
24
38
40
36
16
16
34
36
26
20
24
30
38
38
24
6
2
8
18
24
22
12
2
6
6
12
14
12
8
18
20
16
2
12
8
4
4
6
8
12
20
22
16
8
2
6
6
4
0
4
2
8
16
16
12
8
10
16
22
20
16
12
24
26
20
16
10
12
20
14
22
22
14
14
20
22
14
4
2
8
18
24
20
30
40
46
48
52
56
52
56
66
78
92
94
110
128
132
130
136
122
112
112
120
110
84
50
14
28
76
110
114
142
158
170
182
152
92
44
30
28
46
46
36
20
18
24
26
24
24
20
22
24
14
20
24
24
26
22
10
22
34
36
34
18
6
20
26
18
18
12
4
6
4
2
2
8
14
22
28
34
42
40
20
14
16
18
12
20
18
18
28
22
4
10
22
26
22
18
36
38
22
12
28
14
24
30
20
14
14
12
18
16
8
12
14
12
6
12
14
14
12
4
18
14
4
18
24
16
8
14
16
18
14
8
6
10
18
26
26
18
16
14
6
16
30
30
22
24
12
30
46
52
54
54
46
30
18
8
10
8
8
10
16
18
12
14
26
36
40
38
34
38
42
36
22
12
16
20
22
26
26
24
22
20
20
16
18
24
38
74
118
194
255
255
220
116
38
80
86
56
46
48
46
42
42
40
42
28
32
48
62
56
36
12
6
14
30
40
44
42
46
50
42
34
30
28
28
26
24
28
28
24
20
24
24
26
18
26
30
26
22
22
34
42
44
50
50
48
48
40
28
30
42
48
50
50
48
44
34
30
34
44
48
42
38
30
40
42
38
40
50
60
60
52
44
40
42
44
40
26
14
6
20
16
26
26
12
10
0
12
16
10
12
18
26
22
6
10
12
24
36
32
18
22
16
10
4
6
12
14
22
20
18
12
18
28
26
20
8
8
8
20
38
12
14
192
255
255
255
112
16
20
22
20
10
8
8
6
18
68
102
84
36
8
30
30
18
4
20
16
12
30
32
10
18
18
20
32
20
12
20
14
14
20
30
30
18
44
40
32
22
6
10
10
30
32
28
22
20
18
12
10
22
28
30
22
16
18
18
16
4
10
14
0
18
20
8
14
4
22
20
8
6
20
22
16
8
22
32
20
0
20
30
46
40
16
26
78
130
170
184
198
226
218
188
146
112
86
54
54
58
62
64
54
64
80
84
100
124
182
255
255
255
255
226
32
50
58
36
10
34
24
10
20
18
8
22
34
22
18
26
26
16
6
16
20
38
32
26
10
10
18
10
10
20
26
22
14
26
40
30
20
22
26
38
40
18
4
10
16
10
2
2
4
16
34
44
44
38
24
16
32
22
26
44
58
128
200
234
234
238
255
255
255
255
255
192
120
50
52
112
106
110
110
78
46
36
40
62
70
96
154
226
255
255
255
255
255
255
255
255
184
88
20
68
228
255
255
255
180
38
72
50
72
126
122
62
14
8
30
44
36
38
30
36
36
26
12
16
26
22
24
32
22
8
12
22
22
20
22
20
12
6
4
6
4
10
16
12
10
8
4
8
4
2
6
10
12
12
16
22
20
12
14
12
6
6
8
12
18
20
18
10
8
8
8
8
18
14
12
10
4
12
20
18
10
8
14
16
16
14
20
16
14
12
10
12
10
6
14
30
38
40
52
52
42
42
46
46
58
70
78
86
84
96
112
118
126
116
108
112
122
130
118
92
52
8
38
76
100
114
130
150
156
150
140
100
60
36
18
14
26
34
28
26
28
28
36
42
36
36
32
16
4
8
16
16
14
20
42
46
38
50
34
8
22
20
18
18
8
8
12
14
10
8
12
20
26
30
40
48
38
34
34
28
22
12
4
10
16
18
18
14
14
16
16
16
26
34
20
10
12
20
24
36
30
16
14
16
18
18
4
10
16
20
26
18
14
18
16
10
8
14
6
22
28
16
20
22
30
30
36
36
26
12
10
8
18
24
22
14
4
8
26
36
32
24
32
16
36
48
44
36
32
30
24
18
12
14
16
10
10
10
14
10
8
24
36
42
46
48
54
56
54
44
30
30
40
46
48
48
42
36
22
20
16
18
26
40
68
108
162
212
234
222
156
66
100
84
32
26
30
32
22
10
2
4
2
12
30
44
50
52
38
18
12
20
32
40
56
52
60
54
42
22
18
26
30
26
28
36
38
32
28
26
22
6
14
22
28
20
22
28
40
52
60
58
48
48
48
38
32
36
44
46
50
50
46
32
18
16
30
44
48
46
42
44
42
44
52
56
54
48
36
32
36
36
34
26
26
26
20
22
14
22
24
12
2
2
10
18
18
14
20
26
22
6
16
8
10
22
24
16
12
4
2
4
2
10
30
34
28
16
8
20
30
24
16
6
6
6
12
34
10
44
220
255
255
255
102
10
10
10
8
8
6
6
0
34
96
114
64
32
42
40
28
26
24
20
8
4
14
28
26
16
8
22
18
20
20
18
14
16
20
24
24
16
26
36
28
22
12
6
6
24
24
18
8
12
12
10
8
18
24
26
22
16
16
16
12
6
8
8
24
28
22
12
22
20
28
18
6
12
18
20
28
38
38
38
44
34
32
56
38
8
32
54
124
156
154
154
186
228
208
158
108
80
66
38
32
42
58
72
68
88
98
98
132
194
255
255
255
255
255
176
18
38
60
52
14
28
24
14
14
14
8
10
32
40
28
20
16
20
10
8
22
24
8
26
36
28
14
6
14
18
26
24
24
24
20
30
22
14
10
16
28
26
12
12
8
4
6
8
2
8
6
6
16
24
64
128
140
126
136
184
255
255
255
255
255
255
255
255
190
66
144
222
255
255
255
255
255
220
172
130
86
48
38
38
38
32
118
255
255
255
255
255
238
188
152
106
60
24
14
102
255
255
255
255
154
72
94
52
68
104
100
50
8
6
34
52
38
12
14
20
16
16
20
32
24
10
32
38
22
4
18
12
6
20
18
12
10
10
4
10
14
10
10
20
26
18
4
8
6
10
10
16
16
16
10
8
16
22
14
4
8
6
12
18
16
8
2
6
10
8
6
10
24
18
14
20
22
14
10
20
16
6
2
4
8
12
14
12
16
18
16
14
26
26
20
26
44
60
54
34
20
28
44
48
52
56
58
72
74
78
90
114
152
158
140
126
128
138
126
92
48
8
38
68
86
122
158
186
186
170
132
88
72
34
20
20
22
24
12
20
26
38
62
60
38
24
20
18
24
32
34
28
18
30
40
26
6
38
46
26
22
12
10
12
8
12
18
20
16
16
20
20
16
30
36
28
10
18
28
24
18
14
4
2
12
14
10
4
12
14
10
2
12
10
10
14
12
8
20
18
12
14
22
30
32
18
6
18
18
14
30
36
34
30
16
4
12
24
18
34
38
22
28
32
30
22
22
36
36
30
22
12
6
14
24
26
24
26
32
30
16
6
16
10
40
50
38
22
22
34
34
24
14
10
10
8
10
14
16
12
12
18
26
36
42
50
66
76
80
76
62
60
68
64
62
62
56
48
34
22
20
26
40
48
62
96
146
192
212
208
158
76
46
44
44
34
30
22
24
46
50
46
30
18
28
30
20
28
42
40
28
20
34
46
32
30
40
50
48
34
24
26
32
28
24
30
38
42
42
32
18
14
14
6
12
12
34
52
52
64
72
68
58
60
62
54
44
38
42
36
46
54
60
58
42
26
26
36
46
44
34
38
56
72
68
52
36
28
20
14
22
30
30
20
4
22
34
24
8
18
30
24
14
8
4
8
10
2
16
34
38
20
18
10
12
18
20
16
8
8
10
8
8
16
24
18
16
18
6
24
30
16
2
12
8
2
8
22
20
74
238
255
255
255
96
8
10
10
8
6
2
6
4
36
82
92
46
56
52
26
18
32
50
60
52
34
16
12
10
2
4
12
12
6
10
10
18
20
24
26
26
18
2
8
10
24
28
18
22
30
22
10
14
22
16
4
14
28
38
36
24
12
12
0
12
18
20
18
20
12
8
4
2
12
22
20
12
14
30
42
54
52
34
26
40
48
50
54
16
16
10
76
128
122
120
166
240
255
232
154
92
68
64
40
24
28
42
52
56
90
112
130
188
255
255
255
255
255
228
146
22
50
72
48
16
48
34
6
12
18
18
16
28
40
44
32
20
24
8
20
16
8
18
22
38
44
34
14
14
14
26
32
30
18
10
24
24
20
32
30
24
22
20
10
2
12
8
14
4
6
0
6
32
96
186
228
206
198
244
255
255
255
255
255
255
255
255
206
108
224
255
255
255
255
255
255
255
240
190
142
90
32
30
56
42
56
214
255
255
255
156
74
26
4
4
8
8
4
30
130
255
255
255
255
106
52
76
38
48
84
82
38
4
8
38
50
28
4
10
4
8
20
20
20
10
40
50
40
22
14
12
8
26
28
14
6
6
14
10
14
14
4
6
10
22
20
8
6
10
14
6
20
24
20
14
12
8
20
20
14
10
14
14
8
2
8
12
12
12
14
12
4
20
10
6
8
20
24
14
22
26
18
8
4
8
14
14
4
6
6
16
38
48
40
32
40
58
66
44
16
12
24
44
46
44
62
72
70
68
68
86
132
178
170
140
128
140
154
130
80
36
8
36
74
100
152
182
190
170
136
96
88
82
54
32
32
30
28
22
30
42
54
62
42
12
0
10
18
26
28
40
44
36
30
24
30
20
16
24
24
14
8
6
10
8
6
12
16
12
12
14
8
6
26
42
40
24
26
32
26
16
8
4
8
16
18
14
12
16
18
18
18
28
26
24
20
22
20
12
4
8
18
30
34
24
4
12
16
12
2
14
26
36
46
40
18
20
34
32
38
54
48
42
40
32
20
10
28
30
28
34
28
18
32
38
32
24
24
22
14
8
12
8
20
44
42
24
10
16
34
42
40
34
30
26
22
22
30
34
30
28
32
38
44
50
50
60
72
78
82
76
68
62
48
48
50
50
44
34
24
26
36
50
48
52
74
128
178
196
188
142
70
8
32
40
38
38
32
40
58
44
52
48
34
32
38
28
4
26
44
36
20
40
32
32
38
42
44
54
52
38
30
32
28
30
38
42
44
46
50
46
34
24
12
10
20
44
54
44
50
64
60
50
52
54
50
48
42
38
32
36
42
54
70
70
52
36
32
38
40
26
38
62
68
44
22
14
16
12
8
12
28
34
32
20
10
38
36
18
28
38
22
16
14
0
8
14
16
16
30
34
24
10
8
10
14
16
16
12
14
12
10
14
22
22
10
8
16
12
28
24
14
14
18
16
12
14
28
32
104
255
255
255
255
84
8
12
10
10
8
6
2
26
52
56
80
64
50
30
14
10
20
26
44
58
56
38
18
8
10
18
28
26
12
16
10
12
18
26
30
34
32
18
14
22
28
20
2
20
26
20
14
24
22
8
8
22
30
34
26
14
10
16
10
8
14
22
16
4
6
10
12
16
18
14
10
10
32
44
52
50
22
10
22
8
16
32
20
4
12
58
116
142
136
158
216
255
255
204
124
72
62
68
48
24
36
34
40
60
106
152
194
255
255
255
255
255
234
142
94
16
42
64
38
32
48
22
14
12
6
16
30
34
24
36
30
8
8
2
18
24
24
30
18
22
28
26
16
18
26
38
38
30
14
4
10
20
34
40
32
26
28
22
4
8
14
8
16
12
4
8
44
150
238
255
236
188
202
255
255
255
255
244
126
58
140
244
255
255
255
254
212
158
108
114
142
156
164
160
140
102
60
64
34
58
198
255
255
236
102
26
6
4
2
10
8
8
2
44
164
255
255
255
224
98
50
58
10
42
78
74
34
10
16
38
40
24
6
8
12
8
24
38
38
38
46
38
30
24
34
28
16
20
8
12
18
8
18
20
14
8
4
8
18
26
22
14
10
18
20
10
24
26
16
10
8
8
14
6
4
6
10
20
24
16
10
6
4
6
18
26
30
40
24
28
22
30
38
20
20
30
32
24
8
12
12
8
6
16
34
50
56
48
32
24
34
52
56
34
14
16
26
40
40
40
48
66
80
64
70
98
146
168
142
122
130
154
162
120
60
22
2
30
76
138
180
176
148
124
130
132
124
102
66
36
18
6
16
30
46
52
46
38
48
38
22
18
26
24
12
4
18
26
20
14
6
14
22
16
2
14
20
16
10
6
4
12
16
6
0
2
2
10
26
24
30
24
40
44
32
16
6
2
4
12
24
30
24
20
22
24
24
30
30
24
22
26
30
24
18
18
30
36
28
14
18
18
8
14
16
10
2
14
34
46
36
24
32
26
20
30
42
48
48
40
26
16
24
20
16
28
36
36
28
22
12
6
8
4
6
8
6
12
32
34
22
22
16
14
28
42
50
48
36
28
28
28
34
40
40
40
46
54
54
54
46
44
50
48
52
58
52
40
24
18
26
36
36
26
22
34
40
46
38
42
60
96
154
182
178
134
66
22
6
14
26
40
46
58
64
38
56
72
32
34
46
22
20
18
38
30
8
24
10
34
52
48
46
48
50
44
34
32
26
30
42
46
42
32
34
46
58
62
50
32
30
36
30
14
12
34
38
34
30
30
32
38
44
40
36
30
24
34
54
76
74
56
40
34
36
26
38
42
26
0
8
6
14
10
20
16
14
20
26
22
4
28
36
20
24
26
10
18
14
6
16
18
14
4
14
16
12
4
4
6
8
10
14
18
20
12
6
20
32
30
18
18
16
14
20
12
14
10
10
8
14
24
52
60
150
255
255
255
255
72
8
12
10
12
2
2
20
56
72
60
32
18
10
4
12
24
38
36
20
22
36
50
48
24
34
30
32
40
26
16
22
14
16
18
26
36
38
22
2
20
28
28
36
46
32
8
12
16
4
8
14
16
16
28
34
32
24
18
12
12
12
12
16
10
6
14
14
18
24
24
16
34
52
50
40
10
32
52
44
44
34
12
8
8
44
102
150
182
204
232
244
234
200
130
76
50
54
64
50
24
32
36
60
92
150
212
255
255
255
255
255
222
120
60
36
12
40
62
40
26
34
20
12
6
10
22
24
28
20
28
22
6
6
4
12
16
20
18
14
18
20
18
10
22
28
32
26
18
10
2
14
26
34
32
22
18
16
6
8
8
8
12
12
8
62
128
226
255
255
255
204
166
158
146
116
130
172
174
220
255
255
255
255
255
206
106
62
68
46
80
98
82
102
150
178
174
142
84
60
180
255
255
230
110
50
18
0
4
4
8
6
12
4
48
180
255
255
255
190
84
40
44
4
42
70
70
40
24
26
38
32
18
12
20
24
16
24
34
30
26
24
18
12
6
20
20
6
10
4
18
16
12
24
22
14
10
10
22
32
30
24
14
12
18
22
20
28
28
16
6
4
8
18
16
14
16
6
4
14
14
10
4
4
12
14
22
38
34
20
26
22
26
30
14
8
14
24
28
20
16
12
10
16
28
44
48
40
28
18
18
30
44
42
24
14
22
36
52
52
52
54
60
78
74
80
106
136
142
128
112
110
124
128
92
44
14
8
38
88
144
156
132
128
122
118
118
122
114
82
52
38
38
40
28
22
22
18
28
38
40
26
18
16
18
20
16
4
8
12
10
8
12
14
14
16
24
20
26
20
10
2
6
16
16
12
12
12
16
18
16
22
22
26
18
6
8
8
10
12
20
22
24
18
6
10
14
12
8
14
16
16
20
24
14
6
10
24
36
32
18
24
16
12
8
14
16
20
12
12
24
28
22
36
34
24
22
34
46
44
42
34
28
26
16
10
16
24
34
32
18
8
6
6
4
6
8
10
22
28
18
14
20
18
12
22
30
42
48
38
22
24
24
26
30
30
30
42
50
46
40
30
30
34
24
16
24
34
34
26
20
14
20
32
26
34
38
34
30
22
30
48
74
132
174
188
158
86
28
14
20
34
46
50
56
64
54
66
62
16
30
48
36
26
20
34
34
12
32
16
24
46
40
32
32
38
44
40
30
22
22
24
26
28
14
22
36
36
56
56
42
20
16
20
26
16
20
26
36
32
26
26
30
32
36
36
34
26
38
36
54
70
68
58
44
36
28
38
30
10
6
2
6
14
10
16
16
18
28
30
18
4
18
30
26
24
20
4
14
2
16
22
20
8
12
22
22
10
6
12
18
22
16
16
14
16
12
10
26
30
20
14
20
20
16
8
4
12
8
4
6
12
20
44
88
202
255
255
255
255
64
8
10
10
10
0
4
26
50
50
34
22
16
8
2
2
6
18
28
30
18
8
36
52
34
24
6
20
34
34
14
4
4
6
12
14
22
28
30
18
24
24
16
40
36
22
12
14
2
10
10
10
12
10
12
18
28
34
20
2
14
18
12
12
10
14
18
12
22
28
30
18
36
44
36
18
14
30
14
14
24
26
22
10
24
70
112
146
186
222
242
226
186
138
78
46
46
50
56
44
22
28
46
82
122
186
250
255
255
255
255
210
124
70
40
26
20
42
52
30
16
30
14
22
20
24
18
14
30
48
40
18
10
16
10
6
4
8
4
12
24
28
26
18
26
22
18
18
22
20
12
14
22
26
36
34
22
8
14
12
8
6
10
10
100
244
255
255
255
216
170
144
94
10
104
220
255
255
255
255
255
255
255
255
154
54
34
78
96
68
76
66
38
84
150
208
238
234
174
128
222
254
194
98
60
64
52
30
18
10
12
10
12
2
52
200
255
255
255
198
74
30
34
14
42
68
72
48
32
28
34
34
28
32
34
26
26
26
22
14
10
12
14
16
26
32
22
8
10
4
18
14
14
24
22
16
16
22
28
26
16
10
6
6
8
10
18
24
26
16
4
4
12
24
26
24
22
24
22
12
10
4
6
8
14
10
16
20
6
8
12
6
10
18
8
10
16
14
6
14
16
10
12
20
24
28
22
16
14
14
24
32
34
26
16
18
32
52
68
64
56
48
54
74
78
88
104
122
132
116
122
130
142
134
86
36
6
12
38
76
128
156
152
136
110
92
104
102
90
82
64
46
46
62
68
72
64
44
28
22
34
42
32
24
18
14
10
10
6
10
12
14
10
8
28
32
24
6
14
14
12
10
6
2
10
12
12
16
26
26
18
20
14
8
20
20
10
10
16
14
14
4
18
22
12
16
22
20
14
16
14
8
14
22
22
18
16
22
26
16
10
14
12
22
16
4
8
14
18
16
18
4
22
44
48
34
24
30
34
22
30
30
26
22
16
16
36
44
40
28
18
8
8
6
2
10
14
22
34
28
12
10
10
12
20
32
28
32
44
44
26
20
16
20
18
20
20
32
40
34
24
16
24
30
22
8
6
22
36
36
24
8
12
28
38
44
36
28
22
18
26
38
58
104
150
184
184
130
52
48
46
56
56
46
38
32
26
36
26
8
18
36
40
34
28
46
38
10
30
18
14
28
22
18
10
18
36
46
48
58
46
38
36
30
12
20
26
12
14
26
26
14
2
12
14
6
6
20
38
42
36
34
20
16
20
24
32
30
28
22
20
42
60
70
60
40
30
38
32
24
18
10
4
10
4
10
8
10
16
16
4
6
12
22
28
28
26
16
20
16
22
20
16
10
22
22
14
2
16
26
28
36
28
16
18
12
10
18
26
14
10
4
6
16
20
18
10
10
14
10
22
36
42
26
106
246
255
255
255
232
56
8
10
8
8
0
4
26
56
66
52
30
12
4
10
14
24
26
22
10
6
4
12
30
26
14
32
36
20
32
38
28
18
16
12
20
34
40
36
10
18
24
14
30
12
24
32
20
14
10
2
6
18
26
22
24
10
14
22
24
22
30
26
16
14
14
12
8
18
28
28
12
16
30
26
12
6
20
60
70
60
30
6
24
50
78
98
120
160
194
208
190
150
106
56
36
44
48
54
44
22
34
62
106
154
216
255
255
255
240
172
124
90
72
50
30
26
50
56
32
18
30
4
18
12
28
34
24
40
30
34
28
18
6
6
18
18
20
12
12
28
28
24
16
24
24
26
22
10
12
18
24
24
22
28
34
30
12
4
8
2
40
104
196
255
255
255
232
116
60
40
62
138
246
255
255
255
255
255
255
222
176
98
86
104
166
190
176
176
110
24
26
44
58
94
140
184
210
168
88
158
156
112
84
78
92
98
78
54
24
4
6
14
32
116
255
255
255
255
172
48
30
32
12
44
72
74
44
20
10
14
20
18
20
16
4
8
20
28
16
8
10
8
14
22
16
8
8
16
8
10
10
10
22
22
14
10
12
12
6
4
4
6
4
2
6
10
10
12
8
4
8
22
26
18
10
10
14
14
10
8
6
6
8
12
10
8
8
4
6
10
8
16
22
4
16
22
12
14
4
6
4
6
18
22
26
22
14
18
24
30
28
24
22
22
34
50
64
70
62
56
56
68
84
84
92
104
114
116
112
112
120
140
142
98
36
2
12
38
74
120
140
136
132
124
116
110
98
74
44
42
40
42
54
60
66
64
52
44
44
54
54
32
12
8
4
6
12
14
14
18
14
4
18
28
20
6
10
20
20
16
10
6
6
6
4
4
6
18
26
22
24
26
16
4
8
12
12
22
16
18
24
28
12
6
8
8
14
20
18
16
12
16
24
16
6
6
18
24
12
4
8
4
16
16
14
16
12
4
6
8
6
26
38
34
18
12
24
26
4
30
46
40
20
12
26
40
34
20
20
28
26
26
18
8
20
22
26
42
44
30
16
10
18
38
46
36
40
52
60
48
24
14
22
24
28
30
38
40
28
18
18
26
32
28
22
18
26
36
42
44
34
36
48
56
48
42
40
40
40
48
58
80
118
136
134
144
128
82
50
14
36
44
38
38
30
14
12
10
8
12
22
30
36
34
42
42
30
42
22
16
34
36
22
10
6
14
40
58
44
14
2
12
20
14
20
32
26
12
16
20
20
6
12
12
2
4
2
14
24
24
28
24
18
14
10
18
20
14
14
16
18
36
52
52
34
16
24
22
24
28
22
4
16
12
12
2
12
22
16
0
6
4
6
10
12
14
14
18
16
16
12
10
6
24
32
22
6
14
20
16
16
22
24
18
8
22
26
16
6
14
14
10
14
16
26
20
2
10
18
30
28
52
28
130
255
255
255
255
200
48
6
10
8
8
0
2
16
40
58
60
46
26
24
38
36
30
20
24
16
2
8
14
20
24
30
26
14
4
8
22
26
22
16
26
34
32
22
26
20
36
26
14
34
28
44
42
16
26
16
2
12
24
30
22
32
34
34
44
38
28
30
34
26
8
8
18
20
6
12
18
16
18
40
40
24
18
30
48
36
50
52
20
50
62
76
98
132
178
202
196
160
116
76
40
34
30
36
50
56
42
58
86
136
194
255
255
255
255
194
134
100
70
50
26
6
20
50
62
40
20
32
14
28
28
6
24
22
12
18
44
36
10
14
22
24
10
18
26
14
26
24
14
10
26
36
40
32
28
16
12
20
24
24
24
20
18
18
14
10
92
226
255
255
255
255
76
90
84
74
120
238
255
255
255
252
180
180
182
122
52
100
168
248
255
255
255
255
255
228
108
32
14
52
106
140
158
168
134
58
158
208
180
132
104
106
118
112
90
46
4
8
28
82
202
255
255
255
255
114
50
62
42
34
52
76
70
32
18
16
26
34
34
40
38
32
34
32
18
18
16
8
2
6
12
12
12
6
10
16
16
8
8
20
24
22
22
24
22
16
10
8
8
6
4
8
12
16
22
20
8
16
22
12
20
22
22
22
16
8
4
10
10
16
14
14
12
8
14
18
28
28
32
28
12
20
16
2
12
8
12
12
14
22
26
34
36
34
36
34
32
24
22
28
34
48
56
56
54
50
58
72
80
82
80
94
108
106
112
116
110
106
132
142
102
36
0
10
40
80
116
142
122
106
126
152
138
98
70
38
8
14
26
34
30
40
32
28
42
64
88
100
82
54
32
16
16
16
16
8
12
6
10
22
28
22
16
18
20
18
10
6
6
6
6
12
16
8
2
10
14
20
30
36
30
32
22
16
26
24
32
26
18
20
32
28
20
10
6
6
10
12
12
16
28
28
28
34
34
20
8
10
4
16
8
8
20
28
30
26
20
22
30
26
24
12
12
26
20
16
50
64
48
24
20
28
32
32
26
22
28
38
48
40
14
20
20
18
36
48
46
36
24
36
50
50
38
40
54
70
72
48
24
36
44
44
42
40
30
14
8
12
22
30
30
34
38
42
44
42
44
54
64
62
54
48
52
60
62
60
68
82
110
144
156
156
144
116
88
58
52
78
58
16
40
50
30
10
24
30
26
20
22
40
28
36
48
42
26
6
6
32
56
58
30
14
32
46
52
60
48
42
48
48
26
6
14
14
2
14
22
18
2
20
12
8
8
10
12
2
6
14
24
32
30
18
10
10
8
10
10
4
22
30
30
20
6
8
10
2
16
22
14
14
16
8
20
32
32
18
8
8
2
6
10
14
12
4
2
4
2
4
12
8
18
34
28
10
10
24
26
24
32
26
12
30
36
24
22
10
4
10
14
10
6
22
28
18
18
18
26
2
34
12
142
255
255
255
255
174
44
4
6
6
6
0
2
12
24
34
38
26
20
52
58
36
24
22
30
26
20
18
22
28
28
18
24
20
2
14
14
14
24
36
40
32
10
18
32
36
28
6
8
12
22
34
22
8
20
16
14
20
22
18
14
4
20
36
38
26
16
12
26
26
16
16
22
32
26
18
18
16
2
26
38
30
36
72
92
70
32
22
30
56
60
86
132
182
222
222
188
134
86
48
26
30
26
18
36
56
56
76
108
168
238
255
255
255
255
186
126
80
36
36
40
34
14
42
56
38
20
42
30
30
40
34
18
12
16
22
20
18
16
16
10
12
6
18
26
16
22
14
12
22
34
34
24
12
22
28
32
42
40
34
38
38
32
4
94
234
255
255
255
255
255
236
138
170
176
170
244
255
255
226
154
90
42
82
192
255
255
255
255
255
255
255
255
255
255
255
255
220
228
255
255
255
255
255
255
232
255
255
255
200
106
52
48
68
78
50
8
32
30
74
200
255
255
255
226
82
4
30
4
44
68
80
70
38
14
4
10
20
20
28
28
24
24
18
10
4
8
16
16
12
4
8
10
12
8
8
8
12
16
24
28
26
26
30
28
20
12
8
8
10
12
14
14
14
22
28
26
16
8
12
20
24
22
18
14
14
16
14
4
14
14
10
8
20
34
32
32
28
24
22
20
32
28
8
16
8
12
10
8
22
30
26
30
28
28
28
26
24
28
36
40
44
38
28
40
48
52
66
60
54
64
96
116
108
94
94
110
126
138
136
98
32
2
2
28
86
140
140
112
88
94
128
136
118
86
34
16
20
20
44
62
48
20
12
24
36
62
90
90
70
46
24
20
14
18
8
6
6
10
24
38
38
28
16
8
6
10
12
6
6
16
20
16
12
16
14
14
14
8
14
14
10
8
14
12
8
10
6
16
24
18
14
24
26
24
22
22
14
8
14
18
18
18
22
24
18
16
18
20
24
8
14
22
16
28
30
22
18
30
36
40
38
32
26
6
26
46
46
28
16
22
26
16
22
22
8
16
16
40
46
24
10
18
0
20
38
48
44
32
34
36
28
20
24
26
50
68
60
36
46
50
42
38
32
16
14
16
14
10
10
18
28
42
52
54
44
48
62
54
44
30
42
54
60
52
48
52
66
86
104
108
108
108
106
98
74
76
68
26
18
22
52
50
24
42
38
24
32
34
36
20
8
10
12
40
40
40
18
22
52
48
26
42
44
28
28
28
32
48
62
52
32
30
16
6
22
20
16
12
22
10
10
10
2
10
6
10
14
20
34
44
40
28
16
8
10
14
14
24
28
24
18
10
8
8
12
22
22
14
4
12
22
30
26
16
8
8
12
12
8
10
12
16
16
14
10
6
4
16
18
16
32
28
14
12
12
4
18
20
8
16
30
24
10
28
30
28
24
18
6
6
6
16
16
14
14
24
2
46
24
152
255
255
255
255
152
42
6
8
8
6
0
6
28
50
58
46
8
36
56
34
30
36
38
30
22
18
18
24
30
26
20
14
16
18
14
14
18
32
38
32
20
6
10
18
20
24
22
14
10
12
6
16
26
30
30
28
24
24
18
8
12
16
12
6
14
18
14
28
34
26
20
14
22
18
8
20
30
22
12
12
10
10
32
60
68
48
36
46
50
64
114
176
218
232
210
168
118
74
42
24
24
24
16
22
22
30
62
124
212
255
255
255
255
192
122
76
46
20
10
14
14
12
36
48
32
20
42
24
14
22
30
34
28
12
12
30
32
24
14
12
18
16
6
22
28
28
10
16
30
28
12
14
16
10
30
48
54
44
34
42
34
14
144
255
255
255
255
255
228
218
228
212
168
156
198
224
174
84
62
60
46
100
236
255
255
255
255
255
255
255
255
255
255
255
255
255
255
255
255
255
255
255
255
255
255
255
255
255
255
118
108
92
90
88
40
30
38
8
74
222
255
255
255
180
62
40
46
32
62
74
80
72
48
26
24
24
26
16
10
4
0
0
4
10
22
30
30
20
24
16
6
8
10
10
10
8
2
12
20
24
22
18
20
22
16
8
2
2
8
10
10
8
2
6
18
30
26
10
18
16
12
12
8
4
8
16
22
18
22
16
8
12
30
38
24
22
16
4
10
10
30
30
14
24
20
24
26
20
20
26
36
38
24
16
20
20
26
32
36
34
30
24
30
42
56
70
62
38
34
62
100
114
110
106
96
88
122
156
154
96
26
6
4
10
76
150
166
126
90
98
118
110
110
100
56
34
20
30
70
66
28
4
18
8
6
16
44
62
60
46
28
22
20
24
14
10
20
24
24
28
36
36
26
14
10
12
16
14
16
20
12
6
8
16
22
22
16
10
12
22
34
38
36
32
34
34
22
10
28
38
22
2
18
26
32
38
34
20
14
10
24
36
32
14
10
26
26
34
42
26
18
16
6
12
24
22
14
38
62
74
62
38
26
20
28
42
56
50
24
18
20
16
18
22
10
18
10
16
32
26
4
16
12
2
16
30
34
28
12
8
20
20
18
10
14
38
44
30
34
32
20
18
24
28
32
26
26
22
10
12
18
24
42
48
36
44
44
28
34
16
38
46
36
30
24
26
40
48
68
112
140
142
128
102
68
36
10
22
32
12
30
46
28
32
16
8
30
46
44
24
16
32
62
82
62
70
68
34
30
40
48
38
28
16
8
6
10
16
40
50
44
32
20
16
20
8
12
14
16
6
8
14
18
26
18
18
14
20
26
32
44
42
30
18
16
18
10
14
26
26
20
16
16
10
16
18
10
14
26
32
30
22
10
10
8
2
8
18
24
16
4
4
12
18
18
10
12
28
22
16
28
24
8
26
26
28
22
12
10
16
10
16
12
16
34
38
36
20
6
12
12
8
2
6
14
32
14
54
20
180
255
255
255
255
132
36
10
12
12
8
0
10
42
64
54
22
20
40
24
12
42
48
30
12
6
10
16
22
26
26
32
34
30
18
2
4
12
22
22
28
22
6
22
26
14
8
22
22
10
8
28
34
36
38
38
32
24
28
24
18
18
8
12
16
20
24
30
40
36
22
6
14
26
32
32
24
34
34
20
18
18
24
30
32
44
68
70
46
42
76
138
192
206
194
166
136
100
64
38
20
28
40
40
30
16
28
86
176
255
255
255
255
178
100
44
24
20
20
28
26
26
16
40
54
38
8
40
34
28
26
16
12
18
20
12
6
12
14
18
18
8
14
12
10
10
10
14
20
22
14
6
6
20
38
42
38
34
30
28
10
68
216
255
255
255
255
255
42
166
255
255
255
202
160
126
80
20
52
74
76
188
255
255
255
255
255
255
228
156
84
26
88
186
246
230
160
154
168
190
246
255
255
255
194
192
230
255
255
255
210
138
74
56
56
24
32
10
38
50
230
255
255
255
134
42
30
24
16
54
76
82
66
34
6
6
14
24
20
14
10
8
6
4
12
20
16
6
12
26
18
4
10
12
6
2
4
12
18
18
18
16
14
16
20
18
16
14
14
16
12
12
16
14
14
22
32
26
8
14
6
4
8
8
4
4
2
6
6
2
6
6
14
28
26
14
22
18
6
16
8
16
20
12
26
20
16
20
22
28
34
32
28
26
22
26
26
30
30
30
28
28
28
30
38
50
64
60
42
32
58
98
126
124
112
116
126
146
170
168
96
22
14
8
4
60
130
150
120
96
100
122
118
104
92
56
28
22
56
84
62
26
30
22
0
12
16
30
46
52
48
38
28
32
40
38
46
50
32
14
4
12
34
50
58
46
24
4
18
24
16
2
4
8
12
8
8
6
4
10
26
36
34
22
12
12
18
16
12
14
22
22
24
16
10
12
24
22
12
8
16
26
22
14
18
34
36
26
34
48
44
26
24
20
20
30
38
32
52
70
68
50
48
52
48
48
46
52
60
54
38
16
12
22
20
4
14
8
14
24
20
14
22
16
6
8
12
8
12
10
2
14
18
20
20
20
24
16
6
12
14
4
14
24
28
26
16
28
32
24
16
10
4
22
32
20
20
14
6
26
24
40
28
6
10
14
32
48
58
70
80
90
104
98
76
42
44
58
56
36
6
10
20
16
18
32
32
26
30
48
42
26
26
42
46
22
30
54
52
20
20
54
66
54
36
22
14
10
14
14
6
14
28
38
38
32
16
8
6
8
8
10
20
28
26
14
14
10
16
18
2
22
32
34
30
18
16
12
16
26
22
14
12
18
26
20
12
18
28
30
22
14
8
4
6
6
4
2
6
18
22
18
14
10
12
14
16
24
24
10
10
28
30
14
34
22
30
28
12
8
10
2
6
18
18
18
10
22
22
14
20
18
18
20
14
16
32
18
66
20
176
255
255
255
252
114
34
6
10
12
6
4
18
52
62
32
16
36
24
14
42
52
44
22
10
10
10
18
24
28
28
28
22
16
16
8
8
16
24
30
34
34
20
12
16
12
6
16
22
18
18
24
22
28
38
40
30
18
20
18
16
14
10
8
10
12
20
30
30
20
6
8
20
20
16
20
8
6
20
22
24
26
28
24
22
42
66
58
34
44
90
146
176
162
132
104
106
86
56
34
16
44
66
70
86
80
110
184
255
255
255
255
210
122
64
24
18
20
20
30
32
34
24
44
58
48
12
32
42
34
34
36
42
36
14
12
24
24
22
18
14
6
8
8
14
8
18
20
16
18
10
10
24
34
36
20
16
24
18
8
74
238
255
255
255
255
62
204
255
255
255
255
255
190
112
34
26
36
20
42
176
255
255
255
255
255
174
46
100
176
236
250
255
255
255
216
152
146
168
154
142
126
110
86
84
146
188
246
255
255
248
118
28
12
32
22
18
28
50
28
200
255
255
255
90
46
38
24
16
54
78
74
48
24
14
12
20
20
16
12
12
10
8
8
16
20
18
26
36
36
20
16
20
12
4
6
8
24
34
40
38
28
20
20
24
24
22
16
16
20
18
22
28
22
20
30
40
36
22
30
20
6
14
12
8
8
8
8
12
14
14
16
16
22
28
22
24
12
2
10
14
18
8
12
18
8
2
4
12
38
48
40
28
28
34
36
36
34
32
34
32
36
44
48
52
58
62
50
44
52
68
78
112
144
140
138
160
182
192
164
80
18
16
12
4
72
152
172
126
78
98
134
130
100
76
48
30
38
62
68
46
26
36
44
18
16
36
42
46
44
40
40
38
42
48
52
64
56
50
38
6
24
44
48
76
80
64
32
4
24
26
8
10
14
20
18
20
16
6
16
24
24
16
16
36
44
38
22
10
20
26
12
14
30
28
12
24
26
14
4
14
38
40
26
38
40
32
24
32
44
50
42
26
28
28
26
34
30
42
54
46
32
24
50
58
60
54
46
48
54
56
48
28
14
10
24
22
6
16
20
14
28
38
28
24
20
20
14
12
8
4
12
10
8
8
16
24
24
12
18
16
6
14
14
32
40
46
58
46
32
14
2
2
10
22
14
2
14
12
16
32
26
6
8
4
28
46
58
78
102
114
114
92
68
62
68
78
70
44
34
22
10
16
40
60
58
60
44
26
28
34
34
34
42
56
48
24
8
34
30
0
38
60
62
54
42
34
24
20
28
20
18
10
36
50
46
28
10
8
14
22
24
24
20
12
14
26
26
26
36
24
30
28
22
28
26
22
16
20
24
14
4
6
12
28
30
26
32
26
12
6
2
2
8
12
8
2
6
6
2
14
22
22
20
28
30
32
30
16
4
8
22
30
28
32
10
22
26
12
4
8
4
8
16
20
24
20
20
22
22
24
18
14
24
26
20
24
18
74
14
192
255
255
255
232
90
30
4
12
12
2
8
24
50
46
18
24
32
18
34
44
40
28
12
4
10
16
20
24
24
20
12
6
2
10
18
8
4
16
24
30
30
24
24
28
12
14
36
36
18
4
20
28
28
30
28
16
8
14
18
12
10
22
20
14
6
12
18
12
6
10
14
14
6
18
32
32
24
12
8
14
12
6
4
6
30
56
54
34
54
96
138
152
128
108
112
120
106
76
44
22
60
80
80
92
126
192
255
255
255
255
234
154
94
62
32
14
16
30
22
22
20
28
44
56
56
34
6
8
4
8
16
20
22
24
22
20
14
8
8
16
16
14
20
24
18
22
16
16
10
14
20
24
26
38
40
34
42
46
50
184
255
255
255
234
70
234
255
255
255
255
250
170
108
78
34
36
58
58
172
255
255
255
255
212
94
106
226
255
255
255
255
255
255
255
255
255
248
255
255
255
252
224
208
255
255
255
255
255
255
240
100
42
34
36
38
28
34
30
30
236
255
255
255
60
64
40
8
24
66
72
56
32
14
8
14
26
22
10
2
8
14
18
20
24
24
26
24
18
6
8
4
24
36
34
18
14
24
30
32
28
30
26
16
18
14
14
6
6
10
12
24
30
20
16
22
26
20
8
24
20
4
10
8
6
4
4
2
4
4
4
14
18
18
18
14
10
4
4
8
12
10
4
8
10
8
10
6
18
38
36
22
18
34
44
44
44
40
42
46
40
38
38
34
32
34
42
54
60
62
70
84
104
130
150
142
142
146
144
120
60
10
8
14
6
74
148
162
118
82
84
108
110
92
68
50
44
48
64
80
72
44
10
30
34
14
30
50
56
46
32
32
38
46
44
34
34
28
50
68
52
62
54
28
42
58
66
52
22
26
20
10
28
26
30
22
8
20
22
18
14
32
36
36
32
14
12
32
42
42
28
22
14
18
14
6
26
26
12
16
2
24
28
12
24
26
24
22
30
36
38
34
20
12
10
2
6
2
22
48
46
26
6
16
34
50
62
58
46
40
40
46
44
32
38
32
18
24
30
14
20
38
28
28
38
28
14
8
8
10
6
4
8
8
0
8
18
20
8
10
18
6
10
22
32
32
28
22
10
18
14
8
10
16
32
34
26
12
14
24
20
12
14
12
34
48
44
48
64
76
78
78
72
64
58
62
64
46
18
36
30
10
12
38
58
42
44
48
26
54
62
56
44
30
18
26
26
8
20
28
12
18
28
32
32
30
24
20
30
28
14
26
20
14
28
30
26
20
32
36
36
24
14
4
2
14
30
24
4
14
14
20
22
18
16
8
4
6
20
26
12
4
12
12
24
22
20
20
14
16
10
4
6
8
4
4
2
2
10
16
12
18
14
8
16
24
34
36
26
22
14
16
18
30
26
20
32
40
28
12
10
4
8
18
16
6
4
12
22
22
18
12
4
14
20
22
28
24
72
8
228
255
255
255
198
66
24
10
4
4
4
8
20
38
44
18
16
30
16
30
26
16
8
2
4
12
22
28
26
24
22
16
6
6
6
16
22
26
28
22
20
20
8
8
12
8
24
34
18
14
16
14
30
44
46
30
26
28
22
32
26
8
8
16
24
24
18
20
10
12
16
14
8
2
4
4
8
18
28
28
20
16
16
16
16
36
60
64
56
66
94
130
148
134
112
98
94
78
60
38
24
60
68
62
80
128
208
255
255
255
226
158
102
68
56
34
32
14
22
30
26
18
20
36
48
50
40
28
34
28
32
36
34
26
30
18
12
2
6
8
12
12
12
24
30
24
38
30
20
6
10
22
38
40
46
48
32
24
28
126
255
255
255
182
158
246
255
255
255
255
224
152
92
76
76
54
24
130
250
255
255
255
255
124
116
255
255
255
255
255
255
255
255
255
255
255
255
232
255
255
255
255
255
255
255
255
255
255
255
255
196
74
42
40
30
20
14
26
34
76
255
255
255
254
38
74
48
10
38
70
70
50
30
26
34
34
28
12
10
12
8
10
12
16
20
18
16
12
12
24
28
26
26
32
48
36
10
20
30
22
14
14
22
12
10
12
16
16
4
0
10
16
16
6
8
6
18
22
10
20
16
0
6
10
10
4
8
10
12
16
16
18
14
12
8
6
18
18
16
16
6
4
8
6
6
6
2
12
28
32
22
10
12
32
44
44
42
38
42
44
34
24
18
32
34
34
42
54
72
88
76
100
128
140
140
142
150
132
114
94
48
14
12
14
14
74
150
170
120
98
108
120
104
76
60
48
46
48
60
76
82
72
46
38
36
22
16
46
62
54
34
40
52
54
56
38
22
26
38
66
74
62
34
18
18
26
44
48
34
38
24
28
20
8
18
26
38
40
32
30
12
16
26
22
8
30
44
46
34
20
10
14
18
28
16
12
14
18
10
18
10
18
20
2
14
18
12
10
10
22
26
24
14
10
16
20
24
20
36
46
38
14
14
20
16
18
42
54
50
38
26
28
34
28
34
28
32
34
14
12
34
30
10
20
36
32
22
24
26
22
12
2
6
8
10
12
24
30
28
14
14
18
22
18
18
18
8
14
20
14
8
16
20
28
34
46
48
42
24
24
10
6
20
38
56
54
38
40
48
54
64
58
56
50
50
66
86
78
48
48
26
10
12
50
64
34
14
26
34
76
82
68
54
40
30
28
26
12
14
28
14
36
62
62
50
34
14
12
34
46
32
30
10
18
32
18
14
34
44
42
30
26
18
8
2
10
32
38
24
12
4
10
14
16
24
20
22
10
20
26
12
8
16
8
18
12
6
4
4
14
14
12
10
4
2
6
8
18
28
24
16
16
10
4
16
24
36
36
30
40
32
20
14
24
20
24
34
42
32
20
12
6
8
18
20
14
16
12
16
12
16
18
14
20
24
18
18
16
64
32
255
255
255
255
162
40
18
12
0
0
2
10
22
36
42
20
10
22
10
14
18
16
12
2
4
8
16
22
26
28
32
32
16
14
10
12
26
32
30
24
14
26
22
22
28
8
26
30
10
22
22
6
18
34
44
36
26
16
12
24
28
20
12
6
8
22
26
22
4
18
24
12
2
6
16
16
16
8
18
30
28
20
14
12
22
50
72
76
60
60
84
126
152
148
134
120
110
84
42
36
50
82
84
70
80
124
194
240
242
208
150
106
74
58
50
24
34
24
18
20
24
24
16
34
46
38
20
20
30
22
30
38
42
30
26
14
10
6
6
12
10
8
6
18
24
22
40
40
14
6
14
12
8
6
14
40
58
26
74
206
255
255
154
180
204
255
255
255
255
248
172
136
120
118
98
12
192
255
255
255
255
255
110
162
255
255
255
255
246
84
12
80
72
128
164
180
164
160
238
255
255
255
255
255
255
234
186
152
208
216
140
42
20
26
34
72
124
136
144
168
255
255
255
218
26
64
44
2
30
70
78
56
36
32
32
18
10
8
2
10
10
8
12
10
4
10
14
14
26
26
24
44
38
8
22
24
8
16
26
28
20
6
10
6
16
22
16
10
2
6
14
18
22
18
10
8
14
18
14
20
16
2
4
6
8
4
8
10
10
14
14
14
14
12
14
22
30
24
24
32
24
8
12
8
6
12
20
30
36
34
24
12
10
22
32
32
28
24
26
24
12
4
10
26
32
26
28
38
64
92
92
104
114
106
104
130
148
154
138
96
38
4
0
2
12
68
148
186
164
122
84
86
78
66
54
40
42
46
44
34
52
62
56
44
52
44
26
38
52
54
42
64
68
62
76
72
56
68
64
54
52
52
50
46
36
32
38
36
26
28
26
48
62
52
44
38
28
16
4
18
24
18
12
30
40
30
4
20
30
30
16
6
10
6
8
14
12
22
34
42
28
38
38
22
12
16
24
28
24
10
22
32
22
14
8
4
6
16
34
48
48
26
8
14
26
34
38
28
44
50
34
22
18
6
2
18
34
44
30
40
36
22
12
24
30
18
14
24
30
34
22
10
22
22
14
4
6
12
24
34
32
22
4
12
12
14
12
12
14
18
22
20
18
24
22
32
44
50
38
26
18
26
42
52
58
50
40
50
66
82
88
74
54
46
42
38
50
50
28
14
14
20
16
38
52
46
20
2
40
62
48
30
20
14
10
4
18
20
20
20
18
52
54
28
18
24
28
26
26
30
16
2
10
16
24
22
24
28
28
22
22
28
24
12
12
12
24
30
20
8
6
6
18
30
38
24
6
6
22
24
12
6
14
8
14
8
2
6
6
4
10
18
18
18
12
12
24
30
26
12
14
14
14
10
28
40
34
20
6
26
36
30
14
14
10
8
18
26
14
8
14
18
8
14
22
12
12
12
16
18
18
16
10
16
26
28
30
28
70
66
255
255
255
255
128
10
12
18
2
0
2
12
24
32
38
26
20
24
12
16
16
16
20
20
20
24
26
18
8
14
26
40
38
20
8
10
8
14
22
14
8
26
16
6
18
12
26
24
6
18
12
6
16
20
20
12
16
22
24
22
10
10
14
20
20
30
28
20
22
36
30
10
8
6
18
16
22
14
4
12
16
10
10
18
36
50
58
56
44
46
80
128
148
138
120
98
72
52
54
60
98
136
144
124
118
142
188
208
186
142
104
88
72
56
32
2
14
16
8
8
10
12
16
36
46
34
6
14
14
6
10
18
24
26
18
8
12
16
18
24
26
18
16
22
30
42
54
42
12
8
12
14
32
46
52
60
40
48
176
255
254
134
88
134
206
248
255
255
242
168
100
92
108
104
66
156
255
255
255
255
255
50
198
255
255
255
255
128
130
255
255
255
255
255
192
88
34
28
74
140
204
234
228
188
136
110
116
96
154
166
118
38
16
28
44
86
132
136
138
178
255
255
255
200
32
64
54
18
46
76
86
58
32
24
22
10
2
8
8
14
2
14
18
20
24
14
10
18
24
16
8
40
54
40
30
18
6
18
18
24
20
12
12
4
26
24
12
6
4
6
12
16
20
24
18
10
6
8
10
24
20
14
12
10
6
0
4
8
8
8
10
18
24
22
20
22
24
18
16
30
28
16
12
10
12
18
20
22
26
30
24
14
12
22
34
34
26
28
34
34
22
14
16
26
34
26
24
28
60
94
102
102
98
98
112
132
168
188
148
84
22
6
8
10
10
54
128
174
174
164
144
124
102
78
62
50
50
50
32
18
32
46
46
40
54
46
34
38
40
40
42
58
52
42
62
70
68
74
56
50
36
36
52
72
78
72
70
56
38
26
20
30
54
70
58
36
26
12
6
8
22
28
36
42
30
4
42
52
40
46
26
12
2
10
16
8
12
28
32
24
22
32
42
42
32
14
22
30
44
34
10
28
28
16
22
36
44
48
44
32
28
22
18
24
34
38
30
12
34
60
50
30
18
12
20
18
14
36
40
22
10
12
12
34
40
18
8
16
14
32
26
32
42
30
24
10
2
16
32
36
38
36
22
12
12
2
16
30
34
32
24
18
16
18
16
12
24
30
28
26
26
40
50
48
44
42
46
66
92
108
98
66
42
38
44
34
36
30
14
4
6
20
38
40
18
34
36
30
32
40
40
32
16
12
16
18
24
28
26
18
16
30
36
36
42
50
46
36
24
26
22
12
6
14
24
22
20
18
16
8
10
24
24
14
22
16
24
28
22
12
8
2
8
24
40
40
26
10
18
12
12
10
4
12
12
6
4
6
6
4
10
16
16
26
24
18
26
22
6
10
16
10
10
24
38
36
16
16
18
10
12
26
22
8
6
12
32
34
16
6
10
18
12
4
22
26
20
14
4
12
20
18
6
12
24
30
30
28
62
82
255
255
255
255
98
16
8
22
4
0
4
12
20
28
32
20
22
24
12
18
24
28
26
24
24
26
22
12
6
4
14
34
46
42
26
8
24
40
40
36
26
24
24
22
16
4
16
20
8
10
18
18
22
24
28
32
34
26
14
4
6
8
10
14
22
26
12
14
32
38
24
14
14
14
16
18
14
2
16
34
28
18
18
22
34
40
52
60
56
56
94
140
154
138
108
68
40
46
54
90
130
172
174
140
122
138
182
196
158
110
82
74
58
32
14
14
12
6
4
8
6
8
20
40
48
36
8
12
10
2
4
2
2
12
16
10
24
32
34
28
32
26
24
18
22
32
44
36
28
26
16
26
46
56
40
6
80
194
255
255
164
18
108
160
180
202
222
194
112
44
20
18
28
30
108
255
255
255
255
174
76
255
255
255
255
255
54
255
255
255
255
255
255
255
255
226
128
118
140
134
130
128
106
62
10
46
98
126
154
152
106
38
22
44
78
120
152
132
66
90
255
255
255
200
30
64
64
26
58
96
86
48
18
20
28
16
8
8
4
6
2
12
10
4
20
22
14
14
24
24
10
22
40
40
20
2
16
18
18
18
8
4
2
10
20
16
16
14
8
2
8
4
0
10
16
14
8
2
18
34
28
30
26
20
12
4
2
8
14
18
16
28
34
26
16
10
18
14
0
18
20
14
10
6
6
8
12
24
32
28
20
16
22
40
54
50
30
12
26
34
22
12
20
34
44
36
32
42
84
120
116
92
88
104
124
144
186
184
124
58
8
6
2
6
6
48
112
154
158
162
164
160
140
104
78
68
68
64
50
44
46
50
42
30
34
22
28
40
38
26
22
24
18
16
24
36
34
26
30
42
44
44
54
78
102
112
118
106
82
56
28
20
24
28
42
54
54
44
38
28
24
24
28
18
2
22
24
26
46
66
52
18
18
10
6
8
16
12
14
30
32
14
16
36
50
48
34
14
24
40
22
32
18
18
52
64
62
52
48
58
64
60
32
42
46
24
6
20
30
58
60
48
38
34
26
12
18
16
20
30
20
34
22
36
58
40
4
20
16
16
14
46
48
36
42
28
26
40
42
26
24
42
58
54
36
26
28
28
24
24
24
22
24
20
12
0
14
12
4
12
30
40
42
34
30
38
52
74
92
88
60
32
24
28
46
46
36
28
14
10
24
36
38
22
12
14
38
50
50
46
36
24
8
4
10
16
16
24
44
52
70
80
66
38
36
28
34
32
30
30
12
4
12
12
14
6
12
22
22
10
12
20
16
10
16
10
24
34
34
30
18
4
6
10
16
16
22
20
16
14
16
24
20
6
6
2
4
10
6
4
14
16
22
26
28
16
8
16
12
14
8
10
4
16
22
12
8
20
22
30
20
4
16
20
12
14
28
22
6
10
10
12
12
6
2
8
12
14
16
8
14
22
16
18
36
28
18
10
40
80
255
255
255
255
70
24
4
20
4
2
2
12
26
40
36
10
10
10
8
26
28
20
14
18
14
14
8
10
8
8
8
20
30
38
38
26
32
26
10
26
32
32
26
22
22
20
28
34
26
10
22
22
18
18
22
22
16
8
24
34
30
28
12
4
12
10
2
12
22
26
14
18
18
14
8
18
20
22
26
28
12
4
6
12
22
32
48
48
58
78
114
162
178
154
104
50
24
26
56
90
126
148
126
80
66
104
174
196
150
96
60
56
60
44
24
10
2
4
12
18
20
20
28
48
56
44
16
18
20
10
6
6
8
6
8
26
42
46
42
32
36
30
30
22
22
30
36
26
28
32
20
46
62
58
32
82
196
255
255
255
124
86
136
162
152
148
136
84
52
44
56
40
10
62
212
255
255
255
146
132
255
255
255
255
255
124
246
255
255
255
255
255
255
255
255
255
198
162
182
200
255
255
255
255
255
166
52
90
110
96
26
56
96
92
56
20
120
184
196
200
254
255
255
176
22
66
62
14
46
96
90
48
14
26
36
24
18
16
4
6
4
6
12
8
6
14
12
2
18
26
16
4
16
24
22
16
12
10
16
18
10
8
8
4
18
22
20
14
12
8
10
10
12
16
22
18
8
8
24
32
18
22
20
18
8
2
4
2
4
16
28
36
34
22
28
12
12
14
6
10
14
10
8
4
4
10
8
16
26
30
28
22
30
46
50
40
22
14
18
26
20
10
16
32
42
36
44
62
92
112
88
62
74
94
120
170
208
186
114
48
4
6
4
8
4
42
104
146
150
150
154
158
150
120
90
74
70
66
56
46
42
46
40
26
18
4
14
22
16
10
12
18
24
32
30
24
24
22
28
38
58
70
72
72
88
102
114
116
104
84
56
22
20
16
26
36
42
52
60
56
42
34
28
24
18
12
22
60
82
74
46
26
30
26
18
22
18
4
20
32
18
28
30
22
42
54
56
44
26
24
4
14
14
42
66
64
46
32
40
60
58
40
22
40
52
42
30
30
30
50
54
50
46
42
38
28
20
6
32
40
10
38
30
14
52
56
32
6
8
2
24
40
30
24
36
26
38
46
32
16
10
16
38
62
70
48
40
32
22
22
22
36
40
42
32
14
8
8
22
36
42
36
30
24
24
38
58
74
70
48
20
12
22
28
36
42
40
32
14
4
20
24
14
12
22
24
32
60
64
60
46
30
18
16
14
14
18
34
58
58
64
82
76
44
22
14
28
34
34
30
22
20
20
18
22
10
24
34
24
24
22
18
12
4
6
10
14
18
28
36
30
16
6
12
18
18
14
22
22
18
18
26
32
28
22
8
12
12
16
14
18
30
24
12
18
12
8
16
12
6
4
10
2
16
26
16
10
10
6
14
22
10
16
22
28
24
22
20
12
4
6
12
10
2
4
6
8
12
22
26
16
26
18
10
34
36
30
8
22
96
255
255
255
255
38
18
2
18
2
2
2
6
18
40
44
20
16
22
16
26
20
18
20
30
32
22
8
8
12
10
6
16
24
20
14
6
4
12
16
16
14
22
20
18
16
10
12
20
28
28
16
10
14
16
18
20
22
26
40
42
26
36
22
20
26
28
12
14
30
28
12
22
24
4
24
32
30
22
12
10
12
10
10
14
18
26
48
58
68
90
134
182
184
140
78
26
18
40
68
92
98
78
52
38
38
72
132
158
114
60
40
54
54
36
22
10
6
8
18
28
34
34
24
44
56
48
30
18
24
14
6
6
4
6
22
40
48
42
32
24
34
34
34
30
32
34
24
6
12
16
36
60
62
34
46
160
255
255
255
255
208
228
168
180
134
88
52
64
64
58
64
42
8
116
255
255
255
240
180
255
255
255
255
255
152
168
255
255
255
186
34
110
255
255
255
255
255
122
110
128
218
255
255
255
255
255
255
136
58
16
114
226
255
252
255
224
86
54
160
246
255
255
255
154
32
60
64
32
66
94
80
54
26
28
38
28
26
26
12
4
8
12
14
10
2
8
8
2
14
22
20
10
18
10
18
28
30
26
20
20
16
10
4
4
4
4
6
6
8
16
14
6
10
14
14
10
10
8
24
30
18
40
50
36
18
10
4
10
18
30
36
32
22
10
26
28
18
16
8
10
14
12
8
6
2
8
24
46
52
46
36
26
28
30
24
28
18
20
32
40
36
36
54
76
82
74
76
74
76
90
92
84
76
106
164
204
228
194
114
46
4
4
4
6
2
30
90
140
152
148
138
134
132
118
94
70
54
36
24
24
20
16
28
36
36
22
40
50
34
16
26
48
62
62
46
38
40
46
54
74
86
82
72
66
62
58
64
82
92
94
82
64
54
40
20
8
6
20
36
58
58
56
56
58
54
34
46
58
52
34
20
26
32
34
30
32
28
34
42
48
38
50
36
6
20
30
44
54
54
50
46
48
34
50
54
38
16
12
14
18
16
16
26
28
34
32
24
18
26
40
40
34
32
30
28
28
22
26
44
46
20
32
34
18
18
44
52
44
24
22
24
22
16
18
20
4
30
30
12
18
10
8
14
16
40
50
52
48
40
34
40
54
50
60
56
32
22
52
66
60
44
28
22
20
22
40
60
62
42
20
20
22
36
38
38
38
38
40
40
38
50
64
48
22
34
36
22
56
72
74
60
46
42
44
36
18
32
44
42
12
20
32
46
40
28
28
40
48
46
40
30
24
22
28
36
26
40
38
16
30
32
24
18
12
16
20
16
6
12
28
30
26
28
28
30
28
22
22
20
18
20
26
32
36
38
24
16
12
18
32
44
38
12
18
26
18
8
4
6
8
2
10
10
8
16
18
6
16
24
24
30
30
24
18
30
28
20
14
8
6
6
8
8
4
4
8
16
10
10
24
24
24
8
22
28
22
30
18
22
144
255
255
255
214
22
36
16
30
4
2
2
6
14
32
40
24
0
14
12
16
18
16
14
24
28
22
16
2
14
12
8
24
34
40
42
34
32
20
6
8
8
4
4
16
28
30
30
24
18
30
36
28
14
22
20
8
6
14
22
14
6
24
32
18
14
26
24
4
24
38
30
36
28
14
22
16
12
12
16
8
12
18
18
26
24
24
44
68
74
94
142
172
148
92
52
28
34
60
84
86
50
44
76
110
124
168
206
192
126
70
48
48
62
50
30
10
6
10
26
40
44
38
16
36
54
60
38
18
28
32
24
24
16
18
36
42
32
14
6
4
8
20
26
26
20
12
2
10
4
18
48
54
26
44
162
255
255
255
255
152
166
246
230
182
94
38
8
32
50
54
70
48
42
196
255
255
255
108
102
255
255
255
255
198
42
255
255
255
214
80
96
62
98
255
255
255
255
192
84
98
184
246
200
176
255
255
238
152
94
82
218
255
255
210
255
255
164
34
100
230
255
255
255
140
30
50
46
22
64
90
76
44
28
30
38
24
24
32
20
12
16
18
16
10
10
10
4
6
18
20
12
10
12
4
8
22
36
36
30
24
16
14
14
4
12
16
16
12
6
6
10
10
10
6
6
8
10
4
20
32
32
46
42
20
16
14
12
12
18
24
22
22
22
12
10
22
18
12
10
12
18
20
16
12
6
20
42
56
46
34
22
16
16
18
22
24
28
28
36
46
52
62
76
82
76
68
68
60
58
60
72
80
104
146
192
218
228
182
96
32
4
2
6
4
4
16
60
114
146
154
134
116
108
106
94
68
50
32
44
56
40
30
18
6
28
34
42
30
6
28
48
54
50
40
30
30
40
50
62
74
80
76
72
78
72
50
40
60
84
96
84
68
68
68
60
36
26
32
26
26
36
46
62
76
78
60
52
50
36
16
16
18
26
32
32
26
26
36
46
56
54
46
26
12
22
26
34
48
58
62
72
72
54
42
44
24
2
12
14
30
28
20
18
18
16
12
10
12
22
32
32
26
22
28
32
36
32
30
40
42
26
10
22
28
8
24
48
52
32
10
12
14
8
14
20
10
30
26
8
20
26
12
16
30
14
28
28
38
38
28
32
40
28
48
60
42
38
60
56
38
36
30
18
12
16
34
56
56
36
20
18
24
34
28
24
36
42
44
42
36
34
58
54
22
18
30
14
24
58
66
40
16
30
32
44
22
28
26
28
24
34
26
24
30
28
24
32
42
42
40
32
22
18
20
26
22
38
34
20
32
32
26
26
30
30
22
22
26
22
34
34
30
36
42
50
54
46
38
30
24
26
28
32
36
38
30
24
22
32
38
34
24
22
18
16
8
4
6
12
8
2
6
10
12
2
16
20
18
22
30
36
30
12
14
32
30
22
16
8
4
2
4
6
8
8
10
22
24
12
8
8
6
24
40
36
20
16
26
68
206
255
255
255
194
18
48
26
42
14
2
2
10
22
34
30
26
14
8
10
12
8
12
18
26
22
8
12
8
14
18
18
36
48
54
48
34
38
24
2
18
26
24
18
34
42
40
34
30
20
4
22
36
34
14
6
8
6
8
18
16
12
20
34
30
10
14
16
14
10
26
22
14
6
10
28
32
20
22
36
36
10
22
26
26
20
16
34
64
88
112
128
140
128
100
66
34
42
50
50
36
36
80
106
102
112
170
214
198
124
62
50
74
80
52
24
18
12
22
34
34
24
12
20
36
42
58
52
42
50
46
26
32
24
22
34
24
16
16
20
26
20
6
6
10
12
18
12
6
24
30
28
28
82
196
255
255
255
255
126
68
214
255
255
156
58
18
32
10
36
88
88
14
134
255
255
255
255
108
102
226
255
255
240
58
172
255
255
255
180
58
52
36
26
124
252
255
255
255
200
144
190
164
154
226
255
255
255
150
26
118
214
224
106
88
248
255
162
36
112
255
255
255
255
142
20
44
32
6
46
82
76
44
24
34
40
20
10
30
28
16
14
8
4
10
10
6
8
14
18
14
6
8
8
8
12
2
20
28
30
26
12
8
20
16
26
22
18
12
10
16
18
8
8
14
12
6
8
10
10
18
20
18
14
14
20
18
12
6
8
16
26
32
24
16
8
8
6
2
8
10
18
28
28
24
16
24
34
32
14
8
8
14
18
24
38
38
36
32
34
48
56
58
52
38
26
22
28
34
52
72
82
112
138
160
192
208
204
152
70
16
4
0
4
2
10
10
30
78
128
158
144
122
106
102
98
72
52
44
46
50
34
42
54
38
42
36
40
42
46
60
48
20
36
42
30
16
30
34
40
48
56
60
48
80
92
68
44
52
80
98
82
56
44
52
76
84
68
42
16
2
12
28
36
68
80
68
54
58
46
36
32
30
38
36
36
26
20
22
24
26
28
28
30
32
40
44
44
38
44
50
60
72
62
36
48
28
24
20
14
20
16
14
18
20
14
6
6
8
26
34
38
20
18
34
40
46
44
32
24
18
12
12
10
24
34
22
36
38
24
10
14
24
18
24
24
14
36
46
28
18
28
36
14
22
44
38
20
16
14
4
6
22
18
26
40
40
20
26
32
10
14
30
28
14
12
28
52
66
56
40
34
14
32
60
64
52
40
40
46
42
26
38
34
24
20
48
52
26
54
72
52
22
36
16
14
16
8
30
36
20
2
16
26
28
24
34
34
24
14
22
26
22
18
12
8
6
24
22
18
30
26
18
20
32
48
56
56
48
42
48
42
30
26
26
38
52
56
54
44
26
20
20
26
32
34
26
24
32
30
14
6
4
24
36
32
22
10
8
10
4
2
10
12
16
12
6
28
38
28
24
28
18
12
32
38
28
20
16
12
14
14
12
6
16
16
16
24
30
28
26
20
36
48
52
44
38
18
38
112
255
255
255
255
180
6
38
12
38
20
6
4
8
18
22
18
20
18
16
10
12
16
28
32
30
22
10
12
12
6
16
30
48
50
40
16
18
36
28
4
34
36
26
26
30
32
20
8
6
18
20
24
26
30
32
18
2
6
10
12
8
6
12
28
36
30
20
24
18
6
6
14
20
18
14
6
30
42
54
50
68
30
20
38
28
16
12
30
54
82
126
156
164
142
106
74
46
32
10
38
60
90
86
54
8
66
144
208
208
150
104
86
84
62
26
10
18
26
32
28
18
28
30
34
42
34
28
24
28
32
20
12
22
26
24
22
16
18
22
18
18
14
8
8
22
32
18
10
30
32
6
70
178
255
255
255
255
255
114
42
188
255
255
244
136
64
20
26
20
86
112
52
96
255
255
255
255
220
114
186
238
255
255
142
52
250
255
255
240
184
88
40
42
50
48
126
252
255
255
255
186
204
142
42
255
255
255
252
90
66
80
132
196
186
255
255
255
114
12
144
255
255
255
255
130
12
48
42
22
64
90
66
28
18
34
40
22
2
24
32
24
14
8
14
16
12
4
6
12
10
8
10
18
20
20
28
20
32
32
24
28
20
6
12
18
18
6
8
8
12
16
10
6
8
10
12
12
8
4
4
6
8
14
14
10
14
12
8
6
6
12
26
42
38
26
16
10
6
4
8
12
14
24
28
24
18
18
22
30
24
16
18
32
50
68
76
58
40
30
32
42
36
22
22
30
42
50
58
54
46
64
82
116
144
160
180
186
176
132
60
12
4
0
4
4
8
6
20
62
122
168
162
142
132
128
118
78
48
34
52
70
56
26
16
8
14
14
30
34
56
58
32
8
20
46
52
32
32
28
32
40
40
30
0
40
58
48
24
28
48
82
88
76
48
24
28
44
52
44
32
14
14
28
30
32
58
56
50
58
52
58
58
60
60
56
56
46
30
20
14
14
10
8
14
18
24
28
30
34
42
36
30
44
46
32
48
32
52
42
14
20
18
8
10
20
20
4
20
22
44
54
40
22
40
40
34
38
44
42
36
26
14
10
14
38
38
12
32
40
24
6
20
28
12
22
30
18
18
40
42
28
4
26
28
6
24
40
36
20
14
4
4
8
6
12
30
36
18
18
44
38
18
20
38
36
38
48
40
38
58
48
26
18
16
34
62
62
48
42
50
56
54
58
50
34
16
20
38
26
52
64
42
20
32
40
22
18
10
12
22
24
16
4
18
38
56
56
48
38
22
10
8
22
32
28
16
20
38
32
20
24
16
10
8
18
22
20
20
18
20
32
32
22
10
8
6
8
22
32
32
18
4
4
12
22
30
22
26
26
22
18
4
12
18
38
40
30
18
28
24
16
10
22
22
26
28
14
8
24
30
34
24
20
30
30
26
20
22
26
20
18
14
20
18
22
20
20
26
30
34
34
32
40
44
48
44
46
36
30
146
255
255
255
255
148
12
44
16
32
16
10
4
8
20
26
22
30
26
10
4
6
8
18
20
14
10
2
6
12
8
18
32
38
24
22
24
34
40
24
14
30
20
2
10
8
26
24
22
12
8
26
26
16
6
24
24
10
14
18
4
10
16
8
6
24
28
14
16
10
8
22
34
34
22
30
22
24
50
38
14
52
36
14
30
28
22
20
36
56
74
112
150
172
166
136
100
70
50
28
28
40
40
10
38
92
160
224
255
240
178
128
96
74
36
26
30
12
26
34
24
8
8
20
36
42
42
44
28
32
30
28
24
10
4
10
2
10
16
12
20
32
24
6
24
30
20
14
38
36
14
56
180
255
255
255
255
194
36
94
184
244
255
255
204
120
36
14
2
58
108
90
32
242
255
255
255
255
98
66
182
255
255
226
110
132
255
255
236
204
184
144
102
94
86
60
50
150
255
255
228
180
198
160
192
255
255
240
92
20
70
92
130
170
206
255
228
116
24
28
172
255
255
255
238
98
14
48
46
20
70
112
94
46
24
32
36
20
4
18
26
28
22
14
14
14
16
10
18
16
10
10
16
24
26
24
30
24
28
28
22
20
20
12
12
6
8
16
10
6
8
6
6
12
6
10
22
16
4
4
14
18
16
18
10
4
8
6
6
4
2
2
10
32
42
36
22
4
4
0
10
16
8
8
16
16
12
12
20
20
16
18
32
56
80
88
72
40
32
20
22
44
54
46
36
32
40
48
64
76
78
88
90
102
126
138
150
158
160
128
58
10
4
0
4
4
8
8
18
56
120
174
172
152
148
156
152
104
56
32
40
68
86
88
76
58
40
30
22
20
34
34
28
42
30
30
58
56
42
40
46
46
26
12
50
78
70
30
6
22
28
56
86
102
82
38
6
20
22
20
36
36
32
36
26
10
28
40
48
54
50
54
58
66
62
68
72
64
52
36
26
24
14
4
6
2
6
16
24
38
32
14
22
22
18
34
40
30
54
60
40
10
18
28
22
30
22
4
34
34
52
74
56
34
50
26
30
30
26
36
50
52
40
28
32
42
32
6
32
48
38
22
20
20
18
28
28
20
20
28
30
36
30
20
14
22
14
6
20
16
4
12
20
28
30
24
30
34
26
6
20
34
32
24
30
42
64
68
56
54
54
52
42
10
24
48
56
42
46
42
42
42
50
46
32
12
12
16
6
26
50
42
52
42
12
22
30
22
10
14
16
12
28
40
52
58
58
50
44
40
40
40
20
8
32
48
36
12
32
42
28
30
20
4
2
10
26
42
46
42
30
24
24
34
40
34
38
32
30
32
32
24
8
8
2
12
26
22
18
12
16
26
26
32
18
28
32
22
24
42
32
36
16
26
24
24
36
28
32
48
50
40
18
12
34
46
46
36
30
34
38
30
6
16
24
20
14
8
18
20
24
26
22
18
18
32
36
38
44
36
184
255
255
255
255
118
20
36
16
24
12
14
2
8
18
28
38
36
14
10
20
24
26
36
44
42
36
20
14
16
20
18
18
16
20
26
24
22
20
10
12
36
34
24
22
16
28
20
18
16
12
16
6
8
8
16
14
10
22
16
12
28
28
32
24
4
16
8
8
8
16
26
32
24
10
22
28
20
44
64
56
58
20
22
26
18
24
28
42
62
76
98
124
150
164
154
126
96
76
58
48
54
64
76
102
146
210
254
255
222
162
114
76
46
16
4
28
36
32
28
18
28
20
6
26
40
54
68
62
70
72
70
62
50
36
20
18
14
8
12
24
24
14
24
28
8
20
46
42
22
6
68
172
255
255
134
62
198
255
255
255
255
254
218
160
88
50
42
62
100
100
36
118
255
255
255
255
184
70
92
190
255
255
255
162
180
255
248
188
150
132
138
146
150
132
106
62
28
132
176
140
84
104
104
208
255
255
255
255
148
108
84
38
44
120
122
76
28
8
34
212
255
255
255
194
80
36
36
58
24
40
94
90
52
28
36
38
16
12
24
18
14
20
14
6
2
10
4
10
16
14
4
6
14
14
10
10
2
20
28
26
24
18
14
8
10
22
22
20
22
16
8
6
8
6
14
22
14
8
10
12
8
2
12
14
6
12
18
12
6
6
12
20
22
20
22
26
20
14
10
4
16
16
8
6
10
8
8
18
18
14
20
32
46
50
36
22
16
20
14
16
38
50
44
28
18
20
26
48
68
78
94
104
128
152
158
166
174
172
128
52
10
12
8
8
2
4
2
6
36
98
158
162
138
122
134
160
150
118
82
50
32
28
40
60
66
56
40
20
6
28
28
4
26
38
36
54
50
48
62
62
38
18
20
32
28
32
30
54
72
68
56
70
94
110
102
80
58
40
32
36
34
32
44
46
42
46
50
54
50
34
28
18
30
32
42
56
54
52
48
42
38
22
10
14
16
16
16
26
18
12
34
32
2
36
50
38
36
40
36
26
22
14
14
8
20
16
10
34
28
22
60
54
42
44
34
42
34
18
16
36
52
54
46
42
46
36
16
36
42
26
14
4
8
18
20
12
14
20
18
12
16
16
10
6
10
16
6
10
12
6
10
16
16
10
10
26
32
22
16
34
42
36
24
20
32
46
48
48
50
40
22
42
40
26
40
34
20
36
42
40
32
22
16
12
22
14
12
42
68
66
42
24
34
34
10
6
16
28
28
16
12
18
24
20
14
34
44
38
28
24
48
46
28
8
32
48
40
20
20
4
18
20
18
16
22
38
40
36
34
40
36
36
42
38
22
20
18
26
36
36
22
12
10
8
4
12
16
6
0
6
2
12
10
10
22
30
16
18
22
4
18
10
10
16
10
16
18
38
48
38
20
12
8
16
20
26
22
14
20
34
36
18
16
22
22
16
6
10
8
2
6
10
8
14
50
46
26
62
36
248
255
255
255
244
110
32
26
16
10
16
22
10
6
16
30
38
26
14
24
16
14
8
8
18
26
30
20
12
12
20
30
26
20
18
20
20
10
8
16
14
16
16
14
8
14
28
20
10
16
24
30
26
10
4
10
10
8
16
2
22
26
14
24
28
8
12
16
10
4
14
20
16
12
4
12
16
8
30
42
30
14
8
16
4
16
24
32
42
58
74
94
106
116
120
116
112
106
94
66
42
78
98
106
132
186
244
255
234
188
132
82
36
10
14
12
6
28
46
36
6
14
16
10
20
40
60
78
80
76
78
82
76
66
60
48
34
20
12
16
28
38
36
36
18
16
38
38
12
10
22
52
176
255
255
255
255
255
255
255
255
254
202
154
100
54
56
74
94
92
58
16
156
255
255
255
226
146
72
144
222
255
255
255
194
180
202
190
184
114
42
106
120
160
160
120
86
42
94
92
70
42
62
70
32
222
255
255
255
255
156
170
132
172
158
84
38
36
20
42
255
255
255
255
124
44
50
16
56
44
52
90
82
54
38
40
34
12
20
28
16
6
6
10
14
14
20
18
8
4
12
10
14
24
30
28
24
22
24
30
26
18
8
18
16
18
22
16
12
24
26
18
2
14
8
14
24
14
0
8
16
20
14
10
10
16
26
26
14
14
18
28
34
36
38
42
40
24
18
16
6
10
20
16
12
12
6
6
16
16
12
16
36
62
76
74
60
50
44
38
32
34
36
30
16
18
22
16
24
48
68
84
88
116
156
182
196
194
182
136
62
16
20
18
16
2
8
10
12
26
68
128
146
130
104
92
122
152
158
132
80
38
44
40
14
22
38
34
30
18
32
40
26
8
20
24
32
46
62
78
52
40
28
24
46
74
82
82
106
110
80
76
56
54
82
112
130
126
100
68
44
26
28
54
68
70
64
50
42
34
32
18
12
24
16
12
32
32
34
44
52
54
36
26
34
34
44
30
22
18
34
36
6
38
62
54
36
46
42
46
18
18
46
48
50
50
38
2
34
48
24
22
26
24
16
32
48
44
26
12
20
32
38
38
28
34
26
20
34
40
26
12
8
10
8
2
6
12
8
6
12
24
26
16
4
10
16
4
14
14
4
10
28
42
40
34
38
28
6
20
28
32
24
24
22
28
36
32
26
30
22
12
18
50
60
42
20
10
18
30
36
30
20
40
40
20
24
74
98
94
68
58
42
36
24
12
24
32
30
16
8
20
26
30
30
36
52
62
64
48
10
24
40
40
24
10
30
48
48
46
46
38
18
14
18
12
16
24
22
12
12
22
24
24
18
18
26
14
20
28
22
10
12
8
12
16
8
10
4
4
12
12
22
18
12
22
32
24
24
42
32
26
18
18
28
30
16
12
26
20
14
12
14
24
40
46
44
38
24
20
24
26
20
18
20
18
18
12
22
20
20
16
8
20
16
50
60
32
62
64
255
255
255
255
204
86
24
16
24
16
20
28
16
6
18
26
42
42
28
16
8
32
36
28
28
32
34
26
20
18
12
18
26
22
14
10
12
12
8
14
20
24
18
16
24
36
42
26
18
20
28
36
30
16
8
2
6
8
4
12
20
22
22
24
18
8
6
16
16
12
20
24
24
22
14
28
36
24
22
14
26
26
20
12
14
14
4
22
40
54
64
84
92
92
80
66
72
90
98
66
34
78
92
104
144
204
242
228
190
140
88
42
22
20
4
14
16
22
30
38
22
32
34
24
20
38
54
70
68
50
46
60
58
52
54
60
58
40
26
20
18
22
26
30
32
40
44
38
38
52
52
52
86
204
255
255
255
255
255
194
154
124
98
76
56
42
50
60
50
34
16
32
142
255
255
255
160
82
30
122
204
246
255
240
192
124
102
148
214
134
36
100
42
90
134
108
60
22
54
70
72
66
52
118
134
190
210
172
238
230
168
196
172
214
188
92
48
86
82
64
255
255
255
216
42
12
44
4
40
30
50
96
96
68
44
32
28
18
26
24
6
10
10
22
22
8
8
6
4
8
16
14
8
6
6
4
2
16
34
30
14
4
14
24
24
16
12
10
4
10
24
28
12
12
20
18
14
22
22
18
12
4
6
8
8
14
18
14
6
10
26
40
42
36
32
34
26
6
12
18
22
24
26
30
28
22
18
14
18
16
8
12
28
48
54
46
32
18
16
22
26
28
30
30
26
24
24
18
12
34
72
92
80
92
130
170
198
194
172
124
60
14
16
18
18
4
14
10
6
16
56
106
140
152
132
102
92
104
120
114
86
62
34
32
32
34
64
70
48
16
20
32
40
48
44
40
44
66
88
74
18
34
26
24
54
58
74
80
94
76
66
82
62
28
14
22
50
74
80
68
48
28
36
56
58
50
32
26
18
14
20
28
26
52
48
30
42
34
24
32
54
74
68
58
56
44
50
46
38
34
32
32
34
60
60
32
22
40
52
42
24
52
54
36
52
62
64
40
4
26
32
26
22
22
32
42
30
40
46
42
40
30
18
18
12
20
24
42
52
42
18
8
4
8
4
4
12
12
10
8
20
32
26
18
14
10
16
22
26
10
10
20
18
26
24
14
16
14
8
16
20
26
26
26
30
40
54
62
56
28
8
24
8
26
52
54
34
10
16
16
26
34
46
54
32
24
80
118
106
66
34
36
36
38
40
30
30
20
20
22
16
4
14
24
22
18
26
36
44
48
32
26
26
20
12
12
18
22
22
26
38
48
42
24
8
8
12
24
34
36
30
20
10
10
16
12
8
8
22
28
18
8
8
10
12
16
14
10
4
2
12
10
8
4
6
18
32
32
18
8
8
14
24
30
26
32
28
20
10
18
28
28
20
30
40
36
26
20
14
18
22
12
16
18
16
10
10
12
16
12
16
20
8
16
8
34
46
34
62
82
255
255
255
255
130
30
12
26
26
8
12
28
14
12
22
14
22
32
28
22
28
44
36
22
18
32
48
50
44
34
26
14
6
14
16
10
8
12
18
14
14
14
10
10
14
18
24
12
34
36
20
36
34
22
20
14
14
4
6
12
10
8
12
12
8
10
12
8
2
8
22
30
30
32
26
30
20
6
28
38
30
16
18
38
52
74
60
18
32
64
70
76
78
88
76
50
46
62
84
66
36
80
96
112
148
194
210
186
146
94
52
24
8
14
24
28
34
42
36
14
8
18
14
6
16
32
46
58
46
22
20
36
26
16
16
34
52
50
38
24
10
2
14
22
30
54
72
64
64
64
58
54
38
36
74
104
94
48
36
48
40
14
14
28
34
34
36
24
6
6
10
30
142
255
255
255
232
156
76
136
172
178
174
146
126
110
30
146
255
224
60
118
122
128
128
96
54
22
60
82
80
72
70
128
216
255
255
216
84
116
178
156
176
196
188
50
92
102
156
58
255
255
255
142
20
8
50
10
34
16
42
96
98
64
32
14
20
18
18
10
2
8
24
28
16
8
20
12
8
24
22
10
18
28
28
30
24
26
32
26
14
22
22
20
20
12
2
8
12
6
10
24
22
12
16
18
8
18
26
30
32
32
14
6
10
12
12
8
4
8
24
34
30
16
10
8
14
22
34
40
40
34
26
28
28
26
26
22
22
16
6
6
14
34
44
44
38
28
22
20
28
34
26
24
32
46
46
20
2
14
58
92
82
80
104
144
204
216
180
110
54
12
4
16
16
4
14
4
4
18
54
94
128
156
156
128
92
74
98
114
86
62
42
16
12
58
90
82
40
32
40
60
66
58
40
34
54
78
80
40
18
40
14
38
52
44
42
46
36
6
22
54
68
48
42
48
50
50
48
42
42
34
42
40
26
28
12
10
18
22
12
44
78
84
56
50
52
46
32
28
42
64
66
58
52
50
48
40
44
62
70
62
36
48
36
2
30
40
44
54
54
54
30
10
28
46
62
58
38
10
12
14
24
34
44
38
10
22
42
54
62
48
48
38
30
38
60
64
44
18
20
22
18
10
4
8
16
14
10
14
24
30
16
12
18
24
36
36
28
22
14
10
8
18
22
14
16
14
14
24
36
40
30
16
16
26
40
54
60
44
12
14
16
16
28
42
36
14
10
4
14
36
48
44
12
64
106
100
52
20
14
6
18
44
50
56
62
44
34
34
38
36
18
4
20
42
58
54
40
22
24
32
36
34
28
22
14
4
24
36
28
24
48
54
40
14
8
6
18
30
36
44
42
28
20
6
12
14
14
28
32
24
8
8
8
6
10
8
12
14
20
26
24
20
10
10
24
32
42
42
32
20
24
20
10
26
36
24
2
16
14
20
8
20
22
10
8
18
20
16
14
2
14
14
10
8
0
6
6
4
6
14
10
6
12
40
32
40
60
104
255
255
255
250
44
16
18
16
16
12
28
30
8
14
18
6
4
12
18
34
40
38
18
8
8
32
52
52
38
34
34
30
18
12
10
10
6
8
16
18
14
8
2
2
10
22
34
34
40
22
10
26
28
30
26
14
24
14
6
8
6
4
4
4
2
6
16
24
22
8
12
26
24
24
24
14
12
34
40
28
10
12
20
66
82
88
96
56
12
64
82
84
92
88
66
54
42
48
60
58
60
110
136
148
168
188
180
146
104
58
28
20
22
34
44
48
50
46
38
26
10
10
16
16
20
34
48
58
42
26
42
52
44
32
28
24
22
30
32
20
10
6
24
22
16
20
44
50
36
24
22
24
26
24
34
12
38
94
130
140
154
128
76
24
20
24
24
10
8
6
10
30
132
252
255
255
255
232
180
174
202
200
148
88
86
144
148
156
255
255
200
46
18
48
66
94
82
30
62
106
110
110
124
142
136
106
46
64
184
252
222
206
218
254
214
20
152
84
180
38
255
255
255
146
30
6
50
8
42
16
46
98
92
46
12
4
6
4
4
8
6
28
36
24
14
18
20
18
32
32
14
24
22
10
0
6
8
8
22
28
18
12
4
16
22
16
6
4
10
16
24
26
22
16
8
10
20
26
16
4
14
28
22
4
12
22
22
14
8
12
22
30
26
12
12
16
30
36
38
38
34
24
14
14
10
16
18
18
22
18
10
18
34
44
46
40
28
16
14
12
28
38
26
4
18
50
74
62
24
52
76
70
74
88
110
188
242
230
170
94
52
16
10
20
16
6
14
4
12
16
54
94
118
134
138
126
102
84
100
94
74
56
30
20
44
68
76
50
20
42
46
44
36
26
22
24
34
48
34
28
28
18
20
52
58
50
40
30
20
40
36
16
54
88
76
30
10
16
32
42
46
46
40
22
12
28
20
22
46
58
56
76
66
34
30
28
32
40
44
40
36
36
22
26
34
50
52
30
26
26
46
46
14
22
24
8
26
26
22
28
30
22
12
8
20
32
36
36
24
20
28
38
50
56
46
20
24
30
24
24
54
68
50
18
6
22
36
20
18
12
12
24
30
26
20
18
22
16
12
18
28
34
22
16
18
28
28
18
26
34
34
32
28
22
12
2
10
16
16
10
24
32
24
12
10
24
44
56
48
26
14
14
14
14
28
38
38
22
2
6
12
34
66
84
60
80
76
64
44
28
10
22
42
42
20
26
38
32
24
24
34
44
36
12
24
36
38
28
16
10
14
18
20
22
22
20
14
18
36
40
22
14
22
46
48
22
2
2
2
10
16
26
38
34
28
24
22
26
28
24
24
28
18
10
20
30
36
34
32
26
22
20
22
26
24
16
12
14
16
28
38
34
22
12
40
48
40
20
10
20
30
36
22
30
22
10
6
10
16
20
14
16
20
12
14
10
10
8
12
12
10
14
12
6
10
22
24
50
46
140
255
255
255
168
16
24
12
10
20
18
24
18
4
14
20
16
12
14
40
52
42
26
10
12
30
40
30
32
22
8
12
22
16
6
6
6
12
18
22
18
8
8
6
12
18
14
10
14
8
16
36
32
24
34
36
22
18
8
6
6
6
16
18
18
16
12
12
10
20
26
14
18
10
2
4
14
20
20
18
14
8
10
30
56
42
22
52
48
4
44
78
100
96
86
74
62
52
42
46
48
114
174
206
212
212
196
160
110
68
34
18
18
26
40
50
50
38
16
24
26
16
12
12
12
26
44
50
52
34
26
46
48
44
40
36
40
30
34
36
28
6
20
30
14
2
12
2
12
14
22
26
26
22
38
26
12
62
108
134
124
174
190
150
90
50
32
26
12
6
12
26
84
180
250
242
234
212
218
216
180
214
220
182
142
150
190
170
128
255
255
255
200
114
78
80
96
96
50
72
98
98
96
90
84
116
158
198
255
255
255
224
244
250
255
152
68
168
32
158
50
255
255
255
144
44
6
48
10
48
30
50
98
82
32
4
4
10
8
4
6
22
38
30
14
16
16
18
32
32
22
10
24
30
26
20
20
14
14
22
22
16
12
20
30
30
14
12
2
12
20
26
24
18
10
10
6
8
30
38
28
14
20
18
18
16
22
26
18
10
10
18
28
28
18
10
14
22
22
22
22
20
10
10
24
36
34
26
20
18
20
18
24
28
26
34
40
34
18
8
6
22
36
22
12
24
26
62
76
62
76
66
44
52
90
146
222
252
218
152
82
44
26
16
16
12
6
12
8
14
12
46
88
112
120
120
118
112
100
110
114
94
74
40
38
48
50
40
22
18
32
48
62
64
58
58
72
78
56
32
24
24
22
28
38
36
32
22
24
42
40
12
20
32
90
116
94
60
44
46
44
42
46
50
48
32
48
66
72
62
78
66
54
12
28
40
18
12
38
46
50
44
32
18
22
22
30
42
18
10
6
24
38
20
24
26
2
26
26
8
6
2
8
14
14
18
34
56
48
14
26
60
70
68
86
86
60
34
22
10
30
46
54
64
52
36
36
46
36
32
20
8
14
24
28
30
26
16
12
14
26
32
32
24
16
18
20
12
4
12
28
36
38
38
26
10
16
12
6
24
24
32
44
42
40
52
68
76
72
54
32
8
12
10
12
28
28
20
20
14
8
10
24
50
76
72
46
28
60
60
42
18
38
28
4
36
54
36
12
4
10
20
24
30
16
10
42
54
44
28
12
4
6
12
14
12
10
10
28
36
30
20
38
18
24
38
22
8
4
4
4
6
6
20
30
26
22
30
32
36
28
22
24
24
24
36
44
42
34
28
22
8
4
8
16
26
26
16
2
10
10
26
34
26
34
48
40
26
14
16
30
42
38
36
42
32
16
12
12
10
18
22
26
22
12
12
14
16
14
16
10
8
14
18
16
10
12
18
40
30
194
255
255
255
110
18
22
20
24
18
12
12
8
4
10
16
16
16
30
60
62
42
22
18
36
48
28
10
38
56
48
20
12
10
4
6
10
20
22
22
16
6
6
14
26
32
34
42
24
26
38
34
18
8
22
36
38
28
14
6
2
16
22
18
20
22
20
18
22
40
32
10
24
28
18
18
8
20
36
38
26
8
14
24
64
84
80
84
48
4
38
68
110
124
118
104
90
74
58
56
110
176
220
232
220
192
152
114
76
52
34
26
32
34
38
34
24
12
12
22
28
24
14
14
14
16
44
60
64
46
42
44
34
26
22
18
18
24
34
34
20
6
22
16
4
4
10
16
30
36
28
24
28
22
38
30
22
80
120
98
94
116
190
182
138
120
108
80
34
32
74
110
158
216
244
192
134
106
124
164
176
212
210
160
100
86
112
104
40
194
255
255
216
136
84
76
90
90
38
44
116
160
174
168
140
94
120
196
255
255
120
172
244
255
234
182
104
104
52
142
40
255
255
255
116
36
8
56
20
48
36
50
90
84
42
10
4
10
10
8
14
28
28
14
18
24
14
12
14
12
12
12
22
20
10
8
8
10
12
14
14
20
24
16
14
8
4
10
6
12
8
10
8
4
6
8
14
14
4
22
22
12
22
24
18
6
10
14
16
12
12
14
16
12
10
12
16
28
30
22
12
10
4
26
42
40
28
16
12
18
20
18
22
28
36
42
36
28
14
4
10
26
34
14
16
20
8
38
58
72
72
44
32
50
114
186
236
240
198
138
80
48
36
18
8
4
6
4
8
6
8
32
72
102
120
126
126
124
108
102
100
94
98
88
74
60
48
40
28
34
40
28
32
42
48
58
78
94
78
46
28
28
38
48
56
72
80
54
8
54
60
36
58
36
62
82
74
54
42
34
24
28
38
46
68
80
100
102
80
44
46
32
24
26
32
18
18
48
56
36
46
48
46
16
24
20
32
54
30
18
26
40
66
44
26
20
6
24
22
8
6
6
2
4
6
22
44
44
40
32
50
52
34
18
34
44
38
22
18
16
40
46
34
28
36
34
32
44
50
36
12
6
6
8
16
20
26
16
8
22
36
28
14
6
4
16
22
18
16
14
12
14
16
28
34
28
14
2
6
16
32
46
48
50
70
90
88
70
52
38
28
24
38
44
76
82
62
34
8
12
18
16
16
8
16
26
22
6
12
24
34
42
40
30
60
74
64
44
34
30
38
36
22
10
16
4
24
44
42
28
14
12
6
10
12
16
16
24
40
38
26
8
30
32
46
50
28
6
8
12
12
14
12
22
32
22
2
10
10
12
28
38
34
24
20
30
32
22
6
18
30
20
12
4
8
22
30
30
16
2
8
20
32
22
24
22
16
14
14
12
12
24
18
20
26
32
32
24
16
14
16
20
22
16
14
10
12
16
22
24
16
26
34
34
32
22
16
12
34
56
252
255
255
255
86
16
22
24
20
8
8
4
6
2
6
8
16
32
52
72
68
42
28
20
38
34
16
28
22
26
46
38
10
10
14
8
8
20
18
8
8
8
10
16
20
16
4
30
34
30
24
8
4
4
2
4
10
16
18
16
20
20
6
10
14
14
14
16
22
28
12
20
38
34
20
24
20
4
18
32
26
22
10
12
38
62
64
50
20
14
28
58
104
134
144
138
128
112
90
116
170
202
198
168
130
88
60
54
50
52
54
58
56
42
24
6
20
22
12
18
22
20
20
26
30
14
40
62
70
54
36
28
14
8
16
16
8
18
24
18
6
14
18
10
8
8
14
28
36
32
18
20
24
26
44
46
44
84
162
192
134
16
106
136
112
114
128
110
48
54
104
114
118
142
164
138
94
40
82
138
190
204
170
92
14
72
146
148
62
72
174
200
176
120
70
62
78
84
54
26
72
108
134
148
122
46
78
160
196
128
80
222
255
255
168
108
44
44
122
92
128
255
255
255
122
24
14
58
18
38
24
34
80
82
50
16
8
4
4
8
12
20
22
14
22
20
10
16
26
24
12
10
22
18
4
6
4
8
20
26
28
30
24
10
6
8
2
4
6
4
8
16
18
14
12
8
10
18
10
16
10
10
20
18
2
16
22
22
20
18
16
22
28
26
26
24
18
28
40
46
34
22
26
42
42
26
14
8
12
22
18
10
20
30
40
44
34
26
10
0
6
24
40
26
20
10
34
66
68
46
70
74
72
66
118
170
204
214
182
130
80
50
36
16
4
4
4
2
6
2
10
24
60
94
122
138
140
136
118
100
84
76
86
98
106
94
72
50
30
42
42
24
4
22
26
34
56
78
76
52
28
18
24
34
50
76
100
88
30
38
60
38
46
14
40
54
48
36
30
20
8
24
38
48
62
74
80
66
34
28
20
14
14
28
44
38
58
70
48
34
40
46
58
52
36
8
46
50
10
34
44
36
74
62
22
4
18
26
14
6
12
8
4
22
34
42
38
30
40
56
52
28
10
48
60
48
18
6
18
32
34
30
20
12
20
22
18
26
38
42
22
16
16
18
10
6
18
22
14
34
40
18
10
8
16
20
22
18
20
12
10
12
8
12
32
40
36
22
26
40
48
46
44
56
78
80
56
38
28
28
28
32
44
70
92
84
60
62
42
16
2
4
14
30
40
38
16
10
28
30
22
28
34
48
78
82
58
60
48
36
42
28
26
6
22
22
24
34
26
24
18
20
14
8
6
10
8
20
24
20
32
26
10
14
26
22
14
10
16
10
8
12
6
16
28
28
14
20
20
10
12
38
44
28
8
12
20
18
22
44
46
22
20
10
12
12
18
24
18
6
4
14
26
18
4
18
28
20
8
12
30
42
52
38
34
18
18
24
28
26
16
8
4
2
6
6
8
12
20
28
26
34
40
40
38
30
30
16
24
100
255
255
255
255
84
14
14
18
10
6
8
4
6
2
12
18
26
36
48
62
54
26
22
14
20
32
14
30
38
20
18
26
18
20
20
16
6
18
14
10
14
16
16
20
26
28
24
6
12
6
6
14
16
4
10
14
16
16
6
12
26
14
14
22
20
10
4
10
8
10
14
26
36
24
6
10
16
12
6
26
34
20
8
26
36
34
32
32
26
22
18
28
60
96
124
132
128
116
100
146
172
162
122
74
48
56
56
46
46
48
48
48
40
16
6
18
18
24
8
16
16
10
40
52
54
34
48
60
62
46
28
18
12
14
24
28
22
14
6
6
6
18
16
4
6
20
30
30
24
18
12
24
28
36
48
46
36
32
108
182
194
120
96
60
36
44
80
86
44
40
80
84
108
170
224
210
134
46
114
186
218
190
162
132
66
40
148
184
128
114
182
194
164
108
72
60
72
80
68
52
130
166
176
172
130
20
118
200
194
98
144
250
255
255
190
102
102
134
118
86
184
255
255
255
104
10
22
44
8
48
38
48
92
90
58
28
22
20
22
16
12
16
16
4
6
14
16
14
20
22
14
8
20
18
10
14
12
20
32
32
30
28
22
16
22
22
16
8
6
4
0
4
6
10
16
12
10
16
8
14
14
10
8
12
18
22
22
26
26
20
18
26
34
34
28
14
6
4
18
38
42
40
42
40
24
8
14
12
18
18
8
0
6
22
38
40
36
28
12
4
2
18
34
30
18
14
34
50
42
20
26
52
84
100
130
182
224
228
182
130
74
38
24
8
4
6
4
2
6
8
8
16
48
84
118
138
142
142
132
114
86
64
58
66
88
90
74
54
32
40
32
26
24
16
8
24
28
50
62
52
34
30
12
18
22
32
60
74
44
10
24
4
22
22
42
48
52
42
32
20
12
30
32
22
22
30
36
24
18
24
24
14
8
20
38
54
68
58
22
38
44
44
54
70
68
52
42
28
26
44
34
4
40
46
22
20
14
4
26
38
32
28
20
34
46
44
24
10
40
50
40
44
36
42
40
20
6
8
12
28
46
44
36
30
32
28
16
6
18
34
28
12
10
22
16
6
6
18
18
34
30
6
18
8
20
30
24
8
14
26
28
14
14
18
32
38
36
32
44
52
48
42
44
54
50
52
44
8
26
38
32
28
30
38
42
28
16
46
58
50
32
28
34
38
34
26
30
32
26
16
14
24
18
32
60
70
40
60
44
20
24
16
30
36
32
38
36
32
14
18
20
20
20
20
22
12
20
34
40
38
40
38
40
40
40
44
40
20
4
10
16
22
18
20
16
24
34
30
18
22
18
16
30
28
12
8
20
20
26
38
30
14
18
18
4
24
38
38
22
8
4
6
14
12
6
8
18
24
14
30
32
22
30
28
30
28
18
8
10
20
16
20
16
14
14
12
8
2
14
18
20
26
28
24
20
12
18
2
26
116
255
255
255
255
86
12
10
10
8
14
14
12
16
8
8
12
18
26
34
50
54
34
18
16
20
30
20
6
28
34
26
28
26
16
12
20
6
14
20
14
8
10
10
16
20
16
16
20
24
24
14
12
12
8
6
6
8
14
8
14
18
16
28
14
4
10
10
8
4
6
6
16
24
20
12
20
20
12
6
28
46
44
22
20
20
14
10
26
30
28
34
40
50
58
66
90
96
88
94
122
120
94
60
32
28
36
44
60
42
20
22
34
40
22
18
6
8
12
10
22
12
22
46
44
36
44
54
62
58
38
28
28
26
34
42
38
18
8
10
14
4
14
14
6
14
24
20
10
8
8
8
14
22
28
32
24
22
20
50
116
164
148
86
54
46
68
86
72
52
22
64
86
122
198
255
255
176
66
126
194
194
132
158
172
138
122
168
206
128
114
212
226
176
112
70
58
64
88
92
142
192
188
160
118
44
78
188
212
172
78
180
255
255
255
124
46
68
92
44
92
208
255
255
255
128
32
24
38
6
56
46
48
92
92
60
34
24
16
26
28
24
18
14
6
2
4
6
12
22
18
8
16
26
12
8
10
18
28
32
26
20
18
18
16
22
18
20
16
10
8
16
14
14
6
8
14
14
14
10
12
14
12
12
16
18
14
16
22
20
14
18
30
40
36
20
20
12
8
8
12
22
32
30
18
6
4
16
20
14
0
6
6
26
46
50
40
34
32
22
12
12
12
14
12
14
28
46
56
46
24
10
28
62
98
138
186
226
238
202
130
58
22
20
6
2
4
6
2
4
8
4
6
32
68
104
116
114
124
136
140
114
80
56
46
60
64
54
40
18
16
10
20
32
28
26
38
30
30
40
50
44
20
8
22
6
42
70
72
36
8
18
10
10
24
40
44
48
46
30
12
22
28
12
18
38
54
70
60
24
14
30
22
14
22
30
38
42
44
38
62
58
36
44
46
66
60
48
24
22
18
26
26
52
54
34
10
14
34
40
34
32
38
42
44
40
30
28
42
48
40
24
44
54
50
34
20
12
6
10
14
36
48
50
46
40
30
16
12
28
36
26
14
4
20
22
14
2
6
8
16
26
16
22
10
14
30
36
30
36
42
28
24
26
20
20
26
18
28
38
34
28
30
36
36
14
38
64
50
50
42
36
22
18
18
28
32
20
8
36
48
44
30
30
20
4
6
6
26
42
42
28
32
28
52
88
78
30
58
44
20
20
30
56
52
30
38
28
12
4
10
18
28
42
28
36
32
38
36
50
48
42
34
38
46
52
52
46
30
12
14
14
18
20
14
8
8
26
36
34
28
12
14
26
22
14
4
10
10
14
24
14
14
26
10
24
52
50
28
10
2
4
12
14
8
10
22
22
10
20
26
14
8
8
4
22
26
32
34
10
22
38
32
22
20
16
14
10
12
10
8
10
14
10
12
20
22
42
24
48
126
255
255
255
255
84
10
10
6
4
14
12
10
16
14
4
14
26
40
44
52
60
54
36
22
20
22
24
16
12
20
22
14
12
20
6
12
14
6
6
10
26
24
10
4
14
16
2
18
26
20
22
20
14
8
4
4
14
22
10
16
16
10
22
26
18
14
10
10
12
12
10
18
30
24
8
6
8
8
2
16
32
40
30
4
22
24
10
26
36
42
42
38
38
36
50
74
82
68
72
84
74
52
34
26
42
58
66
62
32
24
24
32
42
30
14
28
26
16
10
14
4
34
40
24
10
32
42
54
56
36
28
32
36
40
36
20
14
14
4
14
20
22
32
26
16
10
14
14
14
12
8
8
4
2
20
32
32
8
30
66
102
108
82
40
12
58
94
100
80
38
14
38
42
112
212
236
180
76
106
152
130
62
110
192
238
208
202
254
124
102
232
238
172
120
98
66
30
72
120
122
68
64
104
120
156
196
202
150
86
42
142
255
255
255
222
174
214
218
124
108
226
255
255
255
126
28
24
38
24
56
38
34
82
92
56
36
34
16
6
22
26
18
12
12
18
24
26
24
20
10
6
22
34
24
32
18
16
30
28
18
12
16
20
14
16
16
26
24
2
20
24
14
24
20
10
10
18
20
18
10
8
16
16
6
4
2
14
20
12
6
18
34
38
24
6
20
26
16
6
4
10
6
8
12
8
4
12
26
16
12
6
14
30
40
40
38
42
42
28
16
20
22
24
12
6
16
40
60
66
52
26
24
38
70
112
190
255
255
216
118
40
26
30
12
0
0
4
6
4
8
4
10
16
54
102
132
100
92
128
164
156
118
84
60
62
52
38
26
14
12
14
8
20
26
26
26
24
40
50
42
50
42
46
38
24
40
52
58
40
14
34
44
40
26
42
64
82
74
42
20
20
14
12
32
30
18
30
36
22
6
20
20
28
20
4
24
34
56
58
96
82
28
8
36
64
60
42
22
20
28
30
42
62
50
6
30
42
36
18
4
8
28
50
68
78
82
78
66
44
18
12
34
44
40
32
28
28
28
16
10
14
24
32
38
38
32
26
20
24
30
26
14
8
16
24
20
6
2
6
18
30
30
22
10
8
16
26
32
40
34
16
28
40
30
22
20
2
16
16
2
14
26
24
18
16
8
42
74
66
34
38
34
26
30
24
16
12
6
6
12
20
16
12
6
22
30
26
16
12
36
38
36
26
14
72
112
106
102
60
50
40
48
58
44
22
24
24
20
16
8
32
46
32
8
20
42
40
28
24
40
36
22
14
16
24
26
32
28
18
6
0
2
6
4
2
2
0
6
12
18
24
30
28
30
18
4
12
8
12
20
14
14
20
8
42
54
24
14
26
16
14
12
6
12
24
26
12
12
22
10
6
16
16
18
20
14
14
26
10
28
40
22
10
8
6
8
10
20
26
18
12
12
6
6
18
30
56
32
78
154
255
255
255
255
74
10
10
6
2
12
12
6
12
14
10
4
14
32
36
38
50
54
44
32
22
20
26
22
8
4
6
8
10
20
16
8
14
22
18
38
44
28
26
16
16
14
2
14
16
8
10
26
26
14
12
12
2
18
28
20
6
16
8
12
22
24
22
28
30
24
24
26
30
24
20
22
30
28
12
6
12
20
22
6
12
20
18
44
46
32
32
44
56
70
82
92
94
74
56
66
62
44
30
28
46
62
56
38
26
14
10
20
34
46
54
48
36
40
26
16
32
46
36
16
6
14
26
38
38
22
16
26
28
20
12
10
22
16
4
18
20
16
20
28
20
4
12
20
26
28
28
18
6
2
4
18
28
22
18
40
66
80
74
54
16
44
92
102
80
48
48
58
30
52
162
212
188
102
94
128
126
64
86
240
255
188
142
255
214
194
255
238
140
98
92
50
34
52
34
44
128
178
198
210
212
194
140
46
98
148
244
255
255
255
255
255
255
255
255
136
255
255
255
255
98
12
4
26
28
64
38
46
100
96
50
26
32
28
8
18
28
22
8
6
14
20
26
36
34
20
6
20
26
14
28
28
20
30
24
18
12
14
20
18
16
18
24
14
6
18
16
4
12
14
2
6
12
16
16
16
16
18
8
6
8
6
10
16
16
18
28
36
26
16
10
8
16
20
14
2
14
18
10
6
12
6
10
22
14
4
6
18
26
34
30
32
34
30
16
8
6
10
12
10
16
14
16
24
46
56
40
24
34
78
154
236
255
255
192
96
30
16
28
14
0
0
2
4
4
8
4
8
8
50
116
132
104
96
120
160
168
138
108
86
76
68
56
44
20
14
18
20
10
2
4
8
18
34
28
32
44
46
50
38
48
70
84
86
68
32
4
18
32
40
42
46
60
54
34
46
54
38
44
38
14
14
24
30
30
18
12
20
44
38
44
6
44
62
36
62
74
42
36
46
56
44
36
26
4
6
8
28
42
16
34
54
46
34
26
10
4
10
30
48
56
54
46
36
14
6
16
30
36
28
18
20
30
34
20
8
4
14
22
22
20
28
38
40
44
50
44
32
20
10
14
20
16
14
18
22
22
24
20
8
0
6
14
18
16
8
10
14
30
34
24
16
10
20
20
10
14
30
40
28
8
40
80
96
66
22
24
24
22
28
26
24
14
6
16
18
16
10
12
24
34
32
26
38
24
40
34
22
22
12
40
68
78
76
60
46
36
40
40
28
14
16
34
28
8
36
58
40
6
22
26
24
54
48
10
22
26
22
20
28
44
52
44
34
20
2
4
8
12
10
8
6
6
14
22
16
8
30
42
28
4
10
14
6
18
26
26
28
30
14
40
40
18
44
36
28
30
22
12
20
20
14
14
20
12
12
22
16
14
20
28
28
34
36
10
26
32
20
16
16
14
14
8
8
28
32
22
12
14
18
14
32
58
26
90
200
255
255
255
246
64
10
8
12
4
16
14
8
18
24
16
8
18
34
24
14
24
36
36
30
24
22
32
36
22
10
4
6
4
10
16
20
10
20
26
40
38
22
28
24
8
8
10
20
32
40
24
12
22
26
22
18
22
14
12
24
18
8
12
22
14
18
18
24
22
14
18
20
22
24
24
16
20
36
32
24
22
22
16
12
2
12
26
40
24
8
30
50
60
66
76
88
96
84
50
60
58
42
34
38
54
60
42
22
18
16
24
28
38
44
40
22
16
34
32
32
46
46
34
16
6
24
40
46
34
6
14
16
6
10
20
24
20
4
12
12
14
18
10
6
16
22
18
10
22
36
42
30
16
16
22
20
30
32
16
24
56
80
84
78
54
8
52
76
58
30
44
78
66
38
126
196
202
138
86
122
130
104
70
255
255
255
60
204
255
255
255
182
72
38
36
10
42
84
110
190
212
176
130
114
110
90
72
106
218
255
255
255
102
156
255
255
255
255
255
174
255
255
255
228
110
42
38
48
24
56
40
50
92
80
40
20
22
22
8
22
32
30
22
28
34
26
4
18
28
24
6
14
28
24
16
12
20
32
26
14
8
8
10
8
2
4
10
6
8
18
22
16
22
22
8
6
10
14
4
6
8
6
4
10
8
10
18
26
36
36
32
28
14
8
10
8
10
14
14
12
12
16
14
10
22
14
8
18
16
14
18
20
18
36
48
42
28
20
18
22
22
24
24
14
12
28
36
40
44
46
36
26
48
106
184
246
255
236
156
86
40
28
34
14
0
0
0
0
0
4
2
2
8
40
118
168
164
138
124
140
150
136
122
110
106
104
98
86
52
18
6
14
22
22
22
22
28
40
38
36
36
36
30
30
44
72
98
110
96
76
64
62
54
36
38
72
94
76
36
40
76
74
54
34
30
32
42
50
50
42
32
38
54
40
80
64
52
54
52
86
94
56
24
16
32
44
54
58
46
36
26
26
34
16
44
40
28
26
46
42
20
10
16
10
18
48
60
58
32
12
14
42
50
32
10
10
24
34
22
10
10
24
30
22
6
16
34
48
54
60
56
48
42
30
14
6
18
18
12
8
4
20
24
12
4
10
16
14
12
24
28
14
6
22
24
12
12
10
12
6
12
12
30
42
34
64
86
80
44
8
12
12
12
16
18
20
20
26
18
12
14
14
20
24
20
16
6
18
30
44
38
32
38
42
34
14
26
44
38
12
6
12
12
18
16
10
42
52
30
58
56
14
28
34
28
8
36
54
26
32
46
46
42
40
40
34
24
22
16
8
10
10
10
8
10
16
20
28
32
44
34
18
38
48
32
14
10
2
12
24
32
40
40
34
60
66
40
42
22
20
32
30
18
10
6
10
14
18
20
28
26
10
12
12
20
26
40
34
28
40
44
34
24
26
22
28
30
16
12
32
30
4
24
28
12
24
50
14
94
248
255
255
255
216
60
10
10
14
6
18
20
16
22
34
30
22
22
30
18
6
12
24
28
20
22
20
26
36
30
14
24
24
26
26
30
26
10
10
10
16
22
12
10
20
18
4
18
36
34
46
50
30
36
32
18
8
24
38
34
32
20
8
26
18
2
6
6
14
14
14
22
26
20
26
38
38
26
8
28
32
24
0
18
22
14
16
20
12
20
38
36
26
26
20
24
44
70
78
54
52
48
36
32
38
50
46
28
16
12
22
26
26
32
38
46
40
22
10
18
34
40
38
32
22
22
24
38
40
22
14
32
18
18
20
14
14
20
24
24
12
2
12
20
16
6
12
26
22
8
14
28
32
30
22
20
22
24
18
18
2
36
72
86
82
64
22
46
82
68
42
68
114
138
86
80
124
186
170
80
84
106
110
42
186
255
255
255
74
102
216
190
82
12
44
78
74
34
46
104
134
114
62
20
12
6
68
184
255
255
255
255
255
255
232
174
110
255
255
255
248
255
255
255
170
86
34
42
52
20
50
26
36
84
82
46
24
26
20
4
16
32
32
16
8
24
26
16
18
20
16
10
8
12
18
12
4
14
20
14
12
10
8
8
8
10
8
12
10
4
12
12
6
14
10
6
14
18
18
12
14
10
6
8
2
8
18
22
26
32
22
10
14
8
2
2
6
12
16
16
14
6
12
28
18
26
24
14
26
28
28
26
18
6
28
56
62
50
32
20
20
18
18
20
20
18
22
26
28
26
30
32
32
78
140
206
244
246
216
152
98
54
32
24
6
0
0
0
0
0
2
2
2
10
22
72
126
154
150
130
130
140
146
148
138
134
130
124
112
78
48
34
28
20
12
22
38
52
60
48
32
24
24
30
32
40
54
80
106
102
82
64
54
54
52
44
46
62
70
64
46
36
50
44
38
30
22
26
34
40
44
50
52
48
32
54
60
32
22
26
66
70
44
12
12
34
44
50
50
40
30
32
26
14
12
16
46
58
42
8
24
26
12
18
8
44
66
52
26
18
30
24
44
62
54
34
24
34
50
44
30
22
22
22
18
24
26
24
34
40
42
38
32
28
22
18
16
8
10
18
28
38
34
12
8
12
4
10
12
10
20
20
12
12
6
20
26
16
4
6
12
18
14
14
32
58
72
60
38
18
12
18
28
32
38
46
50
48
58
54
44
30
20
14
10
12
22
28
16
22
22
20
26
34
28
2
32
46
42
34
22
22
28
32
32
32
16
16
34
18
36
24
14
36
22
16
22
28
34
20
34
46
38
22
10
4
20
32
34
22
8
12
16
16
10
4
18
44
52
42
42
50
28
14
24
38
34
18
8
8
16
24
36
36
34
50
56
40
20
8
10
16
18
12
6
6
8
8
4
16
20
18
14
22
20
22
20
16
2
10
22
34
36
28
26
18
24
36
34
28
42
30
6
30
22
2
16
46
6
112
255
255
255
255
198
60
6
4
8
8
18
18
10
6
10
12
12
8
14
22
18
16
20
22
24
24
22
18
10
26
30
28
28
26
26
22
10
8
16
16
28
40
36
12
14
34
26
32
38
22
18
36
32
20
12
18
16
6
18
36
30
14
14
20
8
6
12
12
18
22
22
22
16
10
24
38
46
58
50
20
8
18
16
10
22
26
18
10
24
38
36
20
18
18
8
2
6
36
56
44
38
38
34
34
36
38
28
14
14
14
20
22
22
22
18
24
24
16
10
18
24
26
28
28
26
30
12
28
38
30
38
44
32
44
26
14
32
38
34
26
24
24
18
8
16
22
6
18
34
34
46
54
42
26
10
8
12
8
6
20
14
14
56
88
90
76
30
36
82
80
82
104
102
154
156
90
24
134
176
118
10
112
172
116
40
248
255
255
255
218
126
56
48
110
136
142
168
158
148
150
154
154
132
88
62
110
222
255
255
255
255
255
255
255
255
255
255
190
190
250
244
255
255
222
122
48
12
24
32
18
56
36
46
88
86
54
34
28
20
4
14
32
44
44
26
28
14
6
18
18
4
12
16
16
16
14
10
8
16
16
14
14
14
14
10
6
4
14
10
8
22
24
16
22
14
16
20
18
12
8
12
14
10
4
12
18
18
16
20
24
20
18
24
18
4
6
4
10
12
10
10
8
24
28
10
16
22
18
26
26
26
18
16
12
8
40
54
50
36
20
12
10
16
22
20
18
26
32
32
24
30
36
48
98
152
204
234
238
218
164
106
50
16
6
0
0
0
0
0
0
0
0
4
8
8
20
54
96
122
122
120
126
140
150
142
138
136
132
120
86
60
54
64
74
64
34
42
54
66
46
18
8
20
30
28
34
34
46
74
90
80
46
16
44
70
80
94
112
108
72
24
8
18
16
30
32
16
6
6
8
24
44
62
62
32
24
20
14
30
48
70
64
38
6
12
18
30
32
28
54
76
68
40
26
14
32
48
82
98
76
34
6
20
24
24
54
66
50
40
48
40
18
24
52
64
60
46
46
58
62
54
42
36
36
36
36
24
16
30
40
34
24
22
26
28
26
8
16
34
46
50
40
32
30
38
36
30
8
8
8
22
22
14
16
4
30
32
12
10
0
16
22
28
44
66
70
52
48
40
24
36
48
48
50
60
78
82
74
82
72
60
56
56
48
34
18
18
34
40
28
18
24
36
40
30
12
18
18
18
26
26
38
34
46
40
36
32
26
28
12
32
38
24
18
32
18
8
30
26
8
32
32
26
28
30
32
36
42
44
40
24
4
16
18
10
24
54
66
48
22
14
32
34
30
24
8
26
36
30
8
12
20
26
18
16
22
26
22
16
14
12
20
22
18
8
0
4
4
2
10
10
14
22
26
30
26
16
20
32
30
16
4
18
20
16
12
12
22
30
36
32
10
18
24
16
14
22
52
8
126
255
255
255
255
184
56
6
4
8
8
18
20
14
26
28
20
14
12
18
30
38
26
14
20
28
36
50
34
26
16
34
36
24
14
16
12
12
26
28
22
26
40
46
30
20
30
38
28
20
24
16
10
10
6
8
18
24
32
24
14
22
24
20
14
8
8
12
10
6
8
8
4
6
22
28
28
32
50
70
64
40
30
14
4
12
22
28
22
30
24
10
10
18
24
18
8
10
16
32
26
24
28
28
26
20
16
8
10
18
20
20
24
38
46
40
38
30
22
20
10
12
18
20
24
24
22
18
34
48
42
32
18
10
34
32
26
28
14
16
12
20
32
44
34
6
18
28
26
40
38
52
48
28
10
10
18
14
12
16
20
28
24
38
88
114
124
100
40
20
46
58
48
28
36
78
84
74
80
150
136
52
66
164
172
80
76
242
255
255
255
255
196
200
240
252
236
255
255
255
255
255
244
232
190
136
210
255
255
255
255
255
184
184
255
255
255
255
218
198
68
92
174
172
138
90
48
22
20
24
24
48
20
36
76
78
54
38
32
24
8
14
20
16
18
16
10
4
8
14
4
14
24
22
20
16
14
12
14
20
20
22
24
24
24
18
12
10
10
4
16
28
26
16
22
10
12
18
14
4
6
6
6
8
6
4
8
10
14
20
16
12
14
18
16
8
6
6
8
14
18
20
14
18
14
10
10
6
6
10
20
28
20
12
10
8
34
40
30
20
16
16
12
12
14
8
14
20
26
30
20
24
32
52
90
134
186
220
228
206
148
84
36
18
10
2
0
0
2
4
4
4
4
2
8
8
8
24
72
116
126
112
94
86
86
82
90
110
128
126
90
54
50
52
70
80
80
46
10
42
42
20
4
12
18
14
18
28
42
54
74
90
78
38
30
26
20
40
70
74
46
14
6
8
16
34
48
38
16
8
14
24
30
52
60
36
20
14
10
16
20
64
88
82
52
22
12
16
34
50
64
64
42
18
30
28
48
50
46
74
80
60
32
18
12
18
42
52
42
26
28
20
10
10
26
42
44
32
22
28
42
52
42
24
14
18
18
22
34
36
30
22
22
32
36
28
8
22
42
46
44
30
8
42
62
44
40
44
20
8
10
16
24
18
16
10
26
26
10
14
12
26
38
42
48
54
46
38
42
50
56
56
42
20
16
38
70
70
62
74
52
26
30
54
68
64
44
30
34
38
30
18
20
30
34
32
16
18
8
6
22
32
22
4
32
38
22
8
16
20
16
26
36
32
10
24
38
34
18
12
20
26
16
14
24
30
28
36
40
40
42
38
18
16
18
4
34
46
30
8
14
12
2
14
24
38
38
16
10
24
14
18
26
18
4
18
18
16
16
12
14
18
16
12
10
6
6
6
6
4
8
10
16
20
16
14
22
28
22
22
12
16
8
10
8
10
10
8
4
10
10
4
16
22
16
4
4
24
66
18
138
255
255
255
255
156
42
6
2
6
6
18
20
10
22
16
2
8
16
16
24
38
32
12
18
38
58
46
18
24
16
26
26
32
22
2
14
24
22
18
16
16
32
48
46
30
8
10
8
16
28
28
14
4
18
20
14
2
24
38
30
22
30
22
8
6
14
20
14
6
4
4
4
16
28
22
16
16
20
34
46
50
42
26
16
8
8
16
20
10
6
8
6
10
16
12
12
14
18
26
20
20
22
16
2
8
12
10
10
16
22
28
28
32
26
16
14
10
2
10
20
28
32
28
24
16
4
16
26
42
48
26
18
28
14
20
16
2
20
24
12
26
24
48
52
26
38
54
40
40
30
32
22
8
6
6
18
26
20
24
32
32
20
20
66
106
138
154
134
82
30
22
62
88
110
142
152
102
54
122
146
110
18
90
158
142
48
58
194
255
255
255
228
248
255
255
254
254
255
255
255
255
254
255
238
176
244
255
234
166
204
224
108
64
204
214
132
152
218
240
255
255
255
196
116
84
50
20
14
14
14
38
22
48
82
76
46
30
30
24
4
22
34
34
20
14
12
8
8
8
14
24
22
12
10
8
6
12
20
26
24
22
22
24
26
22
22
24
20
8
18
22
12
10
22
10
12
20
12
4
14
14
10
4
8
14
20
20
18
26
30
34
34
26
14
4
6
2
12
22
26
30
20
2
14
12
14
16
16
20
22
28
32
26
8
26
48
48
38
24
12
14
18
26
30
16
10
10
22
42
40
32
26
52
106
152
184
218
218
180
118
82
42
26
20
6
0
0
4
8
8
8
8
2
4
4
2
16
64
120
142
128
94
82
86
72
56
66
106
126
102
64
38
32
44
62
86
84
44
46
26
26
12
24
40
44
30
16
38
42
44
62
86
82
22
54
96
102
88
60
26
18
24
28
28
34
50
54
40
24
14
22
30
42
46
26
8
22
2
26
28
18
50
80
76
46
26
42
52
52
46
46
34
10
14
28
32
18
8
20
42
54
52
42
18
14
26
28
22
10
14
8
12
18
12
22
32
38
28
20
20
34
34
14
4
10
34
42
32
16
26
34
36
34
26
10
20
46
48
34
18
8
40
66
58
20
18
32
20
2
12
2
10
16
12
22
30
30
14
10
24
42
48
38
26
30
26
46
76
88
76
48
10
18
20
38
52
38
32
60
54
16
12
16
46
60
56
44
36
32
26
14
16
26
20
16
16
32
34
34
34
20
32
40
58
50
28
16
24
20
8
10
18
32
26
12
28
46
36
20
16
12
8
8
10
6
6
20
22
26
32
38
30
24
16
6
24
38
36
30
26
26
22
14
4
14
34
36
20
16
6
22
24
4
18
16
4
18
26
22
18
22
24
26
26
18
8
2
2
12
18
16
14
20
20
12
14
22
36
34
16
18
14
4
14
20
14
6
4
14
22
28
26
16
12
12
14
42
78
16
160
255
255
255
255
120
40
2
4
8
8
22
32
32
40
50
38
16
12
4
16
28
34
26
46
60
48
24
28
8
20
30
24
18
24
16
10
32
46
38
24
6
16
36
48
44
36
36
34
26
28
30
18
22
20
36
40
28
12
20
30
28
32
18
4
8
22
24
12
14
12
10
4
16
22
8
8
18
22
12
2
16
34
42
38
18
4
10
8
12
10
10
8
14
14
4
16
18
24
28
18
14
10
4
20
20
22
14
8
10
16
28
40
44
48
52
48
32
22
32
28
40
44
36
28
20
12
12
14
20
40
48
32
12
18
18
24
18
18
6
18
32
14
28
44
28
36
48
30
30
28
14
4
10
6
12
30
36
26
22
22
18
10
6
26
50
74
110
146
146
106
100
126
124
122
132
122
68
52
114
162
170
114
96
90
162
162
160
218
216
144
148
116
120
102
88
56
20
50
130
188
212
226
248
232
164
220
238
186
132
132
214
170
100
162
202
162
206
248
208
255
255
255
234
160
114
68
34
38
48
44
58
26
36
80
82
50
28
30
30
12
30
38
24
6
12
14
10
4
12
18
18
10
2
4
4
4
8
10
12
10
10
18
26
26
16
12
16
12
0
10
18
16
12
14
10
24
30
16
18
16
8
10
12
12
6
10
24
30
30
30
28
24
20
20
20
20
16
22
20
12
20
20
6
6
4
8
12
10
18
12
8
14
22
24
26
34
30
28
22
14
8
2
16
30
20
8
12
30
44
30
12
18
42
98
164
220
240
218
164
104
76
40
24
22
8
0
0
4
6
2
2
6
4
0
2
4
6
40
100
148
166
148
110
80
56
48
54
80
114
118
102
76
56
58
68
80
76
48
22
14
16
24
26
20
16
36
30
24
52
46
14
22
62
70
58
62
94
96
80
56
30
6
4
4
10
26
44
46
32
32
30
30
42
46
36
18
22
20
12
12
22
28
46
62
68
72
78
80
74
66
58
46
36
32
22
8
6
16
10
30
56
70
70
40
4
36
44
30
20
32
28
18
14
6
26
44
44
28
12
14
28
36
30
22
22
32
26
12
12
26
40
46
44
36
26
36
42
30
14
12
22
44
50
28
12
40
48
30
10
12
6
8
10
8
18
26
28
20
20
30
40
36
24
16
24
40
46
64
68
52
30
30
32
28
48
52
36
34
58
64
30
18
10
20
22
24
38
44
48
48
38
30
26
18
12
22
28
28
28
20
6
18
26
24
18
20
10
14
28
26
16
8
26
36
20
12
26
22
8
10
14
14
10
2
10
24
30
24
16
24
32
26
16
10
16
28
40
40
34
32
34
38
40
36
30
24
14
6
6
8
10
14
18
22
6
10
16
30
38
36
32
20
14
22
26
20
8
6
12
14
12
10
4
12
14
12
14
20
24
16
18
20
16
24
20
10
6
12
24
26
22
18
14
16
16
14
34
64
8
198
255
255
255
238
90
46
18
6
8
6
24
34
26
2
20
30
24
10
6
16
26
40
52
44
38
14
6
26
28
16
12
6
10
18
20
12
12
36
46
46
32
26
18
28
34
32
30
24
18
20
28
30
24
8
12
28
38
34
16
4
4
10
16
22
26
24
12
6
20
14
8
10
18
20
4
10
18
18
6
14
12
2
24
36
24
8
12
8
22
16
6
2
6
12
16
22
18
20
26
16
6
6
18
22
8
14
12
10
14
16
16
36
48
48
48
46
30
12
22
10
32
44
40
32
26
20
4
4
2
20
48
60
54
40
24
36
36
28
28
36
26
8
22
26
24
28
32
24
8
22
24
16
8
12
34
42
36
24
14
6
4
2
0
2
6
12
36
86
126
118
106
102
78
66
64
50
20
34
84
130
156
130
54
32
124
206
255
255
206
114
50
26
30
54
98
152
188
172
102
14
94
152
192
190
132
186
212
194
182
190
166
92
8
154
255
254
242
204
136
214
255
255
255
206
124
68
46
56
66
60
76
36
40
88
88
48
24
32
36
26
34
58
58
34
8
8
12
16
12
8
4
4
4
6
4
4
8
14
22
20
14
20
30
36
34
26
22
16
6
14
20
16
4
10
12
32
34
16
24
24
16
22
16
8
12
32
36
26
16
28
36
32
16
22
26
32
26
18
4
12
20
18
6
18
14
18
20
10
22
16
10
14
16
20
30
34
30
26
16
10
10
10
2
22
22
12
14
28
42
32
22
28
62
140
208
254
255
220
160
98
62
32
22
22
8
0
0
4
8
8
8
8
4
0
4
8
8
12
60
126
180
188
160
132
110
96
76
68
88
108
118
108
86
78
76
74
60
32
10
2
8
20
38
50
42
32
12
46
62
38
24
34
58
74
66
60
78
58
64
66
58
42
30
34
30
18
16
40
40
42
26
24
42
52
42
14
18
22
20
16
32
68
90
96
92
88
86
84
82
82
78
64
46
28
18
12
8
4
20
26
46
64
74
56
18
30
50
40
52
58
42
32
16
12
26
50
66
66
50
32
36
42
46
50
58
70
60
32
18
24
38
48
42
34
30
30
22
18
10
8
26
36
34
26
30
52
54
32
26
20
10
4
6
12
22
26
26
22
18
20
24
20
12
14
24
42
50
58
66
44
28
38
58
60
58
42
16
16
44
70
60
30
22
42
38
22
16
36
54
66
62
52
40
28
16
16
10
14
10
6
18
12
8
20
32
42
38
10
22
38
34
18
16
28
24
18
32
32
28
22
18
16
14
10
20
28
28
22
12
12
22
16
2
6
12
18
22
22
22
26
32
36
40
40
38
36
34
26
18
8
6
12
18
10
8
16
18
18
36
46
42
20
4
8
22
32
20
6
22
20
10
8
10
8
4
10
24
40
46
36
30
28
16
12
8
6
10
18
22
16
8
10
16
22
20
22
20
62
28
236
255
255
255
200
64
36
26
12
14
0
22
40
50
42
44
42
26
6
6
16
24
38
62
74
60
28
2
16
22
26
26
18
16
18
18
18
12
12
16
32
36
24
12
4
14
16
16
16
16
20
18
28
36
32
18
6
16
34
32
20
18
28
34
30
24
12
4
16
22
10
4
8
12
14
6
8
20
22
8
12
24
20
22
24
20
10
12
8
20
22
18
12
10
18
22
20
12
14
22
16
10
12
10
14
16
16
6
12
22
18
4
8
24
28
28
34
24
6
22
14
30
32
34
26
20
16
0
0
0
6
20
32
42
40
40
50
52
50
44
36
20
10
20
30
32
30
30
26
22
18
36
38
24
34
44
38
26
16
4
4
4
4
4
4
2
0
6
30
62
64
36
34
30
32
24
6
16
20
26
52
72
108
122
138
152
154
140
106
72
42
46
46
38
36
48
66
48
68
64
66
32
66
102
126
116
174
190
188
198
204
176
120
94
116
138
166
144
118
126
232
255
255
255
196
90
42
26
36
32
38
68
46
44
108
100
46
18
28
34
22
6
28
40
36
20
20
28
20
6
6
8
10
10
4
2
2
6
10
14
18
10
6
10
14
12
10
8
2
4
10
12
10
4
0
14
30
28
8
18
12
8
14
12
14
18
22
18
18
24
32
42
46
38
28
14
4
16
18
18
16
16
12
10
24
18
24
26
20
30
22
16
16
20
30
32
30
22
26
28
20
16
16
8
24
26
20
20
28
42
40
36
42
82
154
214
255
255
226
158
98
70
44
30
22
6
0
0
2
4
4
4
4
2
0
4
10
8
4
22
84
154
178
158
128
112
114
104
84
72
74
92
106
100
88
72
66
62
42
16
8
14
16
4
40
58
64
58
48
50
48
40
40
60
88
86
74
68
44
38
54
58
46
32
34
30
30
10
32
56
50
30
22
44
58
46
18
30
28
20
32
38
30
34
36
54
58
54
52
48
44
36
24
14
10
24
30
22
26
30
14
18
48
60
46
36
36
36
4
32
38
34
50
50
40
24
20
34
56
64
56
54
50
48
52
62
80
80
54
34
28
34
44
36
24
18
16
10
6
14
18
18
34
44
34
32
46
40
18
32
36
24
10
8
20
28
32
28
14
22
32
40
40
32
20
38
72
86
74
56
42
36
44
38
36
22
26
22
22
22
28
24
32
40
36
20
10
14
20
32
54
62
56
40
26
14
8
0
16
24
14
20
8
10
16
10
22
32
32
22
36
40
34
18
16
14
18
28
22
12
8
10
14
16
18
22
28
30
26
18
12
20
20
6
8
2
10
18
12
4
20
24
26
20
12
6
12
16
20
20
12
6
12
18
10
12
28
22
14
20
36
38
26
2
14
8
32
32
10
14
18
14
8
10
18
18
18
36
42
32
14
8
12
6
8
12
12
16
24
22
12
6
12
22
30
26
38
14
50
40
254
255
255
255
164
48
28
20
4
10
6
10
20
30
30
20
14
14
14
6
4
14
26
42
58
58
42
18
20
20
8
12
18
24
24
12
10
26
26
26
14
6
14
14
14
8
8
12
22
24
16
10
16
26
30
26
24
18
24
18
4
4
8
8
2
4
8
10
14
18
10
8
10
12
20
18
16
22
32
38
32
34
24
12
18
10
4
2
6
16
18
8
8
18
20
16
12
10
16
22
20
20
22
20
28
26
24
14
10
24
18
20
34
46
40
30
32
24
6
12
18
30
30
20
16
8
8
0
0
0
4
16
28
28
14
10
34
40
42
42
36
30
28
32
36
38
34
32
36
34
22
32
44
34
40
38
24
12
6
2
6
4
4
4
6
4
6
14
26
44
52
40
40
46
44
30
36
48
44
62
106
168
200
172
118
58
40
70
78
80
50
56
54
48
48
64
92
98
136
126
48
52
96
44
64
148
174
166
162
168
156
126
106
102
82
36
36
42
56
90
226
255
255
255
158
54
46
24
12
16
52
64
38
62
114
90
34
8
16
36
30
22
40
42
24
14
26
26
8
12
14
10
8
10
4
0
4
2
12
26
30
22
18
20
20
16
10
8
8
12
18
16
10
0
4
14
22
20
8
24
18
14
16
10
22
22
14
18
22
24
26
34
38
36
40
42
34
14
6
16
20
18
10
16
22
14
18
20
20
28
22
14
10
20
32
32
32
20
14
22
20
20
18
16
26
26
22
18
20
26
26
34
56
98
158
216
255
255
220
140
84
64
44
26
14
2
0
0
0
0
0
0
0
0
0
4
12
6
10
10
48
120
152
140
112
90
94
102
102
82
52
52
82
112
124
106
88
82
68
42
6
24
20
20
52
54
60
82
78
74
80
84
86
86
86
74
52
34
28
18
22
30
20
6
6
6
20
18
16
48
58
52
44
48
58
44
22
34
42
44
38
4
44
86
104
82
56
52
58
54
46
40
34
26
12
18
40
32
18
4
28
60
70
54
22
26
46
38
34
50
46
22
36
52
58
34
20
12
18
42
50
54
50
44
40
38
50
62
58
50
40
34
38
30
16
8
14
20
22
16
8
6
20
40
38
24
32
26
10
24
38
38
24
14
22
28
30
20
6
8
16
26
36
42
40
52
94
106
82
56
44
50
48
18
18
10
28
32
38
46
58
30
6
42
62
58
34
14
12
10
34
52
52
36
20
8
8
12
14
26
26
12
2
10
8
28
48
46
34
12
14
20
22
18
10
8
12
22
26
28
22
24
28
20
14
16
26
28
18
16
10
12
18
6
8
8
24
30
20
22
26
14
22
20
22
16
18
10
12
20
6
16
26
30
32
10
30
32
14
12
38
36
28
10
14
2
22
32
24
24
24
14
8
6
8
24
32
34
24
8
14
18
16
14
14
12
20
24
24
12
4
6
18
28
30
20
38
14
38
50
255
255
255
255
136
36
30
26
12
10
8
2
4
8
10
10
12
16
24
20
6
8
24
32
34
38
36
28
24
28
20
16
8
18
28
10
18
30
26
34
36
20
10
12
16
6
16
20
18
14
16
12
10
16
20
22
26
32
38
26
20
20
22
24
22
12
4
8
20
26
16
10
14
18
22
20
16
26
40
42
24
34
26
6
18
12
6
6
14
24
20
14
24
22
12
6
6
10
20
28
28
30
30
26
26
22
24
20
8
24
34
48
58
52
38
20
26
24
14
14
18
24
24
22
20
10
10
8
4
0
26
88
132
120
128
80
18
10
14
22
28
26
26
28
28
30
30
28
32
28
12
12
24
24
26
20
8
2
0
4
4
2
4
4
2
18
44
68
84
92
86
66
64
80
86
72
68
72
64
84
124
152
128
52
36
86
118
138
142
136
136
136
118
94
76
62
52
26
24
50
92
168
152
126
128
192
172
132
108
86
76
40
30
36
18
16
36
22
26
24
160
255
255
255
130
26
50
50
34
26
42
40
24
56
86
74
44
20
22
38
32
24
28
24
12
4
12
10
12
20
12
2
6
12
6
2
6
2
16
26
24
16
12
12
14
10
8
4
4
8
12
10
8
8
2
16
30
34
20
28
18
14
22
20
34
32
20
14
8
6
16
30
28
12
14
30
46
40
20
30
30
16
6
16
12
12
10
4
12
20
16
14
12
14
18
20
24
20
12
8
4
2
12
18
26
22
24
18
14
14
22
54
84
116
168
230
255
255
196
106
56
50
40
18
6
0
0
0
0
0
0
0
0
0
0
4
12
6
14
12
24
94
138
140
120
84
66
74
102
106
62
32
50
104
160
170
150
122
94
70
32
20
24
44
58
28
8
32
34
42
50
60
64
62
54
46
38
24
28
36
48
56
48
36
36
32
14
6
14
18
34
48
54
50
50
36
16
16
46
58
36
38
36
46
86
84
62
54
60
62
56
48
40
34
28
20
24
22
26
46
60
54
26
34
24
4
16
10
8
36
58
56
32
16
42
42
20
6
2
12
24
34
36
34
32
40
32
20
36
50
52
42
38
32
18
12
30
42
46
62
56
36
22
28
30
18
26
22
8
10
22
30
30
22
18
18
18
16
18
26
28
22
14
28
48
70
82
78
48
36
52
76
70
34
42
30
32
18
34
58
44
10
22
12
30
42
40
22
8
4
24
46
54
44
24
20
24
24
24
20
26
24
38
28
26
38
38
18
22
20
28
28
20
8
8
20
24
34
32
28
18
16
20
10
4
16
34
32
14
24
24
26
32
16
16
20
26
18
10
30
26
6
26
28
18
2
14
10
12
24
14
26
18
14
40
28
34
36
10
20
30
34
36
30
12
6
10
18
20
20
20
14
8
10
34
48
38
18
14
8
4
2
4
10
12
14
30
28
12
10
12
14
28
30
14
6
38
26
42
64
255
255
255
255
114
16
12
12
8
6
6
2
4
8
14
14
14
14
22
28
14
6
26
38
38
38
34
30
32
34
24
28
24
28
28
8
22
24
6
14
20
8
2
8
22
26
22
8
14
22
24
18
12
16
18
18
16
16
12
12
12
14
14
10
10
8
4
2
10
14
12
10
10
10
14
12
6
10
30
40
28
20
22
14
20
12
6
6
6
22
26
44
40
14
12
4
8
14
14
28
34
36
30
12
4
12
16
12
18
48
58
48
26
10
22
32
52
50
36
26
18
16
18
24
30
26
26
12
8
0
46
132
156
104
150
120
50
6
0
4
12
12
14
12
14
16
16
16
18
14
4
2
6
8
8
4
2
4
6
10
8
6
6
12
24
48
80
98
92
76
60
44
44
60
80
82
72
76
72
82
86
66
116
130
148
164
150
136
122
124
142
156
146
116
86
60
38
64
62
74
120
144
70
128
212
196
96
56
32
102
156
164
126
70
42
52
52
52
52
10
158
255
255
255
120
24
14
34
28
14
18
38
18
40
72
68
44
26
24
30
22
10
12
14
10
2
10
14
18
16
4
10
18
16
6
6
6
4
18
28
24
16
6
0
4
8
12
8
6
14
12
8
6
10
10
2
14
24
16
18
12
6
12
16
32
30
20
22
20
10
22
38
34
20
14
2
24
34
20
30
24
10
12
12
14
16
14
12
16
18
8
4
6
8
24
28
28
32
26
12
8
12
16
16
28
32
30
16
10
18
32
62
86
110
158
224
255
255
160
66
28
48
40
14
2
0
0
0
0
0
0
0
0
0
0
4
12
8
12
14
12
72
124
144
136
96
56
46
82
112
82
42
56
64
126
166
176
154
122
100
76
46
14
32
26
30
28
22
4
12
4
20
30
34
28
22
18
4
22
40
52
54
42
32
32
44
42
22
10
24
30
36
54
68
74
62
46
12
32
64
62
30
8
60
84
60
46
42
42
44
40
32
26
32
30
18
20
34
48
54
42
14
12
38
36
24
28
32
20
18
32
44
34
22
42
34
24
12
10
16
16
16
24
32
46
42
24
12
16
36
48
44
38
32
18
14
30
40
40
50
62
50
30
20
18
18
24
16
4
12
12
8
20
28
18
8
18
28
36
40
32
28
20
24
42
64
88
88
52
30
56
80
72
48
60
64
40
20
38
64
68
40
24
8
12
22
34
30
14
8
18
40
60
64
46
28
24
16
8
6
28
48
42
28
44
36
14
18
28
30
36
36
28
30
26
16
8
18
26
24
12
8
16
10
10
14
30
28
8
24
18
18
22
10
16
24
40
38
24
32
22
6
26
40
38
18
20
14
16
28
20
34
42
18
20
16
22
20
16
30
24
16
24
30
26
14
4
4
10
10
10
6
4
26
44
40
18
2
12
8
16
14
16
16
18
28
38
30
8
12
6
20
32
18
10
30
54
36
46
62
255
255
255
255
90
4
2
6
2
2
2
4
6
8
12
10
12
10
14
26
18
2
22
46
58
46
36
38
38
26
10
8
16
16
8
12
22
16
20
42
36
18
8
14
34
30
34
18
8
16
22
22
20
22
18
12
8
12
16
6
6
12
14
18
20
10
10
20
22
14
0
4
2
2
10
14
10
4
24
42
48
28
8
22
20
12
4
4
6
14
26
32
24
16
20
10
10
12
14
16
24
32
30
10
12
16
8
12
42
68
54
14
20
34
22
46
54
42
26
18
14
12
18
26
32
30
26
10
8
0
46
128
144
92
142
112
46
6
0
0
2
4
6
8
4
2
4
4
4
2
0
0
0
0
2
6
12
16
18
18
16
18
28
40
50
60
66
54
30
18
12
8
4
6
22
38
50
62
64
58
26
38
100
146
154
136
106
82
60
56
70
94
106
96
80
72
68
54
24
24
70
124
110
230
252
124
56
164
172
132
164
182
178
142
100
80
62
70
74
20
210
255
255
255
114
62
32
36
34
32
30
44
18
34
66
58
30
10
16
24
16
6
24
28
16
6
6
12
12
8
4
18
22
12
12
12
6
4
20
32
28
20
10
4
6
12
10
8
8
18
20
12
4
4
12
16
16
14
6
8
8
4
4
8
20
18
8
6
6
6
20
36
34
26
24
30
26
16
2
10
12
8
18
28
28
20
14
14
20
26
20
20
22
14
22
20
14
24
34
32
18
30
20
16
34
34
20
10
16
30
36
56
74
90
138
206
254
230
136
52
28
50
44
12
0
2
4
4
4
4
2
0
0
0
0
4
14
14
14
14
6
48
98
134
146
120
74
38
52
86
84
58
40
22
46
86
130
148
140
126
118
116
94
68
52
34
18
8
8
8
18
30
28
34
40
32
28
16
34
38
30
24
24
26
18
10
38
44
34
30
32
22
42
76
102
100
80
46
10
36
50
42
44
72
76
52
32
30
28
36
46
46
38
24
32
32
28
26
36
48
34
10
8
30
38
22
8
10
10
36
66
72
46
34
40
36
14
14
32
26
12
12
20
36
54
54
38
26
22
28
36
34
30
26
14
10
28
44
44
18
26
28
24
14
10
20
16
8
20
30
20
20
18
24
28
8
24
38
32
20
4
8
24
42
66
82
82
64
54
42
46
56
54
50
50
70
74
68
64
62
58
42
24
22
24
26
38
40
28
20
18
32
62
88
84
54
24
14
28
34
38
32
32
34
42
38
26
34
24
22
20
20
14
28
40
46
42
22
22
24
14
6
16
14
10
16
34
38
18
34
26
26
24
10
12
6
26
34
20
22
16
8
12
34
42
26
6
12
26
34
22
18
40
38
28
18
24
32
34
40
30
18
12
22
30
18
4
4
4
2
8
16
24
28
26
18
8
4
14
26
20
10
14
12
18
32
42
38
26
36
20
24
28
22
20
26
38
18
36
40
255
255
255
255
72
12
6
10
0
0
0
4
4
4
12
16
18
10
10
22
16
4
10
36
68
76
60
44
30
16
30
34
20
14
24
26
16
8
30
34
16
18
14
18
26
8
28
34
24
14
6
16
22
24
16
16
26
18
18
20
18
22
24
22
8
14
30
26
16
14
10
2
4
8
8
18
22
22
14
8
30
40
30
20
18
22
14
12
2
26
44
54
34
10
28
22
6
8
16
14
8
20
24
18
12
14
28
42
58
58
20
18
22
30
46
34
12
6
12
8
10
14
20
26
26
20
10
10
6
0
30
98
142
130
136
88
34
6
0
0
4
12
14
14
14
6
2
2
0
0
0
0
0
0
4
10
18
24
22
18
20
26
36
48
54
50
34
32
42
40
26
24
18
20
20
14
22
30
26
0
42
84
106
102
80
72
56
32
12
24
30
36
60
76
80
82
98
118
120
112
122
154
206
255
218
64
82
132
86
36
60
72
78
72
52
34
12
50
64
22
248
255
255
255
102
74
44
36
26
18
20
40
18
36
72
64
32
14
24
34
20
18
28
18
8
6
4
8
4
4
10
16
12
0
8
12
12
4
12
24
24
18
8
4
0
8
6
2
12
24
22
8
4
2
8
14
16
16
14
14
8
8
12
20
30
28
22
18
12
4
24
34
32
26
18
22
24
22
18
18
24
24
32
26
32
22
10
8
18
30
28
32
26
22
26
18
14
14
16
28
22
30
12
22
32
30
22
14
16
32
44
70
96
106
154
224
255
218
140
58
36
56
46
12
0
4
6
4
4
6
4
0
0
0
0
2
10
12
10
8
2
28
72
114
142
138
106
62
44
50
52
48
30
26
48
56
76
114
128
122
114
122
118
104
86
58
36
18
4
10
4
12
30
44
54
52
42
16
18
38
40
34
38
50
50
24
16
50
70
66
34
10
12
34
68
90
86
68
40
2
24
40
56
62
56
38
28
28
38
58
60
38
12
22
32
34
22
2
32
54
54
34
24
32
16
26
38
32
28
54
80
68
28
42
52
38
22
56
58
48
40
30
22
26
40
50
52
48
38
34
38
44
48
44
30
20
32
52
70
60
38
40
32
10
6
6
8
26
36
34
26
40
26
6
26
16
32
34
20
20
12
12
36
48
58
62
60
54
54
56
52
52
54
42
24
18
32
50
64
68
64
54
42
38
38
34
40
44
34
24
12
28
48
98
120
100
62
46
46
40
32
16
10
18
14
36
32
26
20
20
18
4
4
2
20
42
56
50
30
36
26
16
16
12
12
26
44
38
12
24
26
20
12
8
16
10
20
26
24
18
22
20
16
28
40
32
14
18
30
34
26
12
18
20
18
14
14
16
20
22
14
18
12
20
22
12
2
10
12
14
14
12
10
8
20
18
6
14
26
24
8
4
4
6
16
30
42
38
28
46
38
20
10
18
14
16
30
14
40
42
255
255
255
255
68
14
6
12
0
0
0
4
4
4
8
18
22
16
10
24
16
4
2
18
52
84
96
74
36
28
28
42
34
24
30
20
28
24
18
20
16
14
8
10
30
28
16
14
24
24
12
4
14
26
28
26
26
12
32
38
20
32
40
26
12
28
32
22
14
18
16
12
10
12
10
14
22
26
24
14
16
38
48
38
14
12
30
22
24
46
38
64
56
24
22
32
24
10
6
20
22
22
14
26
28
32
38
38
40
30
6
24
24
40
48
32
20
22
24
24
14
16
16
18
18
20
16
4
2
0
6
22
36
36
34
20
8
2
0
0
4
12
10
4
10
8
6
8
2
0
0
0
0
0
4
8
16
22
16
12
14
16
24
34
36
28
10
6
26
40
34
20
14
10
16
30
36
36
32
60
76
68
40
40
20
24
38
52
64
76
68
50
36
54
70
62
90
146
154
148
108
130
178
192
142
72
126
174
174
160
168
162
150
128
102
94
88
90
68
44
255
255
255
255
74
66
26
10
20
26
36
46
18
36
74
68
30
10
24
30
14
24
36
26
18
12
10
12
8
10
10
14
18
14
10
4
14
16
26
32
26
16
6
10
16
18
22
12
10
26
20
6
10
8
18
20
10
2
6
10
6
10
12
16
24
20
18
22
22
20
36
36
28
26
20
10
2
10
14
10
24
36
22
4
24
22
6
8
14
24
26
26
20
26
34
26
24
22
12
2
12
6
16
28
26
28
22
10
8
18
26
56
98
128
212
255
255
220
138
88
66
66
44
10
0
4
6
4
4
6
4
0
0
0
0
2
6
6
6
12
12
8
46
90
126
140
132
102
66
36
28
38
38
26
32
46
64
86
100
100
82
80
86
90
90
76
64
50
24
10
30
38
46
54
56
56
56
50
46
32
12
26
26
38
48
38
32
30
78
100
78
36
8
22
40
48
54
68
66
38
38
48
50
58
50
32
22
30
48
62
40
12
34
36
38
28
18
14
8
20
26
36
34
24
24
38
40
44
60
62
56
14
34
48
32
42
66
80
60
60
62
50
32
34
24
10
24
40
46
50
58
56
62
58
40
28
34
34
52
52
30
28
28
12
18
18
32
38
34
18
12
34
40
16
12
18
30
20
20
18
14
34
44
34
26
36
62
72
66
62
66
84
70
20
34
64
54
28
18
56
76
76
60
44
36
30
30
34
30
22
16
40
38
74
120
126
94
56
32
26
24
30
36
38
44
42
38
28
16
24
34
30
10
14
20
20
34
44
32
50
40
28
22
10
4
20
52
68
56
32
14
8
20
36
42
30
28
26
24
24
34
28
16
22
32
30
26
18
26
32
24
6
16
26
26
22
20
18
18
18
14
18
16
24
34
28
16
26
24
20
6
20
26
28
22
34
30
22
14
14
10
10
6
8
12
26
34
26
16
32
36
26
14
2
10
12
22
12
44
42
255
255
255
255
66
14
4
12
0
0
0
4
6
6
2
12
20
20
18
26
12
6
4
2
24
64
104
108
72
26
8
18
14
8
8
2
16
30
32
34
32
20
8
12
24
38
38
24
4
18
18
8
2
20
38
50
60
48
46
30
8
24
46
46
22
18
20
18
16
24
18
20
28
38
34
14
12
32
42
28
18
34
48
50
42
40
44
20
36
64
48
64
56
30
12
28
36
36
26
20
18
16
18
26
32
22
14
10
14
16
16
30
40
54
44
20
2
4
14
24
20
10
0
10
18
12
8
0
0
0
0
2
4
4
4
2
0
0
0
0
2
10
14
12
0
8
10
12
4
0
0
0
0
0
4
8
18
24
14
4
4
8
18
22
24
12
10
14
8
22
22
16
14
10
16
32
44
46
48
72
52
4
42
84
86
68
90
118
140
152
136
130
100
98
82
24
92
132
104
150
120
136
154
114
50
36
56
98
126
114
116
124
116
86
62
50
30
8
38
142
255
255
255
254
24
74
54
24
20
14
10
28
16
30
68
72
42
24
28
26
12
16
30
30
22
16
16
12
6
4
4
6
10
12
10
2
6
12
20
26
20
12
8
14
16
10
22
20
10
20
16
8
14
12
16
22
20
14
16
8
2
8
4
12
14
4
14
18
30
34
32
22
14
22
24
18
8
8
14
20
32
22
24
30
36
18
2
8
8
8
8
8
16
30
38
34
26
14
6
6
8
16
30
26
16
22
26
20
16
22
20
42
100
176
255
255
255
212
150
106
68
48
26
4
0
2
4
4
4
4
2
0
0
0
0
4
6
4
8
6
14
8
12
54
102
132
142
126
88
58
54
42
18
24
42
50
54
60
72
88
78
70
76
82
80
60
48
48
44
28
30
30
38
60
64
58
50
48
52
38
18
18
10
24
46
58
54
22
32
72
80
60
32
30
44
40
24
52
68
56
30
30
46
66
64
46
32
32
50
58
26
18
30
18
32
28
22
26
34
36
22
28
38
32
30
24
6
28
62
64
46
16
26
14
24
48
60
48
20
32
42
50
46
32
16
2
16
42
62
72
82
90
80
56
22
2
6
8
28
30
14
12
18
6
8
8
20
20
14
6
8
20
38
32
10
18
18
6
16
22
30
40
36
26
32
36
42
50
60
76
96
104
64
24
66
78
66
62
20
20
46
54
38
30
26
24
20
30
40
38
38
48
36
40
78
92
78
52
26
8
12
22
34
40
34
34
36
32
18
22
26
38
30
8
26
18
8
14
30
50
34
40
30
12
8
6
18
38
46
44
32
16
28
32
26
16
20
22
16
12
14
2
8
20
28
22
22
30
34
30
14
4
18
20
24
28
28
32
30
24
20
18
14
16
24
28
32
28
16
24
24
20
12
28
42
38
12
12
16
26
16
4
2
6
14
24
28
20
8
12
16
16
16
12
8
2
18
12
38
56
255
255
255
255
54
14
2
12
0
0
0
2
4
4
4
10
18
20
18
14
10
10
10
6
6
34
72
88
68
28
26
20
4
4
2
12
14
6
8
12
14
14
10
16
26
20
34
30
10
14
20
12
8
14
20
32
42
38
22
8
4
4
28
46
38
8
22
20
4
18
10
18
18
32
46
30
24
34
24
12
2
18
32
36
34
28
14
6
8
34
50
56
36
22
20
4
16
28
34
22
2
20
28
20
18
18
6
10
24
26
18
22
22
20
12
4
4
12
24
32
16
14
28
34
36
16
12
8
8
8
8
6
4
2
2
2
0
0
0
0
0
2
4
10
12
10
12
12
4
0
0
0
0
0
4
8
18
30
34
28
12
10
14
22
32
26
24
18
6
12
10
12
20
32
34
34
38
36
34
40
8
52
74
62
88
78
132
188
220
228
208
214
214
168
128
134
160
128
34
72
110
152
128
54
38
72
72
88
70
50
48
70
88
86
76
66
90
122
156
255
255
255
255
198
32
98
48
14
22
40
36
56
34
26
56
58
36
24
32
32
14
4
10
12
12
14
18
10
8
6
8
2
6
10
10
4
4
6
10
16
12
8
8
12
14
10
14
12
12
22
8
8
12
4
12
12
6
18
16
16
6
4
4
18
16
8
12
4
30
46
48
36
24
18
18
22
24
12
20
30
24
12
26
34
20
4
4
4
12
14
12
28
46
54
50
34
12
18
16
8
10
22
24
14
8
10
20
26
30
38
30
58
128
204
255
255
248
200
144
94
44
20
10
0
0
0
2
4
4
4
2
0
0
2
4
6
2
4
14
10
4
14
18
18
66
114
144
142
112
70
42
10
16
22
36
34
30
30
44
76
90
94
102
104
92
56
30
22
44
62
56
36
2
42
64
60
42
30
40
40
28
14
6
12
38
70
86
68
32
44
46
56
64
70
60
40
30
42
56
56
36
6
36
64
68
50
36
36
50
54
34
34
48
32
38
16
26
46
38
22
8
26
26
14
14
14
30
60
68
44
42
18
32
46
40
28
12
12
38
68
76
58
32
32
26
28
46
52
78
88
88
98
114
122
96
60
44
52
60
48
22
24
28
14
24
24
38
34
24
14
4
6
24
34
28
18
8
6
18
34
34
32
28
44
78
92
94
96
98
102
108
98
46
50
72
44
28
56
36
2
42
78
88
72
52
32
8
20
44
54
50
46
26
24
46
54
44
34
26
12
12
14
10
4
2
14
26
32
20
6
14
22
32
18
16
16
14
10
28
34
14
38
38
20
20
22
30
34
28
16
18
14
8
28
34
24
12
12
14
18
30
34
30
30
32
24
12
20
36
48
42
16
20
48
46
22
6
14
18
12
8
6
16
30
38
40
36
18
2
16
28
30
30
46
38
28
34
46
26
32
16
12
14
14
18
24
28
24
12
16
16
12
10
12
12
10
18
16
32
68
255
255
255
246
42
12
0
12
0
0
0
0
0
0
4
8
14
18
8
10
16
20
18
10
0
14
42
66
66
46
20
4
14
16
20
16
18
26
32
34
24
14
4
10
20
18
42
40
20
16
22
14
10
10
4
14
28
32
28
20
8
8
6
26
38
26
18
22
10
20
14
22
26
24
26
36
14
22
46
46
32
22
16
14
12
8
22
26
24
28
16
2
6
20
32
26
24
36
32
24
18
26
20
22
12
14
10
4
12
26
32
32
28
26
24
18
16
16
22
26
2
36
38
46
54
32
24
20
18
16
16
10
8
8
4
2
0
0
0
0
0
0
0
8
14
4
12
12
4
0
0
0
0
0
2
4
8
14
26
32
20
10
10
22
38
38
26
12
10
10
10
18
26
28
16
20
20
18
12
18
24
52
48
32
48
104
178
232
255
254
218
208
214
180
160
186
232
238
174
78
76
92
48
64
66
54
42
44
56
44
28
34
60
84
86
56
70
104
144
242
255
255
255
156
24
70
10
36
46
46
32
52
32
24
60
64
42
26
26
30
20
8
8
4
6
12
20
18
12
6
8
10
14
14
10
6
6
10
16
18
10
10
10
8
8
8
8
4
8
12
8
12
6
10
20
10
8
16
10
18
10
6
10
18
10
6
14
8
18
36
40
36
28
24
20
18
16
6
30
40
20
8
22
20
20
16
4
4
6
6
12
24
32
28
16
8
8
12
10
14
18
10
12
16
8
8
4
6
22
36
40
74
134
216
255
255
255
200
132
80
34
16
10
0
0
0
4
6
4
6
4
0
0
4
6
4
2
6
10
12
12
18
12
10
30
84
144
176
166
124
64
16
22
16
30
38
38
30
30
56
84
106
120
126
118
86
52
40
54
70
64
46
20
18
48
56
42
28
34
36
28
18
12
10
6
36
60
50
14
22
40
46
64
90
100
84
62
56
58
62
56
34
12
46
70
60
44
42
56
68
44
10
32
30
20
4
18
8
16
28
14
14
18
6
4
20
44
48
44
48
54
54
32
16
22
18
26
38
50
58
42
22
30
34
30
26
46
32
50
72
68
56
68
100
106
84
58
42
34
18
18
20
28
22
40
30
46
50
38
24
16
8
12
24
30
16
2
2
24
46
44
32
28
54
86
90
82
84
96
106
104
86
38
50
90
86
68
72
30
20
58
84
82
54
24
24
20
14
20
26
34
34
32
42
58
54
30
40
50
46
28
16
8
8
10
16
26
30
24
20
14
10
28
32
22
8
12
24
28
18
10
26
34
28
26
26
30
30
16
6
6
12
8
12
24
20
14
24
32
38
36
34
34
24
24
22
22
24
16
14
36
42
24
18
36
26
14
24
20
10
10
22
38
44
38
26
20
18
6
20
16
6
16
24
18
10
26
22
14
38
36
24
18
12
16
18
26
28
18
0
18
24
22
16
12
20
24
18
26
78
255
255
255
244
40
12
2
14
2
0
0
0
0
0
2
4
6
12
16
24
18
24
24
12
0
14
42
64
68
52
26
26
34
34
42
46
32
30
30
20
18
6
8
4
14
36
46
28
6
10
18
14
12
18
16
28
34
30
20
10
10
10
6
10
24
24
6
16
18
18
14
10
18
16
0
20
22
24
30
40
30
14
8
6
6
12
18
12
2
26
36
22
16
14
22
24
30
30
10
14
26
16
6
24
22
8
6
14
20
18
14
18
16
14
14
12
14
22
24
16
10
28
18
32
48
38
16
22
22
22
26
24
26
30
24
14
6
2
0
0
0
2
4
8
14
12
18
12
4
0
0
0
0
0
0
0
0
0
12
24
20
14
18
28
34
44
40
20
10
10
30
30
20
8
10
20
14
8
4
4
8
44
76
74
54
120
184
220
234
218
152
146
142
98
84
122
182
222
212
166
100
40
18
56
84
106
104
78
102
106
72
64
40
14
42
52
66
120
138
172
255
255
255
144
18
64
24
44
34
12
36
70
52
36
72
78
54
34
26
16
20
14
4
6
8
12
24
22
6
10
18
16
14
8
6
10
18
26
26
18
6
10
12
6
4
4
4
2
6
14
12
4
10
18
12
6
16
10
6
12
8
6
10
10
4
10
10
8
20
30
28
26
20
24
26
26
26
28
44
42
20
22
32
22
6
18
10
8
18
12
18
28
44
52
48
36
22
10
18
22
8
10
16
26
20
20
20
18
20
52
58
68
124
232
255
255
255
170
100
66
34
18
10
0
0
0
4
6
4
6
4
0
0
4
6
4
6
2
12
20
12
8
6
16
8
46
116
184
214
190
120
46
14
6
14
36
54
50
32
56
60
94
116
132
138
118
96
84
84
80
56
42
22
4
20
38
40
36
40
38
26
14
8
16
20
40
64
60
40
42
52
44
46
66
90
96
86
72
60
54
50
42
18
28
60
68
62
60
66
80
76
52
20
8
6
6
26
52
58
34
8
34
28
12
18
24
62
92
90
78
72
84
88
64
50
36
30
30
24
22
40
46
44
38
30
6
34
28
58
72
56
24
12
34
60
68
56
30
12
16
14
8
20
30
36
18
30
44
44
34
28
22
32
42
42
22
8
0
32
60
56
38
32
48
70
64
44
56
82
96
86
64
26
26
66
82
58
38
8
24
50
72
72
46
34
40
22
12
26
20
22
28
42
68
76
56
38
62
74
80
62
40
34
44
46
40
44
46
42
34
18
34
30
38
38
20
34
50
30
2
18
28
24
34
36
24
14
12
20
12
8
12
20
26
32
8
24
40
44
36
18
10
18
22
10
20
36
42
34
32
4
34
52
54
52
14
26
40
30
24
8
30
46
34
12
0
16
18
6
18
24
20
30
34
24
16
32
32
40
58
48
26
18
12
10
8
22
32
30
28
30
42
42
26
12
22
20
18
18
86
255
255
255
244
36
12
4
14
4
0
0
0
0
0
0
0
0
12
26
28
14
24
26
12
0
14
48
84
112
104
60
38
42
32
40
54
56
40
20
18
32
26
12
8
20
32
22
4
16
24
22
8
8
16
16
16
12
18
16
10
8
10
8
10
14
16
22
20
20
12
4
10
8
8
8
14
24
22
12
28
20
4
4
4
6
22
38
40
34
14
8
14
8
8
4
10
12
4
14
22
16
22
18
8
16
16
20
24
28
28
26
28
30
30
28
28
30
30
22
10
6
32
52
66
50
24
32
6
20
36
46
50
44
40
42
42
38
28
16
10
8
6
6
2
6
12
10
6
2
0
0
0
0
0
0
0
0
0
12
28
26
18
22
28
24
38
54
42
14
36
48
34
36
28
26
22
18
16
16
12
12
26
62
106
134
136
130
176
196
162
66
100
104
78
72
96
142
178
176
148
96
38
16
50
60
48
34
12
36
48
36
58
40
14
48
52
56
122
206
255
255
255
255
142
18
60
22
26
18
14
46
62
34
34
80
72
32
12
10
10
8
10
8
4
4
14
24
20
4
16
18
12
6
2
4
10
16
16
10
6
6
16
18
12
10
8
8
4
0
4
12
20
22
14
2
18
20
12
10
14
6
4
6
2
4
4
4
8
26
32
28
22
18
20
18
14
8
26
36
32
20
20
36
38
20
12
18
26
26
16
22
24
30
34
34
30
26
20
20
20
14
12
8
22
28
16
12
22
34
58
46
52
128
255
255
255
200
90
60
58
26
8
4
2
2
2
2
4
4
4
2
0
0
2
4
4
4
2
14
16
6
4
16
20
12
20
68
138
200
222
180
106
38
4
14
14
42
54
50
58
42
80
110
134
150
136
114
98
98
102
84
56
30
16
14
20
20
34
44
38
32
30
26
22
14
24
42
44
28
2
24
32
38
50
64
70
72
62
50
72
68
42
10
20
38
60
76
84
86
86
76
62
36
10
8
10
32
44
28
38
30
20
12
22
30
28
24
58
76
74
62
68
86
86
62
20
18
24
20
10
2
20
34
42
44
22
12
34
54
54
36
36
34
42
50
56
58
46
24
6
12
20
26
28
16
8
12
26
36
38
36
50
66
68
56
26
24
6
40
62
52
38
42
56
68
64
60
74
88
84
62
36
20
10
20
46
50
28
20
22
36
70
88
78
72
62
54
36
36
48
50
38
44
70
80
60
48
60
52
70
60
50
74
80
66
60
62
78
92
94
76
58
42
42
40
24
54
56
24
30
14
6
16
36
46
40
30
28
20
18
10
12
24
28
14
20
44
44
36
24
14
14
14
22
18
22
32
24
12
26
30
10
16
26
16
14
38
36
26
36
16
42
44
16
10
4
24
26
12
30
30
12
12
30
38
24
20
22
34
52
42
14
18
6
2
8
16
32
46
44
18
22
36
28
4
14
6
4
10
94
255
255
255
226
28
12
4
12
4
2
2
0
0
0
0
0
0
12
28
34
14
32
28
12
0
6
22
44
86
114
94
54
14
10
24
28
48
46
30
26
28
12
10
22
28
22
2
16
24
20
10
2
6
8
8
10
8
6
6
2
6
12
14
14
20
26
26
16
14
16
8
8
10
4
4
14
18
16
12
18
14
12
10
8
22
26
34
30
22
20
18
18
16
6
2
4
4
4
10
14
6
20
20
6
10
26
34
32
30
28
26
26
24
20
18
20
22
20
12
10
22
52
68
50
38
12
16
14
32
58
64
64
60
42
48
64
78
68
46
32
30
26
16
12
8
2
0
0
0
0
0
0
0
0
0
0
0
0
8
24
28
22
10
16
12
22
50
52
28
48
46
26
38
42
46
40
32
28
28
22
18
18
22
74
154
224
252
218
158
100
54
144
182
178
190
234
255
255
246
172
98
38
10
64
150
204
204
174
186
188
164
120
78
64
98
148
114
12
158
255
255
255
255
124
4
44
12
16
14
8
26
46
28
38
76
78
52
38
36
22
24
14
2
12
6
14
28
26
8
14
12
8
8
8
10
8
12
16
18
14
10
22
20
12
8
6
8
6
10
22
30
28
16
8
10
18
16
12
18
20
14
10
14
6
2
6
10
16
26
28
22
16
18
26
26
20
10
24
24
18
16
8
22
30
28
22
34
34
26
16
22
20
18
28
32
28
16
18
30
34
24
14
20
22
24
24
10
16
32
40
28
52
152
255
255
255
138
78
80
88
40
2
0
4
2
4
0
0
0
0
0
0
0
0
0
0
0
4
14
16
8
12
20
16
10
10
28
74
132
184
188
148
82
24
18
8
14
34
34
18
14
38
74
104
122
118
104
90
90
106
112
94
58
30
28
34
28
28
42
56
62
62
54
58
60
68
82
88
84
64
36
14
24
28
38
36
54
72
98
110
84
50
46
28
24
44
72
88
94
92
78
62
34
2
4
14
36
38
16
28
32
34
30
32
22
14
20
18
34
48
42
34
46
64
60
22
18
28
32
30
40
26
2
32
52
50
30
18
22
28
36
48
64
76
72
60
56
56
54
40
34
30
24
12
12
16
12
8
18
28
40
66
72
62
44
42
36
14
40
52
44
42
54
66
80
84
84
90
86
70
44
18
16
22
20
18
44
38
30
20
12
36
60
66
68
64
72
66
62
70
56
24
38
56
62
42
20
16
16
30
22
62
88
76
72
62
56
76
104
122
114
88
66
50
36
30
50
38
20
40
36
24
22
32
42
38
28
24
24
22
8
16
22
8
18
40
38
22
14
14
18
20
16
22
22
14
24
42
40
14
18
38
40
34
22
30
30
20
4
22
16
36
26
10
6
16
32
26
10
30
42
40
46
54
44
12
14
12
24
36
26
4
22
16
10
14
14
20
44
60
46
20
24
22
14
18
18
16
16
98
255
255
255
250
42
12
4
14
0
4
6
4
2
0
0
0
0
10
32
44
20
50
44
14
0
2
4
2
26
68
90
86
44
40
38
30
28
30
18
4
12
16
28
30
24
6
12
18
14
2
8
4
6
12
10
18
18
18
16
10
8
10
12
14
24
24
12
12
14
18
8
2
6
4
4
10
16
10
6
22
24
20
18
18
30
16
22
36
20
8
22
22
10
4
2
6
8
2
12
20
12
18
12
10
20
32
34
24
16
12
6
2
8
10
10
10
12
12
12
22
38
52
38
20
34
30
18
36
54
64
50
48
64
48
76
70
90
90
72
62
66
72
64
56
50
40
30
18
6
0
0
0
2
2
2
0
2
4
2
6
14
20
16
12
6
14
26
36
28
38
28
8
16
24
36
38
34
32
30
20
12
12
22
34
90
190
255
255
255
216
216
255
255
255
255
255
255
212
112
12
70
112
172
255
255
255
255
212
198
172
142
110
80
62
76
158
190
98
255
255
255
255
250
92
6
38
20
12
8
6
28
46
24
34
76
70
36
22
34
36
18
8
18
14
12
12
30
32
18
8
14
12
14
18
18
8
4
2
6
14
16
18
10
4
8
10
4
6
16
22
16
6
6
10
8
20
20
12
18
28
22
10
20
18
10
12
18
26
32
36
30
26
30
28
20
12
2
22
34
36
26
8
10
12
16
18
28
26
20
12
22
26
30
26
20
12
6
14
18
22
18
18
20
26
34
32
26
28
22
22
26
76
184
255
255
236
120
52
50
74
50
16
8
4
0
4
0
0
0
0
0
0
0
2
4
4
4
0
12
18
14
18
18
8
4
0
16
44
68
114
142
140
102
48
14
14
16
8
20
64
86
66
36
36
56
60
68
82
92
102
110
104
76
42
30
32
32
46
64
68
58
48
40
42
66
84
94
94
94
90
80
70
60
46
58
62
76
88
76
74
70
50
36
22
42
44
62
72
78
90
104
102
72
30
4
14
20
22
14
16
14
16
16
14
8
2
12
4
30
54
50
28
20
40
54
40
16
30
36
14
14
26
28
24
50
64
56
46
42
36
30
34
26
44
58
58
50
44
48
44
28
14
6
28
38
26
16
8
10
16
30
36
24
6
10
24
28
22
40
48
46
50
58
60
64
66
70
76
74
68
50
28
26
42
50
34
70
70
42
20
24
32
36
40
42
50
54
42
12
16
20
30
48
52
44
28
18
26
40
36
16
44
46
24
40
46
50
58
48
64
76
78
74
64
44
34
38
26
14
32
32
20
18
20
22
16
20
28
42
40
16
14
16
6
24
28
32
38
44
40
22
4
6
14
12
14
20
34
42
28
22
26
36
34
26
22
14
22
18
14
8
20
26
18
14
26
26
16
2
12
18
26
38
42
32
14
18
8
26
46
34
16
28
18
8
2
8
16
24
36
36
16
14
22
20
4
18
22
32
100
255
255
255
255
60
14
0
12
4
6
6
10
8
4
4
4
6
18
48
64
40
70
84
56
26
8
6
6
2
20
50
94
98
60
18
18
28
22
16
22
26
26
22
16
12
10
12
6
12
28
24
26
18
20
30
24
14
8
4
4
8
8
8
12
22
14
8
22
28
22
6
6
6
2
2
8
18
16
8
2
8
6
16
28
30
14
32
28
6
14
12
6
10
10
16
14
18
12
8
18
20
26
36
34
32
24
24
28
24
18
6
4
4
6
10
16
22
24
26
32
34
28
22
20
30
20
6
50
58
56
36
24
50
62
78
56
78
88
78
78
80
94
94
90
90
90
80
54
22
4
4
4
2
0
2
0
4
6
6
6
0
10
14
10
8
16
12
16
20
20
8
8
12
4
12
22
24
28
28
16
10
20
32
28
28
106
212
255
255
255
255
255
255
255
255
192
130
44
62
148
200
254
255
255
255
255
230
226
204
158
112
80
60
62
54
120
168
100
255
255
255
255
182
54
12
26
24
16
14
8
26
54
36
38
74
66
40
26
32
30
24
16
14
10
20
6
24
28
20
4
2
8
8
18
22
16
18
18
14
10
12
24
20
14
12
10
10
10
14
10
8
14
18
10
4
18
30
28
26
28
18
8
12
20
18
16
22
26
30
40
36
32
30
18
14
18
10
6
24
38
34
18
10
4
4
12
18
16
12
4
16
24
38
46
46
36
16
8
14
28
22
10
22
34
42
36
34
24
8
18
40
110
216
255
255
236
146
94
76
62
36
24
16
0
2
4
0
0
0
0
0
0
0
4
6
4
6
4
6
12
12
14
10
2
4
8
24
50
66
84
96
110
102
70
32
16
16
10
56
98
92
64
54
38
62
58
36
68
92
98
92
86
76
54
26
24
40
64
68
52
34
48
38
28
40
64
84
84
82
82
80
82
86
74
48
52
74
68
42
78
120
124
74
46
56
46
50
52
40
50
92
118
102
62
24
22
24
16
4
6
6
6
8
10
4
8
18
20
30
54
60
48
34
30
48
58
40
2
44
54
34
54
56
36
46
68
70
64
58
44
30
12
28
46
48
40
44
38
36
38
32
20
30
44
38
18
20
16
14
8
8
32
44
42
38
24
4
24
32
34
44
60
54
42
36
38
54
68
68
72
52
32
26
46
54
26
72
82
58
32
34
32
22
14
10
22
30
36
36
36
44
46
50
58
64
58
46
40
36
18
28
54
70
58
24
8
24
12
16
44
54
46
52
58
46
22
24
16
8
18
20
18
26
34
30
6
22
20
44
50
26
10
18
4
26
28
28
36
52
62
54
38
20
26
38
36
18
20
32
38
24
6
12
10
10
8
2
8
16
20
24
28
28
22
24
22
12
2
10
10
4
16
22
22
12
12
20
14
18
36
36
18
22
8
6
12
14
22
30
32
24
6
6
16
22
20
22
20
32
86
255
255
255
255
78
14
4
10
6
6
6
8
10
8
8
8
12
26
50
58
38
46
88
94
68
24
2
6
4
0
14
64
110
116
88
42
22
20
24
30
24
12
12
2
10
10
6
18
30
32
22
30
30
30
28
2
18
24
14
18
12
8
6
8
10
8
32
38
28
26
16
8
2
2
4
8
22
28
28
28
24
20
14
20
32
28
20
26
24
4
20
16
4
18
20
18
22
20
24
34
40
42
42
44
40
22
8
28
34
30
12
4
6
10
20
26
34
34
30
28
18
18
24
26
30
20
6
28
46
60
56
44
44
56
58
46
68
80
70
66
62
72
78
80
88
104
110
92
56
34
34
34
18
2
2
0
4
4
2
6
4
2
4
10
16
12
10
16
18
12
8
8
4
4
4
10
12
20
26
18
18
34
38
22
26
68
132
198
242
236
255
255
255
170
100
62
34
30
88
132
158
196
255
255
255
255
206
255
255
255
206
152
108
82
64
108
108
32
255
255
255
255
110
20
18
12
14
2
4
10
42
60
28
36
88
88
44
16
18
24
18
12
18
20
16
8
28
28
10
14
20
26
20
22
30
26
22
16
14
10
4
12
14
6
4
6
12
12
12
8
8
4
4
6
14
12
16
18
12
12
10
12
16
26
26
18
14
12
16
28
24
18
14
8
10
8
8
2
12
24
22
14
10
8
12
18
16
8
10
6
10
12
26
36
42
40
22
12
24
22
8
14
16
14
30
30
36
36
28
42
60
148
252
255
255
228
142
84
54
44
26
18
16
4
2
2
0
0
0
2
4
4
4
4
4
4
6
4
2
4
4
4
2
0
4
8
20
42
60
76
90
100
100
84
54
22
28
24
68
98
78
32
28
12
46
52
50
56
72
84
76
66
68
66
46
26
48
60
40
18
22
44
52
40
34
26
60
76
78
74
56
36
30
34
22
22
64
62
42
68
42
78
82
76
32
40
70
84
52
16
34
76
80
58
44
38
30
16
2
8
14
16
14
10
10
12
10
6
4
16
40
60
66
52
48
54
58
40
6
32
44
64
58
38
40
66
78
76
66
48
42
38
28
24
30
30
34
40
42
48
50
50
46
40
20
4
20
24
16
6
14
16
22
24
28
22
14
18
8
24
50
76
80
58
36
32
48
66
78
76
42
14
16
38
62
40
54
46
34
6
8
14
8
6
18
34
40
28
28
22
16
14
32
60
74
68
52
36
30
22
16
28
56
80
78
58
36
16
32
44
48
42
32
26
26
18
8
6
14
20
24
32
36
30
8
18
26
4
28
34
26
18
22
8
20
12
2
6
20
38
42
40
34
42
46
24
18
34
44
32
16
12
12
6
4
2
6
12
10
2
8
14
20
22
28
26
14
2
10
6
14
26
28
8
22
38
24
6
22
18
26
16
4
10
14
14
12
12
18
22
14
8
18
18
16
16
32
18
16
64
255
255
255
255
110
4
8
8
4
4
6
4
2
0
0
0
4
16
40
64
64
30
22
66
76
38
6
4
0
2
0
22
62
102
118
102
64
28
18
20
18
12
8
6
6
6
22
30
18
2
12
8
4
6
14
32
24
8
16
28
14
6
8
2
14
32
40
28
14
18
20
14
8
10
14
22
28
38
38
42
46
44
26
4
12
24
18
4
12
14
2
10
14
16
4
6
10
14
24
20
16
14
8
12
26
32
22
12
24
32
22
6
4
12
18
28
30
18
12
14
6
10
16
14
4
14
20
12
40
70
78
62
48
46
50
48
52
68
66
66
64
64
66
62
66
90
114
116
92
68
68
74
56
22
6
4
2
6
4
6
4
0
0
6
16
18
18
18
14
14
16
16
14
12
6
8
8
14
20
18
28
38
32
20
34
52
74
94
120
140
166
146
84
24
2
6
26
50
84
134
168
182
186
172
134
78
36
124
206
242
228
180
124
62
38
132
176
100
255
255
255
212
44
10
24
6
12
8
10
24
46
50
16
56
96
76
24
6
20
32
24
16
14
6
6
18
36
28
10
24
26
30
30
24
30
24
16
8
8
8
6
8
10
6
8
8
8
14
16
8
8
16
12
10
10
12
10
8
2
6
10
18
24
30
24
12
10
18
28
36
30
18
12
10
10
8
4
8
22
30
22
12
10
16
22
20
8
2
6
6
6
6
12
14
18
24
22
22
18
14
10
4
12
38
44
20
28
30
28
54
88
188
255
255
255
210
132
74
46
42
30
22
14
2
0
0
0
0
0
4
6
4
4
4
4
4
4
2
0
0
0
0
0
0
2
8
24
46
76
100
108
112
106
96
76
44
36
28
64
108
124
100
58
48
66
78
80
66
64
78
78
66
66
74
62
32
48
48
20
8
14
30
42
42
34
16
18
48
62
68
56
32
38
36
18
18
52
56
34
8
58
112
110
60
10
56
82
70
28
10
32
72
72
42
42
60
70
50
10
12
20
18
10
10
14
12
6
18
24
16
12
48
72
70
58
52
64
74
64
36
40
50
40
24
18
38
56
64
66
56
56
64
66
62
54
32
20
30
42
58
66
72
76
76
58
26
22
24
16
6
14
18
16
12
18
18
16
16
10
20
44
76
90
78
64
50
56
68
76
78
54
28
36
40
68
64
66
62
48
40
38
30
20
28
46
50
36
6
24
38
44
44
40
60
64
52
34
16
28
30
18
28
38
58
88
94
76
40
12
34
48
40
28
22
10
10
10
12
16
20
28
38
32
10
18
26
6
24
46
34
10
18
10
18
38
40
30
36
26
26
14
18
24
32
22
10
44
58
50
22
4
6
4
10
10
6
6
12
18
16
26
28
24
14
22
28
26
12
14
12
18
32
28
18
48
46
36
30
22
6
10
18
14
14
10
4
8
16
26
32
20
18
24
24
22
18
26
16
30
72
255
255
255
255
138
14
8
4
4
2
6
8
8
8
8
8
12
20
34
56
78
78
38
46
66
40
6
0
4
2
4
2
16
54
94
120
116
82
54
38
28
24
14
6
12
20
30
22
6
26
20
22
12
12
34
24
12
28
36
20
2
8
2
12
30
32
22
2
22
28
18
10
4
16
32
34
30
28
32
32
38
44
36
24
14
4
12
14
12
8
20
28
24
12
8
10
6
16
12
6
20
40
36
18
4
26
34
34
48
50
30
24
16
10
28
30
18
12
20
20
4
6
6
10
20
26
26
16
44
68
72
54
48
50
52
46
42
54
72
82
98
98
86
66
56
74
108
128
118
94
82
92
94
68
46
34
18
2
4
4
2
0
0
2
6
8
8
6
4
6
10
12
12
12
12
10
12
8
10
22
30
24
8
8
12
26
36
38
54
64
56
32
8
2
0
2
20
48
80
128
174
218
255
255
255
255
255
226
198
148
108
98
124
146
174
230
218
112
255
255
255
172
12
30
30
16
8
10
8
20
36
34
8
50
72
66
32
8
16
38
42
36
32
24
18
10
26
14
12
30
22
12
10
4
16
16
10
4
6
4
2
10
14
14
14
12
8
8
14
20
16
8
2
4
4
10
12
10
8
6
4
10
14
14
8
4
4
14
26
34
34
26
18
20
24
18
20
26
32
34
28
22
24
24
18
10
2
6
6
6
2
12
24
30
34
34
28
16
14
12
8
20
30
34
20
6
18
12
8
46
120
224
255
255
255
198
142
98
68
46
20
8
4
0
0
0
0
0
0
4
6
4
4
6
4
0
2
4
4
4
2
0
0
0
2
4
12
30
62
100
116
124
116
106
94
66
38
14
22
16
46
72
66
54
50
54
72
74
72
84
90
84
80
82
68
30
38
42
22
16
22
38
48
40
28
22
18
28
28
52
74
72
46
20
16
38
40
14
8
18
40
68
74
52
24
52
60
74
60
42
50
78
80
50
46
52
78
70
28
16
24
20
12
18
22
12
14
22
18
22
12
22
44
58
60
58
70
90
106
98
56
32
14
6
22
34
28
24
52
66
68
70
72
70
60
32
10
24
32
50
68
74
74
74
72
58
44
42
36
32
32
38
34
22
16
14
12
12
6
4
24
58
82
90
98
96
96
94
82
60
26
0
12
6
14
8
36
56
52
34
16
14
36
62
72
56
38
34
28
36
56
60
54
50
54
48
32
8
16
34
38
50
42
32
62
90
94
74
32
18
56
70
66
48
24
10
14
18
16
16
28
30
22
10
20
4
26
36
32
14
4
6
20
48
62
58
40
46
32
12
4
4
4
10
16
42
72
78
54
30
20
2
4
4
10
12
6
10
6
10
24
20
14
16
20
24
24
14
10
12
18
32
22
24
42
24
26
34
18
12
2
16
18
6
8
18
20
22
30
34
18
10
12
8
2
8
28
18
32
66
246
255
255
255
142
28
2
4
4
4
6
4
2
2
4
4
8
10
8
14
36
56
40
48
70
40
4
0
4
2
4
0
2
20
50
88
122
126
106
68
26
14
12
14
10
18
18
8
8
20
16
30
26
26
36
22
40
38
14
20
30
28
28
18
20
16
10
14
16
16
16
22
22
42
44
28
12
6
2
10
18
16
26
30
32
28
16
4
6
22
32
34
30
24
22
12
18
18
8
18
14
20
20
20
20
20
26
28
42
46
34
46
50
38
44
30
10
4
14
20
10
12
18
18
12
14
16
24
48
66
66
42
30
36
44
50
54
64
76
82
86
104
100
84
72
78
104
134
144
130
106
100
108
100
90
80
64
38
12
2
0
0
0
0
0
0
0
0
4
6
2
4
8
12
18
18
14
8
18
24
18
6
16
30
32
24
16
14
24
18
4
4
0
4
4
4
12
30
58
100
140
188
240
255
255
255
255
255
255
255
242
248
255
252
228
216
146
100
255
255
255
154
26
34
26
20
4
12
22
30
34
34
6
40
70
68
36
8
10
26
38
42
40
36
28
4
32
26
2
26
32
28
24
24
30
24
16
10
6
2
4
10
12
10
4
2
6
10
4
6
18
14
8
4
4
4
2
4
6
6
4
16
16
10
8
4
4
6
16
24
22
18
14
18
28
30
34
32
26
24
20
18
22
18
10
8
6
10
10
14
8
14
22
24
24
20
12
18
20
14
18
30
20
6
12
18
22
10
8
58
148
255
255
255
242
180
144
108
64
30
6
2
2
0
0
0
0
0
0
2
4
4
4
4
2
0
4
6
4
6
4
0
0
0
4
6
12
20
42
82
108
120
108
88
82
72
64
40
32
28
24
20
30
36
32
38
62
56
56
70
80
84
86
84
66
20
26
36
16
8
6
32
54
50
30
2
30
50
36
14
54
90
88
54
34
46
46
26
20
38
92
140
130
74
18
20
52
74
80
80
92
112
106
68
52
52
78
72
32
8
20
18
10
18
26
12
14
16
10
26
20
6
14
30
38
36
42
64
96
112
90
48
18
40
54
52
38
24
6
34
42
46
56
66
66
44
12
20
20
16
42
62
64
56
52
52
48
30
32
38
36
42
40
20
28
36
48
48
32
14
24
30
48
68
86
96
102
100
90
66
28
2
14
18
48
34
56
38
18
14
22
28
58
68
44
14
14
22
48
84
92
70
50
42
44
44
34
16
16
40
52
46
28
14
18
44
70
84
72
32
18
58
68
54
34
14
12
26
42
48
42
40
40
32
20
12
20
20
18
14
12
8
18
32
34
22
4
18
18
8
2
8
16
20
26
52
80
74
42
44
40
14
4
10
4
8
14
14
8
16
24
14
14
28
38
38
22
2
20
20
24
40
34
12
42
46
40
26
16
12
8
18
14
6
16
22
14
12
22
30
16
6
12
10
18
18
28
10
16
58
234
255
255
255
142
38
4
4
4
4
4
4
6
6
4
4
16
24
24
24
36
42
16
24
52
36
8
2
2
2
2
0
0
4
16
40
76
112
132
112
60
18
4
14
20
10
6
10
4
14
28
28
20
24
42
52
50
24
12
36
28
18
30
14
14
26
26
18
8
10
12
16
26
34
22
8
14
22
30
32
24
14
6
16
24
30
28
16
16
28
28
24
16
22
26
18
20
20
16
30
24
40
46
32
20
12
12
24
40
42
36
40
58
50
32
16
6
10
22
24
20
20
18
18
14
26
32
22
52
76
72
28
18
24
48
70
70
62
54
44
28
54
76
90
96
104
110
128
152
162
150
126
108
96
98
106
108
90
54
24
8
2
0
0
0
0
0
0
4
6
4
6
6
8
18
24
26
22
22
8
4
12
24
46
66
64
78
52
22
10
2
4
4
0
0
0
2
8
30
70
106
146
180
194
216
248
255
255
255
255
255
255
255
216
150
106
26
176
255
255
255
140
40
40
28
26
8
8
18
38
48
44
10
40
60
66
40
10
4
10
12
12
18
30
28
4
24
22
6
8
10
10
12
22
32
30
22
16
8
2
8
10
6
8
10
14
10
12
12
14
4
8
10
14
12
18
16
12
6
6
4
10
16
10
12
16
12
12
20
28
24
14
0
12
20
28
26
22
18
8
10
12
14
10
12
14
14
10
6
14
14
18
28
34
38
36
30
28
28
22
22
18
14
16
18
14
26
22
8
64
172
255
255
255
216
150
124
86
34
8
2
2
4
0
0
0
0
0
0
0
0
0
0
2
4
4
4
4
4
6
4
2
4
4
4
4
12
22
32
62
92
108
96
64
52
58
78
88
70
36
8
14
16
28
52
64
68
50
26
36
46
58
70
76
70
32
38
44
16
40
36
60
64
64
40
36
46
64
38
40
2
56
80
60
24
26
34
16
50
100
84
168
172
100
22
20
38
48
56
68
94
118
108
70
46
62
90
80
34
10
30
28
12
18
36
26
24
26
14
24
12
6
14
18
10
0
10
38
66
74
80
64
44
52
42
24
24
42
40
48
42
36
34
50
68
62
38
8
18
18
16
36
50
40
26
22
26
16
8
16
8
16
34
62
90
102
104
112
98
60
36
26
12
32
48
70
90
88
82
86
68
44
26
24
30
10
58
66
40
52
28
56
62
22
36
60
40
36
36
54
48
34
40
54
62
48
30
32
42
46
34
28
26
24
34
34
20
56
86
84
48
48
62
52
36
10
20
32
42
68
72
66
60
58
56
54
58
50
38
32
34
36
56
80
92
84
64
44
34
18
8
18
22
16
14
40
62
48
18
30
42
26
6
10
18
8
10
24
26
36
30
18
24
38
40
26
14
16
14
6
8
22
24
10
14
26
26
20
10
4
16
24
16
4
14
14
8
18
26
30
14
8
12
6
14
12
34
28
30
64
232
255
255
255
154
50
14
4
4
4
4
4
6
6
2
12
28
34
24
12
24
44
42
54
86
72
40
18
4
0
0
0
0
0
2
8
20
52
108
138
118
72
26
14
20
10
18
20
26
32
22
14
20
16
36
50
42
40
32
32
28
18
16
12
10
12
16
24
26
18
10
6
10
16
20
24
28
26
22
8
6
4
4
2
8
14
14
12
16
20
14
14
12
16
8
6
20
24
22
38
38
48
34
8
6
10
20
42
48
36
26
24
26
40
34
12
6
20
30
28
22
12
4
20
30
22
12
20
54
76
66
20
2
32
70
74
56
42
30
22
8
16
28
62
88
94
84
86
100
122
142
140
118
96
88
96
112
116
100
70
40
20
8
4
2
0
0
0
2
4
4
2
2
2
8
16
18
18
18
12
8
2
24
44
52
26
68
66
32
8
6
2
4
0
0
0
0
0
12
38
60
80
94
96
100
90
102
132
164
184
172
172
146
96
50
16
68
254
255
255
255
124
44
40
34
32
14
10
10
24
42
44
20
42
78
80
44
16
12
4
10
28
42
38
16
14
34
30
10
6
10
10
4
12
22
22
16
12
10
6
8
8
4
2
8
12
20
14
8
18
12
12
12
14
10
10
12
10
4
2
6
12
16
14
18
18
12
14
26
34
28
18
16
18
16
24
18
22
22
14
12
16
16
14
12
12
8
6
4
10
14
22
30
34
38
34
28
30
34
36
28
22
20
16
10
8
18
18
16
64
178
255
255
255
184
124
108
72
20
0
4
0
4
0
0
0
0
0
0
0
0
0
0
4
6
4
4
4
4
4
2
4
6
4
4
4
10
18
22
38
66
96
106
80
50
34
40
60
72
66
36
16
30
50
70
64
52
30
14
16
20
40
60
76
70
28
22
44
40
62
50
82
78
66
34
56
74
54
2
32
24
32
66
68
40
10
36
10
70
96
44
116
164
122
54
16
12
16
18
30
66
106
106
70
40
46
80
94
68
32
22
20
16
28
40
20
14
16
4
22
26
12
10
14
20
34
62
86
94
78
36
38
36
26
2
22
14
24
42
42
28
32
34
22
42
56
54
26
12
22
20
38
40
26
18
18
24
20
4
24
32
38
52
72
82
62
38
70
94
90
54
24
22
40
62
74
74
76
80
88
84
76
72
72
68
34
34
40
24
28
20
62
74
42
84
68
50
56
48
44
34
24
42
54
60
48
42
50
38
18
12
24
32
38
36
28
18
4
48
80
70
68
74
54
32
8
24
24
14
36
54
56
44
40
46
60
74
64
48
42
48
42
48
62
78
82
80
64
50
42
30
30
34
30
28
38
56
56
36
30
32
20
14
4
8
10
6
12
20
26
20
14
20
22
18
14
4
18
28
24
16
20
14
16
12
4
12
20
26
14
8
26
28
10
22
16
14
24
28
20
12
16
18
14
18
24
42
26
26
50
220
255
255
255
160
52
18
2
4
4
4
2
4
4
4
20
36
36
14
8
24
50
64
50
100
104
78
42
12
0
2
6
8
8
6
2
2
10
58
112
136
128
92
62
48
30
26
18
22
36
34
24
26
38
36
22
18
32
30
30
34
34
24
16
12
6
2
2
10
14
10
10
16
22
24
24
16
10
2
8
10
8
6
2
10
14
10
4
16
20
14
0
12
10
8
14
24
30
32
40
48
44
32
26
14
18
40
52
38
16
8
14
10
20
32
16
8
22
26
20
10
4
16
22
18
16
14
24
58
76
62
38
44
74
80
50
22
18
28
28
22
16
20
42
58
46
48
42
32
44
82
116
122
108
90
80
88
106
120
116
94
68
44
28
18
6
0
2
4
4
2
8
10
10
6
2
4
4
14
24
12
20
32
70
98
74
90
74
24
6
2
2
4
0
0
0
0
0
4
12
18
22
24
24
20
12
12
16
16
12
12
14
32
34
12
20
120
255
255
255
255
98
40
28
30
30
14
18
10
28
54
56
18
44
84
68
26
12
18
2
14
22
26
14
8
26
38
34
18
20
10
10
8
8
18
20
18
14
8
6
14
14
8
8
16
12
20
14
4
8
8
4
10
16
16
18
18
14
8
6
8
16
18
14
12
14
8
18
26
26
18
14
14
30
30
20
16
22
32
30
24
30
26
20
10
6
6
8
4
4
12
16
20
18
26
24
12
14
32
46
38
24
22
12
16
26
30
22
12
66
182
255
255
255
168
118
110
74
20
0
4
0
4
0
0
0
0
0
0
0
0
0
0
4
4
0
4
6
4
4
4
8
8
4
6
4
2
8
16
34
42
76
116
124
94
52
60
56
46
40
36
26
40
58
68
50
32
20
16
18
38
56
62
64
76
54
16
18
52
44
44
78
92
70
20
40
88
96
64
64
52
34
60
76
66
16
30
22
48
106
82
108
108
120
100
64
32
16
10
6
26
74
98
84
50
48
50
90
108
102
64
22
4
24
22
14
26
30
24
26
38
28
8
22
30
54
78
84
74
52
22
4
12
18
22
16
32
30
12
20
28
36
26
16
10
28
46
36
16
8
12
32
34
16
20
34
48
48
30
20
36
44
42
42
94
114
100
92
72
64
82
72
64
74
104
124
128
120
98
82
68
68
86
102
94
60
42
50
38
42
28
36
70
64
60
8
48
70
62
48
38
40
40
32
32
30
38
40
10
20
38
38
28
22
38
32
6
16
14
28
44
54
48
32
20
12
32
50
46
26
16
28
30
16
6
18
50
48
32
36
38
32
18
30
32
14
24
42
56
62
48
34
26
24
36
34
42
56
58
46
38
16
10
14
10
4
14
26
30
30
20
14
20
28
34
32
14
20
32
36
20
8
14
16
20
20
16
2
18
20
16
36
30
4
20
14
12
16
12
8
12
14
14
14
14
14
22
2
32
56
226
255
255
255
154
52
18
2
4
4
4
0
0
2
12
28
42
34
22
22
22
64
78
54
80
108
104
72
32
10
16
22
20
20
16
4
0
2
22
58
98
132
142
128
108
80
54
28
10
12
14
8
18
30
42
38
38
40
18
6
12
16
22
22
22
12
16
28
34
32
18
12
14
16
14
14
10
4
6
4
8
10
16
18
24
24
16
12
24
36
36
34
34
22
28
28
30
34
34
38
38
34
46
56
52
38
46
36
8
12
8
22
18
20
36
24
16
28
28
20
10
12
10
6
14
16
18
26
60
80
72
68
68
72
64
36
20
14
6
6
10
2
24
68
92
62
84
74
36
26
56
90
100
92
84
76
74
86
110
134
140
126
98
68
50
30
12
2
2
2
0
8
8
8
10
4
0
0
8
20
16
18
16
42
70
74
70
44
12
10
2
2
2
0
0
2
6
8
8
8
6
6
8
10
14
18
26
36
50
62
62
56
62
64
26
34
156
255
255
255
255
76
46
30
30
26
4
14
22
36
52
46
8
50
84
62
26
16
22
8
18
34
36
28
22
34
38
26
18
26
12
10
16
20
32
34
28
18
8
4
6
16
14
4
6
8
12
14
12
8
6
2
6
14
16
22
18
14
10
10
10
12
12
10
10
10
14
20
20
18
14
16
12
30
40
34
18
14
22
26
26
32
26
12
6
16
16
10
6
6
4
6
18
28
30
14
4
10
24
38
32
20
22
22
22
22
22
16
18
90
220
255
255
255
170
114
102
64
16
0
4
0
4
0
0
0
0
0
0
0
0
0
0
4
4
0
2
4
4
4
4
8
8
6
8
4
0
4
18
32
38
52
86
126
136
104
58
28
20
28
42
48
52
70
74
52
24
6
22
36
40
44
46
50
50
32
32
42
42
16
44
72
90
82
50
16
40
62
56
52
44
32
48
66
70
40
10
24
20
60
72
74
46
102
122
102
66
38
18
22
22
52
78
92
92
74
66
76
92
106
92
62
40
36
32
20
26
26
24
20
32
34
32
28
58
60
52
44
26
6
12
22
20
32
42
18
34
28
26
62
52
68
70
38
16
26
48
42
20
8
12
32
34
10
10
10
28
44
44
34
40
30
18
20
56
88
104
88
38
34
70
86
76
68
88
118
138
140
120
96
70
56
62
82
86
58
44
64
54
56
46
14
24
30
26
32
56
60
56
52
48
44
28
18
24
32
38
24
14
26
22
6
6
14
36
52
42
18
8
26
48
56
50
46
42
34
42
58
68
58
36
44
38
18
22
6
32
38
20
24
14
32
34
32
32
18
24
16
16
38
38
32
30
28
28
38
40
40
42
46
50
44
22
4
10
24
26
24
34
42
36
26
22
24
30
34
30
26
20
30
22
6
12
10
14
22
26
16
16
8
10
24
22
8
28
20
18
22
16
18
24
18
14
12
8
4
10
8
30
48
224
255
255
255
168
56
14
4
4
4
4
2
2
4
12
24
36
26
22
28
28
72
84
56
50
94
114
102
66
36
34
24
14
12
14
6
2
2
6
18
40
74
108
126
130
120
100
70
36
18
16
16
22
18
26
28
30
26
10
6
8
6
4
12
14
22
24
26
24
18
24
24
20
18
12
14
18
20
16
12
10
24
22
14
22
24
16
18
32
46
40
36
38
28
36
40
40
38
36
34
28
24
26
40
48
34
30
16
10
16
8
20
24
34
44
28
20
30
28
20
8
6
4
2
2
0
2
24
52
84
98
80
52
44
50
38
12
24
50
56
50
34
66
134
154
104
148
150
100
78
78
98
90
68
64
72
78
76
80
108
142
156
142
112
92
78
58
32
8
4
2
10
12
8
10
4
0
0
2
6
8
0
6
4
6
14
16
12
6
8
4
0
0
0
0
6
18
24
22
24
16
8
10
14
22
24
24
20
16
32
36
32
42
60
26
50
204
255
255
255
255
68
56
44
30
18
10
22
22
30
44
44
10
54
86
64
18
20
30
18
22
34
34
28
28
38
30
10
14
22
16
14
20
34
46
40
22
8
8
12
10
8
16
20
18
12
10
10
10
0
6
2
4
6
8
8
4
4
4
4
4
6
8
10
14
16
18
16
16
16
16
16
8
18
32
30
26
14
2
8
10
12
8
10
22
20
12
6
8
8
12
24
30
20
24
28
24
20
18
26
16
10
18
32
40
32
30
20
44
140
255
255
255
255
162
92
76
46
10
0
4
2
6
4
4
2
0
0
0
0
0
0
0
4
4
0
2
4
4
4
4
8
8
6
8
4
2
6
16
34
42
42
44
76
120
142
140
104
68
58
60
70
70
74
76
52
46
28
10
44
48
44
48
62
82
82
66
42
20
16
50
78
86
74
54
36
42
34
10
16
16
20
30
44
50
42
22
18
22
12
6
18
36
80
112
112
86
56
50
48
40
52
56
70
104
124
116
84
54
52
60
64
66
68
54
24
6
12
20
14
32
50
40
18
62
84
84
72
50
38
46
46
40
50
62
46
20
16
46
58
36
52
82
80
60
44
54
46
24
10
12
30
36
26
38
40
30
36
40
42
30
8
20
26
20
16
32
56
70
68
32
56
50
42
26
52
84
102
104
96
74
54
38
44
52
40
32
36
16
18
32
36
34
18
24
34
56
70
68
46
42
28
12
22
36
42
32
8
12
32
40
32
32
24
18
34
48
54
58
70
72
74
76
76
64
54
48
52
62
60
42
26
16
16
28
10
24
32
16
6
12
16
46
64
62
30
12
34
30
42
40
40
32
22
34
52
52
30
16
42
50
74
60
32
40
42
16
8
18
14
24
28
18
10
18
26
34
24
10
32
30
6
10
8
2
10
22
20
16
12
16
30
30
20
34
18
18
20
12
28
30
26
22
10
2
2
12
10
38
70
255
255
255
255
156
38
4
4
4
4
6
8
6
4
10
30
48
30
18
38
48
90
96
62
32
76
106
112
94
68
50
36
20
26
16
4
0
0
0
2
6
16
34
58
88
114
126
116
88
62
50
50
48
38
24
8
6
8
2
4
6
8
10
10
6
14
36
44
36
16
22
32
30
18
16
28
32
30
22
26
24
28
14
4
16
16
6
20
32
34
16
10
14
16
36
46
40
32
32
28
20
8
2
10
14
8
4
6
4
6
6
10
28
42
38
18
16
24
22
20
10
8
12
20
22
20
22
30
74
112
120
84
46
40
42
20
28
28
32
18
32
62
112
146
128
68
122
160
138
102
104
126
120
90
72
72
82
74
54
56
88
128
150
150
138
130
124
108
82
60
42
20
2
8
8
2
0
0
0
2
6
8
8
10
10
6
4
6
4
6
4
0
0
0
0
8
24
28
18
26
18
10
20
22
20
10
2
6
18
34
46
54
44
54
14
82
255
255
255
255
218
64
52
54
28
12
14
20
18
20
40
46
16
56
84
56
12
22
28
14
20
28
24
14
18
26
18
6
14
24
28
20
26
38
40
20
4
2
6
12
14
12
6
8
16
12
8
10
12
6
8
6
8
8
6
8
8
4
2
0
0
4
8
12
14
10
8
14
22
24
16
14
16
32
38
30
24
14
4
2
2
8
10
18
22
8
4
10
8
4
16
26
24
8
4
8
12
26
32
28
12
6
12
26
36
28
30
34
74
172
255
255
255
255
146
78
64
36
4
2
4
4
4
4
6
4
0
0
0
0
0
2
4
8
6
2
4
6
4
4
4
8
8
6
8
4
6
10
6
14
28
40
48
44
72
102
120
94
50
34
46
78
104
108
84
28
30
52
28
48
46
46
64
86
96
72
34
10
8
12
50
88
92
66
36
14
20
16
12
20
8
26
48
54
48
38
28
22
20
34
30
32
20
28
66
100
108
94
70
30
16
46
44
30
48
76
102
92
56
36
30
40
54
66
56
28
16
20
24
18
32
28
38
20
30
60
78
74
48
40
42
30
22
24
32
34
26
48
58
46
24
22
50
74
84
80
68
38
16
6
8
34
40
22
2
14
22
36
34
34
46
30
8
28
36
32
46
54
42
46
42
76
76
54
40
52
74
74
56
42
38
56
64
48
28
30
24
10
18
42
44
30
12
6
14
14
36
64
84
84
62
32
18
26
36
28
14
4
2
12
22
24
24
20
22
28
40
54
64
66
68
76
72
58
58
42
32
42
58
68
62
44
42
54
58
40
42
44
40
36
34
28
18
16
44
44
18
18
36
48
44
36
14
12
18
24
36
24
24
56
40
68
66
34
30
14
22
38
34
18
6
14
20
14
14
24
36
36
26
38
22
6
14
6
4
6
14
16
10
6
8
18
20
18
30
16
24
22
4
12
10
10
12
6
6
2
20
16
34
68
255
255
255
255
130
16
12
6
4
2
4
8
4
8
2
18
42
40
32
52
96
122
104
56
18
52
86
104
104
90
74
64
52
34
22
18
12
6
2
0
2
6
8
2
28
68
104
122
120
110
102
100
94
82
58
22
6
12
4
8
16
16
6
4
8
2
18
30
36
24
22
28
22
12
34
46
36
20
6
8
8
10
6
8
16
12
10
26
28
16
14
10
6
20
30
26
14
8
14
10
8
12
18
22
22
12
8
8
8
2
14
28
42
40
24
14
18
24
22
18
4
12
24
28
26
26
28
42
82
114
118
80
44
30
28
24
16
38
66
60
86
116
136
120
66
18
36
92
114
104
106
132
140
120
94
78
82
74
48
26
30
66
110
146
156
148
150
156
150
136
112
80
38
6
2
0
0
0
2
6
6
4
8
10
8
4
2
4
4
4
4
0
0
0
0
8
24
22
6
20
12
24
40
30
20
8
8
4
6
8
2
18
8
32
6
124
255
255
255
255
178
54
26
44
24
24
26
14
18
24
36
36
12
52
78
62
20
18
32
16
12
20
18
4
12
20
14
12
18
24
34
36
30
30
14
6
8
2
8
12
8
18
22
14
22
20
18
20
18
8
10
8
12
14
12
10
10
10
10
12
12
14
16
20
22
20
24
26
30
36
30
24
32
42
42
38
36
26
12
12
4
2
4
10
16
14
16
18
12
16
18
16
10
6
14
28
46
52
38
18
6
8
8
18
28
18
18
40
88
184
255
255
255
226
134
74
54
22
2
6
2
6
4
4
6
4
0
0
0
0
2
8
10
10
4
4
4
6
4
2
0
4
4
4
6
0
10
12
10
18
32
42
46
44
44
56
102
110
78
38
8
64
118
148
148
104
32
28
46
52
50
58
74
74
68
62
40
22
14
14
38
86
104
82
42
16
22
24
14
12
10
40
56
52
44
38
32
26
20
14
14
26
44
38
20
58
104
118
106
80
44
52
32
16
8
28
66
76
82
62
38
28
34
54
58
42
14
18
16
4
12
26
42
44
30
30
46
52
26
16
8
14
28
32
32
42
62
68
60
40
28
18
20
38
68
96
106
76
30
28
30
50
62
54
42
36
30
24
14
16
38
38
32
30
34
14
28
48
60
72
80
76
56
40
48
78
104
104
94
90
88
90
70
30
8
22
28
28
32
54
58
48
44
32
18
32
38
38
54
82
88
66
38
28
34
42
34
16
4
4
12
12
6
18
32
42
38
30
30
36
48
54
32
20
26
14
14
30
50
70
72
72
82
100
104
84
74
76
66
50
44
54
66
66
56
38
26
24
32
38
28
10
8
8
26
52
50
8
42
52
14
36
44
18
14
32
50
44
26
22
26
16
12
26
32
34
36
38
24
20
10
12
10
4
14
12
12
12
8
12
18
22
16
14
20
4
14
16
10
18
28
30
24
12
6
4
28
14
22
56
250
255
255
255
104
2
12
12
2
4
4
8
4
6
14
32
46
54
68
102
128
126
92
48
26
42
66
84
94
90
78
76
84
80
66
52
34
18
6
0
4
12
14
16
10
18
52
80
100
114
122
128
130
128
112
72
40
44
36
30
26
26
22
6
4
4
16
28
22
6
12
14
28
36
52
44
22
2
14
18
18
16
12
14
30
26
28
36
28
14
8
18
28
30
18
18
20
10
10
12
14
16
12
8
6
2
2
4
8
8
24
38
40
26
20
22
22
24
24
24
16
20
20
16
12
14
12
34
74
104
104
56
14
8
26
38
34
36
46
54
88
140
168
140
80
40
32
34
58
68
74
92
96
84
72
68
74
68
54
40
32
44
54
84
106
98
90
94
102
112
114
112
92
52
24
8
0
0
4
6
2
4
8
8
6
4
2
2
2
2
2
0
0
0
0
8
24
22
8
26
18
36
34
10
18
24
14
12
2
6
0
18
10
30
4
148
255
255
255
255
142
48
12
20
4
14
28
28
22
20
34
36
8
48
76
62
26
10
28
20
6
22
22
6
26
28
14
10
12
16
24
34
38
24
8
10
0
6
10
12
4
8
10
10
18
18
18
18
14
10
14
12
12
12
14
12
12
16
26
30
30
34
38
42
44
44
48
48
42
36
20
10
22
34
38
42
44
32
24
26
14
4
4
10
14
12
14
12
10
16
22
24
20
12
12
26
38
36
22
12
8
4
14
24
26
12
20
50
104
214
255
255
255
216
128
60
26
4
4
6
2
4
4
4
4
2
0
0
2
4
8
12
8
2
4
6
4
2
2
2
4
8
8
8
8
4
8
8
6
10
16
32
50
52
52
70
100
82
38
16
40
44
98
138
154
132
82
28
12
12
20
54
76
84
94
92
76
54
34
14
14
62
104
116
92
46
18
28
24
28
24
48
60
54
44
36
34
24
12
20
50
68
64
58
50
30
58
78
72
68
64
36
18
36
34
28
40
72
100
98
70
50
50
74
88
64
30
20
16
6
8
4
12
16
2
16
36
48
32
10
16
34
32
18
10
24
46
52
46
28
38
34
26
24
44
84
118
106
58
48
40
48
52
38
28
32
44
30
14
12
28
52
48
18
46
36
6
16
12
28
30
28
34
50
72
84
76
54
42
50
62
70
56
22
24
10
10
28
40
40
26
10
34
46
44
38
34
32
28
36
54
60
46
28
16
26
34
26
12
12
8
8
20
20
30
32
24
16
12
26
32
20
10
32
28
10
32
40
28
46
44
44
42
52
64
56
50
56
46
40
34
50
60
56
64
48
54
54
48
36
16
22
10
22
48
50
30
24
36
38
26
56
66
52
42
44
44
34
22
18
26
26
14
6
20
20
18
22
22
10
14
12
4
6
8
4
8
10
14
22
20
14
12
16
44
54
48
24
8
8
10
14
12
14
8
10
26
6
36
56
255
255
255
255
82
16
4
14
6
4
4
8
6
8
24
36
46
64
90
110
108
104
94
80
80
74
66
64
70
70
58
52
70
88
86
66
42
24
10
2
4
10
6
6
12
4
14
26
38
54
72
94
120
144
154
136
102
78
84
90
64
28
24
10
8
8
18
14
8
8
2
18
30
28
20
10
18
12
6
10
18
26
26
20
32
40
50
50
38
32
34
44
46
34
30
18
24
22
12
6
6
4
8
14
20
20
12
8
8
8
20
32
26
10
10
22
26
28
26
20
12
2
16
26
28
22
12
54
94
124
134
102
62
62
54
52
66
50
12
4
54
134
170
138
82
68
34
12
22
42
66
84
78
58
52
66
76
60
40
34
44
36
22
26
42
42
32
26
32
54
74
98
122
112
78
36
6
0
4
6
4
6
4
0
0
0
0
0
0
0
0
0
0
0
0
8
24
24
6
22
20
26
8
22
38
30
10
16
12
22
16
30
22
32
10
154
255
255
255
244
98
34
20
30
12
10
16
30
38
32
34
38
12
52
72
56
26
6
22
16
2
20
24
20
38
28
12
20
30
30
28
20
40
36
20
6
12
12
10
6
8
16
12
12
12
12
10
10
12
4
6
10
8
4
8
12
20
24
34
36
32
38
46
52
54
56
60
64
56
40
22
12
22
28
32
38
40
28
26
32
20
8
10
14
16
10
6
2
4
10
16
20
20
22
24
28
32
24
12
4
12
16
22
22
16
12
24
62
140
255
255
255
255
204
116
40
4
4
6
4
4
0
0
0
0
0
0
0
4
8
10
8
0
8
10
8
6
4
2
6
10
10
8
8
12
4
4
10
16
24
34
44
54
58
66
90
120
122
94
58
60
40
64
102
126
120
98
68
34
20
26
60
94
106
110
104
94
82
64
42
26
16
68
116
122
90
66
78
62
56
28
40
52
46
32
24
30
18
8
36
56
52
28
28
44
42
84
82
28
22
40
56
62
46
82
86
74
74
92
104
96
84
78
90
106
92
64
36
20
10
14
34
50
42
36
30
32
42
40
24
28
26
8
16
24
48
72
76
54
14
22
38
38
22
22
54
94
102
68
44
26
38
34
30
28
32
42
36
24
32
48
52
28
6
30
54
46
42
38
48
46
32
32
56
60
46
62
74
88
100
86
58
46
24
44
32
12
20
40
58
62
72
86
68
38
20
16
22
34
50
64
74
60
28
10
8
24
32
20
16
30
20
6
36
44
24
8
16
14
30
22
6
22
18
10
32
46
36
14
24
20
8
24
40
32
4
16
24
16
24
12
18
24
10
20
42
64
66
48
26
20
28
24
40
40
24
12
26
52
52
42
64
74
54
30
22
22
22
20
14
14
20
22
22
38
28
10
2
12
24
20
16
14
10
10
16
20
20
20
22
10
4
16
38
72
76
82
58
12
22
26
18
4
8
14
10
20
4
36
50
255
255
255
255
68
18
8
16
4
0
2
12
18
16
24
34
48
68
82
80
76
96
112
106
120
112
84
66
64
64
54
44
46
66
80
64
40
22
10
4
4
12
14
14
14
4
6
8
8
6
8
30
64
104
136
152
144
118
114
128
126
104
70
48
46
46
32
10
2
18
40
54
44
34
22
12
14
16
32
52
60
48
32
28
38
50
54
46
40
44
44
40
32
20
30
38
46
36
30
26
14
16
20
20
20
26
22
14
14
16
28
42
38
22
12
18
20
28
28
18
12
18
18
30
34
28
20
26
70
104
124
116
98
98
90
86
96
92
62
52
88
136
132
74
14
40
38
18
20
64
126
170
164
124
102
116
120
72
50
36
32
16
26
28
38
52
58
62
66
76
80
82
104
124
120
88
48
26
12
2
4
4
2
0
0
0
0
0
0
0
0
0
0
0
0
8
24
30
22
12
8
10
14
26
28
18
6
12
12
14
6
16
10
20
6
166
255
255
255
184
42
28
16
8
10
12
18
26
32
38
46
34
8
60
82
64
28
8
20
16
4
12
16
24
32
12
14
32
32
22
14
8
28
38
34
22
12
6
2
10
22
16
8
12
20
18
14
14
20
20
14
14
12
8
8
22
28
30
34
30
22
24
26
32
34
40
46
60
66
62
48
22
38
36
30
28
22
10
12
26
16
6
10
10
16
12
10
6
4
8
10
12
10
12
14
20
30
26
18
8
2
16
20
20
16
8
12
68
196
255
255
255
255
184
102
30
0
2
6
4
4
0
0
0
0
0
0
0
4
6
4
4
8
12
8
4
0
4
8
12
8
4
2
2
8
8
6
6
8
12
20
36
50
58
68
80
92
90
72
44
30
20
40
80
114
118
108
88
54
20
16
2
38
70
94
102
106
110
100
76
52
30
14
60
82
66
64
72
72
70
34
20
44
40
30
30
38
24
6
28
42
52
50
30
4
36
54
46
30
2
50
96
88
52
70
96
84
58
52
66
86
100
92
80
78
66
56
48
36
28
24
26
24
12
34
36
28
32
46
52
40
16
8
16
8
22
48
72
72
46
10
32
44
32
22
34
50
70
56
32
28
38
46
38
34
32
34
34
32
36
28
10
26
36
22
8
22
20
16
22
34
44
44
50
76
98
102
78
54
66
82
80
48
2
26
28
14
28
38
46
44
40
26
4
6
6
16
26
38
54
68
76
56
18
8
20
40
50
44
20
10
16
16
28
54
50
18
6
26
38
26
16
28
28
38
38
32
20
12
22
32
30
16
26
22
24
24
32
22
28
12
18
36
34
26
26
22
22
12
20
24
30
34
44
32
20
14
8
28
36
30
48
48
20
8
14
26
22
12
2
10
14
10
10
24
18
10
14
24
32
20
14
22
22
20
18
16
14
12
12
4
10
20
48
52
18
36
44
26
2
16
18
16
16
26
22
24
6
38
60
255
255
255
255
58
12
4
12
0
2
4
10
12
16
36
52
62
66
64
64
80
114
120
84
98
110
96
88
94
100
92
78
62
62
78
74
54
30
12
4
2
6
8
8
6
2
10
10
10
12
12
6
10
34
52
76
102
104
100
114
136
150
140
122
116
120
124
110
92
108
114
106
84
94
96
84
64
74
76
80
66
62
46
36
42
36
22
16
18
24
16
12
12
18
16
20
22
16
28
28
12
8
10
6
2
10
14
12
4
16
30
30
26
28
18
22
20
22
16
18
24
18
12
24
32
22
12
54
78
78
52
44
74
74
94
94
98
102
94
92
126
186
214
194
152
154
114
92
70
66
62
138
156
116
94
120
148
114
72
48
70
48
10
22
44
56
66
82
100
108
96
76
72
92
116
116
94
68
42
20
6
0
0
0
0
0
0
0
0
0
0
0
0
0
0
6
20
28
28
32
34
28
18
16
12
16
6
2
2
4
10
20
14
18
4
182
255
255
255
120
2
22
20
28
36
28
30
32
44
54
48
18
32
78
92
68
26
14
20
18
12
16
4
14
14
4
22
30
20
12
8
8
14
30
38
34
16
2
6
20
20
12
8
6
12
18
18
16
18
20
20
20
16
18
18
26
26
22
16
4
6
12
14
16
10
18
28
40
36
50
58
44
40
30
22
18
20
18
16
24
12
4
6
2
8
8
8
6
4
10
12
14
16
20
20
20
24
16
12
10
14
18
14
16
14
18
8
102
248
255
255
255
246
156
86
24
0
0
2
2
2
0
0
0
0
0
0
0
4
8
8
8
10
8
2
2
8
10
10
6
2
4
4
4
2
6
12
10
2
2
4
14
34
48
62
68
64
50
40
26
12
10
18
64
102
104
94
84
64
66
56
62
40
8
38
52
62
84
100
96
80
70
54
72
54
12
32
26
40
62
42
10
46
48
42
42
40
28
12
32
46
56
62
60
48
38
40
54
52
60
106
106
68
38
26
66
76
48
28
10
40
82
84
64
64
36
22
32
42
42
30
34
54
68
66
52
46
58
66
54
26
10
12
14
46
58
50
32
62
66
40
58
66
48
38
46
44
30
34
26
28
40
46
36
24
16
14
30
38
36
24
26
34
40
52
40
22
20
20
24
32
28
40
64
92
116
126
86
90
78
66
72
58
8
38
42
28
30
32
28
20
22
36
32
22
14
14
28
46
54
54
50
32
4
32
34
50
58
52
46
38
34
18
12
36
52
42
16
34
34
24
24
32
38
32
18
10
4
4
12
32
54
60
52
32
34
58
58
42
56
30
4
22
24
32
54
68
60
32
6
12
24
32
28
20
16
10
12
12
8
14
26
26
20
38
32
44
42
26
8
16
20
18
24
36
28
8
10
18
22
14
10
14
22
16
12
12
14
10
6
2
4
10
46
80
86
84
56
16
14
30
32
26
18
28
28
32
14
42
66
255
255
255
255
42
10
4
12
4
2
0
10
18
30
48
58
56
50
48
64
94
120
100
42
58
96
104
104
112
122
124
122
106
92
98
104
92
60
26
6
0
0
0
0
0
4
10
8
6
0
6
10
10
4
6
10
32
54
56
68
88
116
128
126
124
132
152
160
146
142
128
108
96
108
120
122
104
86
72
60
36
48
46
28
18
10
18
20
22
22
26
44
48
42
56
50
32
16
20
22
12
8
16
16
16
12
6
10
22
38
44
20
8
26
28
22
28
28
12
10
32
42
24
10
28
20
8
58
102
134
122
96
94
36
44
40
54
70
90
108
138
188
224
230
222
218
222
234
246
238
190
176
166
110
86
104
110
134
116
60
34
36
30
16
22
20
4
16
34
60
64
60
56
62
82
96
96
82
62
40
18
6
2
0
0
0
0
0
0
0
0
0
0
0
0
2
10
16
16
18
26
28
22
12
6
12
12
4
4
4
4
12
14
14
42
255
255
255
255
74
20
20
46
38
32
26
38
50
52
48
38
8
34
74
88
64
20
22
14
10
20
28
28
36
30
10
16
30
26
18
14
14
10
22
32
32
20
8
8
14
16
16
14
6
2
6
8
8
8
8
8
8
10
20
30
32
26
16
18
30
34
34
34
36
42
62
74
76
52
20
12
22
14
14
20
20
12
4
10
16
10
8
6
4
14
18
14
6
4
12
20
26
26
22
20
18
20
14
8
4
10
24
22
20
18
18
18
132
255
255
255
255
212
126
66
14
2
2
2
6
8
8
8
6
6
8
8
6
0
4
4
4
4
0
4
6
8
4
2
2
6
6
8
10
10
2
8
14
12
8
12
20
34
46
56
64
72
68
52
38
22
30
14
44
80
78
58
56
70
86
56
64
68
48
90
90
56
20
32
78
100
108
88
66
34
12
24
26
36
38
52
22
18
32
30
50
48
30
10
18
18
10
8
38
58
60
38
38
82
106
96
54
26
22
8
34
70
68
24
26
14
74
102
88
58
20
12
16
30
38
20
30
56
60
54
46
38
32
30
36
26
16
2
40
72
70
46
18
28
62
58
58
48
26
26
30
24
14
28
36
40
50
54
50
42
26
22
42
60
58
36
14
10
8
32
38
28
8
6
12
14
12
30
48
20
48
112
118
70
38
44
68
58
22
52
64
40
4
18
20
20
22
22
32
34
20
8
28
60
84
96
92
60
24
40
20
32
38
24
38
46
46
26
8
8
28
46
42
26
18
20
26
26
16
0
10
6
10
16
18
6
24
46
58
58
66
80
60
40
72
64
30
26
6
8
20
42
52
42
24
10
8
4
4
2
2
6
8
12
6
12
18
18
16
32
16
34
36
20
10
20
18
6
8
24
34
30
22
22
26
22
16
8
4
4
4
20
30
28
26
12
6
4
12
44
58
60
38
10
8
10
22
22
12
18
20
38
12
32
78
255
255
255
238
22
14
8
16
0
2
4
4
10
38
60
48
36
36
44
68
90
110
106
52
28
100
130
120
100
92
104
128
138
136
142
152
146
110
58
18
2
0
0
0
0
2
8
10
12
10
6
6
6
4
8
10
8
22
30
36
28
38
46
48
48
52
64
76
78
74
58
40
32
34
42
52
54
40
20
10
4
14
22
20
16
28
28
22
28
26
30
42
38
24
46
54
48
36
24
18
12
8
8
4
10
14
14
18
22
20
22
26
34
26
32
24
28
16
8
22
28
54
48
10
22
28
20
64
134
194
198
178
216
162
120
88
62
38
2
44
76
106
126
128
144
150
182
226
255
255
255
255
255
214
186
170
128
68
76
78
44
28
14
42
72
70
58
60
36
44
36
40
48
50
56
68
80
78
70
56
32
14
4
0
0
0
0
0
0
0
0
0
0
0
0
0
2
4
4
2
8
14
18
18
12
6
10
8
4
12
8
14
18
0
104
255
255
255
255
64
32
26
38
22
14
10
32
54
66
56
34
6
38
70
80
48
8
30
20
10
20
28
26
42
38
22
12
22
22
14
8
4
10
26
32
24
16
10
4
8
18
18
10
2
4
12
18
16
10
8
8
6
0
14
32
42
44
34
36
44
42
40
38
36
56
74
80
72
48
52
38
24
14
14
20
18
8
2
6
10
8
8
4
12
24
22
12
6
10
8
16
22
26
28
30
30
32
22
12
6
4
16
22
26
26
8
54
178
255
255
255
255
174
92
42
4
2
4
6
14
14
12
12
8
8
10
10
10
4
0
0
0
0
4
6
4
2
6
10
4
4
4
6
8
14
12
4
8
16
8
12
20
36
44
44
62
80
90
88
64
16
28
16
58
100
90
56
48
78
90
42
24
38
54
100
102
72
88
60
28
52
80
78
52
36
28
30
30
26
16
38
38
28
40
56
60
42
16
16
40
38
40
30
8
44
62
54
92
108
86
44
28
12
18
6
34
68
78
36
8
36
90
92
54
52
42
32
28
34
38
16
34
48
46
40
48
34
12
40
60
56
38
28
50
64
46
28
40
20
8
12
4
22
34
34
18
12
16
32
52
58
64
64
62
56
38
28
40
58
60
38
10
6
6
10
22
26
16
8
20
16
12
18
28
68
124
148
118
64
44
62
88
80
56
62
94
90
50
12
20
20
24
56
62
46
34
20
4
24
56
86
102
82
32
20
10
38
32
10
36
22
42
40
16
12
20
28
42
40
28
20
24
38
44
30
8
8
12
10
28
34
24
16
14
34
58
58
34
22
54
66
48
30
30
28
24
26
26
30
24
16
12
12
16
18
14
10
2
4
8
16
20
12
10
18
2
32
40
16
14
20
6
10
14
10
18
28
24
22
24
20
20
16
10
4
16
34
36
26
36
20
6
6
16
26
12
24
28
14
6
14
28
34
28
24
20
34
20
16
92
255
255
255
212
8
16
6
16
4
2
2
0
2
28
62
72
72
70
72
80
86
106
124
106
64
72
128
132
94
54
48
78
118
146
166
178
172
136
78
28
4
0
0
0
0
0
2
4
8
10
8
8
6
4
6
6
8
14
16
8
2
4
4
4
4
4
4
4
8
24
42
52
52
48
42
40
40
34
28
22
24
18
12
14
26
32
38
42
52
46
10
24
32
18
24
16
24
28
26
14
2
12
8
12
12
10
14
10
8
28
38
40
32
20
24
24
22
14
18
22
10
42
58
40
18
10
6
94
170
228
218
150
224
210
188
198
206
190
148
92
60
56
54
50
62
52
20
30
84
132
164
178
174
174
170
154
148
146
132
98
72
72
94
114
106
68
58
54
28
24
22
26
38
46
46
50
62
70
74
64
42
22
6
0
0
0
0
0
0
0
0
0
0
0
0
0
0
0
0
0
2
4
8
14
18
10
14
10
4
8
4
8
4
24
144
255
255
255
255
68
36
6
36
36
32
6
20
44
60
58
38
2
48
76
72
48
32
50
28
28
30
22
0
24
30
26
20
28
26
16
14
24
36
42
32
16
14
12
14
10
10
10
10
6
12
20
22
20
18
18
18
16
10
6
18
32
34
26
28
38
34
34
38
36
46
52
46
34
24
44
48
40
34
32
32
28
20
16
16
14
8
8
2
14
20
10
8
14
10
4
20
24
18
12
16
24
34
32
22
10
2
6
10
18
26
46
124
252
255
255
255
250
132
54
18
4
0
4
6
10
6
6
10
8
8
8
8
10
2
4
4
4
2
4
6
4
6
6
8
8
6
6
4
2
6
12
16
10
8
4
8
18
28
38
52
62
74
84
92
88
44
12
40
68
72
84
76
78
96
102
66
36
28
44
68
54
22
56
90
84
52
40
48
16
28
52
56
36
14
14
16
12
44
50
34
44
56
26
14
32
26
44
50
30
40
58
80
86
62
38
42
38
26
22
12
32
68
88
68
44
42
66
86
86
76
62
54
52
54
52
30
54
66
54
28
34
42
30
26
32
50
50
50
56
54
40
16
14
36
82
90
80
68
60
50
28
26
36
38
60
68
70
68
70
70
50
28
22
30
42
30
16
22
22
20
24
32
38
56
70
60
60
60
42
58
92
134
152
140
120
110
106
86
60
34
70
92
76
30
12
16
24
22
4
10
28
46
56
60
52
44
58
68
36
16
26
24
22
24
16
16
30
30
32
18
28
26
20
32
26
24
22
22
20
16
20
8
16
22
14
32
46
44
36
28
26
24
14
12
20
30
26
24
32
36
32
26
24
26
22
14
4
4
8
12
16
12
10
14
20
24
26
16
18
24
6
34
36
10
14
12
10
18
10
4
8
24
34
38
32
16
8
6
8
24
36
30
8
18
28
16
10
18
24
18
12
36
36
14
4
6
8
14
14
14
8
26
24
2
110
255
255
255
196
4
16
4
16
4
0
0
0
0
14
36
52
72
90
104
110
94
92
124
156
136
56
56
110
102
50
32
16
70
114
164
186
184
152
92
38
8
0
0
0
0
0
0
0
2
4
4
4
4
6
8
8
10
8
4
2
2
0
0
2
4
4
6
12
28
50
64
60
44
36
32
32
32
26
22
16
16
18
18
8
28
40
78
100
104
108
46
34
56
52
48
36
20
10
22
26
18
10
10
20
22
12
12
10
16
14
12
8
8
8
10
16
18
24
34
38
22
10
44
58
56
48
42
110
190
250
232
142
188
180
196
212
248
254
232
188
146
150
164
164
172
180
170
144
112
80
56
30
14
34
54
64
108
138
140
142
110
122
130
118
86
72
76
76
64
50
48
34
24
26
32
38
46
56
70
64
46
32
16
8
6
2
0
0
0
0
0
0
0
0
0
0
0
0
0
0
0
0
2
6
12
12
12
8
0
6
2
4
4
44
172
255
255
255
250
58
40
18
36
42
48
26
26
48
68
66
42
12
50
62
64
48
42
46
20
28
36
32
18
22
14
16
26
34
28
16
20
32
40
34
12
6
16
14
14
16
10
6
4
4
16
20
18
14
12
12
16
16
14
12
2
14
16
10
16
28
24
18
26
24
30
28
16
16
6
12
26
30
34
36
34
28
20
16
16
14
8
12
8
14
20
12
22
22
6
12
24
24
14
6
10
20
32
38
32
22
12
10
6
8
34
82
174
255
255
255
255
208
98
30
8
4
0
4
6
12
12
12
12
8
8
10
10
8
2
6
4
6
4
2
4
4
4
2
2
4
4
4
2
2
4
4
8
8
8
6
8
20
28
36
52
64
76
84
86
84
66
44
58
40
34
90
116
118
108
96
68
40
40
64
100
102
70
6
58
92
84
76
66
40
52
50
70
52
12
28
22
32
48
22
22
40
86
68
12
26
48
76
70
46
56
64
74
82
70
52
46
46
36
16
10
18
38
62
68
66
62
68
80
86
82
68
56
50
44
34
18
44
50
28
4
24
32
34
26
10
32
46
54
58
54
46
32
24
66
96
80
82
80
70
56
34
36
34
26
42
50
56
58
64
72
62
44
30
46
44
22
28
44
34
38
30
26
50
78
88
78
78
82
66
48
98
164
194
172
130
108
104
90
60
26
50
78
80
52
14
8
4
16
24
22
32
58
72
68
56
26
34
52
48
40
24
16
28
26
20
32
16
14
42
40
30
10
8
32
44
40
34
34
26
10
14
30
12
16
28
24
14
30
34
40
50
54
42
30
34
26
0
18
28
34
38
38
22
28
32
26
14
20
18
10
22
28
28
28
26
24
20
10
16
24
12
38
38
14
20
20
20
20
6
10
14
36
54
50
28
18
6
10
28
44
40
14
16
30
28
20
16
16
12
10
22
40
36
18
16
16
6
6
4
8
14
14
26
18
144
255
255
255
180
2
16
4
16
4
0
0
0
0
6
14
20
44
82
118
134
108
80
96
148
176
130
38
58
110
88
20
54
106
100
168
226
240
204
124
52
12
0
0
0
0
0
0
0
0
0
0
0
0
2
4
4
4
2
0
2
4
4
4
6
6
10
16
28
44
56
56
40
22
24
32
34
26
14
8
4
4
12
18
18
14
62
96
96
74
120
80
50
38
34
20
22
30
16
6
20
26
20
12
16
16
4
12
14
6
8
10
6
4
8
10
10
12
20
30
38
32
16
24
34
46
50
44
102
198
255
255
158
170
130
132
118
162
190
196
178
148
154
156
138
134
148
158
166
168
160
158
158
140
108
78
72
84
80
44
14
30
68
62
44
42
66
92
118
134
126
106
92
74
48
40
26
32
40
54
54
40
34
26
22
20
10
4
4
4
4
4
4
4
4
4
4
4
4
4
4
4
4
4
4
4
2
2
4
8
8
6
4
8
76
232
255
255
255
226
32
50
22
22
28
44
38
30
44
64
70
48
30
64
68
56
32
22
22
6
18
24
16
10
10
2
12
22
22
8
2
14
22
22
8
14
18
16
18
22
14
4
8
6
6
14
16
8
8
14
10
8
10
12
16
16
26
22
8
14
24
20
12
12
14
24
24
20
18
10
4
12
10
20
28
24
14
6
2
4
4
4
6
10
16
14
6
26
20
14
22
26
22
16
16
16
18
26
32
32
28
20
18
6
4
44
90
194
255
255
255
255
174
80
24
8
4
0
4
2
4
4
4
0
4
2
2
4
2
4
6
4
4
4
4
4
2
0
0
0
2
4
6
8
12
16
18
20
14
12
4
6
18
18
16
32
56
78
90
82
66
62
70
42
18
56
58
106
124
104
78
54
30
14
28
58
70
66
34
14
46
38
30
20
50
62
18
44
60
26
32
12
46
48
20
54
36
66
86
60
30
24
46
34
40
68
74
70
70
62
50
46
50
48
34
46
50
38
24
30
48
46
36
28
30
44
54
50
68
66
42
26
44
64
56
34
36
46
58
50
18
28
42
50
46
32
36
46
48
36
58
56
60
50
46
58
46
30
16
20
46
42
22
36
50
64
66
64
58
50
44
30
44
40
30
42
36
26
40
54
60
50
48
62
72
104
170
202
170
104
62
66
88
88
62
50
64
80
80
66
40
10
2
10
20
40
44
38
18
28
56
36
58
68
60
42
14
32
32
16
48
34
20
16
40
50
28
10
24
38
70
70
44
22
24
24
20
32
46
32
16
36
44
46
24
4
18
40
46
38
24
6
20
28
30
32
32
42
36
34
44
36
20
28
28
28
42
46
42
34
24
16
8
2
12
16
22
46
44
20
22
20
22
16
16
26
32
58
48
28
16
16
4
18
36
38
26
20
36
30
14
14
4
12
22
26
34
42
38
20
22
20
8
2
10
16
22
4
22
58
206
255
255
255
160
0
16
6
16
4
4
4
4
2
4
8
8
16
52
104
140
124
88
76
106
146
144
100
24
90
118
70
92
132
138
162
255
255
255
222
106
30
2
2
4
4
2
0
0
0
0
0
0
0
0
0
0
0
0
0
0
0
0
0
8
22
32
38
48
58
64
56
34
26
46
70
68
66
50
20
6
14
16
16
36
20
50
122
116
90
142
100
26
44
58
56
54
40
8
8
2
18
22
10
14
28
22
6
20
20
12
6
16
18
12
2
8
10
14
20
28
28
22
18
14
12
14
8
96
196
255
240
112
130
86
48
36
70
104
124
120
94
96
90
68
76
82
92
116
144
156
164
178
184
178
164
152
166
190
192
158
114
94
82
76
56
22
64
82
88
90
72
66
80
82
54
42
48
62
66
50
26
22
14
12
16
8
0
0
0
0
0
0
0
0
0
0
0
0
0
0
0
0
0
0
0
0
0
0
4
2
8
4
12
122
255
255
255
255
182
10
52
22
30
20
12
20
10
26
66
76
54
30
62
60
48
24
14
22
16
36
34
14
6
4
8
14
18
12
8
6
12
26
26
12
26
18
20
26
18
4
8
12
12
18
22
16
10
20
20
24
10
8
6
6
16
22
12
4
16
22
20
10
2
8
18
20
22
20
6
8
12
2
14
30
28
18
8
8
6
6
6
2
10
10
2
14
22
12
10
18
22
20
20
22
22
18
22
18
18
22
20
24
10
6
36
112
242
255
255
255
252
156
72
18
4
4
0
4
0
0
0
4
6
4
6
4
0
0
2
4
4
4
4
4
6
4
0
0
2
6
6
8
10
12
14
14
14
16
20
12
4
20
18
4
10
38
68
84
76
70
72
58
34
42
44
6
70
106
100
80
60
36
26
48
60
54
50
40
16
46
40
32
16
36
70
50
38
30
18
4
18
30
44
30
38
20
22
62
70
58
48
48
30
46
78
82
62
50
52
46
38
34
34
22
38
38
32
34
44
48
40
40
42
34
28
40
64
72
56
28
20
28
50
56
36
18
36
50
34
14
30
52
66
62
50
46
42
16
32
78
100
92
48
10
44
52
52
54
54
46
28
6
20
40
52
50
54
56
52
46
26
18
6
6
18
26
18
20
32
42
22
6
16
58
122
158
146
94
74
60
42
40
46
30
34
50
64
68
66
62
48
34
16
40
50
34
18
38
82
78
32
62
76
66
38
12
30
34
10
44
50
24
10
38
48
30
16
16
12
48
72
72
56
36
18
18
26
34
46
30
50
52
46
38
28
16
12
12
14
18
24
30
24
16
12
4
18
22
30
42
30
14
18
12
34
46
42
28
14
10
10
8
8
12
8
18
34
32
16
20
20
22
12
28
28
16
62
68
32
6
18
10
26
30
26
18
10
32
42
34
18
12
18
14
12
18
32
34
18
28
22
8
0
10
14
16
18
26
110
255
255
255
255
140
0
14
6
14
2
6
4
6
4
2
4
4
2
22
68
116
128
116
102
104
124
132
124
64
54
74
62
70
132
206
252
255
255
255
255
255
106
22
4
8
8
6
0
0
0
0
0
0
0
0
0
0
0
0
0
0
0
2
8
22
36
40
36
40
48
50
40
26
34
58
70
44
54
54
32
12
16
26
24
32
42
28
78
106
116
130
68
12
58
78
88
78
78
42
8
18
6
22
26
16
22
24
14
14
20
14
26
24
14
8
14
16
20
30
46
60
54
26
8
30
40
40
36
84
166
206
172
38
56
40
14
22
30
46
64
58
24
26
28
34
48
42
36
62
80
100
104
108
122
142
152
140
134
150
180
194
178
160
152
156
148
118
92
68
86
112
84
58
34
58
80
66
80
88
70
40
16
18
20
22
22
12
4
4
4
4
4
4
4
4
4
4
4
4
4
4
4
4
4
4
4
4
4
4
8
2
6
2
20
182
255
255
255
255
124
2
50
30
36
22
18
26
32
40
80
92
56
28
86
98
70
36
22
28
26
42
32
14
14
10
12
16
18
10
12
14
20
30
20
6
22
10
26
32
24
16
22
18
12
20
26
20
16
18
10
18
12
12
12
12
12
8
10
16
18
16
20
20
18
16
18
16
18
16
2
12
18
16
18
34
40
38
22
4
4
8
6
8
12
10
14
18
12
6
18
28
18
4
8
10
18
24
30
22
10
6
12
24
16
12
54
176
255
255
255
255
232
140
60
8
0
4
2
4
0
0
0
4
6
4
6
4
0
0
0
2
4
6
4
2
6
4
4
8
10
8
2
4
4
4
10
18
22
10
16
14
4
18
24
6
2
30
68
94
86
68
64
64
44
12
42
58
92
76
92
96
90
68
50
52
40
32
50
36
20
56
46
38
26
22
50
38
26
36
32
28
28
24
12
2
16
26
16
22
48
48
48
24
32
84
108
102
68
40
46
50
48
36
24
20
36
48
34
24
34
26
32
56
54
30
16
34
74
92
80
54
36
32
32
34
22
8
36
64
56
22
14
54
80
86
88
80
64
42
68
72
44
66
58
34
20
32
60
94
126
124
70
22
24
36
48
58
56
42
26
24
14
18
24
24
16
2
14
20
24
38
40
26
18
48
70
68
60
52
52
66
92
108
86
44
40
54
50
46
58
68
74
78
74
52
40
26
22
54
58
10
44
70
64
68
52
22
30
34
14
18
28
22
28
42
36
30
8
28
32
16
20
40
42
32
14
12
30
14
28
52
40
2
24
22
10
24
50
64
64
52
36
22
8
12
22
24
20
8
22
30
12
12
20
14
30
32
14
4
12
12
4
6
16
20
10
20
44
42
18
8
16
18
16
30
36
22
56
56
30
12
24
20
24
22
26
18
4
20
26
26
22
12
2
14
16
24
32
24
6
26
24
8
4
14
20
28
30
40
160
255
255
255
255
118
0
12
4
12
2
6
4
6
4
0
0
0
2
10
36
78
110
132
144
142
138
132
128
100
78
68
40
48
124
255
255
255
255
255
255
255
250
74
6
10
8
8
0
0
0
0
0
0
0
0
0
0
0
0
0
0
4
14
26
36
36
26
14
16
28
34
26
22
36
42
32
30
60
56
36
10
10
28
26
14
32
32
28
10
50
58
32
30
60
70
64
42
88
78
26
18
16
28
26
6
24
34
24
2
24
30
22
8
6
14
20
14
14
30
56
74
60
54
46
28
28
22
20
48
142
210
204
100
110
104
92
90
88
86
96
102
72
74
60
56
78
58
44
50
36
58
58
40
20
22
48
46
36
44
76
106
108
98
98
116
136
134
120
100
136
140
96
124
100
26
28
38
70
76
54
28
18
26
26
14
4
8
14
16
18
20
22
22
22
22
26
28
30
32
32
34
38
42
44
44
44
42
38
34
34
28
32
12
34
246
255
255
255
218
74
28
16
18
26
20
22
32
28
36
90
114
56
48
106
100
54
20
16
22
26
34
20
6
10
8
6
8
10
6
2
10
24
32
22
16
22
4
22
28
18
14
14
6
2
12
16
14
10
6
6
14
8
10
10
10
20
16
16
10
6
14
16
22
30
34
34
24
20
18
10
12
14
16
16
18
24
34
28
12
6
6
4
8
10
10
12
10
2
8
20
22
6
8
8
10
24
28
28
22
12
12
14
20
20
18
90
234
255
255
255
255
192
106
36
2
2
2
2
2
0
0
0
2
4
4
4
2
0
0
0
4
6
4
2
4
4
2
12
16
10
8
4
6
8
6
10
10
18
16
16
10
6
8
22
16
20
58
94
108
90
68
46
40
32
24
36
46
46
48
70
84
92
90
68
40
22
28
48
38
22
52
34
16
28
36
52
30
18
28
32
28
26
26
22
14
12
14
16
22
54
70
42
14
70
94
86
68
46
42
60
70
58
36
26
30
30
54
70
56
30
22
40
66
68
46
22
28
50
72
80
70
52
42
26
16
10
12
10
34
48
38
16
24
54
68
78
82
74
52
50
24
18
50
52
42
24
24
62
56
116
142
100
32
16
34
60
62
48
38
30
26
26
26
22
20
22
18
24
26
24
12
16
22
42
50
50
78
86
58
28
24
56
92
82
40
44
50
28
22
38
48
52
58
76
84
56
12
40
46
20
38
56
44
38
62
54
20
16
36
26
12
16
28
38
38
28
22
32
38
34
42
24
14
22
28
24
16
42
42
48
48
30
32
40
22
10
34
58
66
54
50
38
18
4
16
24
22
22
18
30
24
2
12
12
20
38
20
12
22
10
10
26
26
28
32
24
0
32
44
32
16
8
6
18
18
26
34
56
54
32
14
8
12
10
14
24
20
26
38
36
20
6
8
18
24
16
30
44
36
10
18
30
20
12
18
16
26
24
56
202
255
255
255
255
94
0
12
4
12
4
4
4
4
2
0
0
0
4
10
20
50
80
110
140
152
146
132
122
106
92
78
60
86
182
255
255
255
255
255
255
255
255
118
4
8
8
8
0
0
0
0
0
0
0
0
0
0
0
2
6
14
26
34
36
32
20
8
14
18
26
36
38
28
30
12
26
62
68
48
20
12
28
32
26
16
16
20
22
26
36
40
28
6
50
98
100
40
44
68
42
4
14
28
16
14
34
32
8
18
26
18
12
10
4
6
18
20
18
24
42
42
10
28
42
36
24
18
20
84
162
210
188
96
142
158
148
140
138
140
148
140
92
106
96
80
104
90
82
102
124
140
124
102
94
74
76
72
64
66
72
68
52
50
62
62
56
82
82
64
76
56
38
98
134
110
72
62
60
50
28
18
16
34
52
56
64
68
76
80
84
86
86
84
84
88
98
104
106
106
106
112
120
130
136
134
134
126
114
104
86
78
86
52
70
255
255
255
255
118
64
54
26
10
12
6
4
10
10
52
114
124
50
70
102
72
26
10
6
6
18
18
6
8
12
12
10
16
20
16
12
10
18
26
20
22
30
12
20
24
14
10
10
12
16
18
10
2
2
2
8
12
4
6
12
6
6
8
0
8
10
14
14
20
26
40
44
30
18
12
12
12
6
18
36
34
26
24
16
14
14
10
2
4
4
4
2
4
8
10
10
16
10
6
4
16
24
24
24
18
10
14
10
10
24
40
132
255
255
255
255
244
134
60
12
4
6
2
0
0
0
0
0
0
0
0
0
0
0
0
0
4
6
4
2
4
4
10
14
12
6
8
8
4
10
6
6
14
16
6
6
8
14
10
6
20
42
76
96
98
86
74
64
58
48
28
18
26
38
46
46
52
62
80
88
78
54
38
54
36
14
60
72
40
28
72
72
44
50
62
52
30
18
26
22
22
10
4
10
36
62
54
30
62
86
62
26
40
42
68
86
78
50
20
18
28
24
8
50
66
58
48
54
68
64
46
28
26
32
30
32
36
34
22
36
38
38
40
38
44
44
26
28
42
58
50
34
40
36
26
10
12
28
34
46
46
46
60
70
32
50
92
84
34
6
28
62
72
54
40
26
18
20
24
16
16
24
30
32
26
22
26
44
66
74
68
60
64
70
56
22
22
68
108
88
30
34
26
12
28
24
28
46
44
46
66
72
40
36
50
32
32
26
30
40
52
48
40
24
50
44
20
12
28
44
40
30
30
34
24
6
30
34
20
28
34
32
26
30
38
34
26
8
14
10
8
20
32
36
30
8
20
24
12
10
16
14
18
38
46
38
18
6
14
28
42
38
6
22
14
18
48
54
34
40
38
36
28
34
24
28
30
32
28
26
10
10
28
44
42
20
20
16
10
6
12
24
26
40
40
32
20
16
20
16
10
0
18
38
42
22
6
22
26
20
20
20
30
26
74
238
255
255
255
250
72
0
12
6
12
4
0
0
0
0
0
0
0
4
10
18
36
56
76
104
130
140
134
124
106
92
86
64
88
204
255
255
255
114
255
255
255
255
162
2
8
12
4
2
2
0
0
0
0
0
0
0
0
2
12
24
40
50
44
34
18
4
2
12
24
30
32
36
34
24
8
32
38
24
8
20
44
48
34
18
18
20
8
22
36
26
28
50
54
32
52
96
80
64
58
30
12
10
16
6
12
20
18
8
16
20
18
16
10
16
18
26
34
36
40
56
70
64
74
66
48
32
24
22
120
190
218
168
56
136
136
100
80
82
90
96
82
58
74
70
46
60
44
34
52
70
68
46
52
50
44
70
76
64
56
46
34
26
34
38
20
42
68
78
70
56
46
42
94
148
164
158
164
170
174
168
148
142
148
162
170
168
168
174
170
162
152
144
138
134
146
162
166
158
152
146
144
148
156
152
144
146
140
128
120
108
102
128
114
156
255
255
255
240
64
38
48
26
10
16
18
20
24
32
68
114
106
24
68
100
76
34
18
18
12
12
4
12
18
18
14
10
12
16
12
10
12
16
24
14
14
22
10
20
24
16
8
10
6
10
10
10
12
10
6
10
12
4
4
4
6
10
12
12
8
6
4
4
8
4
14
32
32
26
20
18
18
16
32
42
32
22
16
8
12
18
16
6
6
6
6
8
4
6
12
12
10
8
10
12
16
22
24
22
18
16
12
4
6
28
86
206
255
255
255
255
188
84
26
4
2
4
2
0
0
0
0
0
0
0
2
6
8
8
8
6
2
2
6
4
2
6
8
6
6
6
6
10
8
4
6
14
12
8
12
10
18
14
20
12
22
48
62
64
68
74
72
66
56
34
6
16
22
32
36
60
70
54
56
74
88
84
70
66
60
42
12
50
72
56
62
48
30
48
70
80
76
58
30
22
36
38
22
30
46
50
26
24
62
58
26
6
32
82
106
86
44
14
26
24
22
22
6
24
42
46
46
52
66
66
52
42
44
50
36
18
22
38
44
44
38
30
34
24
12
12
30
46
60
66
54
40
38
38
34
28
20
10
28
36
32
42
68
86
64
62
78
64
34
22
32
42
66
64
54
38
22
20
30
30
26
24
28
38
36
28
26
38
60
72
68
64
68
70
58
50
68
104
110
74
28
54
52
40
38
36
48
52
40
38
44
62
56
22
20
36
34
22
12
24
44
52
38
6
22
30
22
22
50
64
44
26
28
38
36
24
30
38
28
26
32
32
20
10
16
14
12
6
12
18
24
34
38
28
32
24
28
18
12
18
30
32
42
44
34
14
2
4
26
36
28
12
10
14
10
44
60
44
28
38
28
20
16
14
6
12
16
22
22
20
22
22
20
34
28
8
10
12
10
6
6
6
20
24
22
18
10
8
10
4
8
6
16
18
30
24
14
8
10
12
26
30
32
34
82
255
255
255
255
214
56
0
10
8
10
4
0
0
0
0
0
0
0
2
6
12
20
32
52
80
116
142
144
136
116
100
96
74
84
172
255
255
255
255
30
255
255
255
248
32
4
8
2
2
4
0
0
0
0
0
0
0
2
10
26
38
50
48
32
24
22
10
6
28
48
48
42
42
32
16
4
22
40
38
40
50
50
32
22
12
14
28
20
20
14
22
36
44
60
46
30
40
52
44
46
28
10
12
16
18
18
8
18
14
6
22
30
32
24
20
16
12
20
26
30
38
44
50
52
44
30
16
16
16
106
188
218
150
8
80
62
40
50
64
58
44
36
48
48
34
24
44
70
82
90
94
88
80
84
64
54
52
32
6
22
44
58
88
118
120
96
86
90
98
98
86
94
100
106
136
158
168
182
198
226
252
255
244
238
234
220
212
206
206
192
186
176
160
144
130
148
164
158
140
140
130
114
106
104
84
84
86
84
80
82
84
86
124
136
246
255
255
255
200
44
22
54
46
16
6
12
16
20
32
60
90
84
38
80
94
60
28
18
22
16
6
6
16
16
12
10
8
8
16
18
18
12
10
26
26
24
22
4
16
20
18
8
12
8
18
20
16
14
12
12
12
12
0
8
8
6
12
14
6
6
14
14
14
22
30
32
28
20
26
26
24
20
22
28
28
18
10
4
0
4
14
24
18
12
10
6
8
10
12
16
20
24
24
16
6
8
16
20
14
14
22
26
18
16
52
154
255
255
255
255
255
140
48
10
2
4
6
2
0
0
0
0
0
0
2
8
14
14
12
14
12
8
4
4
6
4
6
4
6
10
10
4
8
16
20
14
4
14
14
2
8
14
6
16
20
24
36
74
92
96
88
68
48
32
16
14
12
14
52
74
68
44
46
50
56
74
88
88
90
94
102
84
24
44
76
72
42
8
18
46
70
86
92
76
34
28
56
46
34
38
30
10
16
36
36
20
28
76
126
118
58
16
18
30
30
32
28
12
10
8
8
22
42
58
64
50
46
62
82
74
42
32
52
74
68
38
6
14
26
46
54
50
42
38
36
28
28
44
58
54
36
28
4
26
24
8
16
48
72
58
42
66
66
48
36
36
38
38
54
54
42
28
18
22
26
20
8
22
46
48
28
20
10
44
48
42
38
44
60
76
82
88
86
60
28
8
32
44
36
28
44
72
76
52
34
34
44
54
54
34
34
54
60
60
42
40
54
56
38
40
24
10
42
70
68
34
14
24
50
58
42
36
34
20
14
20
24
22
18
14
6
12
16
18
18
26
42
42
26
6
8
2
10
22
28
32
38
32
16
10
20
18
16
20
16
4
12
12
6
26
40
32
22
24
34
22
14
14
12
8
8
12
14
6
2
14
28
34
36
24
14
16
20
20
18
12
14
18
16
14
12
8
10
12
6
6
2
12
16
18
16
24
34
32
24
32
32
26
32
94
255
255
255
255
172
38
0
6
6
8
4
0
0
0
0
0
0
0
0
0
10
22
20
32
62
100
134
144
144
128
112
110
96
102
140
218
255
255
255
255
234
255
255
255
130
24
2
6
4
8
2
0
0
0
0
0
2
8
18
28
30
30
20
10
14
30
24
16
40
54
42
30
28
20
10
10
16
34
44
52
46
24
4
20
14
4
12
16
22
46
54
42
34
34
32
22
22
6
16
30
20
10
16
32
32
30
16
2
14
12
16
26
42
42
30
18
28
38
30
16
8
2
8
8
10
4
12
30
40
78
168
220
178
58
130
118
88
92
106
108
96
106
120
106
86
78
76
80
96
106
112
110
94
94
86
98
100
86
66
88
90
70
60
82
104
98
86
82
90
100
96
92
84
78
80
94
104
102
134
158
160
174
174
158
148
144
132
108
106
106
122
128
120
106
86
98
100
86
74
86
88
80
64
56
50
62
64
56
52
64
76
76
96
110
255
255
255
255
148
34
38
68
46
24
24
12
4
4
14
38
66
72
28
68
80
46
22
22
36
38
26
10
6
12
6
6
14
14
16
16
12
8
6
14
18
14
4
10
14
12
18
14
12
6
8
18
28
22
6
2
8
8
4
8
4
8
16
8
6
10
8
8
10
20
28
26
24
20
12
10
14
16
20
18
16
14
16
10
12
8
24
40
28
20
16
6
4
6
14
20
16
10
0
12
16
16
32
32
22
16
20
22
14
22
82
218
255
255
255
255
206
106
34
8
2
2
4
2
0
0
0
0
0
2
6
10
10
4
0
4
6
6
4
2
4
6
8
2
10
10
10
12
12
14
12
20
12
12
20
18
10
10
6
8
10
6
18
54
86
106
108
94
72
48
22
18
18
28
52
66
44
20
40
62
72
78
82
76
70
72
96
114
88
68
52
52
56
36
18
20
46
60
74
82
58
16
16
22
6
18
22
18
26
50
52
28
36
74
106
86
32
36
30
26
36
26
16
8
24
30
22
16
46
70
64
32
16
40
82
94
68
44
46
62
62
44
18
22
34
44
34
20
10
16
34
40
30
50
48
22
8
24
20
46
46
20
16
14
48
50
46
84
90
70
46
38
40
42
48
40
34
26
16
14
20
28
22
32
54
46
24
36
22
34
58
62
60
54
64
94
96
86
70
52
34
12
10
12
4
8
36
70
86
76
48
26
30
50
74
82
60
52
50
58
46
20
34
40
28
22
14
26
40
48
34
6
6
24
50
44
8
26
34
16
10
10
18
24
30
34
30
22
26
24
20
26
34
20
8
14
10
16
10
16
22
26
22
24
22
16
4
12
26
32
28
14
6
10
12
18
22
36
38
34
34
26
18
8
12
28
36
30
34
28
24
12
14
32
40
34
32
28
24
20
14
6
6
10
16
20
20
18
16
18
16
14
4
18
24
20
8
32
36
34
34
34
36
34
36
116
255
255
255
255
116
18
0
4
2
6
2
0
0
0
0
0
0
0
0
0
10
18
14
22
36
60
92
112
132
134
124
128
128
140
144
156
255
255
255
255
208
255
255
255
255
78
0
10
8
12
4
0
0
0
0
2
8
14
16
14
26
40
42
28
18
34
44
24
32
36
32
22
22
22
18
18
16
12
18
22
14
12
14
2
18
32
28
20
36
36
20
22
26
24
26
26
24
22
22
18
10
22
26
20
10
18
18
8
18
18
12
8
28
36
32
26
42
36
16
2
10
8
6
18
14
6
16
20
18
144
226
255
232
116
152
144
112
108
112
110
108
146
150
138
134
100
72
60
64
68
74
74
54
48
56
80
92
84
92
98
66
40
18
8
28
46
48
46
56
66
72
56
30
20
26
24
30
10
30
36
22
20
30
32
36
40
36
28
26
14
20
50
58
52
32
24
20
14
4
18
34
40
32
24
32
50
58
46
38
48
66
60
52
116
255
255
255
255
110
30
36
52
24
12
22
22
24
18
20
38
64
58
6
52
68
38
14
16
36
50
48
28
8
18
18
4
12
20
24
28
24
16
6
2
4
6
10
12
6
2
8
10
4
6
8
8
18
28
24
16
14
6
4
12
14
2
16
18
8
6
12
18
18
22
22
12
16
20
16
8
2
12
10
10
14
22
30
18
20
14
30
44
26
22
20
14
10
12
18
14
16
22
28
30
24
16
32
38
30
18
14
12
4
34
134
255
255
255
255
255
156
90
32
6
4
10
10
6
0
0
0
0
0
4
6
4
8
10
12
14
12
8
4
0
0
4
8
2
10
8
6
10
14
12
6
12
18
8
10
20
24
16
4
2
10
10
12
30
58
92
112
110
90
60
22
22
36
56
92
72
28
18
34
54
78
82
78
66
50
38
52
82
94
80
56
42
34
34
32
20
36
48
58
68
72
60
46
38
22
28
26
22
14
38
54
42
36
50
84
78
28
34
52
38
24
28
40
44
52
36
26
20
52
88
76
30
12
14
46
74
68
50
44
64
62
52
36
30
62
68
44
40
52
54
52
74
70
40
28
34
30
12
54
70
48
28
24
2
28
36
60
96
92
62
32
28
38
42
46
38
22
18
12
16
20
30
36
42
48
32
22
24
42
28
26
58
82
90
84
104
98
82
70
64
42
38
40
46
42
26
12
48
68
72
52
24
48
46
76
98
98
74
32
20
26
2
22
20
10
10
24
30
24
38
40
22
14
28
52
56
40
62
48
24
24
14
10
20
20
34
44
40
22
14
14
12
14
12
30
32
20
32
32
24
16
10
2
8
16
30
36
16
16
32
28
16
8
12
8
8
16
24
30
26
20
18
10
14
38
48
40
22
28
24
32
32
12
20
42
44
34
16
6
4
2
16
22
16
6
6
14
16
14
12
18
22
12
14
32
28
12
30
24
14
24
22
26
36
36
134
255
255
255
242
54
2
4
4
0
4
0
0
0
0
0
0
0
0
0
0
10
22
20
22
24
22
34
54
86
110
110
116
126
146
140
172
192
255
255
255
255
226
255
255
255
132
0
14
8
14
4
0
0
0
0
6
14
14
6
10
22
38
48
44
36
24
44
34
10
28
42
38
32
30
28
32
36
30
26
20
20
18
4
30
46
42
54
28
14
40
38
26
12
16
22
24
20
16
20
26
28
26
12
12
26
22
6
10
14
8
12
20
26
18
20
24
26
8
10
16
16
28
20
14
12
8
14
24
28
126
216
255
255
156
160
152
130
140
150
142
154
162
138
128
136
118
86
62
60
68
86
94
68
44
46
62
76
64
82
72
74
78
54
24
32
36
40
30
30
20
32
32
16
6
14
20
38
28
50
62
44
18
10
6
18
36
42
22
18
32
18
14
38
38
24
18
30
30
24
22
22
14
10
6
22
36
32
18
16
8
36
34
16
120
254
255
255
234
106
38
30
30
12
14
6
8
18
20
46
84
102
74
16
54
66
36
4
14
10
26
42
40
18
12
18
10
6
14
10
14
20
18
8
2
4
8
18
16
6
2
4
2
6
8
8
6
4
8
12
14
16
12
8
10
12
8
4
10
6
6
8
12
14
16
24
24
16
8
4
4
6
10
8
10
22
32
30
8
10
2
18
28
14
20
28
20
8
6
8
10
8
16
18
16
10
8
18
24
26
22
16
18
26
92
222
255
255
255
255
214
134
80
24
4
12
10
12
8
0
0
0
0
0
4
6
6
6
10
8
8
6
4
2
0
0
4
10
4
8
8
2
8
18
20
16
12
16
12
2
8
24
28
20
18
20
14
20
28
50
82
110
116
100
78
42
40
44
44
98
96
48
28
18
22
44
42
56
72
74
56
38
38
50
64
64
44
36
40
48
38
54
82
84
80
82
80
58
24
18
26
28
30
46
84
92
68
54
56
66
74
46
18
26
32
26
32
62
76
60
48
40
28
28
76
86
48
8
18
24
40
46
58
62
56
44
50
36
8
48
72
60
40
40
32
16
60
92
76
48
38
36
68
78
52
32
30
44
34
40
34
54
66
46
18
10
16
26
28
26
30
28
24
20
26
30
32
40
46
30
20
42
36
6
12
6
16
50
80
108
116
108
92
72
42
14
46
52
18
18
30
18
48
54
52
52
48
60
36
64
86
94
78
44
36
46
20
38
28
22
20
24
26
16
22
34
28
16
20
40
52
50
42
16
14
22
20
8
6
4
12
36
52
48
34
22
20
18
16
32
34
22
34
30
26
20
4
12
12
14
2
22
30
14
22
28
18
4
8
8
4
2
2
6
6
2
10
12
24
32
26
10
8
8
4
10
20
14
16
38
50
40
26
24
22
14
24
30
22
28
20
8
6
8
2
8
18
18
4
20
26
26
40
30
14
18
4
22
38
28
148
255
255
255
170
8
10
10
2
2
4
0
0
0
0
0
0
0
0
0
0
4
10
10
10
8
4
6
18
42
68
72
72
76
92
100
128
102
255
255
255
255
255
255
255
255
136
0
14
4
14
4
0
0
0
0
6
12
10
2
6
8
22
38
48
42
16
22
30
24
16
32
40
32
10
12
32
40
26
12
8
8
22
40
44
32
12
30
34
18
10
26
26
12
6
6
16
14
20
20
12
2
2
0
6
10
6
2
6
18
26
30
24
10
10
16
10
2
16
22
16
4
14
14
8
16
20
14
4
6
86
200
255
255
172
168
152
128
146
166
160
156
134
104
112
122
128
118
92
90
102
112
132
110
80
72
74
76
56
60
48
68
96
88
62
60
52
54
42
22
14
28
28
28
24
14
18
30
12
26
38
26
8
4
2
12
40
68
70
48
22
16
12
36
52
38
14
22
12
12
26
26
18
6
26
46
46
30
12
12
48
80
54
58
154
255
255
255
212
108
44
20
10
8
14
10
8
14
48
98
128
116
58
38
70
74
38
4
12
10
22
30
30
24
22
22
4
20
24
14
12
14
16
10
8
10
10
20
22
12
10
10
8
2
12
8
6
14
18
16
14
14
14
4
10
12
6
8
14
10
2
12
14
16
14
12
20
26
26
22
12
0
8
16
18
28
28
12
10
16
8
24
34
22
30
30
14
0
4
12
12
4
6
10
8
6
24
42
54
54
38
20
18
56
158
255
255
255
255
255
184
106
52
8
14
14
4
12
8
0
0
0
0
0
2
4
6
0
6
4
2
0
0
0
0
0
2
10
10
6
4
4
6
12
16
14
4
14
18
12
6
10
22
20
14
10
14
24
28
42
66
94
108
94
74
46
38
28
26
76
92
62
26
18
66
76
40
6
50
86
84
50
18
8
18
40
50
38
46
68
60
60
102
106
88
80
80
70
38
30
18
16
36
72
96
90
66
54
62
78
74
48
18
6
12
34
52
80
78
76
94
90
62
44
56
78
68
30
16
60
84
86
76
54
38
46
56
50
22
16
46
48
26
8
36
42
44
48
66
48
32
72
86
54
8
36
54
52
36
36
30
20
42
60
52
38
32
34
40
42
42
42
36
26
16
16
20
26
22
26
16
36
60
54
24
10
42
78
104
112
106
94
74
38
16
54
54
22
36
34
4
40
66
56
20
28
58
50
38
56
72
80
68
36
32
42
22
50
52
34
16
14
20
14
10
18
28
28
14
10
32
34
26
14
6
14
26
16
20
26
28
24
26
40
44
42
38
24
8
24
26
12
32
40
32
12
8
18
20
30
34
22
6
16
20
18
28
22
6
8
10
10
18
22
18
14
14
16
16
10
26
32
24
16
18
28
24
6
18
32
40
40
36
38
38
24
20
28
18
28
30
22
14
14
12
18
18
12
12
14
10
36
46
34
26
26
20
28
32
18
196
255
255
255
120
8
12
12
8
2
2
0
0
0
0
0
0
0
0
0
0
0
0
0
0
0
0
2
6
16
32
38
36
30
36
60
58
38
104
246
255
255
255
255
255
255
136
0
14
8
14
4
0
0
0
0
4
12
16
12
24
40
54
58
50
30
18
4
18
30
48
74
78
54
54
32
10
38
46
30
24
36
50
46
26
8
20
10
16
38
34
16
16
8
16
24
16
4
18
26
22
20
20
8
18
28
26
14
28
40
38
36
28
18
8
6
14
26
30
20
6
6
16
24
24
26
22
28
26
20
100
232
255
255
178
184
164
122
120
130
126
124
118
108
118
136
158
164
138
126
120
122
142
128
108
106
112
110
84
60
46
60
80
78
62
48
50
58
62
54
38
36
46
58
60
60
60
48
26
30
30
32
30
32
32
22
6
26
42
46
32
10
6
24
46
46
16
44
30
30
20
8
18
4
32
34
18
14
16
14
46
58
10
88
222
255
255
255
188
104
44
10
4
14
8
8
6
28
74
118
118
76
32
58
90
82
40
16
14
12
22
26
20
8
4
12
16
18
12
12
14
22
26
18
16
12
8
18
28
26
20
12
12
14
22
24
20
20
16
10
6
8
18
14
24
22
12
16
10
8
24
24
12
8
12
10
8
10
14
18
14
6
2
12
24
22
14
2
8
10
4
16
22
8
18
18
6
6
8
10
8
10
10
14
18
16
34
48
52
50
34
40
22
90
210
255
255
255
255
246
148
58
16
6
12
4
6
14
8
0
0
2
6
8
8
6
2
4
2
2
2
0
0
0
2
2
2
6
10
8
6
4
4
10
12
12
14
12
24
24
20
12
20
20
16
12
8
20
24
30
44
66
90
88
64
30
4
10
18
64
82
64
46
42
72
66
28
34
24
54
74
56
24
2
20
34
44
52
54
74
54
32
70
72
52
46
56
76
82
62
38
18
28
40
42
42
34
26
40
72
80
64
36
16
12
34
62
64
56
66
128
172
144
74
30
52
58
44
52
94
108
94
66
44
40
50
58
46
24
4
18
30
40
46
58
66
60
50
48
58
76
74
44
42
28
40
42
54
48
24
16
14
28
54
60
46
28
18
26
40
44
46
40
20
24
26
46
50
38
30
16
4
16
32
32
32
50
74
86
82
108
124
114
70
46
36
28
20
18
20
26
34
48
32
14
34
46
30
50
70
84
88
78
46
8
28
18
26
66
80
64
44
42
42
36
28
38
36
16
20
16
12
34
28
26
22
32
34
42
40
36
30
26
16
10
14
24
22
4
24
26
10
34
38
30
26
26
24
18
16
24
30
30
24
26
34
44
46
28
6
4
4
10
10
6
12
16
14
8
14
22
26
26
16
24
32
24
26
24
26
18
10
14
18
30
26
10
20
16
8
20
20
22
18
18
16
14
14
12
14
12
30
38
24
34
42
22
16
8
86
255
255
255
255
92
8
12
10
12
0
0
0
0
0
0
0
0
0
0
0
0
0
0
0
0
0
0
0
0
2
12
24
30
24
34
34
16
12
22
58
160
255
255
255
255
255
84
6
8
10
12
4
0
0
0
2
8
18
24
26
30
36
42
36
26
16
14
20
30
34
40
48
42
22
56
66
48
66
52
20
12
24
22
2
22
26
8
12
18
28
42
36
28
22
22
18
14
14
4
22
26
12
14
16
10
4
18
28
26
14
10
8
20
34
38
26
32
38
28
20
14
10
14
22
20
18
8
14
10
8
114
252
255
255
164
170
154
104
88
86
80
88
100
100
106
124
150
164
148
122
110
124
136
116
98
102
120
128
106
78
66
70
70
56
42
34
36
50
68
74
62
48
68
70
74
80
84
78
60
36
20
12
34
34
40
36
24
22
30
24
16
12
12
30
36
38
32
48
24
38
38
10
14
8
28
44
34
28
30
32
48
52
24
132
255
255
255
255
160
94
42
4
10
12
2
6
12
42
82
104
84
32
34
80
94
78
34
24
16
6
18
18
18
16
16
20
16
6
16
22
22
28
30
20
14
10
18
36
42
30
14
6
10
18
26
28
20
12
6
6
4
4
10
12
18
16
14
20
12
20
30
16
16
4
14
12
4
4
8
14
10
8
12
20
22
22
18
6
8
16
16
30
34
16
26
24
12
10
6
10
14
12
8
6
12
14
28
36
34
34
18
36
26
120
252
255
255
255
255
204
102
22
0
8
10
4
8
12
6
0
0
4
10
10
10
10
2
4
4
4
2
0
0
0
4
4
6
2
2
4
4
4
8
12
14
16
18
14
16
22
20
24
40
38
32
30
14
8
18
28
46
58
76
84
68
36
10
18
4
50
74
66
56
62
70
46
16
40
18
32
54
40
26
20
46
52
36
48
42
46
20
24
52
52
46
46
28
48
82
86
58
20
18
46
66
74
70
68
74
76
70
54
24
18
30
56
62
54
70
90
94
154
172
118
32
50
54
62
84
102
92
64
40
42
62
76
68
44
16
12
38
52
50
46
50
52
50
60
74
84
76
38
34
50
40
10
30
56
68
60
34
18
22
30
52
58
48
20
0
16
24
30
36
36
40
38
42
62
66
44
8
16
18
16
32
40
46
70
78
70
72
100
120
106
56
12
40
26
28
22
14
46
60
38
22
30
28
4
28
56
72
74
68
48
32
34
56
32
24
64
70
48
42
56
66
54
40
34
14
26
32
8
22
30
26
18
36
50
44
26
18
16
26
30
36
36
32
12
8
18
22
12
20
38
38
36
34
20
4
8
8
16
30
44
50
46
50
50
36
14
10
18
24
32
38
30
10
4
12
18
14
12
16
6
16
20
10
28
34
28
22
10
14
8
14
18
4
14
20
8
4
14
16
20
12
6
12
24
20
24
6
26
36
16
22
38
30
12
58
194
255
255
255
255
68
8
12
8
12
0
0
0
0
0
0
0
0
0
0
0
0
0
0
0
0
0
0
0
0
0
4
14
24
22
26
16
4
6
4
2
12
90
186
186
190
130
34
10
2
6
6
2
0
0
2
8
20
32
32
26
22
24
30
22
12
12
24
40
36
20
10
22
36
24
14
48
56
54
28
2
4
22
32
22
24
16
14
22
16
12
22
32
34
30
32
34
20
6
22
18
20
26
18
8
16
20
28
26
16
24
32
24
18
30
44
34
24
24
8
14
12
8
16
30
36
24
14
32
38
34
102
244
255
255
134
132
122
78
66
66
60
66
80
82
78
82
94
104
100
92
96
120
128
92
60
60
86
108
98
82
84
94
88
58
34
28
40
50
68
74
56
28
48
40
50
66
74
84
92
82
60
42
30
18
32
28
2
28
38
22
6
14
22
26
26
18
18
24
6
26
30
12
16
26
24
12
16
16
20
24
40
46
12
132
255
255
255
232
128
74
38
8
8
14
8
4
28
54
80
90
66
22
48
82
84
60
14
18
22
8
26
26
22
16
10
6
6
10
12
10
10
16
20
12
6
10
22
30
24
4
10
10
14
14
12
16
14
12
10
8
10
6
10
12
22
20
18
22
6
14
16
4
12
8
8
10
10
12
14
12
6
10
18
18
20
22
16
12
6
6
16
32
32
14
28
30
22
8
4
14
16
14
12
8
6
8
20
34
38
42
24
16
36
158
255
255
255
255
242
150
66
10
0
8
10
4
8
12
6
0
0
4
10
8
8
10
4
0
0
0
0
0
0
2
6
6
6
10
10
8
8
6
6
10
12
10
10
10
14
12
4
20
24
10
10
20
16
14
20
24
50
72
82
84
80
66
38
12
10
18
56
72
64
56
64
62
48
48
0
52
64
34
16
44
62
54
24
26
8
18
32
50
64
56
42
32
12
10
32
52
64
52
30
44
56
60
60
68
86
104
94
66
40
66
66
64
60
58
74
86
64
62
84
104
66
86
88
90
92
78
48
28
26
46
62
52
28
16
16
36
48
40
24
36
48
44
20
16
30
48
44
10
22
30
44
32
10
10
28
36
22
6
12
26
68
72
42
12
14
18
30
34
36
36
40
36
18
8
34
46
34
14
16
18
48
64
62
100
106
88
62
36
46
60
56
28
24
62
60
46
36
14
58
66
42
20
28
44
74
94
96
84
70
56
42
20
38
66
58
52
44
14
20
38
66
68
54
38
16
14
18
12
0
4
16
38
56
48
26
20
32
30
36
26
12
24
18
10
14
14
8
4
10
22
26
26
28
22
10
14
14
18
28
28
20
26
34
42
34
14
10
20
20
18
38
52
40
20
16
20
12
12
20
14
24
24
10
28
34
28
20
6
4
6
10
14
8
8
8
8
8
10
8
10
12
10
12
16
12
14
8
14
38
40
38
44
46
20
104
255
255
255
255
248
44
8
14
10
12
0
0
0
0
0
0
0
0
0
0
0
0
0
0
0
0
0
0
0
0
0
0
2
6
6
6
2
0
0
2
6
2
12
48
62
62
40
16
10
4
0
0
0
0
0
6
14
22
26
22
20
26
42
52
36
22
10
18
34
22
4
10
10
14
26
22
16
24
18
14
8
6
12
16
12
14
22
18
2
16
22
12
8
18
14
16
24
28
26
16
4
4
6
12
6
2
6
10
20
12
14
16
22
28
18
18
20
2
18
18
30
24
14
14
26
30
16
24
42
40
28
96
242
255
255
110
108
100
64
62
68
64
62
66
64
60
60
60
64
60
58
70
106
128
96
56
44
62
92
94
88
102
124
128
100
70
66
72
72
90
98
74
30
36
24
30
46
50
60
82
92
84
66
54
48
52
32
30
28
24
12
16
8
26
46
46
26
10
16
4
20
30
24
10
2
4
10
20
24
24
22
38
56
14
166
255
255
255
176
76
40
38
18
2
10
12
20
44
66
84
90
60
6
54
82
72
56
30
26
22
2
18
24
30
28
24
18
4
10
20
24
18
22
28
22
16
16
20
28
30
16
18
10
14
22
22
20
14
4
6
2
8
10
18
18
24
24
20
20
8
20
24
16
6
10
12
12
12
14
10
4
8
10
12
14
22
28
20
10
2
4
14
22
16
2
14
16
12
4
2
12
16
16
18
16
18
18
24
34
36
44
36
12
60
194
255
255
255
255
200
118
50
6
0
8
12
6
8
14
8
0
0
2
8
10
10
8
2
0
0
0
0
0
0
4
6
6
6
6
8
8
10
8
2
6
16
18
16
22
22
16
8
12
16
18
20
16
8
22
20
16
32
68
88
90
88
80
62
28
10
10
32
82
100
78
56
46
44
34
40
46
40
18
34
50
48
26
14
34
38
40
44
54
56
38
20
36
30
20
60
88
80
50
24
34
44
46
52
64
86
112
112
88
74
76
56
50
66
88
78
40
80
110
72
44
74
96
96
96
86
62
40
38
50
56
44
16
20
22
16
28
30
16
14
30
48
58
48
42
48
50
30
12
32
16
44
44
14
46
58
48
24
18
22
54
76
58
26
6
2
18
28
30
32
24
22
36
42
32
24
24
36
32
24
12
28
66
104
128
114
82
64
70
90
94
62
16
54
68
42
20
46
32
8
40
50
36
26
48
64
72
66
54
42
36
44
46
22
16
46
40
10
16
12
22
48
60
60
48
28
24
26
10
4
18
30
36
32
32
36
40
50
42
54
60
54
34
14
22
18
6
2
4
4
4
10
18
22
20
12
6
20
28
30
22
18
40
56
54
40
16
24
22
14
8
14
38
44
38
24
30
18
20
28
10
18
24
18
32
28
24
26
22
10
6
8
8
12
18
16
14
10
4
8
6
2
10
8
8
18
16
4
6
22
36
38
28
44
18
164
255
255
255
255
164
22
4
12
8
10
0
0
0
0
0
0
0
0
0
0
0
0
0
0
0
0
0
0
0
0
0
0
0
0
0
0
0
0
0
2
8
6
6
6
4
6
8
8
8
2
0
0
0
0
0
8
14
16
18
20
30
44
60
58
30
26
16
12
38
38
22
8
12
12
10
26
30
24
4
12
16
16
26
38
32
22
20
16
10
8
24
30
22
40
42
44
46
34
16
4
2
6
6
8
4
6
8
14
22
16
8
16
24
26
24
26
26
16
18
24
28
22
18
28
36
28
6
18
24
22
18
104
255
255
255
112
112
102
66
70
82
80
72
64
56
56
62
68
76
70
60
56
84
124
124
100
74
74
96
104
102
112
138
160
156
136
112
108
104
126
146
126
76
54
42
42
46
38
40
48
64
64
48
34
30
22
22
32
46
46
24
10
14
12
40
62
52
24
22
10
22
40
48
50
50
56
48
56
60
54
38
48
80
80
242
255
255
252
100
30
38
40
24
14
2
10
30
54
74
94
94
52
16
66
86
62
36
30
16
8
14
20
8
16
22
20
22
24
20
14
14
10
12
20
18
16
16
18
20
16
6
2
10
14
12
14
20
22
20
18
14
6
6
8
4
12
12
8
8
4
12
16
14
6
2
10
14
16
14
4
4
8
4
6
16
24
24
10
4
4
8
14
18
16
18
38
44
30
18
8
8
12
8
8
8
14
16
22
30
28
34
30
20
90
224
255
255
255
255
174
96
36
4
4
6
16
12
12
16
8
0
0
0
2
4
4
2
0
0
0
0
0
0
0
4
6
8
10
8
6
4
2
4
10
10
10
6
14
20
14
16
20
8
14
20
18
6
16
12
4
14
28
36
68
90
94
78
58
48
10
28
34
82
134
122
72
24
10
20
58
88
78
38
38
30
12
12
38
48
42
32
26
34
38
22
6
20
40
42
52
50
54
46
22
12
40
54
64
74
92
112
110
76
38
24
14
32
70
90
50
32
54
28
30
64
72
68
76
84
78
70
72
78
74
52
24
20
18
26
20
36
40
26
10
24
32
32
20
20
40
58
50
28
42
14
42
48
8
28
36
28
12
18
40
62
62
38
22
14
14
30
48
44
48
64
54
36
16
10
10
6
16
16
28
62
100
126
136
122
80
44
44
78
110
98
46
34
34
32
44
34
10
52
54
30
26
28
38
42
54
76
100
116
118
102
84
76
70
64
42
70
78
54
48
36
46
42
52
50
32
24
22
14
14
18
28
42
56
60
52
34
24
14
20
34
56
66
56
32
8
4
2
4
18
32
40
36
20
8
22
16
10
34
44
40
28
40
42
32
28
8
20
30
24
16
8
6
18
34
40
34
20
26
38
34
22
12
10
18
12
20
24
26
24
20
16
16
30
28
22
12
4
8
16
18
20
10
10
20
10
14
8
10
20
10
20
10
50
44
252
255
255
255
255
88
6
2
10
8
8
0
0
0
0
0
0
0
0
0
0
0
0
0
0
0
0
0
0
0
0
0
0
0
0
0
0
0
0
0
0
2
2
2
2
0
2
2
2
2
0
0
0
0
0
0
8
16
18
20
34
50
54
48
28
2
22
18
6
20
24
26
26
18
8
10
18
18
16
20
22
20
18
26
28
8
14
30
22
4
10
10
12
32
46
40
28
16
4
6
8
8
12
12
8
10
10
8
4
12
20
22
26
30
30
24
20
14
6
8
8
10
6
8
16
16
10
6
24
40
46
48
106
255
255
255
116
112
94
50
58
62
66
66
64
60
62
60
58
64
68
70
62
70
102
126
130
106
88
92
100
108
112
122
138
148
148
124
100
102
120
150
148
110
74
58
64
62
48
36
42
56
56
42
28
22
22
18
20
40
60
60
32
8
26
6
30
40
30
22
16
18
28
34
46
56
58
54
62
70
68
42
30
48
118
255
255
255
206
70
26
34
38
26
20
8
10
34
56
80
94
72
18
42
82
82
46
14
18
18
10
12
14
6
6
12
24
30
20
6
8
8
8
12
18
16
16
16
16
20
18
10
12
18
18
18
20
18
4
14
10
18
12
8
4
10
18
16
16
16
6
10
18
12
4
8
12
12
14
10
2
6
12
10
16
26
24
16
2
8
6
10
14
14
12
20
40
38
16
22
16
8
12
4
0
0
8
12
18
24
20
30
32
50
140
255
255
255
255
252
136
60
16
4
6
2
12
14
14
12
4
0
0
0
0
0
0
0
0
0
0
0
0
0
2
4
0
4
8
10
8
4
6
6
10
10
10
8
8
6
18
34
28
12
20
8
16
28
20
12
2
20
26
16
40
72
94
90
74
50
10
40
40
44
106
118
84
30
16
30
32
86
92
54
14
14
22
24
36
42
30
10
6
24
26
12
18
14
32
46
48
54
64
68
52
16
18
42
58
70
86
102
104
72
32
14
10
28
56
68
30
36
64
62
98
86
56
38
44
48
42
42
50
50
38
20
4
10
22
24
14
28
40
40
28
26
24
20
18
16
32
56
68
48
26
16
40
30
16
14
24
30
42
50
50
46
36
20
12
6
8
18
38
64
70
68
38
42
26
14
14
16
20
38
70
100
124
134
126
100
56
34
40
66
90
62
54
66
42
24
28
38
34
30
62
62
38
12
30
50
64
78
100
120
130
122
102
90
86
92
86
112
92
78
84
68
48
42
48
54
44
26
14
12
16
20
28
40
52
52
42
24
16
24
24
22
36
56
70
56
22
4
8
14
22
32
30
20
22
12
14
24
24
22
36
32
18
26
20
32
42
38
12
14
26
24
20
18
12
24
22
28
28
28
32
34
28
18
20
26
22
24
28
32
44
22
26
40
40
26
24
12
8
14
10
6
20
26
18
30
26
20
12
16
32
32
48
30
60
88
255
255
255
255
150
22
6
10
6
6
4
0
0
0
0
0
0
0
0
0
0
0
0
0
0
0
0
0
0
0
0
0
0
0
0
0
0
0
0
0
0
0
0
2
4
4
4
2
0
0
0
0
0
0
0
0
4
14
22
32
48
58
50
26
4
20
26
10
14
30
26
12
12
16
24
32
32
28
30
38
30
22
20
20
10
12
32
38
16
14
4
4
18
26
18
14
18
18
14
6
8
16
18
18
22
16
8
12
14
6
6
14
20
20
18
12
8
2
6
8
10
14
10
10
12
12
16
22
24
32
34
34
96
252
255
255
106
102
74
18
22
22
28
38
54
66
74
62
40
32
38
56
66
68
76
94
112
100
78
74
76
96
104
96
90
90
98
94
76
72
80
106
124
114
90
70
70
70
68
66
70
78
74
60
50
48
52
38
20
32
42
68
62
24
20
34
40
20
6
18
18
14
6
6
12
14
12
16
28
44
54
42
30
22
126
255
255
255
188
76
26
30
26
22
22
12
8
36
64
92
82
30
32
74
82
60
26
8
4
12
22
28
28
14
10
20
20
30
28
18
8
6
16
22
18
12
16
18
18
18
14
10
12
12
14
22
32
32
30
32
14
10
12
8
4
10
14
12
6
12
12
22
24
8
8
10
22
26
18
8
4
14
22
22
26
26
18
12
6
14
12
12
12
10
10
18
38
36
24
38
28
14
16
8
2
2
10
12
18
22
10
28
48
88
218
255
255
255
255
208
86
22
4
4
4
4
2
4
4
2
0
0
0
0
0
0
0
0
0
0
0
0
0
2
8
10
10
6
2
8
8
4
6
6
8
4
2
10
20
20
32
34
20
12
26
20
28
30
16
20
14
12
28
32
32
46
76
100
106
76
8
42
44
34
88
100
72
42
24
34
6
38
62
46
26
24
24
10
18
28
20
12
22
36
50
22
18
36
50
50
28
32
42
56
56
38
14
10
24
40
58
76
88
74
48
24
10
32
72
96
82
28
30
80
92
62
32
14
8
36
54
68
80
80
74
58
36
20
14
16
18
14
18
40
50
46
42
46
46
40
38
48
68
80
56
50
44
10
30
62
90
104
90
62
32
14
16
18
26
32
34
48
54
76
66
58
30
52
52
44
32
36
40
48
66
76
84
92
94
86
56
24
40
94
114
70
26
54
46
40
62
66
46
18
16
34
36
24
20
20
22
18
20
30
46
58
62
68
70
68
54
60
32
54
82
84
66
54
52
60
62
52
32
16
12
18
18
10
26
42
26
14
44
54
62
42
34
20
44
52
30
12
20
24
42
42
30
16
20
14
18
34
26
4
26
20
6
12
10
18
32
48
42
16
12
26
28
26
26
22
12
8
14
26
26
20
18
16
18
28
26
24
30
40
46
10
32
46
26
14
24
24
18
8
16
40
52
46
20
24
18
18
26
28
38
36
38
30
50
136
255
255
255
255
46
12
6
18
2
0
0
0
0
0
0
0
0
0
0
0
0
0
0
0
0
0
0
0
0
0
0
0
0
0
0
0
0
0
0
0
0
0
0
0
0
0
0
0
0
0
0
0
0
0
0
2
6
16
30
40
44
44
32
6
12
14
12
14
30
36
32
26
34
48
56
48
32
28
34
40
28
20
18
8
4
12
24
26
12
26
28
28
24
4
24
34
40
28
16
10
6
18
18
2
18
28
18
4
10
16
28
34
36
26
16
6
2
8
10
12
16
24
24
20
20
24
30
28
16
10
10
14
96
255
255
255
100
106
82
24
20
22
24
34
38
50
68
76
64
50
42
46
58
64
58
60
72
66
50
52
48
70
84
78
70
66
74
80
72
70
70
78
94
102
88
64
52
50
60
76
92
100
88
68
62
74
92
76
36
28
20
48
60
46
24
22
16
16
26
20
16
18
28
28
42
50
42
34
34
42
64
66
34
50
176
255
255
255
170
70
24
26
22
14
18
16
12
44
90
116
80
8
52
72
60
44
30
22
14
14
6
22
30
28
22
14
10
22
28
28
24
14
22
22
14
10
16
22
20
18
18
18
14
8
12
22
30
28
32
40
32
10
12
8
8
8
18
20
14
6
10
16
10
6
16
10
16
26
22
12
12
26
30
24
16
8
10
12
12
16
14
10
12
16
16
16
34
38
28
36
20
16
18
14
10
8
10
12
24
26
4
14
52
140
255
255
255
255
255
158
44
2
4
4
4
4
0
0
0
0
0
0
0
0
0
0
0
0
0
0
0
0
0
4
10
8
10
8
6
14
12
8
4
4
10
10
12
24
30
34
30
22
8
8
12
10
14
20
16
8
12
22
30
42
44
40
54
86
114
102
38
26
34
48
94
92
54
34
12
20
34
58
64
60
52
28
30
14
18
38
32
28
28
36
54
42
28
18
20
20
18
20
28
46
58
56
38
16
20
34
48
60
66
56
40
28
18
18
46
68
78
70
48
38
30
16
22
32
32
42
44
50
70
84
88
74
52
32
14
4
2
12
20
46
64
62
50
38
32
28
18
28
24
58
76
50
16
38
60
76
84
72
38
20
14
2
24
40
44
42
38
52
76
78
48
30
42
56
50
40
34
40
44
44
48
52
84
104
92
56
30
18
54
124
188
174
102
38
52
86
96
58
26
10
18
12
24
30
20
4
30
64
90
94
82
54
24
12
24
24
6
20
8
42
72
76
62
50
46
54
66
80
74
58
48
38
30
22
36
34
4
38
46
26
42
30
8
24
46
40
38
24
20
14
36
50
50
40
20
4
20
24
16
24
44
28
24
20
10
14
18
34
44
34
16
10
22
24
22
22
18
16
6
14
26
22
18
18
14
18
14
16
26
44
52
22
40
38
24
20
26
20
8
16
40
46
38
16
10
14
6
24
32
20
22
22
42
70
90
200
255
255
255
194
6
16
4
18
4
0
0
0
0
0
0
0
0
0
0
0
0
0
0
0
0
0
0
0
0
0
0
0
0
0
0
0
0
0
0
0
0
0
0
0
0
0
0
0
0
0
0
0
0
0
0
4
10
18
26
28
42
54
50
24
18
8
8
18
24
22
22
24
36
46
42
30
22
32
42
40
20
14
10
6
2
10
30
36
16
20
28
28
24
20
42
32
46
38
20
6
10
10
20
22
12
12
18
12
6
24
34
38
36
24
16
12
8
8
6
2
10
16
14
10
8
12
18
14
10
26
30
24
108
255
255
255
98
106
94
44
36
38
40
32
20
18
32
64
88
88
70
50
46
54
50
46
48
38
24
36
32
50
62
64
66
68
80
88
86
88
86
82
84
94
88
62
38
24
32
58
88
106
90
60
60
74
108
102
60
28
16
28
44
50
48
34
54
60
38
24
28
34
30
26
26
46
52
38
30
38
62
60
6
118
252
255
255
250
128
48
22
24
22
20
10
16
40
78
126
138
84
46
62
54
44
48
52
44
28
36
24
6
14
18
28
22
14
14
14
20
30
34
24
10
14
16
20
20
18
20
24
22
20
14
12
18
26
18
8
22
26
20
6
10
12
6
4
12
16
18
22
20
14
18
18
4
10
16
18
14
22
30
24
10
2
6
14
22
16
16
12
10
18
20
10
6
10
12
6
10
6
6
14
18
22
24
22
20
32
30
12
14
78
194
255
255
255
255
242
100
14
4
2
6
6
4
0
0
0
0
0
0
0
0
0
0
0
0
0
0
0
0
0
4
10
10
12
8
8
16
12
10
8
6
6
16
30
36
34
24
24
12
4
16
20
14
18
22
24
32
46
42
22
30
46
48
46
64
94
100
58
26
20
34
76
84
64
34
28
46
60
68
74
70
52
20
36
28
2
28
32
30
22
34
50
48
48
58
60
50
30
18
24
30
48
62
54
26
20
54
76
80
74
64
54
44
26
14
24
40
38
50
74
94
92
62
62
56
50
42
30
28
28
30
40
52
46
32
30
30
38
50
48
50
62
58
38
44
44
30
14
24
44
68
46
70
62
70
54
32
36
50
50
48
20
20
54
60
40
22
18
36
56
54
38
30
28
20
16
16
20
28
32
36
38
22
60
114
146
120
42
68
114
108
180
210
176
76
54
94
72
30
38
20
20
4
22
32
24
8
46
88
108
94
66
56
38
34
44
42
24
24
22
46
72
66
44
30
28
34
48
82
100
100
96
84
74
62
64
68
50
42
14
38
56
52
40
38
28
26
44
40
18
2
8
26
38
36
26
18
18
20
16
30
36
18
24
26
14
16
8
14
30
26
24
18
30
24
12
10
14
16
10
2
16
26
28
30
24
26
38
32
26
30
48
32
28
28
30
12
18
32
26
34
38
18
16
26
30
12
12
28
20
8
6
12
64
116
148
252
255
255
255
154
0
14
6
16
4
0
0
0
0
0
0
0
0
0
0
0
0
0
0
0
0
0
0
0
0
0
0
0
0
0
0
0
0
0
0
0
0
0
0
0
0
0
0
0
0
0
0
0
0
0
0
4
8
12
20
30
44
60
62
44
22
10
8
10
14
22
32
34
30
24
22
24
24
48
54
36
22
24
28
16
14
0
24
38
34
22
10
4
16
28
28
4
32
40
18
10
12
6
20
28
32
16
10
8
12
24
22
18
14
10
12
18
20
10
12
26
30
46
44
28
24
32
42
42
24
22
10
10
106
255
255
255
92
88
72
28
34
38
36
38
28
14
24
38
60
78
66
44
34
44
54
56
58
46
34
34
32
48
56
56
56
56
66
74
76
82
84
84
84
96
106
92
70
44
48
44
72
98
86
48
40
34
72
86
62
36
20
24
42
56
62
48
48
28
12
32
30
18
28
34
24
2
18
20
12
22
52
56
14
150
255
255
255
200
88
42
34
44
40
18
14
40
64
102
136
122
58
48
76
58
54
62
64
44
28
34
26
8
22
16
16
22
20
18
14
16
26
38
40
22
10
16
14
14
20
20
16
6
12
12
4
14
28
32
18
18
10
14
6
8
12
10
4
2
6
12
20
22
16
16
12
4
8
14
14
14
22
20
10
2
4
18
32
32
16
20
18
18
20
12
2
10
14
10
4
6
6
4
10
14
18
24
28
26
28
28
12
18
104
246
255
255
255
255
168
44
6
2
6
4
4
2
0
0
0
0
0
2
4
4
4
2
0
0
0
0
0
0
0
2
6
8
8
4
8
16
10
6
10
6
10
20
24
20
12
8
16
12
10
10
10
2
10
6
10
32
36
16
16
24
36
56
58
60
72
74
50
30
44
56
94
96
78
48
38
42
48
60
70
60
36
10
30
34
20
4
20
22
16
30
44
42
32
36
48
56
48
34
32
20
8
34
48
30
32
76
78
46
38
64
62
38
18
20
32
40
28
16
30
56
66
40
22
10
28
56
58
46
46
52
56
58
56
48
36
28
28
30
22
22
36
48
68
66
46
24
22
44
62
48
6
34
48
40
18
10
30
42
44
36
30
40
52
40
12
4
22
38
44
30
16
24
32
32
26
28
32
34
28
22
34
36
38
54
88
100
32
58
90
48
58
96
102
74
50
84
66
34
48
10
22
16
28
38
30
2
46
82
84
54
36
38
10
20
28
16
18
30
18
30
56
56
34
14
16
40
64
62
78
76
76
72
76
72
68
72
68
48
24
40
38
28
22
20
8
20
20
38
30
6
18
12
26
28
28
14
12
20
12
20
22
8
12
16
4
4
10
30
34
16
16
34
36
30
32
38
32
16
4
6
2
12
18
28
34
38
38
24
18
22
26
18
14
30
36
24
10
26
26
22
20
8
6
8
6
12
22
22
12
12
26
32
40
84
130
255
255
255
255
126
2
14
8
14
4
0
0
0
0
0
0
0
0
0
0
0
0
0
0
0
0
0
0
0
0
0
0
0
0
0
0
0
0
0
0
0
0
0
0
0
0
0
0
0
0
0
0
0
0
0
0
4
10
14
18
20
26
38
40
30
20
16
18
18
12
12
18
26
32
30
30
36
50
72
56
42
42
34
28
12
20
10
12
28
36
38
34
24
24
20
36
26
46
38
10
12
8
24
32
20
32
22
8
18
24
26
14
12
16
12
8
16
28
18
12
22
6
22
30
18
8
8
16
24
16
8
18
24
98
255
255
255
82
78
58
6
20
16
16
32
38
26
30
20
14
34
34
26
22
32
56
70
78
68
44
34
38
50
56
52
44
40
46
52
54
60
66
72
76
92
116
122
114
88
58
44
62
92
90
56
24
14
36
56
60
52
36
34
48
60
62
40
12
36
48
40
12
18
32
48
48
36
16
8
2
12
50
66
26
162
255
255
254
138
46
34
34
54
62
40
30
50
76
108
116
78
18
48
76
72
66
62
48
16
20
34
24
6
18
8
4
12
22
24
22
18
18
26
36
32
22
10
6
12
18
22
22
14
16
12
6
10
18
24
20
18
14
14
8
6
12
10
2
4
4
4
4
10
8
8
6
8
12
16
12
12
14
8
4
8
24
38
36
24
6
14
14
14
10
2
4
8
10
4
4
10
16
12
8
2
12
20
26
28
32
32
4
20
132
255
255
255
255
255
92
8
8
0
8
0
0
0
0
0
0
0
0
4
6
4
6
4
0
0
0
0
0
0
0
0
0
0
2
4
4
14
20
10
4
6
8
14
28
34
32
32
30
16
6
8
20
20
28
24
30
38
26
32
40
26
14
46
66
70
74
62
26
34
50
50
86
86
80
66
52
50
44
48
56
38
16
12
16
26
34
24
8
12
16
28
40
40
22
38
42
28
42
54
42
36
30
38
42
14
44
80
50
14
46
94
112
86
40
18
34
52
50
24
28
62
72
56
52
68
76
64
40
24
32
46
54
58
54
38
20
22
26
30
28
36
54
66
64
42
18
2
10
28
26
2
22
22
6
12
18
12
8
22
46
54
50
42
36
28
6
8
18
40
44
24
24
34
30
14
18
26
38
50
56
50
52
74
92
116
144
136
76
86
146
154
226
228
158
52
38
62
66
46
40
2
28
16
26
34
36
32
58
114
146
142
122
104
94
72
50
42
52
26
20
54
58
44
40
18
36
70
78
46
50
36
32
30
44
54
54
56
62
70
66
56
50
48
52
46
18
12
10
26
24
12
28
14
34
50
38
14
4
14
10
14
16
6
24
32
22
20
14
22
22
14
22
30
30
32
42
38
18
18
16
14
18
18
8
22
36
38
32
14
18
38
56
52
34
36
36
30
14
6
12
4
14
14
24
32
36
28
16
12
20
54
82
74
34
130
232
255
255
255
255
82
0
10
8
12
4
0
0
0
0
0
0
0
0
0
0
0
0
0
0
0
0
0
0
0
0
0
0
0
0
0
0
0
0
0
0
0
0
0
0
0
0
0
0
0
0
0
0
0
0
0
0
2
8
12
14
14
26
44
46
30
10
2
14
18
22
34
38
32
18
12
20
38
66
64
22
26
40
38
20
2
18
18
12
16
28
40
44
40
24
4
22
26
34
20
6
4
18
34
30
10
26
20
8
32
34
22
6
8
18
24
16
2
22
24
14
44
46
52
46
36
36
40
42
40
34
30
22
16
106
255
255
255
78
94
60
14
20
2
4
18
34
32
24
10
12
24
28
28
24
20
36
52
68
70
56
48
44
44
42
38
36
42
54
60
56
52
56
62
60
68
90
110
120
104
74
58
72
106
120
106
86
74
74
76
82
86
70
54
50
52
50
48
46
40
32
26
18
22
12
30
38
34
26
20
18
18
60
74
28
202
255
255
210
68
52
56
48
56
62
40
26
52
86
102
84
40
10
50
70
68
58
44
28
14
36
40
22
14
18
8
10
10
12
16
18
16
18
18
24
30
32
26
14
8
10
18
18
14
14
10
8
6
6
6
4
10
12
12
6
8
10
6
4
6
4
4
6
10
8
8
4
4
8
10
4
10
12
6
8
18
30
30
18
6
6
8
2
2
2
0
4
8
12
12
14
20
16
6
8
16
22
20
22
20
28
38
12
34
168
255
255
255
255
176
38
4
8
0
8
0
0
0
0
0
0
0
0
4
4
0
4
4
0
0
0
0
0
0
0
0
0
2
8
12
10
6
6
8
4
4
2
6
18
24
24
16
8
8
10
10
6
14
22
20
30
46
40
50
48
28
24
22
48
76
90
72
26
22
24
24
64
82
90
86
72
68
68
62
40
8
18
24
6
12
34
44
34
14
8
26
38
46
40
42
34
22
28
48
52
32
30
40
42
14
42
64
30
16
16
48
106
120
94
50
6
34
60
60
48
60
72
74
82
82
58
28
14
38
36
40
32
28
26
24
18
20
26
28
20
18
32
42
56
56
42
28
24
32
32
14
26
20
4
10
22
22
42
70
86
74
52
40
42
36
16
18
22
40
40
18
12
30
30
18
10
10
20
36
48
60
84
86
76
76
94
98
66
50
88
164
212
178
130
108
82
78
84
70
48
38
32
20
48
66
72
72
56
80
88
82
82
100
122
120
98
82
70
68
60
42
32
42
50
38
74
84
62
38
60
62
54
42
36
36
44
58
74
92
88
74
74
78
84
80
50
20
10
22
18
6
16
22
48
46
20
12
14
12
16
20
12
14
32
34
22
26
14
16
16
10
20
18
14
10
12
14
22
30
28
20
22
30
24
42
50
50
42
28
28
40
46
28
16
24
34
28
14
4
10
2
14
26
20
22
18
28
14
14
40
90
104
108
114
54
255
255
255
255
158
24
6
2
6
8
2
0
0
0
0
0
0
0
0
0
0
0
0
0
0
0
0
0
0
0
0
0
0
0
0
0
0
0
0
0
0
0
0
0
0
0
0
0
0
0
0
0
0
0
0
0
0
2
8
12
14
20
32
46
44
26
16
14
22
34
38
38
30
20
14
14
26
36
64
78
58
56
54
44
28
10
16
14
8
16
32
38
50
54
46
20
12
18
22
16
8
6
26
38
26
12
34
18
16
34
22
4
10
8
12
24
28
24
40
40
26
24
28
28
30
34
40
44
42
36
28
18
8
4
112
255
255
255
80
108
78
30
28
14
10
12
20
26
26
26
28
34
38
42
38
20
14
16
30
42
44
46
42
36
26
18
20
36
58
70
66
54
50
54
48
44
52
72
94
92
74
64
80
114
136
142
142
138
134
118
104
104
92
72
54
46
76
62
24
20
28
26
40
54
52
72
86
76
54
48
42
30
68
62
62
255
255
255
162
24
42
66
60
54
52
28
20
54
86
82
54
18
18
42
58
60
60
54
36
26
36
34
14
16
20
12
10
6
4
10
20
26
24
20
14
18
28
30
28
22
14
14
8
4
4
6
14
16
16
16
14
12
6
4
6
10
12
10
6
2
0
2
8
14
12
14
14
6
16
20
8
12
14
8
10
14
16
16
8
6
12
14
10
12
6
4
8
10
10
12
16
16
2
16
24
22
18
12
22
24
28
44
26
58
208
255
255
255
255
90
8
8
4
2
8
0
0
0
0
0
0
0
0
4
6
4
6
4
0
0
0
0
0
0
0
0
0
4
12
16
14
22
16
10
0
8
4
4
8
6
10
14
14
10
10
20
24
18
18
12
6
22
36
42
36
30
38
32
40
62
98
100
56
4
30
38
48
64
84
94
84
76
78
76
56
28
34
26
12
8
14
36
44
32
12
18
32
42
50
50
38
14
30
38
52
58
38
32
28
28
56
68
34
20
50
30
30
80
98
80
46
8
26
52
84
94
70
62
62
36
30
24
6
36
48
28
22
32
44
40
18
6
10
26
32
30
52
64
68
64
52
46
46
46
36
22
42
42
28
32
34
32
54
72
72
48
44
34
52
50
26
32
26
34
34
32
40
50
66
46
14
4
12
38
70
90
90
60
28
34
62
78
52
30
48
86
98
58
78
112
102
86
90
90
78
68
54
52
76
88
92
82
42
52
36
26
12
22
76
112
116
104
96
102
118
118
90
68
64
90
104
76
42
32
64
90
98
88
64
36
32
46
76
104
96
62
56
70
84
84
64
44
36
32
18
14
26
36
38
34
32
28
22
16
20
16
12
20
26
20
6
10
8
10
12
6
12
6
12
22
32
34
34
32
26
18
14
26
34
48
58
62
56
40
30
24
32
32
44
48
40
26
12
6
12
12
6
30
46
38
18
14
12
26
60
108
116
124
226
182
255
255
255
220
34
12
12
8
2
2
0
0
0
0
0
0
0
0
0
0
0
0
0
0
0
0
0
0
0
0
0
0
0
0
0
0
0
0
0
0
0
0
0
0
0
0
0
0
0
0
0
0
0
0
0
0
0
4
10
12
12
16
30
40
36
14
8
16
38
44
34
20
16
12
16
22
22
22
56
80
84
62
50
48
36
14
22
22
22
22
30
28
30
44
48
32
16
12
24
22
30
16
24
54
44
10
28
18
20
30
24
20
16
8
6
8
20
40
44
32
12
6
12
12
16
18
24
24
16
12
14
8
6
4
108
255
255
255
82
106
76
38
36
34
24
14
10
12
18
22
26
30
32
42
48
34
18
6
6
12
18
24
28
34
30
18
18
18
36
52
58
54
48
54
52
44
40
50
72
80
72
66
72
90
108
116
128
134
134
114
86
82
82
76
62
72
64
38
28
32
48
52
60
48
52
54
56
34
24
32
42
42
58
32
130
255
255
255
120
32
16
28
38
42
44
30
28
60
80
68
42
8
24
46
64
64
48
36
24
26
34
28
10
14
14
4
4
4
6
14
22
26
22
16
8
8
20
24
28
28
18
14
8
4
2
14
26
22
14
8
10
16
10
8
12
16
8
2
6
8
8
8
14
18
16
18
26
22
26
14
12
28
20
10
6
6
16
16
8
4
8
10
4
12
10
6
8
10
8
6
4
4
16
22
18
10
8
10
26
28
30
50
48
102
255
255
255
255
196
36
4
10
2
4
6
0
0
0
0
0
0
0
0
2
4
4
4
2
0
0
0
2
4
4
2
0
0
4
12
14
8
10
18
12
10
8
10
18
22
20
20
16
4
12
14
8
22
28
32
30
18
30
38
28
18
10
6
4
16
42
74
96
82
54
26
14
30
30
40
62
74
82
92
94
74
44
36
26
28
28
20
24
30
26
18
20
46
52
36
30
42
40
26
24
34
52
56
36
12
26
42
62
56
26
18
42
48
60
70
56
32
36
54
44
44
72
88
66
40
14
22
16
32
60
52
12
22
38
54
50
22
22
36
50
44
30
46
54
60
64
60
58
64
68
56
36
46
34
24
32
36
20
32
40
34
16
22
18
22
22
12
4
14
22
28
42
34
4
36
50
28
30
48
68
78
76
70
52
44
54
76
76
42
40
52
78
78
32
32
70
60
44
56
72
74
68
52
56
66
72
72
54
30
70
80
52
34
44
54
70
94
104
98
92
106
130
124
102
102
128
110
88
68
46
42
56
78
96
94
60
28
42
44
86
94
56
34
44
62
64
50
38
40
48
40
20
14
18
10
22
32
28
22
12
4
4
12
22
26
20
22
48
46
44
32
6
16
8
6
10
12
14
10
10
10
10
12
16
24
34
46
52
48
36
24
14
8
22
36
34
30
26
18
8
8
12
18
26
24
20
20
6
16
40
78
134
176
174
255
255
255
255
255
98
6
10
6
10
0
0
0
0
0
2
4
4
4
4
4
4
4
2
0
0
0
0
0
0
0
0
0
0
0
0
0
0
0
0
0
0
0
0
0
0
0
0
0
0
0
0
0
0
0
0
0
0
0
4
8
10
14
18
26
34
36
26
10
12
26
24
10
8
16
20
18
12
4
8
18
26
40
48
38
42
26
10
24
30
22
16
24
30
40
46
38
26
20
22
26
14
30
40
12
28
38
12
22
28
18
16
24
18
12
14
14
10
26
30
18
6
8
12
8
8
20
22
22
16
12
14
20
14
4
0
98
255
255
255
74
92
56
30
28
36
30
18
6
2
8
10
12
16
14
24
42
46
36
18
8
10
22
30
22
26
36
32
20
8
14
26
38
48
46
52
50
42
36
38
52
58
56
50
46
50
64
70
82
94
102
86
52
38
44
62
70
64
62
52
40
34
50
64
44
16
14
4
28
36
24
20
48
50
34
46
202
255
255
252
86
48
48
66
70
50
22
24
26
54
68
62
40
4
28
54
72
68
52
28
4
18
22
14
6
14
18
4
4
6
6
18
24
24
18
10
4
2
10
12
14
22
22
20
12
10
6
18
26
16
4
10
14
10
6
16
20
22
14
12
4
8
10
8
12
16
16
16
20
24
14
10
30
34
18
12
8
2
14
16
8
4
10
16
10
12
12
4
2
4
6
4
10
20
22
14
6
12
10
12
28
28
26
48
70
156
255
255
255
255
130
6
8
10
6
2
2
0
0
0
0
0
0
0
0
0
0
0
0
0
0
0
2
8
10
10
8
2
0
2
10
18
24
14
8
16
14
6
22
28
26
18
12
2
12
16
10
8
6
18
30
36
36
30
20
8
24
32
22
20
22
28
42
64
72
78
74
60
48
42
40
32
52
82
102
108
84
46
22
20
28
30
30
32
36
24
12
36
56
52
34
18
24
44
46
40
30
36
52
50
32
36
38
42
54
54
38
38
82
112
112
68
28
58
70
62
62
72
66
74
62
40
18
26
46
54
30
12
26
24
48
50
40
38
42
42
18
10
24
30
32
38
44
48
56
66
60
36
26
12
8
12
24
12
22
52
62
46
20
14
18
32
38
32
20
16
18
38
56
58
42
32
38
50
58
56
46
42
70
64
74
96
98
66
20
40
56
76
76
34
24
56
38
10
12
38
44
34
18
30
38
46
42
24
14
52
100
114
78
40
46
56
44
78
82
70
70
92
100
88
106
110
78
92
88
66
40
28
42
74
102
92
42
34
14
48
66
42
20
26
46
48
34
26
34
52
58
52
42
26
14
16
20
24
24
20
10
6
8
20
30
20
42
66
50
62
54
18
20
14
10
20
26
20
10
10
12
14
14
12
14
18
30
38
34
22
14
14
12
12
14
16
24
28
18
14
8
16
46
56
42
20
10
28
38
54
96
166
252
255
255
255
255
255
244
34
6
14
10
10
0
0
0
0
0
2
2
0
0
0
0
0
2
2
0
0
0
0
0
0
0
0
0
0
0
0
0
0
0
0
0
0
0
0
0
0
0
0
0
0
0
0
0
0
0
0
0
0
0
4
8
10
20
26
30
32
24
22
18
20
30
28
16
12
14
20
20
14
16
12
8
22
18
6
26
20
6
14
12
28
38
38
46
66
70
54
32
16
16
24
28
16
10
34
30
30
22
18
8
22
26
14
2
8
12
18
8
14
26
12
6
14
12
6
24
30
30
26
22
8
10
20
18
6
4
4
106
255
255
255
66
90
56
30
22
12
16
20
12
2
6
8
8
18
14
4
24
50
56
40
20
12
20
26
18
20
30
38
36
20
16
22
34
48
48
48
40
30
28
30
36
32
30
24
18
24
36
46
62
78
92
82
50
46
50
64
68
72
66
52
40
30
48
66
68
56
32
18
16
22
26
60
78
56
74
122
255
255
255
192
60
16
14
60
58
38
18
12
14
46
62
64
42
12
36
64
74
62
42
18
4
14
18
14
10
16
16
10
14
8
6
24
30
26
16
8
6
8
22
26
22
22
24
20
12
10
8
12
24
16
10
14
10
4
8
12
14
12
12
14
10
10
6
4
8
16
14
8
4
8
12
20
22
22
8
6
10
8
22
22
14
12
16
18
10
8
10
4
2
4
8
8
14
18
14
10
10
10
8
14
28
26
14
46
86
220
255
255
255
255
76
8
10
8
8
0
0
4
12
14
14
10
4
2
4
4
2
0
0
0
2
6
12
18
14
14
14
8
2
2
2
6
16
16
4
20
28
24
26
16
16
8
10
10
6
4
6
10
10
6
16
32
46
54
44
32
36
18
12
30
38
40
32
32
38
50
60
66
68
48
32
28
46
82
112
124
90
34
4
4
8
10
6
8
14
12
2
24
40
40
26
10
16
34
48
60
56
48
52
50
32
2
30
44
38
38
50
58
74
82
66
64
82
76
42
18
24
34
48
66
62
50
38
34
32
28
18
22
12
22
52
56
44
32
22
16
22
32
26
18
18
18
20
20
18
34
38
32
18
6
4
4
16
16
10
32
64
78
66
36
10
8
16
14
26
26
16
10
28
44
48
20
32
56
46
24
18
28
72
116
132
94
44
28
40
64
68
86
76
30
50
72
42
22
14
46
58
38
16
20
36
48
36
14
22
16
16
54
56
14
44
48
22
44
62
62
64
68
58
30
50
50
34
50
52
54
60
60
60
70
96
110
82
48
30
42
52
28
16
26
46
56
46
36
38
48
56
56
56
48
32
14
12
10
18
34
46
40
26
14
18
8
34
30
12
46
46
26
20
26
26
26
28
28
16
20
22
16
6
12
20
22
38
42
26
14
20
22
20
16
12
18
26
24
10
18
12
34
56
42
44
38
18
50
54
68
120
202
255
255
255
255
255
236
76
4
4
6
2
8
4
2
0
0
0
2
4
4
4
4
4
4
4
2
0
2
4
4
4
4
4
4
4
4
4
2
0
0
0
0
0
0
0
0
0
0
0
0
0
0
0
0
0
0
0
0
0
0
0
2
4
2
14
32
38
36
24
18
8
12
24
26
18
20
28
32
24
10
24
24
36
22
6
20
12
12
26
20
8
12
22
32
48
54
42
44
38
16
20
20
22
16
8
12
6
4
16
20
18
18
28
36
26
20
16
14
20
28
26
8
6
6
6
30
36
24
18
14
14
8
6
8
6
4
10
16
104
255
255
255
64
100
68
34
38
16
8
14
16
6
6
12
14
22
12
14
14
34
58
58
44
36
38
42
30
18
16
28
38
34
28
22
26
38
48
52
40
24
20
22
26
16
8
10
4
8
12
26
50
74
92
86
64
48
36
44
66
74
66
50
46
54
44
38
50
60
52
30
16
22
44
62
70
36
92
206
255
255
255
122
70
28
26
42
36
24
16
20
22
56
72
74
38
14
58
74
68
52
30
10
2
10
16
18
14
8
10
16
12
8
14
28
28
22
12
8
10
16
32
34
24
16
20
22
14
8
10
6
22
22
8
8
6
2
10
12
10
4
10
8
6
10
14
12
10
16
20
20
22
26
22
16
16
26
20
6
4
14
22
18
12
10
14
20
14
8
8
4
4
6
8
10
12
14
10
18
24
24
14
10
32
24
6
50
118
255
255
255
255
226
40
6
10
6
8
0
0
10
24
20
22
18
8
4
6
6
4
0
0
0
4
10
16
18
8
12
12
10
2
4
6
14
18
18
12
16
24
28
18
4
20
20
10
8
2
4
8
16
22
16
16
20
24
38
42
34
20
10
42
50
38
26
16
22
18
22
36
56
76
72
60
46
40
60
98
128
108
50
6
4
20
26
16
20
22
20
16
34
52
54
44
22
12
18
30
52
64
60
56
52
38
40
44
70
52
34
48
80
96
78
40
12
64
98
98
72
40
22
26
40
46
44
38
38
42
40
34
16
20
50
60
48
32
34
24
20
36
28
14
16
34
48
44
30
18
16
18
20
20
8
10
20
22
14
16
26
32
60
76
60
28
40
30
16
16
38
26
2
16
6
28
22
14
56
76
66
34
12
32
92
160
170
124
88
74
92
92
84
64
24
48
44
20
26
18
46
46
22
12
34
52
48
26
8
12
34
24
50
56
16
34
50
26
12
30
40
58
64
48
18
38
34
28
56
34
28
78
84
88
78
82
98
96
84
66
56
48
22
10
26
50
58
42
30
32
36
40
38
40
46
40
20
2
6
18
28
38
52
46
24
12
8
18
36
50
58
34
20
22
22
16
8
8
20
28
28
18
8
6
8
24
38
46
42
16
18
34
26
16
12
14
24
26
16
6
12
8
36
40
12
22
26
14
50
62
94
146
188
226
255
255
255
140
40
2
6
6
4
2
4
2
2
0
2
4
4
4
6
6
6
4
4
4
2
0
2
2
0
0
0
0
0
0
0
2
2
0
0
0
0
0
0
0
0
0
0
0
0
0
0
0
0
0
0
0
0
0
0
0
0
4
4
6
26
44
52
42
18
6
6
14
16
14
22
38
48
34
6
18
10
38
44
22
22
10
24
24
4
14
22
24
24
22
12
8
12
20
16
18
20
20
14
6
20
20
18
24
28
28
22
4
14
20
14
8
26
32
30
18
4
2
6
20
36
26
8
4
4
12
8
10
16
20
10
22
22
104
255
255
255
74
94
58
16
22
4
6
12
6
6
6
12
22
28
22
20
14
10
38
58
58
54
52
46
30
10
4
8
24
34
36
20
8
10
28
50
50
34
24
22
24
22
22
20
14
22
28
30
38
64
90
88
72
56
50
60
68
72
68
58
64
56
40
24
12
18
36
38
38
46
58
86
100
42
126
255
255
255
186
58
60
38
30
46
40
22
6
6
20
66
96
76
18
46
82
76
56
44
30
16
8
8
12
10
8
2
4
6
4
10
20
30
28
24
18
12
14
26
38
32
14
10
20
32
22
14
18
8
10
18
10
2
6
2
8
14
12
2
12
10
6
4
6
8
8
6
12
18
18
16
12
12
14
14
12
10
8
10
12
12
14
12
8
10
16
16
6
4
14
16
16
12
6
16
16
26
26
24
26
4
36
24
18
36
180
255
255
255
255
142
16
4
8
6
8
0
0
10
20
10
16
16
8
4
6
6
4
0
0
0
4
10
14
12
6
12
12
10
2
8
8
10
8
16
14
10
6
12
20
10
6
10
2
14
10
10
24
30
40
30
32
40
32
14
4
14
28
30
30
24
2
14
30
34
22
18
34
58
78
76
64
50
28
20
52
100
124
100
58
36
34
30
28
40
50
44
22
26
36
34
30
18
10
14
18
24
38
42
46
52
54
42
20
74
82
68
68
86
98
82
64
38
22
42
80
86
62
30
30
32
34
34
32
32
26
8
12
20
40
54
40
24
26
36
24
14
16
10
14
22
46
46
20
12
10
18
24
20
20
24
32
38
34
30
34
28
10
12
40
58
60
34
6
22
8
38
36
8
16
14
20
18
12
34
62
76
62
22
24
38
60
118
128
98
76
90
110
112
86
30
28
54
48
52
52
80
90
70
56
64
50
20
16
6
22
40
32
58
82
66
72
60
18
22
26
16
30
60
70
38
22
24
22
34
26
60
72
42
66
68
64
66
72
82
82
82
66
40
28
32
46
50
36
18
18
24
26
16
16
30
38
22
2
10
14
16
28
40
30
38
30
12
0
18
24
20
14
10
12
20
28
34
34
32
20
24
26
18
8
24
40
42
40
32
6
22
22
8
10
8
16
24
24
8
8
10
6
26
30
16
30
28
16
50
86
152
176
114
190
255
255
255
146
18
10
2
10
6
6
6
4
18
26
32
36
40
46
52
50
52
46
42
40
34
24
12
2
4
4
4
4
4
4
4
4
0
4
4
4
4
4
2
0
0
0
0
0
0
0
0
0
0
0
0
0
0
0
0
0
0
4
4
4
16
38
62
68
52
26
10
14
18
26
24
34
50
46
16
14
16
24
14
14
8
2
12
20
24
36
36
28
12
8
20
26
20
6
6
14
22
28
24
26
30
12
8
24
36
48
56
54
38
30
36
44
42
28
24
16
4
0
6
20
28
18
10
10
12
20
22
18
10
18
20
16
10
100
255
255
255
74
84
64
34
32
16
10
10
4
4
6
10
16
26
32
22
6
2
10
32
44
48
52
46
32
18
8
2
14
30
44
34
14
4
12
34
48
44
34
32
38
34
24
16
6
16
18
12
28
68
104
112
94
72
62
70
76
82
90
88
78
60
36
16
6
2
22
36
42
48
50
80
118
78
174
255
255
255
116
30
34
40
38
30
42
38
24
32
58
94
100
54
14
64
80
60
40
40
36
20
14
24
28
22
18
12
12
10
6
10
18
28
30
28
20
14
18
26
34
24
2
6
22
32
18
10
18
16
10
12
8
6
8
8
6
12
12
0
12
10
8
10
10
18
10
4
10
8
8
2
4
10
16
18
14
8
2
10
12
6
10
14
12
8
8
14
12
10
18
12
12
10
2
16
28
28
20
10
20
2
36
24
20
52
255
255
255
255
254
72
12
2
6
6
6
0
0
8
20
18
20
14
6
2
4
4
2
0
0
0
2
8
16
18
10
16
14
4
14
18
10
6
6
12
14
18
20
30
22
4
18
18
14
20
12
26
38
26
40
26
30
38
28
32
26
10
20
42
54
46
36
36
40
50
40
32
40
56
68
58
40
34
26
40
50
68
106
116
96
72
58
48
50
64
66
46
32
34
38
44
40
28
30
38
28
20
24
34
40
48
50
50
22
34
72
86
88
92
92
64
44
36
28
4
44
82
80
52
36
34
32
28
34
42
26
14
18
36
58
52
22
6
18
30
20
6
20
22
8
12
30
42
34
28
22
18
28
30
36
34
26
28
24
18
10
8
24
40
46
36
54
58
36
34
12
30
34
16
4
8
18
14
4
14
28
54
72
62
56
52
26
32
88
108
84
72
84
100
100
68
18
42
54
50
54
72
92
98
88
74
36
4
20
22
40
50
42
50
76
72
66
46
24
24
20
4
16
58
88
76
42
12
10
30
34
46
26
16
36
30
30
34
42
52
62
74
68
50
38
38
52
70
44
20
18
24
26
16
10
22
36
24
4
22
14
20
44
36
12
22
32
18
8
10
20
20
12
14
12
12
20
30
30
18
10
26
36
34
26
38
44
38
34
22
6
18
14
16
24
14
26
30
22
8
18
16
20
30
32
14
18
14
6
52
120
216
226
124
64
186
255
255
152
14
12
22
34
40
48
58
82
100
98
98
100
108
116
118
114
120
118
114
116
116
110
98
76
56
44
36
30
24
18
14
10
4
2
0
0
0
2
2
0
0
0
0
0
0
0
0
0
0
0
0
0
0
0
0
0
0
2
4
4
6
20
46
62
64
50
28
22
34
32
26
28
38
44
32
8
14
16
8
0
6
10
16
24
34
36
28
12
8
26
28
18
24
18
14
16
20
24
20
22
40
34
16
0
14
28
40
56
50
36
44
40
20
6
14
14
4
0
8
18
22
14
6
8
10
18
14
4
8
14
20
24
24
100
255
255
255
88
86
56
18
8
12
14
10
8
4
4
6
4
6
12
20
16
10
8
6
16
24
36
42
40
38
28
22
24
22
44
52
42
24
16
24
34
42
40
40
54
62
60
52
36
28
30
30
42
74
112
136
126
90
56
56
72
98
126
130
122
106
86
64
42
38
32
36
30
40
36
38
60
50
200
255
255
212
78
34
58
62
38
18
24
34
28
54
82
98
74
18
30
52
52
36
32
42
34
12
20
32
22
8
16
22
30
28
22
12
20
22
18
16
12
12
20
32
44
38
18
6
18
22
20
8
8
10
14
16
16
16
16
16
12
14
12
2
14
14
10
6
10
16
6
10
12
6
4
6
8
10
10
14
16
14
12
20
22
10
8
2
4
14
14
8
6
18
20
8
8
14
14
16
34
42
40
26
24
4
36
30
22
112
255
255
255
255
158
26
8
8
4
6
4
0
0
2
6
6
6
4
2
0
0
0
0
0
0
0
0
2
8
12
8
14
8
8
26
26
20
20
16
14
2
10
16
16
6
12
16
8
14
22
8
32
32
8
26
12
16
18
2
16
24
16
8
28
50
52
30
18
28
50
56
54
54
54
56
52
42
34
22
44
58
70
78
82
82
74
58
38
32
46
44
28
44
52
62
60
42
48
54
46
24
10
26
50
56
60
38
38
50
24
22
62
82
90
88
56
28
26
30
26
28
74
98
96
72
38
20
28
24
54
58
42
26
52
70
48
12
12
12
24
22
16
12
26
30
36
48
56
54
32
8
8
8
22
44
64
68
50
30
30
42
36
28
34
44
38
16
32
42
40
30
28
26
14
2
2
12
22
30
32
20
22
56
90
86
32
38
40
40
102
104
90
92
64
58
88
88
44
20
30
26
24
44
68
78
86
84
54
20
40
34
22
30
28
16
6
16
18
26
34
28
30
40
56
86
86
72
40
10
4
6
12
26
44
62
66
70
68
70
72
62
48
36
30
26
34
60
62
36
14
16
34
42
30
16
24
36
18
14
32
24
44
48
26
6
12
32
30
12
6
6
20
20
12
22
20
28
20
12
24
30
20
20
28
34
42
38
28
24
10
12
16
4
14
12
6
18
30
32
20
20
16
24
30
30
16
16
34
38
80
174
255
255
255
255
255
255
255
148
6
38
98
140
174
182
184
198
196
174
160
154
158
158
150
146
150
160
166
180
196
208
214
206
188
170
154
138
118
94
78
64
44
14
4
4
4
4
2
2
4
4
4
4
2
0
0
0
0
0
0
0
0
0
0
0
0
0
0
0
0
6
20
30
42
48
42
42
36
28
26
26
30
24
30
34
32
26
18
8
8
16
22
26
24
14
2
10
18
22
14
8
24
32
22
10
8
18
20
10
16
24
22
22
28
30
16
20
14
2
12
14
22
26
20
8
8
10
14
20
20
12
8
12
14
24
20
14
4
12
18
20
20
104
255
255
255
98
90
60
4
8
14
6
8
8
4
4
4
2
4
4
8
16
14
8
12
22
24
26
38
42
46
42
26
22
16
34
54
60
52
40
34
32
40
42
38
48
60
68
70
54
34
30
30
36
56
84
112
122
96
50
34
46
82
118
126
128
124
116
98
68
48
34
36
62
70
60
44
22
70
216
255
255
182
74
44
62
54
26
10
6
16
28
60
84
80
42
14
30
42
50
50
52
50
28
6
18
20
20
8
6
14
12
14
18
22
24
20
18
18
14
12
10
22
36
34
26
14
12
14
18
14
6
6
12
12
14
14
12
14
18
18
14
6
12
12
10
8
16
16
4
8
12
10
4
0
8
8
8
14
14
10
8
16
18
10
14
12
6
6
14
10
2
14
22
16
16
18
12
10
20
30
34
34
20
10
32
38
64
208
255
255
255
255
84
14
2
12
4
4
2
0
0
0
0
0
0
0
0
0
2
4
4
4
4
2
2
4
6
4
6
6
2
14
22
14
4
10
10
8
8
10
6
4
12
14
10
12
12
18
24
34
22
14
28
10
18
24
14
32
32
14
2
6
18
26
18
8
12
28
38
42
44
48
64
56
36
20
12
36
58
72
66
52
48
54
58
46
30
32
22
8
30
46
64
82
78
52
24
8
34
38
20
52
70
52
24
24
52
52
10
42
74
86
82
66
58
54
42
20
18
44
72
96
100
80
54
26
4
34
60
78
72
54
60
36
18
22
14
24
24
18
16
24
34
46
50
52
56
44
20
12
4
2
14
38
60
62
50
50
38
26
16
30
40
40
34
26
28
46
48
40
32
20
10
16
20
22
26
28
28
22
30
58
84
52
28
32
40
86
102
112
104
60
20
36
76
68
22
38
30
18
48
48
40
60
82
70
32
56
38
10
28
34
38
26
10
10
20
22
12
20
28
20
50
68
78
72
42
12
24
30
30
38
44
46
52
54
52
46
40
42
44
48
56
58
48
60
64
58
54
64
68
58
48
48
52
42
34
38
22
34
50
46
32
22
24
24
16
10
6
16
16
10
24
24
38
48
42
40
20
8
34
44
40
34
34
20
12
10
22
20
16
22
26
28
28
16
12
14
14
14
20
24
24
32
50
56
64
132
255
255
255
255
255
255
255
250
46
72
130
196
224
226
208
198
202
192
168
168
154
140
130
114
108
110
120
140
154
164
190
210
218
214
208
204
198
184
162
150
144
136
100
56
40
30
18
10
2
2
0
0
2
2
0
0
0
0
0
0
0
0
0
0
0
0
0
0
0
0
8
20
20
28
32
30
26
22
20
32
36
28
14
18
30
44
42
26
8
8
22
24
20
10
8
14
16
10
18
26
36
42
36
12
6
10
22
28
20
22
20
6
4
14
28
30
26
18
8
14
22
22
14
4
10
22
26
32
38
26
4
14
18
16
24
18
12
8
10
14
16
16
100
255
255
255
86
80
62
10
6
12
6
2
4
6
8
6
0
2
6
10
12
16
18
12
16
24
30
38
38
40
40
32
22
18
20
36
50
58
58
52
40
40
40
30
30
32
40
54
52
30
12
14
22
28
38
58
82
84
50
22
18
44
72
72
78
92
102
96
64
36
54
70
70
54
28
4
38
116
224
255
255
174
76
34
36
28
10
4
4
4
20
52
70
58
26
42
36
60
82
82
68
46
20
8
16
24
22
14
10
18
34
46
40
26
16
14
16
18
14
14
14
20
28
20
24
22
12
10
8
6
6
8
10
8
4
8
6
10
22
18
18
12
10
8
6
4
18
22
10
4
10
10
8
10
12
6
12
16
6
8
8
16
18
6
4
8
8
4
6
8
4
6
10
6
6
4
4
10
8
4
10
20
36
22
16
52
138
255
255
255
255
222
32
12
6
12
4
0
0
0
0
2
4
4
4
4
2
0
6
14
18
18
16
6
10
16
12
8
6
2
10
12
16
24
24
22
16
4
8
18
14
12
16
12
2
12
12
16
30
30
14
6
12
10
14
10
16
28
20
2
10
24
34
34
22
2
12
10
14
50
72
62
44
64
68
48
18
14
26
50
56
46
34
36
52
58
54
34
14
2
14
26
42
74
102
104
86
64
62
30
16
56
62
60
40
32
46
52
28
44
76
84
84
74
60
40
10
18
36
40
28
52
76
86
82
46
10
24
12
56
86
92
74
32
8
22
10
22
28
30
38
44
38
38
36
34
42
48
38
22
12
12
36
44
26
24
36
26
28
68
54
62
68
38
40
54
20
24
44
46
42
32
20
14
4
16
26
26
38
44
52
66
70
42
18
30
62
108
120
108
88
40
40
92
136
114
48
68
66
40
46
22
2
24
46
46
38
74
68
74
76
42
38
34
20
20
28
46
42
50
54
30
24
24
52
78
82
54
32
28
28
4
28
48
60
50
36
48
68
72
56
74
72
50
14
32
62
70
72
78
76
64
62
70
76
70
50
22
10
32
30
12
28
50
62
60
50
38
30
24
20
14
28
24
18
30
36
30
16
40
52
44
28
24
40
38
28
24
28
22
24
28
36
36
34
28
20
8
6
14
30
42
50
56
62
70
110
228
255
255
255
255
255
178
50
112
194
196
208
208
170
114
82
86
102
102
90
102
100
82
60
44
28
24
32
48
62
72
74
98
102
94
92
106
128
142
146
158
178
204
206
176
150
126
92
62
36
10
4
4
4
0
4
4
4
4
2
0
0
0
0
0
0
0
0
0
0
0
8
22
28
32
26
14
22
34
40
32
22
26
20
18
16
20
30
34
16
16
24
20
12
14
18
12
6
8
24
40
46
34
14
14
24
16
18
22
18
24
28
22
28
28
20
8
8
12
16
14
8
10
18
22
26
32
40
52
52
40
34
20
10
6
26
32
24
14
10
14
14
12
106
255
255
255
86
80
52
6
12
18
14
8
6
8
14
10
0
4
10
10
6
12
22
18
18
22
26
34
34
36
38
36
26
10
4
10
20
36
48
54
42
32
30
20
22
24
28
40
46
38
22
26
30
40
52
62
66
70
56
28
12
46
68
46
40
46
58
66
62
74
72
58
36
40
36
26
68
148
242
255
255
154
60
12
16
24
16
10
6
8
26
48
60
44
10
40
62
80
84
68
46
28
16
14
18
20
16
10
20
38
42
34
20
12
14
14
12
18
20
18
12
18
26
20
18
20
16
16
10
6
2
10
14
6
4
8
12
16
16
6
12
16
16
8
10
6
10
20
12
2
8
8
4
6
10
8
10
10
2
12
16
24
28
14
6
8
4
4
12
10
2
10
16
10
10
10
10
8
2
4
4
30
46
10
10
70
224
255
255
255
255
140
10
10
6
10
4
0
0
0
0
4
6
4
4
6
4
0
8
22
30
28
32
12
14
18
12
16
8
8
16
10
2
14
18
26
30
20
16
22
20
8
14
10
14
8
12
22
18
6
8
8
2
8
8
2
14
16
6
8
20
40
50
40
30
22
10
8
36
54
42
34
50
70
88
76
38
12
32
54
50
46
34
26
26
26
34
38
38
28
18
24
34
60
94
104
90
72
52
36
44
60
52
32
22
30
48
58
32
36
72
94
98
92
70
42
26
48
50
36
16
28
56
78
92
68
22
20
12
28
68
94
96
64
24
24
12
24
38
48
52
38
18
24
26
26
34
50
54
46
42
34
44
36
28
16
6
40
68
70
24
52
70
46
30
64
48
24
28
30
28
20
12
16
20
6
24
52
52
42
42
52
52
24
4
14
62
104
104
84
78
66
70
104
108
68
20
42
56
34
16
10
4
22
46
40
48
74
66
64
92
80
50
30
10
24
52
62
38
38
48
30
30
38
30
30
48
62
42
10
14
20
12
30
64
74
52
46
64
86
94
78
42
12
28
46
40
30
38
46
46
38
40
52
62
60
48
32
32
32
18
10
16
20
38
46
44
42
44
40
30
20
34
44
38
18
8
30
52
58
48
22
2
20
40
40
26
12
14
6
4
14
20
20
20
24
24
14
4
24
38
44
52
44
52
104
216
255
255
255
255
255
70
70
188
254
222
160
132
120
90
46
26
22
24
16
4
16
24
24
30
32
20
16
28
48
62
54
16
38
48
38
22
16
36
54
66
88
118
154
182
192
198
200
184
154
126
90
56
36
20
4
2
0
0
2
2
0
0
2
2
2
0
0
0
0
0
0
4
14
20
28
32
28
22
22
22
18
18
22
20
8
10
30
38
24
12
20
20
20
8
14
26
24
16
20
32
34
24
20
22
30
20
8
6
14
16
14
12
12
20
24
34
30
26
22
24
26
20
22
26
26
30
36
42
38
20
28
36
30
10
22
46
50
34
30
20
20
12
8
110
255
255
255
80
76
50
8
8
14
16
14
12
12
20
16
2
4
8
4
0
6
16
14
10
8
10
18
22
30
40
46
38
18
26
26
22
16
16
36
38
26
22
14
20
30
36
44
46
48
46
34
24
30
42
46
46
64
64
48
36
54
48
46
40
48
72
90
88
74
50
24
34
48
38
6
76
186
255
255
214
112
60
24
22
28
28
28
18
4
22
52
62
36
12
60
86
76
52
34
24
16
12
12
22
32
16
12
26
22
8
12
12
4
24
30
20
6
18
32
34
26
26
20
20
20
18
16
4
0
0
6
14
8
6
10
12
14
20
16
16
18
14
8
8
6
16
24
16
4
6
8
12
16
12
6
16
18
2
10
8
14
24
12
4
8
4
4
10
6
6
14
22
18
18
14
4
6
12
14
14
38
44
8
22
90
255
255
255
255
255
76
10
8
6
10
4
0
0
0
0
4
6
4
4
6
4
0
8
24
26
16
34
18
8
14
10
18
6
14
18
8
16
16
8
4
22
28
16
12
16
2
12
6
16
14
6
26
30
22
26
16
16
8
4
8
14
8
4
8
20
38
42
22
32
34
24
16
28
48
62
64
62
60
72
76
56
34
30
38
50
48
40
30
18
24
12
22
44
68
56
38
34
50
72
66
40
24
24
36
46
46
48
40
30
30
40
70
68
56
58
84
110
116
98
68
38
44
30
4
14
28
52
70
88
78
48
30
18
28
50
70
84
70
46
52
50
54
52
58
44
10
12
24
22
20
34
50
58
60
66
72
72
44
16
20
34
54
42
42
44
84
88
50
16
54
56
28
34
38
38
24
14
10
38
40
62
70
44
16
6
14
44
54
48
48
60
78
74
68
64
60
76
82
78
64
40
22
24
22
14
16
24
36
66
56
36
42
28
8
36
50
44
26
32
50
58
36
22
54
58
22
26
56
72
86
80
50
38
36
8
34
52
42
30
38
40
28
46
52
96
130
122
76
46
26
16
46
72
78
60
30
12
12
26
38
42
38
26
26
20
16
10
26
32
28
16
18
38
50
36
10
14
26
36
42
44
58
62
52
30
16
24
18
36
32
24
14
18
20
28
40
36
18
18
32
28
6
16
36
40
38
46
48
98
220
255
255
255
255
255
86
58
144
198
162
68
6
10
34
58
52
34
14
32
38
38
50
56
50
40
18
12
24
22
16
40
56
28
34
32
30
18
10
10
2
14
20
24
46
66
88
126
172
204
210
204
186
158
128
90
44
8
4
4
4
2
0
2
6
4
4
0
0
0
0
0
0
0
2
4
14
32
46
54
54
52
42
24
14
16
16
26
26
16
38
46
32
4
28
20
6
24
28
20
16
16
18
16
34
38
18
8
18
12
8
16
6
18
32
34
20
2
14
14
12
14
16
12
10
10
14
22
24
16
22
26
32
32
26
10
32
52
50
30
38
28
18
10
8
98
255
255
255
84
80
52
8
12
10
14
12
14
16
24
22
8
4
8
6
2
4
10
10
8
6
8
10
6
14
26
44
52
44
26
12
10
12
14
22
32
30
28
20
20
24
28
38
40
46
50
46
46
50
54
54
52
58
66
68
54
48
36
34
52
68
76
82
72
58
40
10
10
34
54
20
106
234
255
250
158
80
60
30
18
16
18
30
34
24
34
66
74
38
22
70
82
60
36
32
28
26
16
22
34
28
2
22
18
2
14
16
12
16
26
22
8
14
6
12
26
28
30
28
24
18
16
14
4
2
4
6
12
12
6
8
10
6
8
12
18
16
8
6
6
2
14
24
18
10
10
16
18
12
4
4
12
18
6
12
12
12
22
12
4
8
2
8
8
4
8
16
20
12
10
10
6
8
8
4
8
30
42
4
16
158
255
255
255
255
152
36
14
4
6
8
2
0
0
0
0
2
4
4
4
0
4
4
6
26
28
12
24
14
4
12
8
10
6
14
12
6
6
12
12
8
18
30
24
20
18
4
14
12
22
18
8
20
20
14
8
8
10
4
4
12
18
12
6
8
18
34
42
26
30
24
12
14
14
18
32
42
42
32
36
58
66
54
34
32
48
56
56
50
40
18
30
56
54
72
82
56
32
30
60
80
70
54
34
24
58
82
82
52
24
22
8
34
54
52
54
54
66
90
88
70
38
4
22
24
16
18
34
50
70
70
48
36
32
38
46
54
64
50
44
38
58
74
66
58
32
14
26
34
20
6
18
30
40
52
68
78
84
72
40
16
30
22
32
44
62
72
56
32
12
28
52
42
36
44
42
18
26
22
22
32
50
52
22
8
24
28
32
32
34
68
78
70
74
74
64
54
68
82
84
72
48
18
14
26
18
26
38
30
50
50
12
30
44
28
4
22
32
44
46
36
24
32
48
72
58
42
50
66
70
62
38
16
14
38
60
56
56
60
50
66
70
58
30
30
52
82
108
96
60
32
30
60
78
76
66
58
58
64
72
64
44
24
18
14
16
32
46
44
38
32
22
10
28
54
50
26
30
28
2
18
28
34
34
30
10
20
30
10
32
46
36
18
20
26
26
34
40
24
26
28
10
16
38
58
62
60
82
138
255
255
255
255
255
255
86
64
138
170
150
64
60
54
42
54
48
26
10
12
20
22
18
24
20
14
26
42
72
74
66
54
52
52
32
38
62
70
62
54
48
40
30
10
8
12
2
28
44
76
118
150
170
174
174
178
172
150
114
82
64
46
28
12
2
4
4
4
0
0
2
4
4
4
2
0
0
4
16
30
44
56
66
68
56
36
26
30
28
12
26
34
32
40
16
18
24
10
12
22
18
6
10
18
16
22
14
12
18
8
14
12
8
18
14
18
32
32
20
8
4
10
12
12
6
2
6
14
18
14
14
14
16
14
16
22
12
42
52
36
6
12
10
8
4
2
102
255
255
255
96
92
68
14
16
6
10
12
10
16
24
26
16
2
8
10
8
8
12
8
6
10
16
16
4
10
8
32
54
64
60
46
30
20
14
18
26
30
34
30
28
22
18
24
30
40
42
40
48
60
68
62
50
46
60
80
78
52
56
66
70
60
52
62
56
54
48
30
32
64
66
24
154
255
255
198
108
56
48
26
14
10
4
18
38
44
48
80
84
40
44
64
66
52
40
30
22
18
22
38
30
10
14
18
10
10
10
2
16
16
22
28
20
6
22
30
28
20
22
30
32
28
24
20
10
4
6
6
12
10
6
4
6
8
10
8
14
12
12
6
6
6
22
24
14
10
16
20
12
0
6
4
10
20
10
10
10
8
20
12
2
10
6
6
10
8
6
16
24
18
18
16
8
4
10
16
24
34
40
20
68
255
255
255
255
255
72
12
14
4
2
2
0
0
0
0
0
0
0
2
8
10
8
8
2
24
32
18
26
16
2
6
6
12
8
8
8
10
16
14
4
8
14
18
26
22
14
8
14
26
28
16
10
12
12
12
18
22
20
10
10
18
24
18
16
16
24
36
48
48
48
34
18
20
26
24
18
40
64
56
28
28
62
68
42
26
40
58
66
60
54
46
64
64
42
42
70
62
38
64
100
94
66
36
14
12
44
88
116
110
78
32
4
12
18
36
54
68
66
52
50
48
38
46
42
40
24
30
28
34
54
56
32
22
28
44
56
60
58
30
14
6
34
68
76
54
18
18
28
26
6
16
12
2
8
20
38
48
56
58
50
36
22
22
36
36
28
16
36
52
48
14
28
42
28
34
22
10
34
26
8
12
26
28
6
20
32
16
30
80
122
130
102
70
46
76
82
58
46
44
44
52
54
48
38
54
30
22
52
28
36
50
28
24
36
30
8
28
52
50
20
30
46
46
44
44
14
38
72
60
44
40
26
10
48
96
102
56
44
26
58
98
72
34
24
42
38
48
30
48
62
58
46
42
44
48
58
72
80
78
70
44
20
6
20
56
82
76
48
22
12
14
24
22
20
38
44
28
28
24
20
28
26
24
30
34
16
18
26
10
38
48
28
8
8
4
10
28
30
10
12
20
22
40
56
82
104
122
186
255
255
255
255
255
232
58
62
138
162
148
94
26
6
10
16
44
66
66
50
32
16
26
36
46
62
66
78
102
118
104
102
98
86
96
86
74
90
102
104
106
108
114
112
84
40
22
42
42
16
10
16
42
74
90
102
134
176
210
220
202
174
142
106
66
28
6
4
2
0
0
2
2
0
2
2
0
0
0
2
6
14
26
44
64
76
70
54
48
48
30
22
10
24
30
18
20
20
14
4
10
12
14
10
10
4
12
22
20
10
16
16
8
8
18
22
20
24
18
14
16
6
8
18
20
12
14
22
16
10
20
16
18
20
22
20
22
24
46
38
22
30
50
44
32
26
20
102
255
255
255
94
86
70
14
10
2
2
4
0
8
16
22
20
10
4
10
12
8
10
2
10
12
16
20
14
16
14
22
42
56
60
56
48
42
38
32
24
20
22
26
36
36
26
22
24
34
36
32
34
44
52
44
30
28
50
80
86
70
76
70
58
46
50
66
70
60
46
30
30
52
36
56
190
255
248
156
80
50
40
28
20
10
10
30
38
44
50
80
78
30
54
78
66
48
38
28
14
12
34
32
18
10
16
6
12
16
14
14
18
16
18
24
32
28
14
18
22
24
22
18
26
30
34
34
24
16
10
6
12
6
4
4
10
12
12
18
14
8
10
10
10
4
20
24
14
12
22
20
8
4
6
2
12
24
14
16
18
12
22
12
2
6
4
4
12
12
8
12
16
16
18
12
4
2
10
18
18
20
38
62
168
255
255
255
255
146
18
10
8
8
0
0
0
0
0
0
0
0
0
4
8
4
2
6
4
8
16
10
8
10
12
16
10
10
6
4
4
2
6
2
10
12
6
10
14
18
16
14
24
20
12
14
22
22
14
8
10
12
6
6
20
26
24
12
14
16
24
28
28
28
30
32
36
28
18
12
6
24
48
38
14
14
42
68
58
36
34
46
56
44
20
8
24
22
18
8
34
44
48
62
62
62
50
28
24
24
12
44
76
94
100
82
42
2
32
42
28
36
38
42
48
62
76
62
26
42
50
28
6
36
58
54
22
8
16
44
68
80
76
40
8
24
48
58
76
76
52
22
22
34
18
8
14
16
22
38
48
40
32
42
48
38
18
30
32
24
12
28
38
64
74
52
18
24
24
16
2
32
52
34
16
10
36
46
16
32
36
20
54
96
116
102
74
62
68
90
94
64
44
50
70
82
70
34
20
38
36
18
34
28
52
56
22
20
28
30
22
46
44
30
30
48
46
52
30
22
12
66
96
70
20
18
34
40
84
116
98
56
64
18
50
50
26
64
36
50
76
52
22
10
38
58
62
56
48
46
46
46
42
34
36
46
44
18
42
76
80
44
46
32
10
16
20
36
42
48
32
8
8
12
10
12
10
14
24
30
14
12
28
16
40
42
26
14
14
16
18
22
20
10
14
26
34
48
64
102
152
218
255
255
255
255
255
228
62
32
94
134
122
76
26
12
10
10
16
30
38
38
36
26
50
72
90
102
104
108
116
126
132
116
120
128
120
130
110
96
92
98
112
134
136
142
154
146
110
82
86
58
56
36
18
20
38
50
50
64
94
130
162
178
180
184
184
166
132
100
76
56
38
18
2
4
4
4
2
2
4
4
4
4
6
6
16
32
54
72
70
60
50
34
22
18
24
28
20
10
12
18
12
20
22
20
12
14
16
10
4
10
24
24
12
6
6
16
24
26
20
12
6
12
14
6
12
22
18
30
34
24
20
2
22
30
12
22
20
14
34
38
14
16
36
40
24
24
22
16
106
255
255
255
90
68
58
10
0
6
6
8
6
8
8
18
26
28
20
8
10
6
12
10
16
12
14
20
22
22
18
18
28
36
40
38
38
42
48
46
30
14
6
10
28
40
38
28
22
24
28
28
26
48
66
58
28
14
42
80
92
86
74
56
46
48
70
90
78
50
36
30
22
32
18
88
206
255
228
144
76
52
44
30
20
6
16
32
36
26
34
62
56
10
46
74
68
54
38
22
6
16
24
14
20
24
12
10
16
14
16
24
30
24
12
6
18
32
40
34
20
28
22
14
12
20
28
34
28
22
18
14
10
2
4
6
8
12
4
16
20
14
12
14
4
12
22
16
16
18
22
16
4
6
4
0
12
24
12
10
16
10
16
10
8
10
8
6
8
10
8
8
4
12
10
8
4
4
10
14
8
4
44
110
255
255
255
255
255
70
6
10
6
8
0
0
0
0
0
0
0
0
0
4
8
8
8
4
4
12
16
12
10
12
16
16
10
10
8
6
8
10
18
16
14
6
2
10
8
8
2
10
14
4
30
40
32
14
2
12
22
26
18
22
26
24
14
2
4
6
12
14
6
2
4
14
36
42
28
36
44
56
88
86
58
32
34
54
60
48
36
36
52
44
34
24
46
40
28
22
52
58
46
64
88
98
90
64
32
10
12
40
52
38
64
92
94
58
24
62
78
62
44
40
60
76
70
32
16
54
50
12
42
48
80
76
36
8
6
28
64
92
100
70
32
24
36
38
62
74
68
48
6
30
38
24
6
10
26
52
60
44
30
28
42
32
4
22
16
20
34
40
30
42
66
62
32
2
10
4
14
40
52
30
42
26
22
32
10
28
26
16
60
80
82
62
42
60
92
122
112
68
44
56
82
82
40
20
54
38
18
30
26
10
36
26
8
28
22
16
40
38
10
24
40
34
24
32
24
14
24
68
96
66
34
32
18
60
86
80
40
24
62
46
62
110
98
76
16
70
66
26
6
26
82
106
98
76
56
44
42
58
62
44
14
26
56
48
46
56
54
20
24
30
18
28
34
44
54
50
34
20
20
22
32
36
30
22
24
26
18
8
24
16
36
34
16
16
24
16
4
12
22
16
24
28
26
42
68
128
220
255
255
255
255
255
202
68
66
52
84
100
64
56
46
18
12
12
26
32
42
50
58
68
90
110
120
118
104
100
102
106
112
104
96
116
116
114
100
100
84
100
136
140
132
134
140
150
142
116
94
92
102
92
70
58
56
54
38
48
38
26
42
62
86
128
176
208
210
194
174
148
120
84
46
20
8
2
0
2
2
0
0
0
2
4
6
6
20
46
62
64
52
34
32
44
64
60
36
12
4
12
10
16
16
14
10
12
20
24
24
26
28
16
2
6
16
24
16
18
10
4
4
10
16
20
6
8
20
32
30
26
38
22
28
20
10
20
12
14
30
16
8
18
14
18
14
18
12
4
94
255
255
255
88
72
58
10
4
4
4
8
8
10
16
28
42
58
60
50
36
28
26
28
32
30
28
28
26
24
22
26
30
30
32
26
20
22
30
42
44
34
18
8
16
24
32
32
28
22
22
26
36
46
50
50
36
32
48
88
112
112
94
68
72
72
74
64
50
52
48
44
54
50
22
106
222
255
242
158
84
56
50
36
20
2
18
30
34
14
16
42
36
4
54
82
72
48
38
28
16
26
32
18
22
40
36
10
12
16
8
8
20
24
14
14
10
10
32
48
38
18
2
0
8
14
20
24
14
14
18
20
20
10
8
8
10
18
10
10
14
18
22
18
14
12
10
12
12
14
12
12
14
12
4
6
12
20
24
16
14
8
12
10
10
12
6
2
4
2
0
4
14
16
14
14
8
6
12
22
10
16
52
158
255
255
255
255
218
44
4
8
6
8
0
0
0
0
0
0
0
0
0
2
4
4
4
6
6
6
10
10
6
2
4
4
8
18
14
14
16
10
0
4
6
10
10
2
10
16
16
20
18
22
36
32
10
12
16
10
14
22
18
18
20
16
6
2
6
10
16
22
18
10
14
12
22
38
30
48
48
38
66
80
80
72
62
56
50
44
36
36
62
90
98
62
42
44
20
26
58
56
38
20
46
68
74
58
32
12
18
36
42
18
22
58
100
108
62
22
42
44
36
46
56
56
56
44
38
34
46
62
80
66
108
120
86
38
8
16
34
76
102
88
60
46
46
48
50
50
46
42
36
24
40
40
22
8
16
36
36
24
28
38
40
30
18
32
10
26
32
26
28
62
72
50
30
16
18
12
16
30
46
28
14
34
50
62
32
50
48
48
88
88
64
66
62
58
80
94
80
58
62
84
96
64
14
42
36
6
32
30
20
22
32
40
50
50
26
22
26
10
14
18
12
6
22
32
22
8
24
80
114
82
32
22
22
56
78
94
88
82
88
68
46
52
64
60
52
66
62
28
34
76
116
116
84
48
28
24
22
34
48
50
34
40
50
62
32
30
48
36
18
10
14
26
28
30
22
10
8
12
12
20
16
6
6
10
22
34
30
8
14
16
34
28
4
10
8
12
12
6
20
24
28
24
14
34
84
188
255
255
255
255
255
192
60
12
54
86
92
76
32
30
46
34
2
12
30
54
64
58
68
96
128
140
128
102
76
68
72
82
90
86
80
76
76
72
86
104
98
130
142
108
118
130
126
126
126
122
118
112
112
98
78
72
70
66
52
32
10
30
42
20
20
48
78
124
152
162
166
168
176
182
168
134
100
66
34
8
4
4
4
4
4
4
0
4
6
20
44
64
68
54
60
56
68
76
58
34
18
12
10
16
20
18
12
6
8
8
14
16
24
20
12
10
16
16
2
12
16
18
12
16
18
22
18
16
14
16
12
6
24
22
16
8
14
22
12
18
18
6
18
18
8
4
6
8
4
2
102
255
255
255
88
72
56
4
8
14
26
28
32
36
44
58
64
68
80
80
68
52
42
46
46
44
42
40
32
28
28
34
36
30
28
22
20
30
28
16
34
44
36
20
18
20
22
28
28
22
22
32
38
38
52
58
50
42
36
58
90
108
108
86
86
74
52
24
42
64
62
88
92
62
66
138
248
255
246
150
70
44
44
30
8
10
18
22
34
30
30
40
30
10
64
92
74
44
36
42
26
30
40
40
32
46
52
32
6
22
22
10
16
26
24
18
8
10
12
36
42
26
12
8
24
40
40
32
16
8
10
16
22
16
10
10
10
16
16
10
6
14
18
14
20
22
20
16
10
4
2
12
16
18
12
18
16
4
14
20
20
18
16
8
6
6
4
10
10
8
8
12
18
14
14
18
12
8
12
28
14
26
40
228
255
255
255
255
136
28
2
6
6
6
0
0
0
0
0
0
0
0
0
0
0
0
0
4
8
10
14
18
20
16
14
12
14
20
12
10
18
20
16
16
16
12
10
12
12
16
16
26
26
22
22
20
16
26
14
2
2
8
8
8
12
10
6
4
10
24
30
28
12
8
6
10
10
18
22
34
20
10
32
36
54
76
82
68
46
64
52
10
40
82
126
118
68
64
36
50
50
40
28
20
20
28
44
50
40
16
10
40
50
26
12
12
60
104
100
56
70
64
56
50
48
58
62
56
30
12
50
78
72
58
96
122
118
84
28
28
16
56
88
84
62
52
54
54
44
34
40
44
34
10
18
30
26
18
26
46
48
26
36
36
20
16
32
26
16
34
28
14
54
74
68
38
8
24
30
28
20
12
34
48
32
20
48
50
24
48
56
66
92
80
60
52
54
70
76
72
50
56
82
98
82
32
14
20
26
50
52
30
34
30
38
62
62
48
40
46
42
24
12
20
22
24
36
40
26
24
6
64
122
124
84
46
34
44
66
90
102
102
76
40
26
40
38
44
44
60
64
66
80
96
100
76
36
10
8
14
24
30
36
46
58
50
24
44
40
14
18
22
18
6
12
14
10
24
24
20
14
6
2
6
18
30
32
24
30
38
40
26
6
14
24
20
6
14
16
18
10
4
20
28
30
28
26
70
172
255
255
255
255
255
162
54
10
2
36
94
104
72
40
32
46
42
30
54
64
62
52
48
74
114
138
128
92
56
40
46
66
84
88
86
84
76
74
72
82
104
144
164
150
110
134
146
136
116
102
102
112
116
114
98
76
72
78
76
68
58
52
56
52
30
24
22
18
24
56
84
102
114
144
192
232
234
212
176
126
74
38
24
16
10
6
2
2
2
2
8
24
46
62
60
56
40
50
68
68
54
40
28
22
24
32
36
34
24
22
36
40
34
42
32
18
14
22
28
20
24
22
18
10
14
16
14
10
16
22
30
26
12
6
10
4
2
10
14
4
22
24
14
18
16
8
10
8
8
2
2
106
255
255
255
98
92
74
26
36
38
48
50
56
58
58
60
56
52
62
78
76
66
60
60
54
44
42
42
38
36
34
36
38
30
26
28
26
28
24
16
14
20
28
24
24
26
30
28
28
28
28
34
38
30
26
24
42
82
108
124
122
102
82
110
110
62
36
26
36
72
108
122
102
42
90
198
255
255
204
100
28
26
38
28
22
28
22
20
14
22
32
42
34
20
72
90
66
42
42
42
14
28
56
60
36
34
48
46
22
12
10
6
26
32
24
14
4
10
24
40
32
16
8
20
44
48
30
16
10
6
6
6
12
12
6
6
8
10
12
14
12
8
6
6
8
16
22
22
18
12
8
10
8
14
18
24
16
18
16
6
12
14
16
10
8
16
18
18
14
12
12
12
8
8
10
6
8
10
14
38
28
46
100
255
255
255
255
220
58
14
10
4
6
2
10
14
14
12
4
0
0
0
0
0
0
0
0
2
4
4
8
6
4
14
16
12
8
14
8
2
8
8
4
4
2
6
10
12
12
16
10
2
10
14
6
10
22
20
8
4
6
22
28
26
34
22
10
10
18
30
26
12
14
10
10
14
10
6
10
8
10
32
38
20
14
34
54
60
74
74
44
24
40
18
32
46
30
30
38
68
72
56
38
22
22
36
52
54
32
6
20
40
60
40
8
18
28
50
72
60
40
38
40
40
36
22
20
22
24
34
36
26
12
22
44
60
86
98
78
62
46
66
88
82
52
30
38
44
36
42
52
70
74
48
36
28
16
12
30
54
62
52
30
8
20
20
12
6
32
56
52
46
70
64
38
10
10
30
44
46
54
52
38
22
24
38
52
62
52
20
38
50
42
46
58
66
70
54
62
82
80
64
76
72
50
24
20
18
36
58
56
48
56
38
46
48
30
36
30
36
48
56
50
24
4
8
22
32
20
16
14
12
46
70
70
60
50
48
48
66
70
72
70
36
36
56
70
80
90
102
104
86
70
54
40
42
34
20
16
26
32
34
36
42
44
46
26
16
24
20
18
16
18
16
8
6
10
14
10
12
14
4
12
24
28
16
6
24
34
32
24
22
22
18
16
20
12
12
10
8
4
12
40
48
54
70
98
194
255
255
255
255
255
178
40
2
6
4
30
96
136
134
120
108
102
74
58
66
46
32
36
58
92
112
104
68
26
20
28
66
104
118
112
116
132
136
132
132
134
162
192
202
190
192
212
206
182
148
116
102
104
118
132
130
112
96
96
90
78
78
90
108
104
72
40
34
34
26
36
60
72
62
86
90
134
178
206
222
214
190
168
154
138
112
82
50
18
2
4
4
8
16
24
26
26
28
36
56
68
62
48
30
12
4
14
36
54
52
34
30
18
6
20
24
16
16
10
8
22
18
6
14
14
10
18
24
24
22
20
22
12
12
4
8
6
6
8
14
14
10
14
20
8
12
16
10
8
16
16
16
120
255
255
255
122
108
96
56
60
54
60
62
66
60
46
36
32
34
28
52
56
52
52
50
54
46
38
36
36
40
38
34
36
28
22
32
44
46
30
18
20
26
24
18
22
26
32
32
28
26
26
36
50
54
68
84
110
140
148
150
134
100
72
72
110
90
52
44
64
98
126
134
100
56
134
250
255
246
148
82
44
46
56
42
40
44
30
24
20
30
48
52
28
24
74
88
64
40
30
32
28
56
72
56
16
18
28
36
28
20
12
12
32
28
14
6
8
10
26
34
30
26
28
36
46
34
8
8
6
4
8
12
16
12
0
6
4
4
10
10
10
12
12
10
6
4
12
16
16
14
14
20
16
14
20
22
10
10
22
20
24
20
18
14
14
16
16
14
12
10
8
8
8
12
10
6
0
12
22
38
36
46
186
255
255
255
255
102
16
4
16
4
4
6
18
22
20
24
10
0
0
0
0
0
0
0
0
0
4
16
20
20
16
4
10
10
6
16
12
4
10
12
10
12
14
14
14
14
4
12
20
20
14
6
14
12
14
8
8
4
10
30
34
24
44
40
16
16
28
22
16
10
6
10
16
14
10
14
12
10
14
18
20
12
8
36
60
66
68
68
40
22
50
66
78
56
24
16
14
58
74
64
52
42
44
58
72
74
50
12
8
18
34
32
22
18
16
10
26
34
18
16
40
38
38
38
44
46
40
30
24
32
30
40
58
46
36
66
84
84
78
78
92
96
72
44
48
38
30
48
68
96
108
80
52
32
26
28
52
76
76
46
6
24
18
6
12
22
40
58
60
50
94
116
96
44
10
50
70
64
58
66
72
62
32
22
52
72
88
78
38
20
10
28
70
98
82
56
52
68
82
80
70
54
42
34
44
26
26
44
48
40
62
50
34
20
14
28
18
20
40
50
68
60
38
24
24
42
52
36
16
30
34
32
44
60
58
48
40
34
18
30
52
52
36
42
46
56
70
82
76
52
38
40
42
40
34
32
34
22
16
32
30
28
36
48
50
32
4
20
28
30
32
20
8
4
8
22
32
32
24
22
18
20
4
22
44
50
44
34
22
8
16
26
24
22
10
10
6
4
2
22
58
68
94
148
230
255
255
255
255
255
202
62
2
2
6
2
12
52
92
110
120
124
124
96
72
50
18
16
38
68
88
76
72
66
54
48
46
98
130
126
114
128
160
166
146
152
132
158
178
182
168
180
218
226
210
182
152
134
124
132
146
144
134
120
116
108
86
74
88
116
122
96
66
62
66
52
48
58
60
42
32
18
20
66
120
172
202
214
228
238
238
216
184
148
102
60
30
18
14
10
6
2
12
24
34
50
68
72
62
46
24
8
22
30
38
50
42
18
22
30
22
16
28
30
20
22
12
14
16
16
24
22
32
40
42
36
32
22
8
6
12
8
14
10
8
26
26
30
14
8
16
20
22
22
20
32
30
24
112
255
255
255
144
114
102
66
68
56
54
54
54
40
40
30
16
20
10
24
26
18
12
14
28
34
30
28
30
38
38
40
46
30
8
22
46
58
52
32
14
12
20
20
26
44
46
36
24
32
32
50
70
82
102
114
118
116
102
98
86
74
86
112
146
134
74
36
40
74
120
144
102
86
180
255
255
204
102
76
54
56
56
26
40
56
50
46
30
56
80
76
36
46
76
90
62
24
26
42
50
66
62
28
16
40
36
20
14
12
12
20
30
16
2
6
12
16
22
26
28
32
32
30
28
18
8
14
6
6
12
14
16
12
8
8
10
18
16
8
2
6
6
6
8
2
10
16
14
8
4
12
14
12
18
18
18
12
4
8
12
12
16
16
16
12
8
8
6
2
6
12
12
4
4
6
12
34
30
26
40
108
255
255
255
255
226
22
18
4
16
4
0
8
16
16
10
20
10
0
0
2
4
4
4
2
0
0
4
16
14
8
12
12
22
18
12
22
20
10
6
10
14
12
8
2
8
16
18
14
2
16
22
10
18
20
10
2
10
12
20
28
24
8
24
36
28
36
28
6
22
26
16
20
14
6
10
10
6
4
8
22
34
28
28
52
44
42
86
108
96
66
28
14
14
6
16
14
10
32
54
52
40
28
30
48
70
82
64
22
40
64
66
42
14
24
28
18
16
24
12
22
40
38
40
40
38
30
26
22
18
26
30
40
60
46
24
46
44
64
70
64
78
108
118
102
76
54
40
54
60
80
102
88
66
50
34
24
36
48
44
14
14
26
24
28
14
10
28
56
62
34
18
66
84
56
32
90
94
44
26
12
24
56
74
60
36
28
54
54
66
34
70
124
140
110
66
58
84
110
112
100
90
74
56
30
38
30
12
34
34
24
42
56
42
32
38
40
32
30
22
12
36
52
50
34
20
32
42
60
50
22
16
40
66
82
80
58
30
12
12
28
56
70
70
64
56
64
86
108
108
90
66
40
46
50
52
44
18
14
26
50
56
44
24
22
38
42
24
30
38
38
32
24
20
14
10
20
32
28
8
16
32
28
22
30
26
16
8
8
6
8
16
26
26
20
10
14
12
10
16
40
74
96
160
255
255
255
255
255
255
178
48
4
2
4
16
42
54
42
26
34
74
114
132
110
68
40
16
30
48
58
54
74
84
74
58
54
72
102
104
84
78
98
124
110
70
84
64
90
106
92
58
54
106
152
176
180
172
170
170
172
164
136
118
118
132
136
106
68
60
80
94
84
64
68
60
52
48
48
46
40
34
22
24
24
46
80
102
108
120
140
168
184
200
216
216
198
156
120
94
68
46
22
2
14
18
26
46
64
72
74
64
44
28
12
4
14
32
34
38
28
30
10
24
30
12
20
22
20
18
6
6
22
34
36
28
12
12
14
18
14
20
10
18
16
16
30
22
42
40
16
16
18
12
2
16
26
20
12
108
255
255
255
138
100
90
52
52
48
36
38
36
18
30
30
16
18
12
16
18
10
4
2
14
22
18
16
24
36
40
46
46
24
4
10
34
52
52
38
24
18
22
28
56
66
50
30
14
26
50
66
80
96
114
114
96
74
58
66
72
84
116
148
168
134
60
18
30
76
126
140
76
96
232
255
255
156
72
62
54
64
68
30
58
72
52
66
34
68
82
60
40
60
82
78
48
22
34
44
48
48
30
6
34
34
18
4
8
10
14
18
28
22
14
10
14
22
26
30
26
28
24
16
14
18
12
8
4
12
14
12
12
8
8
10
20
26
16
12
8
2
10
10
0
8
16
16
8
4
4
2
4
8
14
12
8
12
14
18
12
8
14
12
12
8
4
4
6
6
10
10
2
6
10
2
28
48
20
2
60
208
255
255
255
255
140
2
16
6
16
4
0
6
14
20
18
20
8
0
0
4
6
4
6
4
0
0
2
14
20
14
6
10
12
6
2
14
20
14
4
12
16
4
12
14
20
18
4
16
12
8
24
12
12
22
18
8
12
10
10
20
34
34
30
8
24
36
20
18
20
28
34
20
10
22
20
14
12
14
14
14
30
42
44
36
22
34
76
114
120
100
72
46
40
50
46
20
16
36
36
30
30
26
26
34
48
68
72
56
50
54
40
18
14
20
34
38
46
32
12
34
34
26
40
50
56
58
42
18
28
46
46
48
78
70
28
22
8
46
58
48
60
102
138
140
120
94
68
54
36
40
56
56
48
42
32
18
20
46
62
46
20
8
20
18
14
16
26
30
56
66
54
74
64
54
72
106
68
14
42
20
28
12
62
82
74
78
72
42
42
94
166
192
150
94
76
98
118
118
106
100
96
74
48
18
34
38
18
40
44
38
26
42
46
48
58
62
56
38
10
8
4
28
50
50
22
22
16
44
58
46
50
50
68
84
92
76
44
22
24
42
66
80
82
78
76
104
124
158
164
144
116
82
52
56
50
32
0
24
16
40
58
54
34
18
26
40
34
48
52
40
38
40
34
32
22
4
30
48
42
22
10
28
20
10
20
30
28
20
8
16
24
26
20
14
10
12
18
34
50
60
86
136
250
255
255
255
255
255
164
34
4
6
8
10
68
126
142
138
140
146
182
176
140
88
46
50
36
32
36
28
48
64
78
72
54
78
92
92
82
74
56
60
74
56
22
42
36
62
68
38
18
12
26
74
114
132
126
124
142
172
178
146
116
110
130
154
142
104
78
78
82
68
50
46
42
46
46
46
44
46
54
54
44
26
14
12
16
16
18
32
64
92
126
168
208
240
236
216
194
166
140
108
72
46
30
16
10
38
60
78
86
84
66
30
6
8
20
46
42
10
20
18
8
30
26
8
16
20
12
4
10
20
24
16
10
14
30
36
20
18
26
18
20
22
14
18
8
20
36
28
6
20
26
22
14
14
14
12
118
255
255
255
108
68
64
20
20
22
26
26
20
10
20
26
22
26
22
24
30
28
26
22
24
22
12
8
18
36
46
52
46
20
8
6
26
48
48
30
14
12
30
52
66
60
38
26
28
50
70
74
82
100
118
110
86
68
70
100
118
118
120
118
110
78
32
34
68
110
130
110
30
132
255
255
224
96
64
60
52
62
80
56
78
66
30
54
34
58
52
12
46
76
76
76
64
30
24
22
24
20
14
16
20
18
18
20
16
18
18
18
26
32
28
20
22
26
32
44
40
30
24
14
8
10
8
6
16
16
10
8
8
4
2
6
18
22
14
20
18
10
6
10
16
14
8
8
12
14
10
2
6
10
14
18
12
10
6
10
12
12
16
12
12
8
4
4
6
10
12
8
0
4
4
12
38
48
22
20
100
255
255
255
255
255
86
8
12
10
16
4
0
2
4
4
2
4
2
0
0
4
6
4
6
4
0
0
0
4
8
10
16
16
16
18
18
8
8
16
12
6
20
16
22
18
24
34
24
26
18
14
30
24
8
14
20
10
6
18
26
30
36
34
30
22
18
14
18
32
20
12
40
42
32
36
20
12
8
2
14
16
8
34
62
64
40
48
48
82
98
84
52
18
36
54
46
56
46
42
40
14
22
42
52
48
38
40
60
84
88
76
56
34
20
14
66
96
74
46
48
30
18
26
32
32
32
44
48
42
38
36
28
10
34
50
30
14
40
50
36
46
50
78
114
124
116
106
94
74
40
52
50
30
22
26
24
26
38
34
20
38
48
48
36
16
36
58
70
56
20
20
48
44
20
60
94
70
16
34
24
14
24
16
14
42
42
36
28
46
104
170
198
160
100
106
114
130
106
78
66
66
60
38
26
16
36
48
46
72
78
58
26
24
26
32
44
54
62
64
40
8
10
18
44
66
52
24
18
22
26
30
30
24
26
52
82
92
74
50
54
58
70
74
70
60
72
68
58
94
124
138
150
154
138
100
54
18
12
26
16
16
40
44
44
40
42
48
48
62
54
34
40
50
46
46
48
38
16
14
38
52
38
8
8
10
2
12
20
30
28
20
10
10
16
14
8
22
50
86
102
94
124
220
255
255
255
255
255
140
32
4
8
4
22
78
170
234
230
196
212
166
156
108
62
28
36
54
58
64
56
46
46
46
58
68
86
108
110
98
82
60
60
66
72
74
62
66
76
98
96
70
54
56
58
76
94
96
68
40
50
106
162
174
158
138
134
152
168
166
148
134
118
86
54
34
30
36
42
50
54
56
60
60
58
40
16
2
0
8
14
20
32
38
42
54
80
120
156
188
212
224
230
220
196
168
138
102
54
10
20
36
48
68
88
80
44
20
26
50
62
40
10
10
12
4
18
26
14
8
14
14
12
18
24
16
10
18
26
20
6
26
36
24
16
18
8
10
20
12
10
20
20
10
16
30
14
10
26
34
116
255
255
255
90
52
56
12
14
2
10
12
6
6
10
16
18
22
18
22
30
32
34
34
34
28
16
12
18
30
44
54
50
24
4
8
32
50
44
28
18
22
42
56
60
50
32
24
28
44
54
62
78
100
118
106
86
78
90
122
132
112
96
84
74
60
42
62
104
124
120
82
18
168
255
255
176
80
56
66
56
44
52
42
44
20
8
20
22
36
20
26
68
76
64
52
54
34
10
16
18
14
24
36
40
32
24
22
24
30
28
22
18
22
28
26
28
30
34
48
50
40
34
24
12
10
14
16
20
12
4
6
8
6
4
6
14
18
10
14
18
16
8
4
10
6
6
12
12
18
20
12
14
16
20
26
20
22
18
18
18
20
18
12
10
6
4
6
6
8
12
12
6
6
10
16
32
38
18
40
200
255
255
255
255
144
34
10
4
6
10
2
0
0
4
6
4
6
4
0
0
2
4
4
4
2
2
4
4
2
0
2
10
14
14
16
22
22
8
10
18
10
2
12
16
10
12
22
22
18
12
14
24
24
12
8
14
16
18
22
24
24
20
18
22
34
34
24
18
20
20
4
28
40
32
26
12
8
8
12
10
14
8
18
48
52
34
22
28
58
88
98
74
26
38
38
18
40
60
50
22
18
32
40
64
72
54
46
56
82
98
92
78
46
18
56
92
94
48
46
58
46
38
50
56
42
40
34
28
42
54
52
40
18
14
34
32
34
36
16
24
38
42
54
80
92
90
98
114
124
98
52
32
36
44
42
38
66
70
60
42
12
20
26
32
42
56
70
68
56
60
46
22
18
66
94
72
44
16
16
10
20
6
16
18
4
12
20
24
70
148
188
168
100
46
42
66
74
54
38
34
46
58
52
34
36
34
48
60
76
72
40
26
18
12
18
28
36
58
76
60
26
32
44
36
56
60
48
30
20
28
32
32
16
18
28
60
82
80
60
50
56
62
60
52
46
46
26
24
44
72
98
134
174
192
170
122
76
38
34
26
26
44
38
36
44
56
64
56
52
42
20
8
26
32
40
48
52
52
34
10
32
52
40
20
8
6
26
40
44
36
18
18
8
10
10
14
48
82
116
138
160
248
255
255
255
255
255
128
24
2
8
6
24
112
232
255
255
255
238
242
172
84
32
8
10
26
40
52
70
74
66
58
46
68
96
108
126
128
128
128
114
102
102
114
116
106
104
110
114
104
92
98
108
102
122
142
148
122
80
60
86
138
176
186
168
142
126
128
146
154
154
136
100
70
52
50
50
46
56
68
66
68
64
64
56
36
22
18
26
36
42
42
36
22
8
6
16
40
80
126
168
202
218
222
220
216
204
172
132
90
58
38
20
34
72
78
68
58
60
68
64
44
16
6
10
14
22
16
6
4
6
8
6
20
20
10
10
10
14
18
22
24
20
18
24
18
12
12
12
10
18
22
20
40
38
10
30
38
36
108
255
255
255
94
54
56
10
16
6
4
2
4
6
6
6
6
4
0
2
8
12
14
18
26
28
22
20
20
26
38
44
46
26
8
12
30
46
44
34
22
18
34
44
52
48
30
12
4
22
40
60
90
112
124
110
90
82
88
104
102
86
82
86
90
86
76
88
108
112
106
68
32
164
255
246
146
72
54
80
76
42
22
8
6
14
14
6
24
28
10
24
48
54
56
48
36
24
12
24
30
30
30
48
56
42
20
8
14
32
38
32
20
10
10
16
26
34
36
42
44
36
34
30
20
14
18
20
14
2
4
8
10
8
10
12
20
28
18
8
6
12
16
18
18
10
6
14
8
4
16
20
22
20
22
22
12
12
14
20
24
22
14
6
6
4
6
10
8
6
4
10
14
6
8
12
20
40
36
116
255
255
255
255
170
18
4
10
2
2
4
0
0
0
4
6
4
2
6
4
4
6
8
8
8
6
8
10
10
8
2
2
6
6
4
2
6
16
16
4
12
22
22
12
4
2
4
10
14
12
10
14
20
14
6
22
26
16
8
14
6
10
28
24
8
20
38
40
24
28
30
20
16
14
10
10
10
16
16
2
16
28
26
14
26
20
12
12
14
50
94
130
132
86
36
10
56
92
78
28
24
50
32
28
50
72
74
74
72
72
68
50
46
50
50
56
54
48
30
30
38
42
54
72
94
78
42
30
12
16
34
36
52
48
44
52
46
42
36
26
36
30
34
36
48
58
60
76
112
156
160
122
96
98
106
90
84
106
90
94
88
72
124
134
108
68
48
44
28
20
48
60
58
64
86
72
26
56
50
22
10
4
10
4
20
8
22
24
30
98
150
154
116
48
36
60
80
72
34
24
28
46
54
52
58
52
38
36
38
38
26
4
18
18
8
12
18
20
44
74
64
28
56
58
34
38
38
46
52
52
60
48
56
44
28
28
42
54
56
44
32
38
50
52
48
52
48
52
50
58
66
74
98
142
180
178
150
124
108
100
88
80
76
52
30
32
52
70
72
70
68
64
46
22
6
14
26
32
48
56
48
22
12
30
34
26
14
28
36
32
20
8
20
20
12
18
50
90
114
144
198
255
255
255
255
255
255
152
34
6
10
4
8
102
255
255
255
255
255
255
238
162
74
40
28
14
20
22
30
46
60
68
70
60
82
106
118
138
152
172
182
170
156
148
142
122
100
94
86
70
56
62
82
94
100
130
184
220
226
204
170
148
148
164
186
188
168
132
96
92
110
134
130
96
74
76
94
92
62
70
74
68
82
80
76
76
64
50
44
46
50
56
60
64
60
48
34
12
10
22
32
52
88
112
128
144
174
216
246
255
230
184
152
128
82
16
36
64
66
54
50
58
56
38
22
6
22
34
24
4
16
22
12
8
10
6
8
10
16
18
6
14
32
34
48
48
32
26
18
12
10
14
16
22
32
16
20
36
26
14
106
255
255
255
100
66
64
20
18
2
6
6
0
4
6
4
2
4
4
6
4
6
14
14
12
22
26
26
24
32
42
38
40
28
10
8
22
38
40
34
28
24
30
42
48
40
18
6
4
24
60
104
146
162
158
130
100
86
84
94
96
90
84
86
92
90
84
84
88
86
80
48
72
168
255
255
182
100
74
98
100
68
38
18
10
12
22
30
34
28
26
44
64
72
64
42
24
16
18
24
30
38
40
34
56
52
28
6
6
14
28
30
24
16
4
8
12
28
34
36
36
26
22
20
14
16
20
18
18
12
8
10
8
4
6
10
20
26
16
10
12
10
4
6
16
14
2
12
14
8
6
8
8
6
12
12
2
2
8
14
16
12
4
4
8
8
12
12
6
4
2
6
14
14
14
18
12
40
100
255
255
255
255
255
82
12
12
14
8
2
2
0
0
0
2
4
6
2
4
4
4
8
10
8
10
8
8
8
8
10
4
4
10
10
10
10
8
8
10
12
10
12
28
30
20
8
14
28
28
22
16
12
18
8
14
24
18
12
0
16
16
28
40
22
24
10
14
28
14
22
30
12
14
18
12
6
10
22
12
10
22
24
18
20
36
38
26
10
12
34
68
102
126
114
68
32
58
64
26
24
48
32
20
30
28
44
56
70
76
72
64
66
62
48
36
34
42
48
38
4
28
52
42
58
86
82
54
34
22
30
52
74
78
54
50
68
66
66
66
56
46
42
38
34
24
22
42
38
68
106
116
90
82
98
130
124
96
96
68
90
108
148
194
164
148
122
54
60
40
22
38
44
48
56
44
32
40
52
30
14
12
22
40
58
60
46
64
58
76
136
148
108
60
30
56
54
82
98
62
20
18
36
54
56
54
54
44
26
12
18
12
4
14
16
6
12
28
28
16
52
64
38
64
42
40
50
44
40
48
50
40
38
44
38
36
36
40
42
38
32
24
32
48
54
56
52
54
60
58
66
70
68
76
106
150
164
146
120
102
96
86
80
82
70
46
32
46
48
54
62
72
82
72
46
26
18
20
10
22
40
50
48
34
16
22
32
36
38
34
20
14
14
14
26
52
74
98
138
178
248
255
255
255
255
255
255
142
48
8
10
6
22
112
255
255
255
255
255
200
204
184
148
92
46
22
16
24
18
16
22
36
54
68
88
108
126
148
180
202
212
192
162
144
130
116
90
64
50
28
12
18
34
52
60
76
82
130
176
194
198
194
184
174
174
196
220
234
228
194
160
142
148
140
92
60
92
94
102
58
54
64
58
92
110
112
114
108
98
88
78
64
54
60
78
86
74
54
30
14
24
18
4
18
34
48
64
92
130
172
222
242
224
202
190
176
142
98
86
78
44
12
38
56
52
44
30
20
18
6
28
34
30
34
18
4
2
12
22
16
22
20
6
12
24
48
40
40
42
26
8
16
14
8
14
14
2
22
26
20
8
108
255
255
255
106
84
72
38
38
22
20
22
14
6
8
8
4
4
2
4
6
12
18
12
8
12
24
30
26
38
42
32
32
28
16
26
38
42
38
32
30
32
36
44
46
42
24
12
30
70
118
170
208
204
174
128
94
82
86
106
114
102
80
74
82
82
76
70
70
68
60
36
76
182
255
255
228
146
112
122
120
98
76
58
52
62
62
56
50
42
38
62
84
98
100
80
50
24
22
20
26
38
34
16
42
56
44
20
12
8
16
26
30
18
6
12
4
22
32
36
36
26
22
26
34
34
22
4
14
20
16
10
4
0
4
2
16
20
8
14
24
24
26
16
16
14
2
12
14
8
6
12
14
14
20
16
2
6
6
6
8
6
8
10
10
12
14
8
8
4
4
2
6
16
28
32
20
50
184
255
255
255
255
255
62
8
12
14
12
0
0
0
0
0
0
0
4
6
4
4
4
8
8
2
4
6
6
10
10
10
4
4
10
8
2
2
6
8
8
8
18
14
8
28
34
22
16
22
12
10
12
2
18
14
16
14
10
6
6
4
6
22
20
2
16
24
16
34
20
28
26
10
30
24
18
20
14
16
16
8
24
26
12
18
44
32
6
28
40
24
34
42
64
86
88
80
82
86
66
50
24
18
50
42
20
8
16
36
56
68
76
74
66
56
52
50
40
30
34
46
54
40
30
60
104
102
68
42
34
48
68
72
48
20
14
46
64
74
80
72
64
60
50
38
22
18
18
12
60
96
82
18
44
66
92
120
90
46
32
60
124
178
164
94
120
132
106
106
80
74
60
32
32
24
14
40
70
68
42
22
50
84
98
90
74
76
92
90
122
154
128
68
78
60
26
42
92
96
50
32
26
56
70
44
40
70
96
88
48
28
28
26
26
18
26
28
32
46
30
18
46
44
40
10
28
58
66
48
32
26
18
14
18
8
16
32
44
48
40
32
26
32
52
72
70
68
64
60
48
50
62
70
76
86
118
144
136
106
68
46
36
36
54
76
78
60
52
46
22
26
46
70
74
52
32
30
32
20
14
10
12
24
36
40
54
58
48
32
14
20
26
48
80
106
126
138
160
222
255
255
255
255
255
255
202
78
10
8
8
6
36
144
255
255
255
255
255
68
168
250
240
170
84
30
16
12
34
30
16
12
28
66
114
132
138
152
186
228
234
198
134
88
70
56
48
34
16
56
68
50
26
28
36
42
54
46
30
62
66
72
102
142
168
180
200
230
255
255
255
255
255
240
206
140
96
94
92
114
76
58
74
74
86
120
136
138
128
124
120
106
76
50
74
80
106
94
66
52
68
76
60
40
38
32
32
58
60
48
44
76
122
148
152
154
172
194
204
190
158
120
70
10
30
44
44
36
34
38
48
44
22
14
28
30
24
18
22
24
10
10
26
28
18
16
22
10
20
42
44
18
12
10
10
16
18
6
16
26
22
8
108
255
255
255
104
82
60
32
38
24
24
30
26
16
14
12
8
10
8
6
8
16
20
12
8
8
16
26
28
36
40
32
30
30
32
36
44
56
58
48
42
42
46
50
46
34
30
54
84
120
160
196
204
166
116
74
64
78
98
114
104
80
68
80
100
100
86
76
80
86
80
58
78
158
244
255
214
158
144
152
136
106
88
78
82
84
80
80
86
82
68
80
90
90
88
74
54
34
30
24
30
42
36
18
40
64
64
48
26
24
28
40
44
26
12
20
14
30
34
40
40
30
26
28
30
26
10
14
8
10
14
10
4
0
4
2
14
22
10
20
22
12
22
18
14
8
10
20
16
8
6
10
6
10
16
16
6
6
2
4
8
8
6
4
4
8
8
8
8
4
4
6
4
14
42
38
26
68
255
255
255
255
255
146
30
10
14
14
12
0
0
0
0
0
0
0
2
4
4
4
4
8
12
6
4
8
6
8
8
4
2
2
6
8
6
4
4
4
0
6
14
26
16
6
22
20
2
20
16
10
10
2
8
6
4
10
12
8
2
4
8
10
16
12
14
8
12
24
12
26
34
24
32
18
8
16
14
2
14
10
8
26
26
10
42
46
22
54
46
32
38
30
34
58
80
86
86
86
68
42
22
40
38
14
6
12
18
36
50
60
64
60
58
54
54
56
52
48
48
44
30
6
34
74
98
90
60
32
26
42
54
44
16
18
8
28
52
56
64
58
58
62
54
44
32
14
12
20
64
94
80
26
64
68
58
88
104
78
32
90
144
144
96
74
96
108
98
96
90
100
86
44
28
26
50
66
70
48
38
66
90
88
68
44
42
44
56
78
110
112
70
28
40
48
62
112
116
82
32
26
52
64
60
42
24
14
34
74
72
46
20
18
28
32
26
14
6
20
28
10
24
30
24
12
6
22
42
42
34
30
28
24
18
8
12
14
34
54
56
42
24
38
62
72
68
88
96
88
62
48
54
74
92
90
98
122
132
128
100
74
60
48
46
64
90
96
86
62
24
4
8
40
70
72
58
56
46
42
36
26
16
8
2
8
20
22
10
10
30
44
62
92
122
126
132
164
232
255
255
255
255
255
255
160
44
4
10
4
6
70
184
255
255
255
255
255
52
144
250
255
206
136
68
26
22
16
26
32
18
14
32
82
138
148
144
160
198
230
200
132
70
34
40
30
18
10
18
30
54
66
58
38
50
64
64
32
6
24
30
62
90
88
110
136
162
186
222
255
255
255
255
255
255
255
206
172
190
222
198
138
116
88
64
70
88
98
88
84
92
100
90
88
122
102
154
164
138
138
154
128
114
100
90
68
62
62
40
34
28
20
22
68
98
106
110
126
142
164
172
174
158
110
60
42
30
30
34
58
52
46
24
22
14
8
18
24
28
32
26
12
4
16
18
20
30
30
28
18
38
32
20
22
24
22
34
22
20
20
20
12
104
255
255
255
102
70
48
14
22
12
16
26
32
30
24
18
16
20
22
20
18
22
24
18
18
24
32
36
32
32
38
38
46
44
38
34
46
66
64
48
38
40
52
54
48
46
62
104
130
146
162
168
146
90
44
34
52
92
110
102
76
60
74
104
128
122
102
94
104
114
104
70
92
138
188
198
160
132
148
174
152
102
72
72
72
68
82
104
118
108
108
110
106
90
72
52
40
32
44
42
44
52
48
32
42
66
74
66
50
44
50
66
64
36
18
28
22
42
42
42
40
26
22
28
32
30
10
12
16
16
14
10
8
2
2
6
10
20
16
22
16
2
10
8
2
4
14
16
8
8
14
18
14
20
22
18
10
2
4
6
8
8
4
6
12
14
8
6
4
0
0
4
14
28
48
38
26
134
255
255
255
255
176
32
8
4
14
16
10
0
0
0
0
0
0
0
0
0
0
0
0
2
10
10
6
6
6
2
0
4
6
6
4
4
4
4
4
8
14
14
10
24
26
16
26
24
10
20
16
8
8
2
16
14
12
6
6
6
6
12
8
4
8
8
16
16
20
30
22
8
16
18
16
4
6
0
10
8
4
16
16
16
14
12
22
36
38
54
30
34
50
46
44
58
74
76
68
58
44
36
34
24
30
34
30
28
30
32
38
60
70
58
42
28
34
40
46
58
72
84
68
28
28
86
108
92
54
26
30
46
42
22
8
14
38
46
34
26
32
38
44
60
64
60
50
30
22
30
88
144
156
116
90
74
60
48
102
114
62
104
118
82
44
64
84
84
64
50
60
80
84
58
28
40
66
104
148
156
116
102
76
32
26
20
20
8
12
34
46
40
26
16
32
74
112
110
74
40
36
12
40
86
88
74
72
104
86
66
38
66
52
20
32
28
26
30
34
24
22
22
18
6
22
22
4
12
16
10
30
44
52
52
46
32
18
8
22
54
76
68
36
28
44
48
36
70
100
104
76
50
50
70
100
98
92
106
128
150
146
136
130
116
92
72
86
112
122
110
66
16
10
10
50
82
90
84
74
64
60
54
40
36
50
60
76
80
72
86
100
112
130
150
162
154
174
252
255
255
255
255
255
252
126
40
4
2
12
50
138
255
255
255
255
255
255
84
70
168
196
168
134
102
56
22
18
14
28
34
16
16
44
96
146
142
132
146
172
176
120
68
34
26
46
58
58
46
22
8
12
42
74
76
94
108
78
26
10
40
80
96
84
60
56
68
90
106
128
144
212
255
255
255
255
255
255
255
255
255
255
255
226
150
92
56
48
56
54
50
56
70
82
136
158
132
182
218
208
234
212
206
186
160
148
128
104
88
92
104
90
60
44
58
80
86
68
42
22
42
80
130
174
178
150
100
40
8
32
30
18
34
32
20
4
6
6
20
28
34
32
24
22
26
22
8
10
18
18
8
14
26
28
30
26
16
28
30
22
20
10
6
102
255
255
255
106
70
52
10
16
10
12
20
28
36
40
38
36
36
36
36
36
36
34
30
32
38
40
40
38
44
52
56
54
38
30
34
50
62
44
22
14
28
48
46
44
56
88
130
138
132
134
132
116
80
58
60
78
98
94
88
88
94
110
120
122
108
94
92
100
96
68
46
88
138
180
178
138
116
142
182
166
104
56
60
56
38
76
110
118
102
126
140
144
134
110
74
48
46
54
52
56
60
52
30
28
42
54
56
48
40
46
70
78
54
26
24
16
40
46
42
42
30
26
32
34
32
20
4
4
2
8
14
12
8
10
10
6
6
18
24
18
12
14
6
6
4
10
18
12
8
6
2
12
18
20
16
6
6
10
8
8
8
8
4
4
10
8
4
2
0
2
14
32
32
34
48
114
255
255
255
255
255
46
12
8
14
6
8
4
0
0
0
0
0
0
0
0
0
0
0
0
0
6
10
6
2
6
4
0
4
4
2
2
0
6
8
8
14
12
6
6
14
18
22
26
20
6
14
10
6
8
10
16
8
12
12
6
6
12
8
2
6
10
16
20
16
18
28
26
18
12
8
8
12
16
16
14
12
12
16
22
22
10
16
10
10
32
30
4
22
34
34
40
58
74
76
74
72
68
70
70
58
40
30
34
28
10
6
26
64
74
50
26
24
32
36
32
30
34
44
48
34
12
64
106
110
78
40
26
48
44
18
14
28
46
40
16
44
46
24
48
72
84
84
72
46
24
42
48
102
130
126
88
62
68
60
84
122
92
86
78
48
20
20
50
62
50
32
30
46
58
50
28
34
64
76
74
112
108
66
24
4
18
16
4
6
14
38
60
60
46
66
86
108
118
96
56
30
38
58
80
120
130
114
106
102
120
100
38
26
48
26
16
42
48
52
52
40
8
22
30
20
18
18
20
20
16
12
14
30
38
34
30
26
24
30
38
60
84
90
68
28
34
34
24
24
36
54
44
30
38
54
84
82
76
84
108
130
126
124
138
158
162
134
116
126
136
136
110
66
28
46
64
72
72
82
78
70
74
78
64
56
68
74
86
110
144
178
204
232
254
255
255
255
255
255
255
255
255
255
196
88
32
14
78
148
240
255
255
255
255
255
255
255
102
54
150
182
164
150
154
138
104
64
42
22
26
30
28
46
80
124
156
136
116
116
126
140
130
108
86
76
82
86
86
76
52
28
14
34
90
132
148
140
76
62
4
60
84
68
48
40
48
56
60
60
54
42
60
126
220
255
255
255
255
255
255
255
255
255
255
255
244
184
142
126
120
110
96
72
86
128
152
150
160
198
236
255
252
255
255
246
218
200
194
198
210
230
234
216
186
148
114
86
60
30
12
20
42
74
110
138
152
146
116
86
66
54
48
44
22
34
30
30
20
24
26
32
30
18
24
24
20
14
14
10
10
12
12
18
22
18
14
6
8
6
10
16
16
14
106
255
255
255
110
80
62
18
20
16
20
24
30
32
36
42
46
44
40
40
48
48
40
36
38
42
40
40
44
60
68
60
42
22
26
38
48
46
30
18
10
22
42
42
50
72
106
134
126
116
122
130
132
120
114
110
102
96
88
106
126
126
118
102
94
86
80
78
74
52
18
18
72
138
188
182
132
106
136
188
190
134
80
72
84
62
100
126
118
88
134
166
186
190
170
126
84
54
60
62
68
64
46
32
20
20
26
34
34
26
28
48
68
62
36
16
18
40
42
44
50
42
34
36
34
28
20
12
12
14
12
18
16
14
10
4
4
14
20
20
18
22
26
16
6
8
12
22
22
20
20
22
18
10
10
8
4
14
12
10
10
6
8
12
10
8
4
0
0
0
6
26
46
24
16
86
255
255
255
255
255
150
2
16
8
16
4
0
0
0
0
0
0
0
0
0
0
0
0
0
0
0
2
4
6
6
6
4
0
4
6
4
4
6
6
8
8
8
0
8
14
10
6
16
12
4
10
18
8
4
8
12
28
24
10
8
10
10
6
4
10
14
14
14
12
4
6
12
14
14
20
26
20
16
14
18
20
14
16
20
20
24
28
16
12
12
16
6
16
28
22
8
14
36
60
70
76
84
86
94
102
96
68
38
28
36
46
48
54
72
70
46
32
36
46
50
58
64
72
64
40
18
26
58
66
94
90
62
52
64
44
4
16
32
62
66
38
50
28
10
36
60
82
94
90
64
24
34
24
26
52
70
70
52
76
70
60
94
88
52
50
34
38
24
6
38
52
46
38
36
32
34
26
18
46
54
32
26
34
34
26
18
30
44
50
40
36
8
36
68
90
82
62
58
78
78
46
22
32
92
160
172
136
96
78
62
62
104
90
42
26
30
42
58
56
58
54
42
18
14
26
22
26
28
20
8
26
28
6
18
32
28
12
14
40
50
48
56
72
84
82
54
22
18
36
58
64
50
8
34
40
48
78
76
66
68
92
110
98
84
94
134
178
186
170
162
162
162
150
126
92
90
78
62
50
76
98
110
128
146
148
130
124
124
148
178
198
210
214
224
228
240
255
255
255
255
255
255
206
76
16
64
128
232
255
255
255
255
255
255
255
255
255
120
76
154
182
152
102
134
174
186
172
138
98
48
18
34
54
78
104
130
140
108
94
110
138
156
140
126
118
120
122
114
106
94
76
56
38
56
86
170
180
128
74
90
10
72
62
22
16
30
46
46
36
18
8
18
20
10
34
106
176
218
230
200
166
162
190
255
255
255
255
255
255
255
248
244
232
190
136
164
194
194
176
186
230
254
226
255
255
255
255
246
252
255
255
255
255
255
255
255
220
152
116
108
122
128
114
100
80
72
92
122
144
142
120
104
88
58
20
30
36
36
34
34
30
32
30
16
14
12
14
18
24
24
22
20
16
10
4
4
14
20
24
18
22
12
20
22
118
255
255
255
112
90
68
28
26
20
26
32
36
34
32
28
30
30
28
46
52
50
50
38
40
46
46
48
54
68
64
44
26
20
34
42
42
36
20
14
22
38
60
70
82
102
128
146
140
142
150
148
138
122
110
98
96
104
114
128
118
84
60
54
64
68
60
50
34
26
22
28
50
110
160
144
82
56
102
180
216
186
142
132
148
142
166
162
130
92
138
182
206
208
188
148
104
58
58
70
72
64
68
50
28
20
20
24
26
24
24
26
40
50
46
38
38
44
44
42
48
50
50
52
48
36
24
14
14
10
10
16
20
20
16
18
20
22
16
6
2
8
22
26
18
20
16
18
18
14
14
22
30
30
28
16
6
10
4
8
12
4
4
8
10
6
2
0
2
8
20
42
56
24
30
162
255
255
255
255
255
66
6
10
10
14
2
4
4
4
2
0
0
0
0
0
0
0
0
0
0
0
0
0
2
4
4
2
0
2
4
4
4
2
6
8
8
8
8
16
20
10
16
10
2
4
12
12
2
6
10
10
22
28
20
12
8
8
10
16
14
10
2
4
8
12
16
14
4
14
20
20
18
6
4
8
10
12
16
16
6
20
34
16
10
16
14
4
14
16
18
6
8
20
26
46
58
62
52
50
70
98
110
94
72
70
74
92
108
116
92
46
20
22
50
66
58
38
36
20
12
30
52
62
56
56
80
86
74
58
36
14
18
10
30
32
14
30
22
32
32
12
38
86
110
92
50
34
22
12
26
40
48
62
78
62
44
58
56
40
46
38
18
28
22
18
60
76
60
38
32
36
38
34
42
26
18
16
22
30
32
38
50
56
62
54
76
82
82
116
88
40
64
110
140
96
26
8
42
84
130
98
50
34
58
66
14
50
84
86
58
54
44
30
10
34
52
58
46
24
18
10
22
18
10
34
40
14
12
12
32
46
48
54
50
32
16
24
44
62
70
62
40
18
22
12
16
38
70
86
74
74
104
114
100
84
96
118
124
110
88
90
124
162
190
208
222
226
208
182
150
124
94
96
124
172
214
242
255
255
255
255
255
255
255
255
186
118
22
76
146
194
252
255
255
255
255
255
255
255
255
255
255
255
255
255
255
255
255
255
255
166
74
80
192
204
122
26
90
184
254
255
255
212
152
86
30
46
68
78
84
90
82
98
112
128
158
186
176
152
126
112
120
124
126
114
90
60
6
24
52
144
206
132
36
92
50
62
64
48
32
22
34
28
14
4
20
22
14
26
22
14
66
114
154
162
142
116
100
130
208
255
255
255
255
255
255
255
255
255
255
255
255
255
230
220
236
224
168
228
255
255
248
255
255
255
255
255
255
255
255
255
255
255
248
255
255
255
250
218
164
100
72
78
108
126
114
100
92
90
86
66
36
8
14
32
42
48
52
42
20
6
10
12
14
16
16
10
6
4
2
4
12
18
22
14
30
34
26
12
120
255
255
255
110
96
72
38
34
22
26
32
34
26
16
12
12
12
26
42
40
34
44
38
44
52
54
54
52
54
42
24
20
26
38
40
36
34
30
38
48
60
82
96
108
128
152
172
178
188
190
172
150
130
122
124
138
158
168
158
126
86
74
86
100
100
78
54
32
12
2
8
42
116
178
156
82
38
68
142
194
192
166
150
148
146
154
138
120
104
126
180
224
240
224
188
146
100
100
120
114
106
128
118
88
68
62
60
64
70
66
52
44
46
52
56
60
66
60
48
40
40
50
58
60
50
36
26
16
12
12
10
16
28
32
28
20
16
6
4
8
6
8
22
22
20
20
16
12
4
4
4
16
28
36
26
0
14
12
14
12
2
4
4
4
6
4
6
14
28
36
42
44
32
94
255
255
255
255
255
110
14
12
0
6
8
2
6
4
6
4
0
0
0
0
0
0
0
0
0
0
0
0
0
0
0
0
0
0
0
0
0
0
4
10
8
8
8
8
16
18
10
22
12
0
4
12
16
10
10
14
10
10
16
16
18
22
20
14
12
6
2
10
14
12
14
12
4
6
14
8
6
14
10
8
12
6
6
10
4
8
28
30
10
12
18
12
2
12
20
26
20
24
30
24
20
38
46
32
14
24
58
96
104
92
80
74
96
130
152
130
76
30
14
40
70
88
90
76
52
46
48
46
42
42
46
48
72
84
80
58
24
8
32
50
36
18
24
12
20
50
56
24
48
106
114
82
44
30
30
34
38
54
66
58
30
36
42
34
34
48
34
22
8
30
24
48
86
88
66
48
46
46
54
66
58
38
34
32
32
28
38
38
32
22
10
30
82
126
136
66
46
92
104
170
138
44
34
26
100
118
58
24
10
48
66
46
20
44
76
76
48
6
30
34
26
26
52
54
46
50
56
44
10
40
50
24
26
20
10
40
60
66
60
40
14
14
4
24
48
60
64
64
56
44
56
80
102
116
106
84
82
104
130
132
110
98
108
134
148
120
82
80
110
162
210
244
255
255
242
226
220
198
210
255
255
255
255
238
228
216
230
228
184
136
96
76
216
255
255
255
255
255
255
255
255
255
255
255
255
255
255
255
255
255
255
255
255
214
200
204
160
146
246
255
168
16
104
172
182
240
255
255
242
176
108
54
48
62
58
50
64
82
92
100
106
124
154
162
144
108
76
76
94
118
120
104
76
28
32
74
114
196
186
76
30
62
50
20
44
56
52
40
24
12
4
20
24
20
26
26
10
18
50
90
122
134
116
66
82
94
130
198
242
255
255
255
255
255
255
255
255
255
255
234
218
204
160
122
150
178
182
218
255
255
255
255
255
255
255
255
255
255
255
255
255
255
255
255
255
255
222
136
80
68
76
78
70
60
68
96
120
118
86
48
16
14
36
56
64
48
22
20
18
10
10
8
4
0
2
6
12
20
28
28
14
10
30
34
26
106
255
255
255
102
96
74
44
42
22
20
24
24
12
14
14
14
22
34
34
22
12
26
34
54
58
52
42
30
28
24
18
24
30
36
36
32
34
38
52
62
68
82
92
108
136
166
190
198
206
202
182
172
174
194
212
214
210
200
192
186
166
150
138
120
96
64
42
30
22
20
22
34
106
210
226
160
90
64
82
100
100
94
80
48
12
10
38
76
84
78
130
204
255
255
255
218
170
182
200
188
180
216
224
194
150
124
120
136
154
152
126
96
72
62
60
62
72
72
64
44
26
28
38
48
48
42
40
34
28
20
8
28
32
32
28
20
10
10
16
24
24
20
16
16
18
24
24
20
12
6
6
8
16
24
22
8
8
2
8
6
2
10
12
10
14
18
24
34
48
40
20
28
80
238
255
255
255
255
154
16
6
10
6
2
2
4
6
4
6
4
0
0
2
6
8
8
8
4
0
0
0
0
0
0
0
0
0
0
0
0
0
0
4
10
8
8
8
8
16
18
14
24
12
0
2
8
14
14
14
14
4
8
6
6
10
12
12
4
6
2
4
10
8
4
6
10
12
16
12
4
6
18
18
14
10
2
10
16
12
4
20
28
16
16
20
16
12
14
20
28
36
38
28
20
26
40
60
66
52
40
36
36
28
28
38
44
64
100
142
154
134
96
56
48
50
58
70
66
50
34
20
6
18
30
46
58
60
52
44
38
40
48
48
32
6
4
26
52
58
40
48
50
30
66
106
106
76
48
36
34
52
64
52
34
28
30
42
46
40
24
18
22
14
30
24
12
60
86
84
68
56
44
40
44
34
36
40
30
16
4
12
22
8
60
88
128
110
108
124
118
170
166
144
204
188
120
98
136
168
114
22
20
16
42
64
68
60
34
38
40
36
24
6
8
14
12
16
22
42
48
76
80
46
44
30
8
30
16
20
30
22
10
22
34
30
20
38
40
60
72
80
92
96
78
62
68
76
78
68
56
58
66
94
118
118
98
86
90
126
136
116
114
126
134
168
200
240
255
255
255
255
255
255
255
255
240
166
116
194
250
255
255
255
255
255
255
255
255
255
255
255
255
255
255
255
255
255
255
255
255
255
255
255
255
246
190
130
82
86
142
182
255
255
226
80
74
110
114
60
68
132
182
196
168
114
64
38
50
42
48
58
60
68
66
50
50
60
70
74
60
34
24
34
72
102
118
114
76
40
46
104
174
196
150
72
18
30
24
8
38
58
56
32
12
4
16
18
16
6
16
24
18
10
28
56
86
104
78
58
44
18
46
78
106
132
154
168
190
216
244
252
236
214
192
172
152
130
116
124
140
172
222
232
212
200
202
168
206
255
255
255
255
255
255
255
255
255
255
255
255
255
255
152
86
70
82
82
56
36
48
82
124
136
124
102
68
30
14
50
60
50
40
34
30
26
18
10
4
6
4
4
12
26
34
32
22
32
24
10
108
255
255
255
90
88
66
34
38
20
14
16
18
8
12
18
24
36
32
22
10
8
20
38
48
42
30
18
12
18
24
24
28
28
34
40
42
52
62
74
82
86
104
126
156
186
200
196
172
150
120
88
78
82
96
92
56
40
66
84
84
68
68
84
102
118
124
126
126
122
122
132
156
198
236
214
166
154
178
220
234
216
208
230
255
255
255
255
238
194
162
138
102
102
116
112
74
28
52
56
38
24
70
104
108
80
48
62
74
114
134
126
108
88
78
74
78
94
100
104
94
72
60
58
58
52
48
52
56
56
44
28
40
32
30
34
28
18
28
40
44
40
36
22
14
14
22
28
26
22
12
6
16
22
24
14
8
16
12
16
12
12
22
24
22
22
24
30
36
50
34
32
40
186
255
255
255
255
255
52
6
10
8
8
0
0
2
4
4
4
2
0
0
4
12
14
12
14
8
0
0
0
0
0
0
0
0
0
0
0
0
0
0
2
8
10
10
8
8
16
20
20
20
8
0
0
2
6
8
8
6
2
10
4
8
4
8
18
12
12
8
8
14
18
16
18
16
12
12
6
4
6
14
16
20
22
18
16
16
24
10
20
32
18
12
16
12
6
0
6
16
32
50
52
46
40
38
52
74
80
72
56
46
34
28
12
14
38
58
94
126
144
142
112
88
64
46
46
42
34
30
24
8
12
36
54
50
56
62
64
64
64
54
26
14
14
14
42
64
76
86
68
52
28
18
60
88
88
64
42
48
60
52
36
38
30
22
46
54
58
34
16
10
30
20
18
20
16
56
78
80
70
56
28
20
6
12
30
36
30
6
22
32
32
102
108
146
196
136
72
42
108
168
228
242
202
166
178
200
178
102
62
28
44
88
108
96
58
26
32
44
28
22
34
36
14
12
10
14
28
18
50
66
50
10
24
26
28
10
14
28
36
32
32
22
20
38
56
46
56
64
66
78
98
96
58
28
34
38
32
26
36
38
50
74
96
100
78
66
88
114
122
144
134
130
142
156
188
240
255
255
255
255
255
255
255
255
255
255
255
255
255
255
255
255
255
255
255
255
255
196
152
124
100
92
106
130
146
142
122
108
76
30
44
70
100
118
116
70
40
104
218
255
240
128
76
130
138
132
102
170
206
194
148
120
92
52
18
32
28
44
60
84
90
82
64
58
78
92
94
78
56
50
48
50
50
84
98
76
54
58
88
126
152
154
128
76
14
26
28
20
34
52
38
18
6
12
12
10
20
22
24
26
20
4
12
24
58
76
54
12
26
30
30
24
18
16
10
10
16
28
56
84
100
104
108
116
120
118
116
134
168
174
154
116
92
88
52
92
184
230
218
250
255
255
255
255
255
255
255
255
255
255
242
174
142
148
158
126
76
34
22
50
90
120
132
122
96
52
14
20
30
30
30
40
44
36
28
16
10
8
6
10
20
30
36
38
42
30
22
102
255
255
255
80
80
56
18
26
12
10
14
22
16
12
16
22
24
14
8
6
12
26
28
22
10
2
0
10
30
36
34
32
30
42
56
66
82
88
94
106
120
156
198
236
244
204
138
62
108
162
198
232
255
255
255
255
255
255
255
255
255
255
255
255
255
255
255
255
255
255
255
255
255
255
255
255
255
255
255
255
255
255
255
255
255
255
255
255
255
255
255
255
255
255
255
255
255
255
255
255
255
255
255
255
234
186
180
146
122
116
90
52
32
56
76
92
114
124
136
148
142
130
118
100
74
54
52
62
72
66
42
40
30
30
44
46
36
36
34
26
24
38
36
24
16
14
16
16
20
20
20
20
14
14
12
12
20
16
26
24
22
26
24
18
14
14
18
26
48
42
60
124
255
255
255
255
255
114
10
8
10
8
8
0
0
0
0
0
0
0
0
0
4
12
10
6
12
8
0
0
0
0
0
0
0
0
0
2
6
8
8
6
2
2
4
4
2
2
6
8
8
6
2
0
0
0
0
2
6
8
8
6
4
8
4
8
16
14
8
10
14
8
6
8
6
6
6
6
8
6
6
10
10
10
6
26
28
8
16
18
8
20
18
8
12
14
20
24
18
6
12
26
32
34
32
20
14
30
48
64
78
70
34
28
26
16
48
54
52
68
88
116
128
128
112
84
68
54
42
38
38
40
44
34
42
82
100
90
64
56
50
26
0
18
26
40
42
30
24
34
52
38
16
8
18
28
58
68
56
50
38
16
24
38
36
30
56
36
66
66
44
50
38
34
18
26
18
26
52
66
66
70
72
54
22
6
18
46
70
60
60
60
66
136
114
148
216
126
82
140
176
132
128
138
126
144
164
132
88
100
82
56
96
116
104
58
10
26
40
26
18
34
32
48
38
20
16
28
18
8
36
44
36
26
18
20
20
10
16
20
8
8
18
14
12
22
24
4
18
18
12
36
54
90
88
54
40
38
34
34
38
52
46
44
66
96
108
100
94
96
116
120
116
132
150
184
226
234
228
228
218
216
228
170
202
255
255
255
255
210
255
255
255
255
255
218
168
114
72
46
30
18
14
12
22
20
20
24
20
8
10
26
48
82
108
124
114
62
36
78
222
255
255
162
14
136
168
138
86
142
148
136
120
102
72
38
6
24
30
48
70
80
70
58
42
46
64
58
50
42
42
38
44
60
80
104
114
88
58
54
72
90
82
96
114
108
68
14
20
20
36
50
44
20
8
12
14
18
24
18
22
30
20
8
20
8
6
30
46
34
26
20
36
50
56
60
60
58
52
38
22
26
20
14
36
68
92
102
94
104
102
86
58
26
16
18
10
48
128
160
132
192
186
130
130
148
204
255
255
255
220
230
252
255
255
250
255
252
200
118
34
6
6
38
76
100
108
96
72
52
38
24
10
12
36
46
48
42
38
34
32
24
20
26
36
34
26
14
4
102
255
255
255
78
78
52
18
24
4
6
20
28
20
12
12
10
8
4
4
8
20
30
20
8
10
8
8
26
44
46
44
44
54
80
102
116
124
112
104
104
106
124
136
126
74
86
116
176
232
255
255
255
255
255
255
255
255
255
255
255
255
255
255
255
255
255
255
255
255
255
255
255
255
255
255
255
255
255
255
255
255
255
255
255
255
255
255
255
255
255
255
255
255
255
255
255
255
255
255
255
255
255
255
255
255
255
255
255
255
224
192
146
120
90
60
38
46
40
22
46
66
76
80
74
58
38
32
44
62
70
62
46
42
42
54
66
64
50
32
20
16
28
36
36
32
24
20
16
18
22
28
36
32
28
20
16
20
16
20
22
20
20
16
8
4
8
20
28
44
60
114
255
255
255
255
255
142
20
6
16
4
6
6
0
0
0
0
0
0
0
0
0
2
10
14
12
12
6
0
0
0
0
0
0
0
0
0
4
10
10
10
10
4
0
0
0
0
0
0
0
0
0
0
0
0
0
0
4
10
10
8
2
8
4
4
2
10
18
14
6
14
22
14
6
4
10
12
10
10
8
10
18
16
28
18
14
30
18
16
12
10
14
14
4
6
18
24
22
26
24
12
6
14
22
32
26
10
24
32
40
70
92
82
56
30
32
54
64
60
58
62
84
112
134
132
106
86
74
62
48
34
60
56
54
14
62
106
114
94
64
38
20
8
34
56
46
18
28
52
38
2
26
16
32
46
36
6
34
46
36
18
12
20
34
38
38
42
18
50
68
54
60
46
58
38
26
54
42
40
50
40
56
80
94
60
16
36
50
72
80
78
82
86
164
180
244
236
64
148
208
254
255
198
94
84
114
110
40
26
54
64
88
114
98
62
14
16
20
42
42
32
30
22
42
48
40
40
36
14
16
38
42
30
12
10
10
8
20
42
44
38
40
22
6
24
34
36
20
32
22
14
26
26
58
92
92
66
66
78
76
60
82
70
64
74
74
106
118
108
96
98
102
112
130
152
176
176
144
112
96
80
64
48
142
255
255
255
255
255
255
255
255
168
60
44
64
52
36
24
10
2
8
16
28
32
32
36
38
42
44
48
58
66
70
78
102
98
56
36
62
168
255
255
255
102
74
162
148
58
62
68
104
132
136
114
68
14
28
44
62
82
96
96
96
96
106
122
116
112
108
106
108
88
62
78
108
122
104
90
100
114
120
98
68
54
82
86
54
18
16
34
40
40
32
12
4
12
16
24
28
32
28
12
8
10
6
12
26
38
42
34
24
20
2
22
36
42
40
36
28
24
42
42
34
26
2
24
40
44
44
38
22
6
10
12
14
26
46
48
78
88
98
68
26
42
46
86
166
255
255
142
114
190
255
255
255
255
255
255
255
168
84
44
40
44
52
68
76
80
80
78
74
64
44
10
20
38
44
48
48
50
36
18
26
28
26
24
18
16
106
255
255
255
80
84
54
24
22
4
14
24
22
10
4
4
2
4
4
2
12
26
32
24
18
16
16
26
36
42
46
46
54
82
118
140
144
128
96
70
42
68
132
200
255
255
255
255
255
255
255
255
255
255
255
255
255
255
255
255
255
255
255
255
255
255
255
255
255
255
255
255
255
255
252
240
224
214
202
190
174
164
154
150
144
128
128
146
148
164
172
176
192
200
206
188
164
152
148
160
170
178
194
204
218
230
234
244
254
255
250
244
252
255
255
255
252
240
224
200
186
172
156
134
100
64
34
14
2
18
36
50
52
50
58
62
66
76
76
68
54
36
24
22
32
44
48
48
38
26
20
22
30
30
30
26
18
20
14
10
14
16
16
14
10
12
28
52
50
54
114
255
255
255
255
255
188
22
16
6
16
4
2
2
0
0
0
0
0
0
0
0
0
2
6
6
4
4
2
0
0
0
0
0
0
0
0
0
4
10
8
8
10
4
0
0
0
0
0
0
0
0
0
0
0
0
0
0
4
10
8
10
10
6
4
6
4
2
4
12
16
8
8
12
12
4
8
14
12
12
12
14
14
4
16
22
10
18
8
12
14
12
14
12
6
2
10
14
12
10
22
26
12
8
24
40
48
44
44
42
36
44
70
84
72
54
42
52
76
96
102
100
100
106
120
118
96
80
82
82
62
30
42
28
54
42
30
84
110
94
56
36
32
46
58
48
34
48
30
30
30
28
36
40
42
36
22
30
12
12
22
18
20
30
36
36
32
30
14
30
42
30
30
40
68
64
66
84
54
52
52
20
40
40
86
78
34
52
48
36
46
70
94
100
122
142
166
116
90
164
128
150
255
246
154
108
104
74
22
10
34
64
90
78
44
18
10
20
34
46
42
22
10
14
30
44
44
36
28
30
36
48
60
62
52
44
44
46
62
62
34
22
36
34
8
14
30
32
8
20
26
32
40
38
38
60
82
86
92
118
108
84
102
88
68
70
64
70
92
96
88
92
106
110
108
98
86
62
34
16
12
10
18
168
255
255
255
255
156
236
194
255
244
134
70
48
44
22
20
8
8
10
10
10
20
30
36
42
40
36
26
18
22
42
106
150
154
132
82
70
60
92
196
255
255
200
42
98
156
116
38
40
126
202
234
220
164
76
24
54
84
94
96
96
104
124
154
182
184
174
164
158
162
158
154
140
122
116
88
52
56
68
74
64
60
58
42
64
74
62
34
16
24
46
56
42
16
8
6
2
4
4
6
4
8
10
0
8
16
22
34
32
38
40
42
28
8
28
34
18
14
32
36
30
28
44
48
48
46
30
10
12
6
4
2
8
42
88
98
68
38
38
30
24
14
28
60
166
255
255
198
138
148
202
192
250
255
255
255
255
255
255
255
220
188
132
70
44
38
46
54
62
78
90
94
74
42
14
18
24
26
38
32
12
18
16
22
32
24
12
106
255
255
255
76
84
52
20
14
12
16
18
12
2
0
2
4
8
8
6
14
22
24
22
24
26
26
34
38
46
54
48
54
70
80
72
48
38
36
52
86
128
182
250
255
255
255
255
255
255
255
255
255
232
214
192
166
144
120
94
64
32
14
24
36
40
44
46
44
48
50
52
64
74
82
76
68
66
74
84
86
86
80
76
72
60
60
78
78
84
82
78
82
66
68
60
52
50
48
48
42
36
22
16
36
72
96
112
130
150
162
172
194
218
244
255
255
255
246
238
224
206
182
154
126
96
74
68
70
70
58
36
20
14
16
14
14
24
42
56
66
64
52
40
44
58
70
76
68
54
44
44
46
40
38
38
30
26
20
18
18
18
20
22
26
36
56
82
84
118
252
255
255
255
255
255
54
10
6
8
10
6
4
4
4
4
4
4
4
6
8
8
8
12
16
14
14
14
8
4
4
4
4
4
4
4
4
2
2
8
10
10
8
2
0
0
0
0
0
0
0
0
0
0
0
0
0
0
2
8
8
10
6
2
2
4
4
4
4
4
12
16
12
2
8
8
4
12
12
12
12
18
24
16
18
12
10
20
8
14
18
16
22
20
12
6
18
30
32
22
14
30
34
16
14
28
40
54
68
72
54
30
34
58
74
68
48
40
54
78
90
98
104
110
120
116
96
76
74
82
74
36
22
16
38
38
62
116
124
90
58
58
72
70
46
16
6
28
46
40
14
20
30
28
24
20
18
36
24
18
24
16
8
12
20
28
30
24
18
20
22
12
6
14
32
46
70
66
28
44
50
24
34
24
70
76
42
52
40
20
32
62
86
90
82
78
68
38
92
190
220
255
255
255
186
122
84
50
26
34
54
62
48
20
8
10
14
22
30
38
36
18
10
2
14
26
38
32
22
16
18
30
50
70
74
62
50
58
62
40
24
16
24
40
34
20
34
48
44
36
40
36
38
36
36
32
36
48
70
92
78
62
88
86
64
60
60
56
56
66
66
74
84
72
54
34
14
4
6
10
6
10
36
244
255
255
255
148
80
255
255
255
232
86
40
8
20
12
4
16
20
24
34
34
30
22
6
10
12
16
20
16
26
58
102
120
104
72
28
24
16
104
198
224
178
194
144
36
74
122
122
84
26
90
176
228
220
148
52
34
82
84
66
48
40
66
94
140
164
164
158
150
150
152
168
178
172
176
170
158
136
98
68
42
46
40
12
40
76
94
76
40
22
34
54
54
34
16
20
16
18
16
16
8
6
14
12
14
20
24
22
18
22
26
42
40
26
44
36
8
20
16
4
14
14
4
20
32
52
56
36
14
14
12
18
24
56
90
64
72
76
36
14
24
24
38
116
232
255
255
152
46
56
122
96
140
168
232
252
255
255
255
255
255
255
255
174
94
60
56
48
38
48
64
86
94
84
70
50
36
22
26
22
16
30
24
28
40
36
24
108
255
255
255
74
80
48
16
14
12
12
12
8
2
6
12
18
20
16
10
10
18
26
22
16
16
18
32
42
56
56
36
22
40
84
128
158
166
168
180
190
196
204
208
204
180
142
114
102
106
106
94
82
70
60
52
42
30
24
12
2
10
14
20
26
28
24
22
14
14
12
20
30
30
36
40
32
28
32
40
46
50
48
38
28
20
20
26
20
32
30
34
46
40
32
26
28
30
24
24
24
22
24
20
8
10
24
30
34
36
40
50
54
58
62
66
78
84
86
88
86
84
88
98
106
104
100
114
122
140
144
132
120
112
110
106
94
74
48
20
14
44
58
56
54
56
64
74
72
66
62
68
72
62
54
50
44
36
30
26
24
30
38
44
54
62
72
104
146
252
255
255
255
255
255
66
14
26
20
10
12
12
16
16
16
16
16
16
16
18
18
16
16
18
16
10
12
16
14
12
12
10
8
8
8
8
8
6
4
0
4
4
2
0
0
0
0
0
0
0
0
0
0
0
0
0
0
0
0
2
2
2
0
0
0
0
4
6
4
6
6
6
12
12
10
10
4
4
4
4
6
4
16
18
18
10
14
14
2
16
16
4
20
26
22
14
24
24
24
30
36
26
48
42
18
14
2
18
50
74
70
40
24
32
62
70
56
36
28
32
30
40
66
98
130
138
122
98
76
74
80
64
42
44
48
32
56
88
86
68
68
86
92
62
28
20
6
24
26
40
44
30
22
18
26
28
50
74
62
60
56
32
24
20
18
30
28
32
22
16
20
20
28
26
16
30
34
10
20
26
26
34
44
42
68
68
38
48
46
36
42
52
58
48
40
42
44
52
84
128
196
255
255
224
150
88
46
48
42
48
46
24
2
14
8
6
12
4
12
22
30
30
18
16
18
24
24
30
44
42
26
26
16
26
48
52
32
30
20
20
26
26
28
44
56
60
74
72
50
22
22
10
14
18
26
18
10
6
20
42
36
8
24
46
52
44
48
40
30
34
32
36
36
20
8
2
4
2
2
12
6
10
32
242
255
255
64
255
198
255
255
255
86
28
44
32
22
42
54
60
74
100
108
102
106
112
102
94
78
64
42
20
22
48
108
158
182
174
138
104
98
152
255
255
156
102
166
160
70
34
122
174
174
128
88
94
178
174
98
12
76
98
84
56
42
56
36
14
60
86
96
94
90
88
106
126
138
158
174
194
202
182
146
102
74
52
42
50
70
104
104
68
32
22
38
52
48
38
42
32
30
24
24
16
6
2
8
12
16
16
18
14
22
28
30
14
12
18
16
22
22
2
22
32
42
52
52
42
38
46
38
16
8
8
12
20
72
106
84
96
96
52
16
18
12
56
142
224
255
255
255
255
250
255
255
178
2
156
255
252
142
30
160
242
255
255
255
204
150
124
92
50
28
22
36
60
76
88
92
84
58
24
6
22
44
34
40
46
40
28
108
255
255
255
80
86
56
22
20
12
12
14
16
14
16
16
20
20
16
16
8
10
22
28
32
30
28
30
26
24
36
40
48
72
104
134
154
166
170
166
158
144
124
96
60
18
24
30
26
28
22
6
8
10
6
8
8
12
14
6
8
12
20
26
30
26
28
36
40
46
40
48
52
44
36
36
32
28
26
20
10
10
18
22
18
20
28
32
26
36
34
28
34
26
20
20
30
34
28
28
24
14
12
14
14
12
8
4
10
18
20
30
34
38
46
46
48
46
40
36
28
10
6
26
50
62
82
98
96
104
120
122
122
124
126
128
130
126
116
106
88
60
38
28
24
26
34
36
20
10
12
26
40
44
46
46
48
46
42
42
42
62
76
78
86
92
108
176
255
255
255
255
255
255
102
12
18
14
12
6
6
6
6
4
4
4
4
4
4
6
8
8
8
10
12
12
14
12
6
4
6
6
4
4
4
6
6
0
4
6
12
12
12
10
8
8
8
6
4
4
4
2
0
0
0
0
0
0
0
0
0
0
0
0
0
0
2
4
4
4
2
0
4
8
8
6
2
4
4
2
4
4
0
4
4
4
16
18
4
12
18
6
10
18
18
8
12
16
20
44
40
14
46
56
46
42
46
28
12
50
64
50
26
30
54
66
66
54
46
46
30
20
42
80
126
156
156
140
108
86
86
84
76
72
64
44
60
84
86
84
90
96
84
46
38
42
26
46
36
42
58
54
44
32
30
34
62
64
36
44
64
64
34
6
30
34
10
30
30
6
12
40
46
16
26
30
6
32
42
28
18
12
6
22
38
42
26
50
50
40
36
40
44
40
46
56
68
88
106
136
164
182
184
144
88
38
10
14
22
24
14
10
22
14
10
12
4
10
20
20
26
38
24
18
30
22
16
46
48
26
10
20
26
24
20
42
30
8
14
26
16
10
22
36
52
66
68
58
38
32
20
6
10
24
28
18
12
10
26
58
68
56
38
12
16
22
20
16
12
16
12
12
10
6
2
0
4
6
6
12
4
14
24
236
255
255
230
255
110
255
255
255
144
58
62
44
24
34
38
44
60
76
82
88
102
128
158
174
186
204
216
212
194
198
200
184
144
92
44
34
88
184
224
150
62
52
118
178
162
90
32
90
144
170
132
94
130
142
92
12
84
98
74
46
26
56
66
50
74
92
98
94
82
58
74
96
116
140
154
172
190
198
190
160
126
86
62
58
68
102
114
94
64
42
42
52
52
50
48
48
48
46
50
48
42
36
24
18
24
28
28
18
16
14
2
16
24
22
6
12
14
18
36
44
44
54
68
72
54
52
36
18
8
10
8
16
52
94
102
104
80
40
14
10
12
64
126
196
246
255
255
255
252
255
255
255
166
255
255
255
158
186
160
86
238
255
255
255
252
194
144
94
56
28
20
30
42
58
80
92
86
68
48
42
38
22
34
62
70
66
106
255
255
255
86
98
66
30
28
10
12
20
28
24
16
8
10
14
8
16
16
22
44
54
54
42
28
8
18
48
68
78
82
84
84
76
66
60
56
52
50
44
34
24
14
6
8
6
10
18
16
8
10
18
16
18
20
18
10
0
8
16
16
16
20
16
8
10
16
14
4
10
22
22
18
22
20
16
16
16
8
4
14
14
4
4
12
14
4
8
8
14
28
22
18
14
14
18
18
14
8
6
14
22
18
12
4
10
6
6
10
12
14
14
18
20
18
14
12
14
6
8
16
20
22
28
32
28
14
12
28
38
42
50
62
74
90
104
116
132
148
154
146
134
126
114
110
96
80
68
62
54
34
18
6
10
22
26
28
32
44
68
78
70
74
86
120
224
255
255
255
255
255
136
36
16
22
22
18
12
2
2
12
16
16
16
16
16
16
16
16
16
16
16
16
16
16
14
12
12
12
10
8
8
8
8
4
4
6
14
20
16
18
14
8
8
10
8
4
4
6
4
0
0
0
0
0
0
0
0
0
0
0
0
0
0
0
0
0
0
0
0
0
0
2
4
4
4
4
4
4
2
8
12
12
8
12
14
6
10
16
10
4
10
18
22
20
28
26
38
32
10
26
44
46
52
66
58
26
14
36
38
32
40
54
58
66
74
84
96
80
48
44
64
100
138
158
162
144
118
104
100
98
92
80
64
92
120
126
116
100
88
74
52
52
64
58
76
60
56
64
62
50
34
32
50
46
8
28
32
20
68
78
44
50
28
28
60
40
26
26
40
74
58
48
32
12
38
36
26
40
50
52
66
54
16
30
54
46
30
24
38
62
78
92
98
102
108
114
126
128
130
122
80
34
16
22
26
18
14
12
16
6
8
12
10
6
12
10
16
34
54
52
34
36
18
18
44
46
34
50
58
50
36
18
38
40
26
28
28
12
12
24
34
38
34
30
24
34
42
32
12
2
20
34
32
24
22
18
10
42
54
54
46
20
16
14
16
6
6
6
6
6
4
2
0
0
0
4
12
6
12
4
154
255
255
222
176
98
255
255
255
138
70
74
52
4
26
44
44
38
36
42
42
62
108
144
174
210
255
255
255
255
255
255
255
255
255
255
255
228
204
182
220
150
64
44
86
132
148
118
72
26
32
60
62
146
176
108
28
82
94
80
60
42
42
12
44
88
104
96
80
58
52
68
90
110
130
134
134
136
150
180
196
184
134
70
44
58
92
110
104
92
76
64
60
54
48
44
50
58
64
74
80
80
78
66
44
38
34
24
2
14
24
34
36
36
32
32
28
20
14
22
26
18
12
18
32
32
20
12
10
8
6
8
10
16
28
38
36
26
14
8
2
20
60
104
190
255
255
255
190
50
224
255
255
246
255
255
198
80
186
255
230
46
184
255
255
255
214
160
126
102
76
56
40
26
22
36
60
78
86
98
114
114
84
26
46
70
82
104
255
255
255
78
92
54
20
22
4
12
22
26
14
6
10
16
24
18
22
28
40
52
46
28
10
12
34
52
58
62
60
54
44
34
16
20
18
4
2
4
4
2
6
10
16
20
22
22
28
26
18
12
12
12
18
26
32
26
20
26
28
24
24
28
24
16
8
10
14
12
2
10
14
14
14
10
10
12
18
18
18
22
16
6
4
6
12
8
8
2
18
24
10
14
14
8
6
10
14
12
12
20
22
12
10
8
14
14
18
20
14
10
10
14
12
12
14
16
20
14
16
26
26
14
6
10
20
24
24
22
20
14
4
14
26
42
54
64
78
94
114
124
120
118
110
100
94
84
80
76
70
72
64
56
50
36
28
24
24
36
56
64
50
52
66
90
164
255
255
255
255
255
255
255
255
255
255
255
255
255
255
255
255
255
255
255
255
255
255
255
255
255
255
246
226
204
182
162
146
132
120
110
94
74
54
28
4
6
12
16
12
16
14
8
8
10
8
4
4
4
4
10
12
12
12
10
8
6
4
2
0
0
0
0
0
0
0
0
0
0
0
0
0
4
6
4
4
4
4
4
8
12
10
10
6
10
14
8
12
18
14
4
10
16
14
8
20
30
24
30
36
18
22
26
34
56
66
56
26
22
16
20
30
42
46
54
66
82
104
102
70
46
42
58
86
114
134
140
136
128
124
122
118
106
92
124
142
136
112
90
90
92
78
62
72
62
70
54
58
68
76
74
56
64
68
50
46
20
12
8
32
72
72
50
24
32
32
20
44
52
24
54
48
36
28
40
44
24
10
8
18
42
44
26
18
52
62
46
30
30
54
90
112
128
130
124
116
110
110
102
98
84
46
14
4
6
14
14
10
6
4
16
16
8
8
12
6
8
18
20
36
44
32
28
14
28
42
26
4
24
32
30
28
20
30
38
34
28
10
14
26
26
22
18
10
6
4
18
26
30
16
22
42
50
38
20
22
30
28
22
34
30
30
24
32
30
28
12
4
8
4
6
6
2
0
0
0
4
10
8
8
4
90
255
255
255
156
216
255
255
255
168
122
122
90
42
34
60
68
42
6
48
108
160
172
156
140
122
104
120
182
255
255
255
255
255
255
255
255
255
255
196
114
96
114
112
74
32
104
134
134
124
86
48
60
154
182
106
56
88
82
50
26
34
42
54
62
58
42
36
54
56
36
20
28
54
92
114
120
110
106
154
228
255
230
132
56
34
60
96
110
106
84
60
52
54
50
40
40
46
52
58
64
72
82
80
70
58
38
24
20
20
18
24
30
34
32
38
36
26
20
32
44
44
38
32
14
4
10
6
10
20
16
10
8
10
12
6
8
12
12
12
10
24
56
90
180
255
255
255
255
142
146
168
212
184
255
240
130
68
126
214
255
255
120
78
176
198
162
126
108
98
90
84
70
52
34
24
32
42
52
64
98
126
132
108
60
22
10
104
255
255
255
72
80
48
24
22
4
16
22
18
14
6
20
32
38
36
36
38
40
32
14
32
42
52
56
48
32
20
14
14
20
16
8
10
16
14
14
12
14
14
18
16
14
6
6
4
12
12
6
8
12
12
14
12
16
20
20
24
24
18
18
22
22
20
14
16
14
14
8
6
8
6
2
0
4
8
16
22
24
20
14
12
14
14
10
2
2
10
16
14
10
22
18
6
4
6
8
10
10
10
10
6
8
6
4
10
12
18
18
16
10
12
14
14
10
12
14
8
14
28
22
10
8
2
2
2
2
4
4
4
6
6
6
10
12
12
12
10
8
20
26
34
36
36
44
48
48
44
40
52
70
82
86
78
68
66
76
84
112
132
130
132
150
192
255
255
255
255
255
255
255
255
255
255
255
255
255
255
255
255
255
255
255
255
255
255
255
255
255
255
255
255
255
255
255
255
255
255
255
255
255
255
255
224
156
96
50
14
14
16
12
8
8
8
6
4
4
4
6
8
6
4
6
6
6
4
2
2
0
0
0
0
0
0
0
0
0
0
0
0
0
4
6
4
6
4
0
0
8
14
10
14
10
14
16
12
16
20
16
10
4
22
32
32
20
20
14
24
52
60
38
16
26
22
38
56
52
30
10
2
4
20
36
34
44
52
70
84
74
52
34
30
38
58
82
102
120
130
136
136
132
122
114
134
134
116
92
86
108
118
96
68
76
48
48
38
48
62
76
84
70
74
66
70
98
90
54
20
20
32
54
62
56
52
52
58
66
44
12
34
20
10
18
48
62
44
26
42
52
58
36
28
52
70
72
54
46
48
78
118
134
138
128
114
102
94
94
88
80
62
32
16
22
26
26
22
18
16
16
14
6
14
18
10
16
12
8
2
8
16
14
16
18
40
50
46
32
56
62
38
20
12
24
34
34
28
28
50
44
20
12
24
14
6
18
30
28
20
18
44
52
42
20
4
14
8
24
56
62
44
12
20
26
30
34
18
6
6
4
4
4
0
0
0
0
4
8
8
0
8
42
180
255
255
255
255
255
255
242
134
84
42
38
150
248
255
255
236
228
180
92
28
126
188
236
255
255
255
255
220
255
255
255
255
255
255
255
255
255
255
255
255
244
176
132
98
56
16
46
80
96
100
106
154
164
84
76
104
112
84
46
54
36
34
58
66
56
66
86
76
44
30
36
18
36
84
108
88
68
156
186
255
255
216
116
48
40
76
114
122
90
54
44
58
68
58
46
44
44
42
42
50
66
74
78
78
68
56
54
60
68
92
108
114
118
108
94
80
74
70
68
66
70
72
58
30
26
32
34
38
40
38
36
30
28
18
6
6
8
12
16
36
58
70
154
255
255
255
255
248
106
100
40
76
180
188
112
104
96
114
196
255
255
255
255
242
152
82
60
60
64
74
80
80
68
48
32
16
12
2
28
74
122
150
142
124
110
108
255
255
255
82
90
50
26
16
16
28
30
24
16
20
32
34
36
34
26
18
10
4
18
32
42
42
38
30
20
14
14
12
18
20
18
20
24
18
12
10
14
22
24
20
18
18
18
10
14
10
4
10
10
8
8
6
4
8
14
18
16
8
12
14
18
18
16
14
16
16
10
8
8
10
8
4
6
10
18
20
18
14
10
12
10
4
2
2
4
8
6
10
14
20
14
4
6
4
2
4
0
6
10
10
10
10
8
12
6
4
10
14
6
2
4
4
2
8
10
10
16
22
10
4
8
6
4
6
6
6
4
4
0
4
6
6
10
10
16
18
18
18
14
12
6
8
16
26
32
28
20
38
42
48
64
66
56
54
64
66
68
84
86
84
96
126
182
255
255
255
255
255
255
255
255
255
255
255
255
255
255
255
255
255
255
255
255
255
255
255
255
255
255
255
255
255
255
255
255
255
255
255
255
255
255
255
255
255
255
255
255
255
255
254
212
170
132
92
54
14
8
10
12
12
12
10
10
8
2
10
16
16
16
14
10
8
6
4
2
0
0
0
0
2
4
4
4
2
0
0
6
12
12
14
8
20
24
14
10
10
10
10
6
8
20
40
48
20
32
34
32
62
58
40
52
32
18
14
42
50
38
24
14
26
26
16
30
34
38
56
70
66
56
48
40
42
54
68
90
108
122
132
132
126
120
130
126
110
92
92
110
110
82
56
82
70
48
38
44
50
56
54
34
30
34
40
78
96
86
52
20
26
12
42
54
46
38
42
26
16
36
50
30
38
28
20
50
48
42
54
56
78
72
46
60
74
84
70
58
68
110
160
160
130
94
72
70
72
72
62
46
30
16
12
14
16
16
14
10
6
0
8
16
20
14
2
16
16
4
4
8
8
6
6
10
36
56
50
26
28
44
38
20
4
22
36
38
24
54
68
48
46
10
22
22
4
16
20
18
24
32
34
22
10
12
8
2
22
42
50
34
20
22
20
8
16
30
26
16
6
2
6
4
0
0
0
0
2
4
4
6
4
8
56
132
252
255
255
255
255
255
255
255
255
255
255
255
255
255
255
255
255
255
255
255
255
210
164
126
142
220
255
255
255
234
166
166
244
255
255
255
255
255
242
242
204
210
230
208
182
138
60
22
92
142
158
146
68
90
144
122
68
28
46
82
106
112
70
26
26
56
72
56
22
6
14
40
84
106
56
48
106
70
176
255
252
202
138
92
84
114
144
134
108
104
104
122
122
104
80
64
64
64
68
76
84
92
100
100
92
84
78
96
116
122
124
122
130
134
146
154
156
144
120
110
112
110
88
66
60
50
42
44
46
52
52
52
42
22
10
6
8
24
50
60
40
98
208
255
255
255
255
146
86
66
104
152
130
44
78
74
66
110
180
224
255
255
218
146
82
28
34
46
50
50
52
54
52
42
24
10
6
16
40
78
114
128
130
126
106
255
255
255
88
102
60
46
32
28
38
34
30
30
32
34
28
22
10
6
18
24
22
20
20
20
18
20
24
26
30
34
26
28
28
24
22
22
16
8
8
16
22
20
16
16
22
26
18
16
10
2
8
10
8
6
4
4
4
10
10
4
2
6
8
12
12
12
12
10
8
6
8
8
12
12
8
8
10
12
8
8
10
6
2
6
8
8
6
8
10
8
6
8
12
8
6
8
4
2
8
10
8
6
4
6
12
12
22
22
16
6
16
14
8
8
8
10
8
2
6
10
14
16
10
8
4
2
4
4
2
0
4
6
6
8
8
10
4
6
8
8
6
2
2
8
18
16
18
26
26
16
22
14
6
18
28
24
16
18
10
8
22
22
8
2
8
14
20
32
34
50
70
78
82
84
82
78
66
70
68
70
76
74
88
100
102
106
120
150
172
180
194
226
255
255
255
255
255
255
255
255
255
255
255
255
255
255
255
255
255
255
255
255
255
255
255
255
255
255
204
122
76
44
24
10
4
4
4
4
8
4
0
2
4
2
2
2
2
2
0
0
0
0
0
0
0
0
0
0
0
2
4
4
4
2
14
26
28
18
14
8
8
8
4
2
24
48
38
32
18
6
32
44
46
48
46
56
42
6
30
46
40
26
30
12
12
30
24
14
28
58
72
74
74
66
62
58
50
60
72
82
98
104
104
98
108
108
96
82
80
86
78
56
42
60
78
64
44
38
38
42
32
28
24
28
12
24
54
74
68
28
10
18
36
24
20
12
6
20
38
46
38
16
28
38
22
16
32
34
30
22
46
62
52
50
74
94
78
60
76
130
174
144
84
40
34
54
58
46
28
12
6
4
4
6
4
2
2
8
12
20
24
18
12
6
14
24
16
2
4
8
12
12
6
18
24
52
72
78
88
80
44
8
12
18
30
36
30
56
54
40
56
28
10
22
18
22
36
36
34
26
8
12
22
20
12
34
42
34
16
10
22
22
20
16
20
18
20
20
10
4
6
2
0
0
0
0
0
0
0
6
8
8
4
16
96
255
255
255
255
255
255
255
255
255
255
255
255
255
255
255
255
255
255
255
255
255
255
255
255
255
255
255
240
178
172
116
70
54
102
226
255
255
204
202
214
208
252
255
255
255
246
144
124
170
192
158
70
84
152
154
136
110
62
96
126
120
88
82
84
96
70
40
46
42
36
40
88
108
62
68
132
98
80
144
196
204
178
134
100
104
132
140
130
118
118
128
146
144
122
96
86
86
86
80
78
82
94
104
102
92
74
68
74
72
70
68
86
114
128
156
178
182
164
148
144
146
134
110
86
62
48
38
38
48
60
68
64
50
38
36
20
36
68
64
30
36
108
224
255
255
255
196
48
34
94
176
136
40
64
30
36
78
98
114
132
146
128
90
58
30
8
26
32
36
30
22
40
50
44
32
34
34
38
44
54
62
68
70
102
255
255
255
84
92
52
44
40
30
34
24
22
32
42
42
30
8
20
38
40
30
22
18
26
30
32
30
28
28
30
32
22
28
28
22
20
28
28
20
20
26
24
14
10
8
10
14
14
14
14
12
14
14
14
16
16
16
14
14
10
4
4
8
12
14
14
16
18
12
6
6
10
8
12
14
10
8
4
6
6
4
10
8
6
4
2
4
4
8
10
8
6
8
12
8
8
12
8
6
10
8
6
6
4
4
8
4
8
16
16
6
14
6
6
8
8
8
6
8
10
10
8
2
8
8
4
8
10
10
6
4
4
4
6
4
6
8
8
12
12
10
8
6
6
10
14
6
10
14
18
14
10
10
8
4
8
10
6
2
8
22
28
20
12
12
12
22
36
52
68
78
84
74
58
52
54
60
62
56
44
44
52
58
62
52
36
26
14
10
20
24
24
36
64
98
134
164
182
200
222
246
255
255
255
255
255
255
255
255
255
255
255
255
255
255
255
255
255
255
255
255
255
255
255
255
254
200
144
74
8
16
16
16
14
10
8
4
4
12
16
16
16
14
12
12
10
8
6
4
2
0
0
0
0
0
4
10
16
18
12
8
8
6
6
6
6
22
26
20
8
4
14
28
30
24
30
52
62
54
26
28
42
42
22
4
26
34
14
16
24
46
68
68
70
70
76
78
62
54
48
40
44
50
60
68
78
74
60
52
56
62
58
48
42
32
50
52
32
20
24
42
52
34
2
32
32
10
22
54
66
50
22
20
32
24
6
4
18
24
42
42
24
10
16
12
10
12
14
18
16
12
18
34
44
56
82
88
62
48
74
120
130
78
26
30
42
70
58
34
16
8
8
4
2
4
6
4
2
6
6
10
10
2
4
6
12
16
8
0
2
4
6
10
18
18
18
30
44
58
58
44
38
24
8
6
18
26
26
34
20
28
44
24
12
28
22
14
16
18
20
22
22
14
18
32
42
46
32
12
4
12
6
12
24
22
18
20
16
12
4
8
6
0
0
0
2
4
4
4
4
0
4
4
0
4
16
82
174
255
255
255
255
255
255
255
255
255
255
255
255
255
255
255
255
255
255
255
255
255
255
255
255
255
254
152
112
128
94
32
20
108
218
246
216
212
200
162
148
178
255
255
255
255
255
255
254
184
70
74
116
112
118
148
172
142
74
26
6
24
58
80
74
42
26
16
44
70
94
110
84
52
54
58
28
76
112
104
78
64
72
94
108
92
66
44
34
38
66
100
116
106
90
82
76
64
56
56
68
84
90
90
78
48
36
28
22
20
34
54
58
52
80
106
130
156
174
174
150
124
108
96
82
62
50
48
58
68
70
68
70
78
66
72
98
80
30
14
34
124
240
255
255
255
92
18
126
182
98
26
76
36
44
74
78
78
80
74
46
48
62
66
50
32
42
26
26
32
50
64
54
28
18
14
24
32
34
34
32
32
100
255
255
255
82
76
46
28
38
32
34
26
28
44
56
48
38
28
42
46
32
26
26
28
44
50
46
32
24
20
16
16
10
18
22
20
24
34
32
28
24
26
16
8
4
4
8
4
4
12
16
14
16
12
12
16
16
18
18
14
10
8
12
14
12
12
12
14
18
18
14
8
12
8
10
14
12
8
4
4
8
6
8
8
8
10
10
8
2
2
6
10
12
10
16
12
8
12
8
10
12
4
2
4
6
0
8
8
8
12
8
2
6
8
20
22
22
22
14
10
10
12
10
14
6
2
8
22
20
22
16
8
4
8
12
14
10
6
8
18
14
12
18
10
12
12
8
4
10
4
6
10
8
8
2
4
6
4
4
6
8
12
20
22
24
22
22
20
14
12
22
32
36
20
18
16
18
20
18
32
44
38
38
28
20
22
36
42
40
36
38
32
20
24
20
18
12
8
16
24
24
16
22
16
22
26
16
34
52
72
104
152
222
255
255
255
255
255
255
255
255
255
255
255
255
255
255
255
255
255
220
114
66
48
40
30
18
4
6
6
2
0
2
2
0
2
2
2
2
2
2
0
0
0
0
0
0
0
2
8
8
4
4
2
6
8
8
4
4
12
16
16
22
16
10
8
8
26
44
58
56
56
60
40
10
14
28
22
4
24
24
32
58
54
50
54
68
84
82
72
58
38
24
40
48
52
52
40
28
28
34
40
42
46
46
24
34
46
32
18
24
48
74
82
56
14
20
22
4
36
56
60
52
42
32
34
34
24
12
46
50
28
12
26
40
36
28
14
4
16
28
26
22
22
44
72
86
76
56
54
72
86
68
42
12
32
66
76
50
26
14
12
12
6
4
4
6
4
2
8
12
18
24
20
12
2
10
14
6
0
0
0
0
2
16
22
16
20
18
14
8
14
30
38
30
14
10
14
20
10
18
40
38
14
20
34
26
10
2
4
8
12
26
36
52
54
46
32
12
10
14
10
20
20
24
22
14
24
22
14
6
6
10
2
0
0
4
8
8
8
8
4
0
0
2
2
2
4
6
8
14
60
100
100
96
48
14
14
12
12
12
12
12
18
106
232
255
255
255
255
255
255
255
255
242
194
166
124
60
30
4
72
152
192
192
172
138
96
52
54
86
188
255
255
255
255
232
144
44
80
98
46
40
94
176
216
192
156
120
98
88
72
42
30
56
40
46
102
132
154
154
136
136
114
84
122
144
112
66
18
70
100
122
90
44
48
40
52
40
10
30
44
38
28
26
26
14
10
6
18
30
44
52
44
16
20
44
64
84
98
96
74
52
26
46
74
120
136
110
78
68
78
82
68
52
38
40
52
60
68
80
98
98
94
114
86
52
58
22
54
154
255
255
255
148
84
160
178
76
42
76
42
86
88
88
82
66
32
2
4
36
70
82
62
36
4
28
36
36
52
48
24
8
12
2
18
30
36
28
18
100
255
255
255
94
78
56
18
30
48
58
60
66
74
68
38
44
50
40
28
18
22
28
40
48
44
30
16
12
8
4
6
8
12
22
26
30
30
22
16
18
16
12
16
14
14
14
6
10
12
12
8
14
14
10
8
4
4
6
10
8
6
10
8
4
2
0
0
4
10
12
8
12
6
4
8
10
8
6
4
8
8
8
6
0
4
10
14
10
8
8
12
10
4
8
6
2
8
4
8
14
8
4
6
12
12
12
12
10
8
6
0
2
8
16
14
12
18
14
6
6
10
8
16
18
12
16
22
8
14
18
10
6
6
4
10
16
14
10
12
12
16
16
4
12
12
6
10
12
6
4
4
2
2
10
14
10
6
2
4
6
6
12
18
22
16
24
24
16
28
36
38
52
38
32
32
34
38
38
46
44
32
44
50
48
40
42
32
20
18
22
20
16
18
14
10
2
12
20
32
34
26
28
28
34
52
54
52
58
54
34
10
38
84
132
176
216
252
255
255
255
255
255
255
255
255
255
255
255
255
255
255
255
255
255
255
194
110
32
8
16
16
16
14
12
12
10
8
4
8
14
16
16
16
16
14
12
10
6
6
2
4
4
4
8
6
2
4
6
6
8
10
10
2
4
6
4
10
16
24
28
36
38
22
6
12
20
18
18
26
20
22
48
44
38
46
48
72
90
98
98
88
72
78
66
52
40
36
30
28
28
32
38
52
58
40
58
78
68
50
50
66
82
96
92
62
24
28
20
28
52
64
64
64
54
42
38
58
36
36
46
44
34
48
42
26
24
14
2
40
62
56
60
50
66
82
90
92
94
86
70
60
52
46
48
56
62
54
32
16
8
6
6
4
4
4
4
0
4
4
2
2
8
14
18
14
10
12
6
0
0
0
0
0
8
14
12
10
6
4
2
2
12
28
34
22
10
22
28
26
26
26
28
20
36
46
38
22
20
12
16
22
34
40
44
34
22
14
6
10
16
14
16
8
16
20
18
24
14
6
8
4
10
4
0
0
4
8
4
4
8
4
0
0
2
4
4
2
8
10
8
8
4
2
8
14
12
14
12
10
10
12
12
14
10
20
58
80
98
120
134
134
130
116
116
120
92
72
44
22
12
12
44
66
72
86
104
104
74
16
36
56
88
128
170
180
150
96
68
128
120
64
24
10
78
130
142
146
146
152
170
190
178
118
144
142
102
146
166
176
184
186
186
180
178
222
255
255
234
170
166
144
178
174
134
84
32
22
50
64
64
74
84
92
98
94
80
88
82
62
48
38
32
32
28
24
28
42
72
96
108
98
84
84
84
56
76
108
90
46
12
28
44
44
40
28
26
42
68
76
80
94
102
96
108
76
74
94
78
72
138
196
228
198
146
120
108
122
82
86
54
42
122
130
100
66
42
50
36
42
48
50
70
72
62
56
50
44
46
50
32
28
20
10
16
22
22
32
34
26
108
255
255
255
106
94
76
32
44
68
80
88
90
78
50
24
32
46
42
30
20
22
30
32
30
22
10
4
4
6
4
4
12
14
18
20
20
16
8
2
6
8
8
16
18
20
20
14
12
8
4
4
4
10
8
2
4
4
6
6
4
4
6
2
4
6
6
8
8
8
4
6
8
2
2
8
10
4
4
4
4
10
10
4
4
4
4
12
12
14
8
8
6
6
10
8
4
8
4
6
12
10
14
20
22
16
12
12
10
6
8
4
6
6
8
10
6
8
10
10
4
8
8
8
18
16
14
10
12
16
14
10
2
10
6
2
10
14
10
6
4
10
6
4
14
10
4
14
12
8
8
8
6
8
14
12
10
10
4
4
4
4
10
10
6
8
18
18
14
24
22
16
34
32
32
36
32
36
30
24
16
12
20
30
42
34
22
8
2
14
12
6
16
26
30
32
36
38
24
24
22
20
22
32
30
22
20
18
28
36
34
36
36
28
20
16
14
8
6
14
16
38
90
162
250
255
255
255
255
255
255
255
255
255
255
255
255
255
255
204
144
104
76
56
44
36
28
18
4
8
4
0
0
0
2
2
2
4
2
2
4
6
4
4
8
10
8
10
8
6
4
4
6
2
2
4
6
10
12
8
0
14
16
8
8
16
26
24
18
20
14
12
32
32
28
28
26
42
68
88
100
102
90
76
66
54
44
36
28
28
28
36
46
62
68
52
62
88
88
70
72
72
80
86
96
92
68
42
28
22
36
50
60
72
80
56
6
32
36
20
24
36
34
32
16
14
20
20
26
70
82
64
64
62
70
84
100
112
110
82
58
62
80
86
68
44
30
22
10
2
4
4
2
0
0
0
0
4
8
8
8
10
8
0
10
14
12
12
6
0
0
0
0
0
2
4
4
4
4
4
2
0
2
14
26
22
14
34
34
34
46
54
52
30
44
50
38
30
36
30
28
32
34
26
16
8
4
6
6
6
8
8
2
2
6
12
16
14
2
10
10
4
8
4
0
0
2
8
10
10
8
2
0
0
0
0
2
6
10
10
8
10
8
6
10
16
16
14
14
14
14
14
12
16
14
2
6
8
10
12
12
12
10
8
2
22
36
36
28
24
14
8
4
4
18
36
36
48
68
46
58
146
154
96
42
52
84
124
148
144
102
46
32
30
38
38
54
74
96
124
166
220
248
222
214
190
142
164
170
164
174
182
186
192
200
250
255
255
255
255
255
246
255
255
255
255
254
214
170
132
104
96
106
118
130
128
102
68
56
50
48
50
60
78
90
98
102
90
64
56
48
42
42
32
60
76
124
124
86
46
32
38
40
38
38
20
12
30
46
42
38
46
52
42
44
18
38
60
68
66
136
212
255
232
160
92
122
162
140
84
38
98
150
130
82
38
20
40
48
52
44
26
38
50
60
76
86
86
74
56
30
6
20
26
32
28
16
20
26
24
120
255
255
255
112
122
102
54
60
74
80
84
74
56
46
34
64
72
62
44
26
18
18
12
8
4
4
6
6
2
6
10
12
10
8
4
4
4
4
8
10
12
8
2
8
12
12
10
12
8
4
4
2
2
4
6
10
12
4
4
2
4
6
4
8
10
10
6
2
8
8
10
8
4
8
14
12
4
2
4
4
4
4
4
6
6
4
4
2
4
2
6
8
8
12
12
6
8
4
4
8
10
22
26
16
10
6
8
8
14
16
12
10
6
6
6
2
8
10
12
12
10
10
4
8
10
8
6
0
8
10
8
4
2
6
4
2
4
8
6
2
6
8
12
12
6
10
14
8
4
4
6
6
8
12
12
14
14
8
8
10
10
10
4
4
10
14
14
16
18
12
6
18
20
26
28
20
22
18
6
2
6
12
8
12
16
12
14
16
16
8
6
18
26
24
20
22
30
24
18
18
14
8
8
14
18
14
14
12
12
12
14
10
6
10
16
24
28
40
48
54
44
22
12
52
96
142
186
224
255
255
255
255
255
255
255
255
255
255
255
255
255
255
255
255
255
218
168
94
24
12
16
16
16
16
14
12
8
2
10
12
16
16
14
8
4
2
2
2
4
6
2
4
6
4
2
4
14
16
12
14
20
14
4
2
6
16
18
6
10
8
2
14
16
16
14
14
10
24
38
46
50
44
30
28
30
34
26
10
16
32
48
58
64
54
28
24
48
58
46
44
48
62
66
80
92
86
66
38
20
20
22
40
70
96
94
66
60
50
34
26
14
4
4
4
8
28
36
56
74
62
30
16
32
60
84
98
90
64
44
54
84
106
88
40
8
22
38
26
14
12
14
12
8
6
2
0
4
8
6
4
8
8
2
2
2
2
4
0
6
8
8
8
4
0
0
0
0
0
2
6
8
10
16
16
18
18
32
22
12
18
34
46
30
36
36
20
12
16
14
16
18
16
8
6
6
4
6
2
6
8
8
2
2
4
6
4
2
2
8
8
8
10
4
0
0
0
2
4
4
2
0
0
0
0
0
0
2
6
8
8
6
2
2
4
8
12
12
12
10
10
12
12
12
4
6
6
6
10
12
12
14
16
16
12
2
8
14
16
16
14
10
4
16
58
96
112
118
132
134
104
124
190
202
180
184
208
204
164
108
48
30
16
10
18
36
46
52
66
88
104
146
182
180
154
134
122
134
134
130
136
140
144
152
158
178
234
255
255
255
255
255
255
255
255
255
255
255
255
255
255
255
255
255
255
255
255
255
255
255
255
255
255
255
255
255
255
255
255
255
224
192
160
120
94
70
62
72
82
78
54
24
26
36
34
16
24
42
48
32
10
8
12
20
26
38
44
22
22
58
140
222
255
198
118
90
100
130
124
104
84
100
108
76
44
22
6
2
4
8
10
6
14
20
32
42
48
52
52
46
46
40
24
20
28
20
14
8
12
12
112
255
255
255
98
128
98
50
46
60
68
66
44
46
52
76
92
86
64
38
18
10
14
8
4
4
8
8
10
8
12
12
8
6
12
14
14
4
8
10
10
14
14
4
4
8
6
6
10
10
10
8
6
2
4
10
12
18
12
2
0
4
8
6
6
8
14
14
8
10
10
14
14
8
8
12
8
6
4
4
4
0
0
4
8
6
2
4
4
4
2
12
14
10
14
14
6
6
4
2
4
10
22
14
12
8
6
4
14
20
16
12
12
8
6
10
12
8
8
6
10
8
8
2
2
4
4
4
6
8
8
6
6
6
8
4
6
14
14
8
8
10
10
8
4
2
4
6
4
2
4
10
10
8
12
20
20
16
10
10
12
14
10
4
4
10
14
12
12
10
4
2
8
8
18
16
4
12
12
4
2
8
10
12
12
10
2
12
22
30
20
10
22
22
12
4
6
12
12
12
14
6
4
8
6
2
6
10
10
4
2
8
8
8
10
12
10
14
26
32
30
20
28
24
8
8
20
30
34
38
28
50
140
242
255
255
255
255
255
255
255
255
255
255
255
255
255
255
255
255
236
188
158
130
104
76
48
22
6
6
2
0
2
4
2
2
4
6
6
0
4
6
2
4
6
4
2
10
16
16
18
16
8
0
4
6
14
14
2
8
8
4
4
4
6
6
4
2
4
4
10
16
28
24
12
14
32
36
16
26
42
50
50
44
24
10
10
10
20
16
14
26
44
46
52
62
68
72
64
50
32
20
28
56
90
102
88
80
72
68
46
22
26
20
20
14
28
44
56
50
30
22
16
28
54
70
74
60
42
50
74
96
98
58
22
20
12
32
34
24
20
24
24
20
18
12
6
4
8
6
4
10
8
4
12
14
14
12
4
10
12
10
14
8
0
0
0
0
0
4
10
12
14
14
6
14
20
24
10
0
2
10
24
22
22
18
10
6
6
2
6
4
2
0
2
4
4
4
2
10
10
8
6
6
4
2
0
0
2
8
10
10
8
2
0
0
0
0
0
0
0
0
0
0
0
0
0
0
0
0
0
2
4
4
4
2
0
0
0
0
0
0
0
0
4
8
8
10
12
14
14
12
10
14
6
14
30
38
42
46
50
60
78
112
156
178
180
180
170
136
90
74
112
172
202
204
194
160
104
48
20
36
42
38
36
40
42
36
44
52
50
44
64
78
74
66
66
74
72
62
60
64
66
74
78
72
92
126
164
204
240
255
255
255
255
255
255
255
255
255
255
255
255
255
255
255
255
255
255
255
255
255
255
255
255
255
255
255
255
255
255
255
255
255
255
255
255
255
255
255
255
255
255
240
226
210
192
178
164
160
148
140
140
122
98
92
98
116
128
160
212
252
240
150
104
68
64
86
92
102
112
112
108
88
58
28
10
12
18
22
16
2
4
8
18
16
10
14
14
10
26
46
54
44
26
12
20
22
22
16
98
255
255
255
76
110
70
28
24
54
72
66
30
50
80
110
100
64
26
4
2
6
12
8
8
8
12
8
4
12
12
6
6
4
2
4
8
4
4
10
6
12
18
10
10
14
10
2
6
2
10
12
16
4
10
6
6
22
18
4
6
12
10
2
10
12
12
8
6
12
8
4
12
10
2
10
10
4
4
6
4
0
2
8
12
8
4
8
8
12
12
12
6
8
14
12
4
4
4
0
0
6
16
8
20
16
8
6
16
12
6
6
8
4
6
12
6
6
8
4
0
2
0
6
6
6
4
4
8
12
10
2
6
12
10
8
8
10
8
18
20
10
6
4
2
6
10
14
12
6
10
10
8
6
12
12
8
10
8
4
4
8
8
12
10
12
14
12
8
6
4
4
6
10
16
12
8
16
16
10
12
18
14
10
6
4
10
14
14
28
28
16
30
22
10
4
6
6
4
12
16
18
18
4
6
4
4
12
12
8
6
8
8
6
6
6
2
8
12
24
28
22
22
10
8
16
26
30
22
32
28
12
24
58
94
134
182
236
255
255
255
255
255
255
255
255
255
255
255
255
255
255
255
255
255
255
255
188
88
12
16
16
16
14
8
6
12
14
16
12
8
6
4
2
4
4
4
0
4
2
4
8
6
10
18
24
24
10
8
14
10
4
0
0
0
0
2
2
0
2
10
22
34
32
26
28
40
58
48
42
38
28
22
16
8
4
4
2
10
12
12
22
36
36
32
28
28
48
78
96
90
70
50
46
62
76
68
50
42
48
52
44
26
4
16
26
30
36
38
32
26
24
38
54
54
52
58
68
78
92
90
76
56
20
26
30
16
10
12
16
22
26
30
28
28
26
22
10
4
8
8
8
4
18
22
20
20
22
6
10
12
4
12
8
0
0
2
4
4
6
8
10
12
6
6
14
18
16
6
0
2
8
14
16
16
14
6
2
4
6
4
0
0
0
0
0
0
0
4
10
8
8
10
4
0
0
0
0
0
2
4
4
2
0
0
0
0
0
0
0
0
0
0
0
0
0
0
0
0
0
0
0
0
0
0
0
0
0
0
0
0
2
4
4
4
2
2
4
8
10
12
14
14
8
42
106
148
170
184
198
210
230
254
255
254
214
170
138
104
90
70
76
92
88
74
72
58
46
28
18
10
20
20
26
20
14
10
6
8
22
32
38
24
20
16
10
10
18
20
14
14
28
34
36
28
10
10
16
26
44
70
98
114
124
142
142
134
144
168
180
206
220
220
198
208
222
255
255
255
255
255
255
255
255
255
255
255
255
255
255
255
255
255
255
255
255
255
255
255
255
255
255
255
255
255
255
255
255
255
255
255
255
255
255
255
255
255
255
255
255
255
255
246
154
78
38
40
60
60
84
110
112
100
76
52
28
8
10
8
20
22
10
6
4
12
10
14
28
24
16
10
16
46
62
66
60
40
18
4
20
92
248
255
255
72
92
50
12
30
78
100
84
58
84
94
114
80
26
6
12
10
8
14
14
12
10
14
14
6
14
12
4
2
4
6
10
8
4
4
14
12
22
28
18
18
18
14
2
6
10
14
12
22
10
8
2
14
18
4
14
20
18
10
10
14
14
12
6
6
10
10
6
6
8
2
6
10
8
2
2
2
0
4
10
12
8
4
6
10
10
12
8
12
18
16
6
6
10
8
4
2
6
14
10
20
16
8
16
16
8
4
4
8
4
8
10
2
10
8
6
4
0
4
10
10
12
12
10
6
10
8
4
12
10
8
10
10
12
24
24
20
12
12
6
6
12
10
14
16
10
8
4
6
6
6
4
0
4
4
2
4
8
4
6
10
8
8
8
4
4
4
4
4
8
12
8
8
16
18
16
20
22
18
20
22
16
16
14
10
24
28
18
28
16
6
6
8
4
4
10
10
10
20
18
10
8
8
14
16
18
16
14
16
10
12
10
4
12
8
14
16
16
20
20
26
28
34
34
28
36
38
34
28
16
4
26
36
50
42
28
88
168
254
255
255
255
255
255
255
255
255
255
255
255
255
255
255
255
255
255
236
180
130
82
36
8
8
6
8
4
2
2
4
2
2
8
10
8
4
10
10
10
8
12
20
20
10
12
20
14
6
2
2
4
4
2
2
4
4
4
10
22
36
38
32
32
34
48
56
44
24
12
16
18
12
4
6
8
10
12
12
18
30
38
38
28
14
22
46
84
98
90
64
34
20
28
40
34
48
40
32
48
54
38
28
34
36
38
42
48
58
72
86
82
68
66
80
96
98
86
56
28
14
4
22
28
20
18
18
12
12
10
20
20
24
32
40
34
10
4
4
4
12
16
12
8
10
18
10
6
14
10
10
6
4
2
4
6
4
2
6
16
14
4
12
14
10
6
2
0
2
6
8
8
8
8
6
4
4
4
2
0
0
0
0
0
0
0
2
8
10
10
8
2
0
0
0
0
0
0
0
0
0
0
0
0
0
0
0
0
0
0
0
0
0
0
0
0
0
0
0
0
0
0
0
0
0
0
0
0
0
2
2
0
0
0
2
10
30
50
70
92
116
152
214
254
250
238
234
236
242
252
250
222
170
126
80
58
36
48
46
36
34
24
26
38
30
18
14
12
16
18
4
10
20
28
22
12
14
16
28
42
48
34
30
24
16
12
18
34
36
34
52
62
62
48
40
42
46
50
50
50
46
38
60
68
62
72
86
80
60
56
56
44
54
46
26
70
138
178
200
222
232
244
255
255
254
255
255
255
255
255
255
255
255
255
255
255
255
255
255
255
255
255
255
255
255
255
255
255
255
255
255
255
255
255
255
255
255
255
255
255
255
242
204
180
166
154
132
126
132
126
114
96
72
42
26
28
30
34
32
16
18
8
8
8
10
22
16
4
14
10
22
44
60
68
60
38
18
18
116
255
255
255
94
98
66
34
80
140
156
118
114
136
138
110
62
12
12
8
16
18
14
8
10
8
8
10
10
18
16
8
4
4
6
6
4
8
10
14
12
20
22
10
14
16
14
10
14
18
16
10
22
14
6
8
16
20
20
30
24
10
14
12
10
10
8
2
6
6
8
8
8
8
2
4
4
6
8
10
10
6
8
10
6
6
6
8
12
10
2
10
16
10
4
10
20
20
16
16
10
4
6
2
10
10
4
18
22
16
12
4
8
4
8
10
6
8
4
4
4
0
4
8
10
12
14
12
6
14
14
14
14
4
6
8
4
14
20
16
10
16
18
6
8
12
4
4
8
8
6
4
2
6
8
8
4
6
6
8
10
12
16
12
12
12
8
2
4
4
4
4
4
6
6
6
6
6
8
10
14
12
8
6
14
12
10
12
8
22
26
12
14
10
2
6
14
12
4
8
12
8
0
12
18
18
18
18
16
18
22
22
26
18
22
20
14
18
8
10
4
6
14
16
26
26
26
20
16
18
16
14
8
14
14
22
28
22
8
6
18
38
66
90
112
120
126
144
168
214
255
255
255
255
255
255
255
255
255
255
255
255
255
255
242
110
20
16
14
10
8
4
8
10
12
10
10
10
4
6
6
8
4
8
18
22
20
28
18
4
0
4
14
18
18
14
6
4
4
4
4
2
10
16
16
16
16
12
22
30
34
26
10
10
14
12
10
8
8
6
4
6
14
30
46
46
30
22
12
28
54
68
56
44
26
16
34
48
38
20
20
32
52
62
52
56
60
70
80
92
104
110
108
96
92
98
106
98
64
26
16
14
16
8
16
12
6
16
24
32
26
10
16
4
18
30
46
56
32
6
2
6
10
16
18
18
22
24
10
2
6
4
4
8
10
8
6
4
0
4
6
16
20
10
10
12
8
2
0
0
0
0
0
0
0
0
2
4
4
4
2
0
0
0
0
0
0
0
0
2
4
4
2
0
0
0
0
0
0
0
0
0
0
0
0
0
0
0
0
0
0
0
0
0
0
0
0
0
0
0
0
0
0
0
0
2
4
4
4
4
2
2
4
4
4
4
22
72
136
198
255
255
255
255
255
255
192
128
92
70
60
52
32
6
24
34
20
8
8
20
26
16
28
20
26
28
20
24
10
14
20
16
4
22
34
30
14
12
16
14
14
2
14
16
10
10
4
6
10
26
24
4
16
32
44
42
36
42
54
60
50
42
46
68
66
50
34
28
52
70
70
52
36
22
20
32
38
26
20
28
36
44
60
68
66
56
48
52
56
56
66
72
72
74
88
100
116
134
132
128
136
158
176
182
190
210
232
250
255
255
255
255
255
255
255
255
255
255
255
255
255
255
255
255
255
255
248
234
212
204
192
164
128
94
70
44
28
22
20
18
20
12
14
8
8
14
8
16
30
26
26
30
36
32
24
32
40
44
50
50
114
255
255
255
126
128
108
90
148
212
210
142
176
194
176
128
66
18
22
12
16
14
10
4
6
10
6
4
16
22
18
10
8
6
4
2
6
12
8
8
6
8
16
10
14
14
8
14
22
22
18
10
18
12
4
6
14
18
20
20
10
10
16
10
6
8
8
6
6
2
4
4
4
2
4
6
4
8
12
14
16
10
8
8
2
4
8
10
12
16
8
8
18
10
6
14
20
18
10
18
14
2
8
4
16
16
6
6
12
10
8
4
6
4
6
8
2
6
8
2
6
4
6
6
12
10
10
16
10
10
12
12
10
6
8
8
0
10
10
4
4
14
16
6
6
10
8
6
4
0
4
6
4
2
4
6
6
8
10
14
12
10
14
12
12
14
10
10
6
6
8
8
6
4
2
4
4
2
0
6
10
6
2
2
6
4
2
6
0
10
14
14
8
10
10
10
16
16
8
4
8
10
12
12
12
12
14
12
8
12
16
18
16
12
16
14
10
10
8
14
8
8
18
14
20
24
24
18
14
12
12
14
10
18
32
36
30
30
40
34
28
18
10
12
16
12
18
32
42
54
50
36
92
166
254
255
255
255
255
255
255
255
255
255
255
255
255
255
202
140
84
32
6
6
6
8
12
8
2
6
4
2
4
2
8
16
18
18
6
6
8
14
22
18
18
20
12
6
4
4
4
4
4
4
4
4
4
4
4
6
20
30
18
4
12
16
10
4
2
2
4
8
18
18
28
36
30
22
10
14
40
66
68
56
24
18
22
46
48
36
30
36
50
62
68
76
92
112
120
124
120
106
94
88
94
96
86
54
16
32
28
22
26
24
20
12
6
10
6
24
26
14
18
14
22
22
26
56
54
32
14
6
2
10
16
16
16
8
6
10
8
6
6
4
8
8
4
4
4
8
10
12
12
4
4
10
10
4
4
4
4
4
4
4
6
8
10
8
6
6
4
0
0
0
0
0
0
0
0
0
0
0
0
0
0
0
0
0
0
0
0
0
0
0
0
0
0
0
0
0
0
0
0
0
0
0
0
0
0
0
0
0
0
0
0
2
2
0
0
2
6
16
24
36
58
94
148
210
255
255
255
255
255
250
192
144
84
28
20
36
58
80
86
86
82
62
30
18
32
56
56
40
42
18
16
20
14
22
10
18
28
16
14
20
24
22
30
46
36
34
34
24
28
26
20
18
8
2
6
22
34
30
34
32
26
14
6
12
20
42
40
24
58
56
40
12
24
34
22
6
28
30
24
6
8
10
18
28
26
20
22
30
38
40
48
48
54
58
52
44
50
54
74
88
106
100
70
80
80
76
74
78
70
52
34
24
18
26
50
76
104
132
152
162
162
158
150
152
164
196
222
232
226
228
216
196
194
198
198
180
158
130
90
60
42
34
16
6
4
10
10
8
18
18
8
10
14
30
40
48
42
42
36
8
22
30
20
28
42
54
98
252
255
255
164
178
168
160
224
255
242
164
220
232
196
140
82
24
24
6
10
12
10
8
8
2
6
16
24
22
14
8
10
10
8
8
12
10
2
4
4
6
14
14
16
12
4
18
20
16
10
8
14
10
4
6
6
6
8
14
10
10
14
10
4
2
4
10
8
4
2
0
0
4
6
2
6
16
16
14
16
10
6
4
0
0
4
4
4
12
8
8
18
12
8
14
14
14
6
14
10
2
8
4
12
20
18
24
26
22
14
6
6
6
8
8
8
8
14
6
8
10
8
4
16
22
20
14
4
6
2
8
8
8
12
12
4
8
12
10
12
18
14
4
12
12
6
4
4
6
2
4
8
8
8
6
6
4
8
10
4
6
14
10
10
10
0
12
8
8
10
10
8
2
0
0
0
0
2
10
12
8
10
6
8
8
6
12
10
12
4
6
16
22
16
6
8
10
10
10
8
10
12
12
10
6
8
8
4
6
8
4
6
10
10
4
2
4
6
16
18
18
22
8
10
16
20
18
16
14
14
10
2
6
12
22
22
18
18
12
10
12
20
24
20
18
18
18
20
22
22
24
36
48
56
72
88
104
170
255
255
255
255
255
255
255
255
255
255
255
255
226
110
28
12
12
10
4
2
6
6
8
6
4
6
6
4
2
6
16
18
16
10
8
4
12
16
10
4
4
2
0
4
4
0
0
4
6
4
4
4
14
16
8
16
14
10
6
12
14
14
18
24
22
24
24
6
12
20
26
50
78
88
58
18
26
30
54
54
46
58
64
68
64
70
90
114
132
126
110
84
58
50
52
60
50
20
14
28
32
26
14
22
30
30
16
10
14
14
20
10
6
4
10
28
34
14
24
50
50
34
12
4
4
2
4
4
18
22
18
12
0
6
4
6
4
2
10
16
18
22
26
22
14
10
10
10
2
10
8
8
8
6
6
14
18
14
10
6
6
4
0
0
0
0
0
0
0
0
0
0
0
0
0
0
0
0
0
0
0
0
0
0
0
0
0
0
0
0
0
0
0
0
0
0
0
0
0
0
0
0
0
0
0
0
2
4
4
4
14
42
66
88
124
180
238
255
255
255
218
154
76
70
98
146
150
112
56
30
32
36
38
38
36
32
26
28
28
48
64
50
40
50
30
32
40
32
38
20
26
32
16
24
34
40
42
58
58
34
38
34
18
30
32
34
34
18
6
8
6
18
26
38
38
38
34
36
38
28
24
36
56
70
40
54
46
14
22
34
24
10
30
50
48
32
24
22
24
20
14
16
22
30
38
42
32
22
24
20
18
22
40
46
38
56
60
38
40
46
44
38
26
6
12
12
18
18
14
24
38
34
24
20
16
16
26
30
26
22
22
30
34
30
22
22
26
32
46
62
76
76
58
34
6
48
70
66
50
34
34
54
82
90
80
68
64
52
42
22
8
14
12
2
18
24
18
20
20
26
22
122
255
255
255
192
254
254
242
255
255
244
202
252
244
214
162
86
22
32
16
4
12
14
10
12
8
8
22
22
12
6
6
10
14
16
16
10
2
4
4
4
4
2
4
4
4
12
20
10
2
10
16
12
6
4
4
8
16
12
16
16
6
10
8
6
6
6
10
8
6
8
8
6
8
8
4
10
18
12
10
14
8
6
6
4
4
6
4
4
12
10
6
14
14
12
14
10
10
4
6
10
8
8
4
4
10
16
26
24
18
14
14
8
4
10
12
10
6
12
14
10
2
10
16
12
14
12
8
2
2
10
16
10
10
12
14
10
14
12
6
8
14
12
10
16
14
10
10
4
6
8
6
4
2
4
6
10
16
16
14
12
18
22
12
16
16
10
14
14
10
8
8
12
8
2
0
0
2
8
12
8
2
8
10
8
4
0
2
6
6
6
10
16
10
2
12
14
4
8
14
14
12
10
4
6
6
8
8
6
10
10
10
12
8
2
4
10
10
8
12
12
12
12
2
8
10
12
10
6
8
10
8
10
6
8
14
18
14
18
22
26
28
34
36
32
32
34
40
48
54
48
40
36
22
2
18
44
58
54
48
74
162
255
255
255
255
255
255
255
255
255
255
255
255
255
196
130
70
18
4
4
6
8
10
8
2
6
10
12
16
14
8
6
8
8
8
18
20
8
6
4
2
6
10
6
4
0
4
4
4
8
10
12
14
14
6
10
12
18
16
14
16
22
30
44
48
40
34
20
10
42
66
76
64
36
50
46
70
72
82
96
86
76
70
82
104
116
114
86
50
18
12
18
16
18
16
50
64
46
48
40
16
26
22
34
32
18
8
6
4
6
6
8
18
32
46
48
28
18
20
26
14
8
14
12
6
14
24
18
18
18
4
4
4
2
6
14
22
22
18
14
10
8
10
16
16
8
6
6
2
4
6
4
4
14
14
12
14
10
4
2
0
0
0
0
0
0
0
0
0
0
0
0
0
0
0
0
0
0
0
0
0
0
0
0
0
0
0
0
0
0
0
0
0
0
0
0
0
0
0
0
0
0
4
14
28
44
54
62
82
100
112
136
174
216
230
208
164
104
44
56
102
168
200
190
146
82
48
20
24
20
12
6
8
12
22
30
36
46
46
22
20
38
26
36
38
30
48
38
40
38
20
24
30
28
34
44
40
30
40
38
20
38
40
42
50
42
32
24
24
26
32
44
42
40
34
36
40
28
8
22
44
38
20
46
60
42
10
16
28
20
14
26
40
40
38
38
40
40
38
38
40
36
32
38
32
14
8
14
8
8
20
18
6
22
32
24
24
32
34
26
20
20
14
32
20
4
18
26
18
8
30
42
38
38
32
24
32
38
48
56
60
64
62
62
58
60
52
38
26
28
32
40
46
52
68
88
94
132
194
255
255
255
255
255
255
246
220
186
148
114
86
60
30
6
30
42
28
10
2
160
255
255
255
196
255
255
255
255
255
202
242
255
255
252
160
70
16
34
30
12
16
20
12
12
14
14
22
14
6
2
6
14
14
12
14
14
8
4
6
14
16
16
14
12
12
18
16
2
16
22
18
8
2
0
2
12
10
6
8
12
2
10
8
6
8
10
12
8
10
16
18
16
14
12
8
12
16
8
8
14
8
8
10
8
10
12
8
6
8
8
0
10
14
14
12
10
12
10
12
12
12
12
6
2
0
8
14
8
4
8
14
10
4
10
10
4
4
6
12
20
14
20
14
0
6
6
4
8
18
24
18
12
10
6
8
10
22
20
16
20
26
22
14
16
12
14
16
8
12
14
4
8
6
8
8
12
18
24
22
18
18
16
6
14
16
14
18
16
8
4
2
8
10
4
0
2
8
12
6
4
12
12
6
8
8
8
10
8
4
2
14
16
14
22
22
10
10
16
12
12
6
10
12
12
8
10
8
6
4
4
4
4
4
12
16
18
12
12
12
8
6
4
2
4
8
10
8
4
6
4
4
14
14
12
10
12
12
24
32
32
26
30
22
12
10
12
12
12
22
22
16
18
20
24
26
22
14
6
10
12
32
54
76
80
150
255
255
255
255
255
255
255
255
255
255
255
255
194
94
40
8
8
6
4
2
8
6
2
14
18
12
8
6
14
10
12
24
18
6
4
6
12
16
16
10
4
0
0
4
10
12
12
14
8
6
2
8
12
10
10
14
22
36
48
44
38
56
60
58
80
80
52
40
38
48
40
60
66
92
90
74
70
52
70
84
74
50
10
26
40
44
54
46
44
64
84
72
42
60
60
38
32
22
32
46
44
26
8
4
12
12
10
14
12
18
28
32
30
34
22
10
16
18
18
12
8
20
18
18
20
10
4
4
8
14
18
16
4
10
22
26
26
26
24
12
2
6
10
10
8
8
8
8
16
14
14
18
8
0
0
0
0
0
0
0
0
0
0
0
0
0
0
0
0
0
0
0
0
0
0
0
0
0
0
0
0
0
0
0
0
0
0
0
0
0
0
0
0
0
0
2
12
32
60
94
126
140
140
132
120
120
136
144
130
84
56
66
64
74
88
108
108
82
46
24
24
30
26
26
22
12
8
20
32
38
38
30
26
16
10
22
22
12
26
24
12
38
44
48
40
24
22
18
6
10
22
14
12
34
38
24
36
30
28
44
52
56
50
38
30
34
42
34
24
20
20
22
20
18
24
32
30
14
22
46
54
40
22
20
22
22
12
6
20
28
34
50
66
74
74
62
46
38
40
48
50
38
22
14
12
24
30
20
40
52
54
54
62
66
50
54
60
36
36
28
6
24
36
34
22
28
22
10
14
20
20
30
30
34
38
32
26
22
26
30
44
54
54
48
58
70
80
74
64
64
86
152
242
255
255
255
255
255
255
255
255
255
255
255
255
232
188
136
86
38
10
20
26
28
150
255
255
255
224
255
255
252
255
255
172
255
255
255
254
128
44
20
18
28
16
16
22
16
14
18
18
20
12
6
6
12
16
8
4
8
16
16
8
22
24
18
18
14
6
6
12
8
6
12
12
4
6
6
4
6
6
12
16
18
12
4
8
8
6
8
12
16
14
16
14
12
14
12
10
8
10
12
6
6
14
12
10
8
6
10
16
12
14
18
20
16
16
12
10
10
12
14
8
6
4
4
8
12
8
8
14
14
4
0
4
10
10
8
10
6
2
8
8
2
8
12
8
4
8
6
0
6
12
16
14
6
12
14
6
0
8
14
6
2
4
12
18
18
14
8
12
16
10
14
12
8
10
4
12
12
10
6
10
12
14
16
12
8
12
12
8
16
14
8
4
2
8
10
4
2
6
10
6
4
8
4
6
10
12
8
4
8
10
10
6
8
12
10
10
4
12
22
14
8
10
4
10
12
12
14
18
16
8
6
4
4
6
6
12
14
12
10
14
18
16
12
10
8
8
8
14
16
8
8
8
6
8
12
14
14
14
14
22
26
18
14
24
22
14
10
8
6
6
14
16
14
16
18
24
30
36
38
30
24
16
16
24
46
54
50
44
122
204
255
255
255
255
255
255
255
255
255
255
255
255
255
220
140
72
16
8
8
10
12
18
6
6
10
6
10
12
10
18
10
2
8
12
6
16
12
4
0
0
2
6
8
8
8
8
10
6
10
18
14
22
32
38
40
30
20
10
6
20
40
52
46
26
12
24
28
16
16
20
30
22
16
24
8
20
38
32
26
48
60
50
44
64
62
60
68
56
30
18
34
48
50
40
34
38
54
70
68
52
52
62
58
68
60
56
66
56
46
30
22
22
14
6
16
14
10
6
18
22
22
20
10
4
6
14
18
20
20
24
28
28
22
18
16
10
2
4
4
2
4
4
4
4
4
10
10
12
14
6
0
0
0
0
0
0
0
2
4
4
4
2
0
0
0
0
0
0
0
0
0
0
0
0
0
0
2
4
4
4
4
4
4
4
4
2
0
0
0
0
8
22
38
64
92
120
144
152
138
114
104
82
90
94
72
42
66
84
90
76
68
66
70
52
16
18
34
24
2
20
20
12
2
6
18
30
34
22
18
12
14
12
16
16
2
14
22
22
22
34
42
34
34
30
20
22
14
30
32
14
12
24
18
14
12
6
10
24
36
40
40
32
26
28
18
12
18
24
26
20
20
30
42
44
26
20
16
22
26
18
2
20
30
30
16
16
8
14
28
36
38
40
42
32
20
12
30
46
56
52
46
38
48
50
38
38
50
58
52
52
42
16
26
40
30
8
24
16
10
32
38
20
14
30
24
16
10
6
14
10
12
20
16
16
20
20
12
6
20
28
36
52
70
84
84
98
120
138
174
214
255
255
255
255
255
255
255
255
255
255
255
255
255
255
255
255
230
162
102
76
56
116
224
255
255
208
255
238
202
228
206
180
255
255
255
228
86
34
32
2
18
12
12
20
16
10
12
12
14
14
14
14
16
10
2
4
0
12
18
22
28
20
8
12
10
6
6
8
10
12
24
30
24
12
2
4
2
8
20
22
20
16
8
6
6
6
6
8
12
12
10
4
4
8
6
4
4
6
10
8
6
10
8
4
2
4
4
14
10
20
28
32
22
24
10
4
8
10
6
4
10
10
10
6
6
8
14
16
14
6
4
6
6
4
4
2
2
8
12
8
6
6
2
10
10
6
4
6
6
4
10
14
18
22
16
4
4
6
14
12
18
16
12
6
10
14
6
10
8
4
8
6
6
14
6
16
14
4
14
12
10
6
12
12
12
12
8
4
12
12
8
8
8
14
10
2
8
8
2
6
8
0
12
20
14
14
8
4
2
2
8
10
6
10
10
16
20
24
20
6
4
8
6
8
8
8
10
18
22
16
14
16
16
14
2
10
10
4
2
6
12
14
12
12
14
12
6
12
18
16
14
10
8
8
8
10
12
14
8
10
14
12
12
12
16
14
12
10
12
12
16
14
12
12
8
8
8
10
14
12
14
20
26
18
10
10
10
22
28
38
44
40
90
184
255
255
255
255
255
255
255
255
255
255
255
255
210
114
62
28
10
14
14
10
4
8
16
14
6
12
18
10
8
20
8
10
14
8
4
4
4
2
0
2
4
8
6
6
10
20
34
54
58
48
26
2
24
36
38
30
24
28
32
20
14
26
28
22
42
46
72
74
62
62
48
58
80
80
74
78
66
44
36
54
64
64
48
32
14
12
20
48
62
72
68
72
74
96
110
108
120
126
116
134
134
134
136
128
138
130
110
92
76
60
40
28
32
36
32
24
16
12
10
10
14
14
8
2
12
14
10
4
4
4
4
8
10
8
8
6
6
4
4
6
6
4
4
6
8
4
0
0
0
0
0
0
0
4
6
4
6
4
0
0
0
0
0
0
0
0
0
0
0
0
0
0
2
2
0
0
0
0
0
0
2
2
0
4
12
24
52
80
100
120
130
136
130
104
66
36
44
44
40
36
36
38
36
38
40
28
22
24
36
28
16
28
24
4
18
22
16
20
14
6
18
28
24
10
32
30
18
10
8
14
6
22
26
24
16
22
26
22
34
40
34
22
4
16
20
18
4
8
10
8
14
18
18
10
2
10
20
24
12
14
10
10
14
30
38
26
18
24
38
46
34
30
36
36
32
28
26
26
30
34
20
20
22
34
48
48
40
38
50
46
24
14
22
24
34
48
54
50
52
46
36
36
42
44
44
26
4
22
32
34
24
12
20
26
18
20
40
34
16
22
16
12
16
16
14
4
14
26
32
28
22
20
18
16
10
4
16
32
52
70
88
124
146
146
148
142
130
164
178
124
46
64
124
148
180
222
254
255
255
255
255
255
255
255
255
202
154
114
190
252
248
164
222
214
188
196
144
194
255
255
255
202
58
18
30
10
16
12
10
20
16
8
8
8
14
18
14
12
10
2
6
6
4
6
16
24
20
12
10
16
18
14
18
22
20
12
16
22
28
28
24
20
14
20
22
16
18
22
18
12
8
6
2
2
2
4
6
6
8
12
6
0
2
8
14
10
8
10
6
2
2
4
4
8
6
16
22
20
14
22
10
4
8
4
8
18
16
10
10
10
2
2
6
8
6
4
6
10
8
4
2
8
10
10
6
2
6
4
6
12
10
8
12
10
10
12
12
10
8
12
6
4
4
2
6
12
12
8
14
22
18
14
10
6
8
2
6
8
8
8
6
20
18
10
12
6
14
14
10
0
8
14
12
8
14
10
6
10
12
8
6
12
10
2
12
16
14
12
12
10
6
14
12
6
6
6
8
6
8
18
20
18
16
16
12
6
6
10
12
8
10
16
22
20
28
24
24
26
28
28
12
10
14
4
6
8
6
2
0
0
4
8
4
4
10
12
14
12
8
10
10
8
6
8
4
4
10
10
6
6
8
8
8
12
14
12
16
14
12
14
12
10
10
12
14
16
28
32
30
30
26
24
24
24
18
4
26
40
48
42
66
130
210
255
255
255
255
255
255
255
255
255
255
255
255
255
146
54
4
18
8
8
10
16
28
20
32
28
8
12
8
10
26
36
42
42
44
38
28
22
22
24
22
26
24
48
86
98
76
50
40
20
6
10
24
24
14
16
34
52
50
52
60
48
64
64
66
82
78
68
56
58
74
86
96
96
82
74
66
74
76
76
84
88
76
72
94
112
112
114
120
124
122
130
138
144
162
168
166
176
186
174
158
156
170
188
192
182
182
194
194
182
168
156
152
152
144
132
122
110
106
100
98
98
90
74
66
62
54
40
26
12
4
2
6
6
6
8
8
6
6
8
8
8
8
4
0
0
0
0
0
0
2
6
4
0
4
6
4
4
2
0
0
0
0
0
0
0
2
4
4
2
2
4
4
4
4
4
4
4
2
14
36
62
84
106
132
140
132
118
104
96
78
52
26
10
14
12
4
20
24
12
18
20
12
14
14
4
24
22
4
26
30
10
16
16
8
20
28
28
38
36
16
12
30
22
20
18
12
20
8
20
28
24
18
24
24
6
22
42
46
34
18
20
24
22
10
10
12
8
2
4
10
14
16
12
14
16
8
12
12
12
6
14
28
26
24
26
36
50
46
46
48
46
44
38
28
14
18
28
24
28
26
24
40
46
44
48
50
36
14
22
36
34
18
8
14
12
6
10
18
24
24
16
26
20
24
22
20
18
12
18
18
24
20
10
26
40
32
36
30
22
24
28
24
6
20
20
16
28
32
18
4
12
12
14
20
28
44
64
70
66
66
104
182
238
240
200
140
108
100
62
66
28
46
76
98
100
96
132
206
255
255
255
255
255
255
106
152
184
170
102
172
190
166
128
62
212
255
255
255
162
32
14
32
14
12
10
6
18
12
4
4
6
16
18
10
8
4
4
6
8
10
10
14
12
6
4
8
16
20
22
26
24
16
8
6
6
14
22
30
34
26
20
16
8
10
18
22
16
6
6
4
4
4
6
2
6
12
18
12
4
8
14
14
4
10
14
4
6
4
4
4
2
2
8
18
16
20
26
10
6
10
2
18
20
8
10
8
8
4
10
12
18
18
6
2
8
8
6
6
10
8
2
6
10
6
2
4
10
10
0
8
12
14
16
12
10
8
18
10
6
2
0
2
4
4
4
0
12
24
20
8
4
12
8
4
10
10
4
8
16
16
12
24
14
8
10
12
6
2
12
14
12
14
4
10
14
6
8
16
12
6
10
18
14
14
16
20
24
22
18
10
4
2
6
10
4
10
18
14
4
2
2
6
10
14
14
14
14
16
26
28
18
26
24
24
22
28
34
22
20
22
10
10
12
12
12
8
6
4
4
6
8
10
8
12
12
10
16
14
12
8
8
4
12
14
12
8
10
6
4
4
14
12
8
12
12
10
14
18
16
14
16
14
30
30
24
16
22
20
18
16
18
26
24
22
24
30
40
34
36
38
28
56
106
182
255
255
255
255
255
255
255
255
255
255
255
138
50
28
24
32
46
42
24
36
42
32
32
38
46
64
78
84
82
90
86
70
54
52
56
58
62
66
100
128
116
64
68
58
42
50
76
82
70
52
50
70
84
70
50
62
44
50
50
48
52
60
64
56
52
64
74
80
80
86
92
82
78
66
64
80
102
106
118
126
128
124
122
126
130
124
124
118
126
136
146
154
154
156
154
136
118
120
146
180
186
188
224
252
255
246
212
202
216
230
234
230
214
194
180
172
176
178
164
154
150
142
122
96
76
60
52
50
44
38
30
22
26
28
28
24
18
18
22
22
20
18
12
4
0
2
4
4
4
4
2
0
2
2
0
0
0
0
0
0
0
2
2
2
2
4
4
4
2
2
4
4
4
14
48
88
116
128
136
132
110
80
50
36
32
24
20
8
8
16
28
18
26
30
44
44
28
20
12
28
16
24
38
24
26
20
8
10
20
12
20
32
36
36
22
2
12
22
34
32
16
16
22
18
22
16
22
24
32
38
22
6
30
42
32
20
24
42
36
24
22
18
14
14
14
14
22
22
16
30
32
18
36
32
14
4
12
12
18
22
20
24
40
48
48
42
40
38
32
28
18
16
24
30
28
16
10
16
20
22
26
22
18
16
24
44
58
56
40
34
42
36
40
38
30
24
24
44
42
26
10
12
16
14
24
28
14
18
38
24
12
44
50
42
36
36
36
24
20
28
24
40
60
46
26
22
20
32
32
30
36
56
78
58
44
90
180
255
255
255
255
228
134
60
26
48
64
66
62
100
92
28
50
100
132
192
255
255
255
255
60
102
126
108
36
108
138
102
42
255
255
255
255
255
166
82
40
36
14
6
10
6
14
10
4
4
8
22
20
12
10
6
4
4
8
8
6
8
6
4
4
4
2
6
10
8
4
2
8
4
0
4
12
12
20
18
10
10
6
6
10
16
14
4
4
6
8
6
4
6
6
8
18
16
10
16
18
10
6
12
12
0
8
6
6
6
4
2
6
16
16
18
16
6
12
14
10
16
10
6
12
10
4
6
6
2
8
18
14
8
6
2
6
12
14
12
12
16
12
10
10
10
18
24
18
10
12
8
16
16
14
4
16
12
2
0
2
4
8
10
10
12
14
4
10
8
2
6
12
6
2
2
6
10
10
16
10
14
8
14
18
18
8
4
6
8
8
8
2
10
10
2
6
6
2
6
12
16
12
10
6
4
10
16
14
8
2
6
4
4
10
18
18
6
8
8
8
16
22
20
14
14
18
22
24
18
10
14
16
16
10
20
28
22
28
28
24
34
30
14
4
6
14
16
18
20
20
18
14
18
20
22
30
24
28
24
20
22
34
30
24
24
24
16
10
18
20
10
6
8
10
16
18
20
24
22
20
20
26
16
8
8
16
22
22
18
20
24
20
22
28
30
34
26
10
8
14
28
28
28
68
124
202
255
255
255
255
255
255
255
255
255
255
150
72
40
48
28
24
30
40
48
70
80
78
78
80
84
82
96
100
86
72
80
88
94
96
106
128
130
96
56
82
80
66
106
120
114
98
94
76
84
82
50
22
30
20
34
48
48
42
38
52
56
60
66
54
36
30
36
48
60
50
34
24
32
42
62
72
70
70
70
66
68
68
66
68
52
48
62
78
80
62
58
72
68
48
52
52
72
84
104
118
98
130
138
116
98
116
134
156
176
176
160
144
140
150
164
164
166
176
188
196
190
186
184
182
182
174
164
148
134
150
150
152
140
114
90
80
76
74
74
62
38
16
2
4
4
4
4
4
4
4
2
2
6
8
8
8
6
2
2
4
4
26
44
44
46
38
40
48
48
50
58
90
106
92
68
48
26
16
14
14
18
30
38
40
30
22
28
24
4
24
40
42
30
10
22
10
20
24
6
24
32
34
22
4
8
18
22
22
18
6
6
20
24
14
14
26
28
30
26
22
14
8
4
8
10
16
30
20
6
24
30
16
6
34
50
32
32
32
24
14
10
8
14
32
40
18
48
80
96
82
58
42
30
24
18
12
8
8
18
32
38
38
38
32
24
24
30
32
32
44
40
40
28
14
12
14
14
10
14
30
42
42
44
52
52
44
38
40
32
44
52
52
48
50
56
42
26
20
22
22
20
24
14
28
48
38
44
36
28
16
14
8
6
10
10
22
32
24
36
46
34
24
38
36
38
32
38
58
90
120
112
128
232
255
255
255
255
255
255
238
174
176
194
194
210
194
166
120
64
106
120
116
102
124
150
150
136
34
82
114
110
52
98
108
38
228
255
255
255
255
152
146
132
82
54
24
2
8
6
10
8
4
6
14
24
16
8
10
10
4
0
4
4
4
8
8
8
6
4
6
6
6
8
8
10
8
2
0
4
8
6
16
16
8
8
4
6
8
12
12
4
2
4
8
10
4
8
4
2
12
14
12
16
12
6
8
12
14
4
8
8
6
4
6
4
2
8
8
6
8
8
14
12
12
22
16
12
14
8
2
4
4
10
6
8
14
14
10
4
4
12
16
16
14
12
6
6
10
16
16
24
24
22
18
4
10
18
18
4
8
10
4
0
4
8
10
8
8
8
18
20
18
6
4
4
8
10
8
8
10
8
4
12
14
12
6
20
28
26
22
14
6
4
4
4
4
10
14
10
2
6
2
6
14
20
16
12
10
10
10
6
8
10
6
8
8
18
24
26
18
2
6
4
22
34
30
18
16
18
24
24
20
14
10
6
8
6
8
14
20
18
30
26
22
36
46
42
30
30
38
36
32
34
28
26
24
26
28
28
30
20
30
30
24
40
44
34
32
34
36
28
24
26
18
16
12
8
8
14
12
10
18
20
18
12
12
2
2
6
16
18
18
16
16
16
8
10
10
8
18
22
18
28
32
38
34
26
32
30
14
2
28
96
212
255
255
255
255
255
255
255
142
40
30
28
30
36
44
64
84
82
64
56
62
74
72
82
98
84
70
80
86
96
98
100
102
88
58
54
80
88
104
120
106
80
64
72
68
58
44
10
18
18
8
34
42
32
22
22
30
44
50
40
28
14
10
22
22
24
32
18
10
22
22
20
16
12
18
30
36
38
24
4
20
28
24
52
56
46
34
46
54
40
22
26
38
30
20
26
48
54
74
52
22
4
22
38
40
60
78
70
54
56
70
86
92
102
118
136
162
176
186
198
208
218
222
220
204
196
216
204
218
218
196
164
140
126
126
138
138
118
94
76
66
60
52
48
46
48
56
62
70
76
74
72
70
66
60
54
52
76
110
126
118
126
122
142
158
154
156
160
172
156
114
72
40
20
10
6
14
20
30
38
40
42
36
20
6
18
20
28
46
48
22
10
18
22
18
18
8
20
22
22
14
18
28
22
14
20
26
34
36
24
24
30
24
6
24
32
30
18
6
2
12
26
36
40
16
22
38
36
12
22
44
40
14
24
28
20
10
10
30
32
32
58
66
106
140
122
132
98
60
44
44
38
22
12
12
26
32
26
22
26
24
16
14
20
24
34
36
30
42
36
22
22
24
24
10
22
44
48
30
36
34
24
20
20
22
18
30
40
44
46
46
42
32
28
32
36
34
32
40
38
46
46
14
32
44
28
12
20
18
16
18
12
14
32
28
30
38
38
40
46
48
38
38
58
84
110
138
156
218
255
255
255
255
122
92
158
178
160
214
228
232
255
255
255
255
200
166
152
128
88
62
56
60
56
56
102
138
146
124
132
70
128
255
255
255
255
138
54
88
144
118
86
50
20
4
4
10
8
4
4
16
22
12
4
8
12
8
4
8
8
6
10
10
8
6
4
2
6
8
6
4
4
2
0
0
4
6
14
22
22
16
24
16
6
6
14
18
12
6
4
6
6
4
12
14
10
14
10
8
8
0
8
12
8
12
12
10
10
2
4
6
4
0
4
4
2
4
4
6
6
4
16
12
8
10
6
4
6
10
12
10
6
2
8
10
8
4
4
6
6
4
6
4
10
14
12
8
12
16
22
24
14
12
14
14
6
4
10
10
6
6
6
4
6
8
6
4
6
8
8
4
2
4
6
6
4
4
4
4
6
4
4
12
20
24
16
24
24
16
12
8
10
8
14
18
20
20
26
22
18
16
16
12
6
4
8
14
22
22
18
8
6
10
22
28
26
20
22
20
28
38
40
24
18
18
22
26
22
22
22
18
14
12
10
12
14
14
22
20
16
12
14
24
34
38
48
48
36
30
34
34
34
34
34
32
22
14
6
18
22
22
32
30
24
28
38
48
44
26
20
18
20
24
20
10
4
6
4
6
6
8
8
4
2
4
8
12
4
4
6
10
12
6
8
14
8
8
8
18
22
20
30
30
20
16
6
10
24
34
20
22
96
206
255
255
255
255
255
218
60
20
32
58
60
52
56
58
40
28
26
52
74
68
60
90
80
50
48
58
72
68
56
44
36
32
42
60
82
92
76
32
14
34
26
4
6
8
22
16
8
32
34
20
20
22
20
24
24
10
10
20
18
10
26
18
14
30
20
8
14
26
26
20
18
26
40
54
66
54
14
22
46
42
64
84
70
48
50
42
28
30
40
42
54
48
30
36
48
44
24
16
8
30
50
38
38
58
44
8
22
22
24
22
26
30
30
38
52
64
68
70
86
104
118
112
104
106
86
110
144
166
168
156
140
140
162
184
192
194
194
194
194
182
170
162
164
176
184
194
192
182
178
168
158
158
164
174
196
206
194
180
190
224
255
255
255
255
255
255
255
236
228
224
210
190
168
120
54
12
14
10
16
26
26
32
34
32
34
40
42
28
16
16
12
8
10
20
28
16
8
20
24
22
4
22
28
24
14
8
4
14
30
40
26
12
24
36
30
14
8
22
30
26
18
10
38
34
14
18
46
44
20
8
26
26
16
10
20
24
18
14
34
88
122
118
52
110
94
46
24
32
42
32
22
24
34
32
18
4
8
10
10
12
12
2
10
18
18
22
26
22
26
18
28
18
26
36
20
10
40
44
26
10
12
24
20
28
26
20
26
26
22
18
20
22
14
4
6
6
10
22
16
18
52
54
24
8
10
2
10
24
32
28
30
40
52
62
64
60
56
48
56
56
82
96
96
106
124
172
218
220
226
228
178
94
92
56
20
58
70
64
180
255
255
255
255
204
132
132
98
104
116
80
34
58
92
120
120
130
122
86
255
255
255
255
182
80
82
40
126
134
114
80
44
22
14
10
6
4
4
20
28
20
12
14
12
4
2
6
10
12
10
10
12
10
4
8
8
6
4
2
2
2
0
0
4
2
14
18
18
10
20
18
6
2
10
18
18
12
8
8
4
4
12
16
10
18
8
4
6
12
18
16
4
4
10
8
8
2
6
4
2
8
8
4
0
0
0
2
6
10
16
8
4
8
6
4
4
8
8
8
10
4
4
8
8
4
4
12
16
10
12
10
16
14
8
8
16
14
8
16
14
8
14
12
4
2
4
6
4
2
4
4
12
12
12
16
10
6
6
4
4
2
6
10
8
8
6
8
10
14
8
12
18
20
10
16
26
24
22
12
12
10
10
12
20
34
36
32
30
24
20
18
12
8
14
30
36
34
30
26
20
28
36
36
28
28
34
36
44
46
38
20
18
20
24
26
22
24
28
32
32
30
28
28
30
34
36
30
30
24
24
24
38
54
56
48
40
34
34
36
42
42
44
40
36
26
16
22
22
16
14
14
18
22
30
44
50
34
22
20
24
32
36
32
20
10
4
2
4
6
10
14
12
6
8
18
14
16
16
10
12
14
6
4
8
6
4
10
8
2
14
22
20
24
30
38
42
48
44
26
28
20
98
255
255
255
255
255
122
30
52
72
54
56
42
44
28
24
28
60
76
64
38
68
74
54
36
54
66
54
36
34
38
52
54
56
50
28
18
50
76
66
54
44
20
32
20
20
50
50
30
12
8
18
26
26
20
24
32
20
6
20
20
10
18
22
24
18
8
18
22
12
4
18
26
40
64
68
34
18
50
38
30
60
52
32
20
10
4
20
28
16
34
38
14
10
10
8
10
14
16
20
26
26
44
60
44
30
38
20
12
12
20
24
24
28
38
40
42
38
38
36
18
18
12
6
18
6
30
72
96
98
90
92
114
142
162
174
182
190
202
204
198
188
182
186
188
192
178
180
180
170
154
174
188
200
204
192
178
192
234
255
255
255
255
255
255
255
255
255
255
255
255
255
255
255
255
180
118
92
70
28
32
30
24
22
38
58
56
34
24
16
16
14
10
4
24
34
18
14
30
24
36
48
34
30
12
4
8
4
18
38
44
30
12
20
22
18
16
24
18
12
18
16
24
18
14
38
48
26
4
26
36
30
20
16
16
16
32
42
34
76
134
128
44
80
72
44
20
22
36
32
24
28
32
24
6
12
20
10
4
6
12
24
28
28
28
18
4
12
8
8
20
20
22
28
22
28
44
38
24
14
30
22
8
14
16
4
6
8
8
4
8
10
10
20
18
14
16
18
16
30
46
38
12
14
12
20
34
38
32
24
26
44
60
74
74
60
46
34
42
64
92
100
90
96
110
132
168
206
252
255
246
180
124
118
116
180
206
154
36
88
184
250
255
218
108
46
26
56
116
124
106
14
34
44
20
34
68
255
255
255
255
255
52
98
108
36
104
134
132
104
66
36
26
20
8
16
14
22
32
26
18
12
6
8
10
6
10
10
12
10
16
22
22
18
8
8
10
10
8
10
8
6
8
4
14
14
12
6
18
14
2
4
4
4
10
10
10
14
10
4
16
22
10
18
8
2
10
18
18
10
10
8
2
2
2
4
4
2
12
16
12
8
4
4
4
2
8
16
14
2
8
10
4
2
4
8
8
6
8
4
4
10
10
4
4
12
14
4
10
14
18
8
6
20
24
16
10
10
8
2
12
12
2
10
16
18
14
12
10
6
10
10
8
18
16
4
4
6
6
12
18
20
16
16
12
6
2
4
4
10
20
24
16
10
20
22
26
24
8
6
4
8
20
26
20
24
30
28
26
30
30
28
34
46
38
32
36
40
50
58
56
46
32
34
38
46
52
48
32
24
16
16
20
22
20
24
28
26
34
38
42
40
44
50
52
48
48
48
50
48
56
52
42
38
44
40
36
32
30
30
36
38
42
48
42
40
34
20
10
16
22
22
18
24
36
32
26
26
34
34
46
56
56
48
36
24
20
24
24
26
28
22
4
8
8
12
12
8
18
30
34
26
14
6
8
6
10
10
8
14
22
22
22
28
34
40
52
72
84
64
82
222
255
255
255
255
208
84
52
52
24
36
46
60
52
50
42
62
66
48
20
34
52
60
56
72
74
58
46
60
78
82
58
44
18
54
78
74
44
18
34
24
4
12
18
58
68
50
40
40
24
24
16
24
26
32
26
12
18
14
14
14
14
10
18
16
10
18
24
12
10
16
14
16
50
74
66
44
62
32
16
36
20
10
16
22
8
20
34
22
24
24
14
12
14
10
12
8
4
8
18
6
24
40
28
12
38
34
18
0
14
14
8
2
8
12
16
20
26
20
12
6
14
16
2
20
16
10
24
16
4
24
40
52
52
48
36
30
38
54
68
68
52
46
46
42
24
40
56
60
62
80
78
78
78
82
108
164
210
212
190
162
150
164
172
168
176
202
244
255
255
255
255
255
255
255
255
255
204
136
70
24
26
20
22
28
14
2
6
8
14
20
24
30
16
10
22
6
22
36
62
50
40
42
28
14
18
8
8
20
36
46
48
38
18
4
16
16
6
10
14
6
22
30
22
30
22
8
24
32
30
20
14
10
2
16
22
42
40
62
100
134
98
86
60
26
12
12
14
18
16
14
10
4
12
18
10
2
8
16
22
18
10
4
6
14
14
12
16
14
12
10
12
20
12
14
24
36
30
8
24
42
40
24
18
6
10
22
22
20
24
24
6
12
10
4
8
20
18
14
32
50
46
26
14
24
32
22
8
14
26
28
42
58
56
42
30
28
50
76
106
124
128
148
174
198
176
106
96
138
162
138
84
66
94
128
228
255
240
124
86
134
200
184
130
112
138
100
58
46
72
10
16
36
14
70
242
255
255
255
255
162
30
76
92
30
52
104
128
116
82
46
28
20
18
20
14
16
24
20
14
10
10
6
4
12
14
6
12
8
12
16
16
22
18
10
8
10
12
14
18
16
12
4
12
10
10
10
16
10
2
10
12
12
12
6
4
14
16
8
12
20
16
16
10
8
12
12
6
2
4
6
6
6
2
4
4
4
14
12
8
8
4
4
6
6
8
8
2
6
10
8
2
2
2
4
6
4
8
8
6
14
18
10
6
12
12
2
12
16
12
8
8
20
16
4
2
8
10
6
16
14
6
20
22
18
14
14
12
8
8
8
6
12
14
6
6
6
10
16
18
14
12
18
20
10
2
2
6
16
26
26
16
4
10
10
14
20
14
8
12
16
18
18
10
12
28
32
30
34
38
42
50
52
36
30
36
46
62
60
50
40
36
42
48
50
52
44
48
44
40
40
42
38
32
34
32
24
26
28
30
22
14
12
10
4
2
2
6
4
8
12
12
6
10
18
18
12
10
14
22
30
36
48
54
58
58
48
36
30
30
24
12
14
22
22
22
24
26
26
32
42
58
60
52
40
32
36
32
36
40
38
22
12
10
10
8
16
30
26
38
44
38
24
18
14
16
24
28
32
34
32
36
42
48
54
62
84
114
112
100
194
255
255
255
255
255
138
42
40
24
26
48
52
36
40
24
32
36
32
16
12
10
20
36
40
38
30
36
60
68
52
46
46
82
96
82
38
10
42
42
20
14
14
40
54
46
28
18
30
24
14
2
18
18
12
6
6
10
24
26
18
8
2
12
14
16
24
26
12
14
22
22
16
24
44
58
48
50
14
32
44
22
8
10
24
24
14
18
20
26
20
8
20
20
10
8
4
4
14
18
10
22
48
52
20
12
28
30
10
16
22
20
20
22
22
20
16
8
4
14
14
12
24
8
18
22
42
66
58
50
50
40
28
38
72
86
78
74
58
52
54
58
54
68
76
72
58
44
24
26
38
46
50
40
32
74
116
122
92
62
54
74
98
90
68
66
94
144
190
224
246
255
255
255
255
255
255
255
255
242
160
74
28
14
36
46
40
28
18
10
20
20
38
40
22
6
18
36
52
44
18
22
26
22
14
14
12
12
10
20
40
44
46
36
18
16
8
6
8
16
18
12
24
16
14
12
20
30
28
18
8
8
2
8
16
16
18
22
28
54
86
106
166
184
160
126
90
42
8
12
8
18
20
18
16
8
6
18
22
12
8
18
24
16
2
16
24
20
12
4
4
10
10
8
4
16
34
36
24
10
24
40
36
24
16
24
30
32
26
30
28
14
16
22
24
14
4
12
6
10
28
38
32
28
30
22
6
4
6
22
34
40
44
30
16
14
30
60
88
130
166
186
214
246
255
255
206
172
164
160
116
46
54
186
255
255
255
255
255
110
54
150
188
164
106
68
96
64
30
36
14
8
46
56
206
255
255
255
255
196
80
22
84
116
80
4
68
114
122
96
60
32
14
18
14
10
10
14
12
6
10
16
18
16
22
16
8
12
8
2
10
10
2
16
14
4
4
12
14
16
18
12
0
8
10
10
10
16
10
10
18
16
12
12
10
10
12
12
12
6
4
6
12
12
10
8
4
6
10
6
2
6
10
8
6
4
4
12
8
4
6
6
8
10
8
6
12
12
8
8
4
2
4
8
8
4
4
14
14
8
14
24
22
12
10
10
6
10
14
18
18
6
18
26
20
16
14
10
8
22
26
16
20
10
6
6
6
4
6
8
8
4
8
14
14
10
8
10
16
16
14
24
38
32
16
16
12
12
18
22
18
10
0
6
10
18
24
18
4
4
16
26
26
20
20
24
34
30
32
40
48
54
48
36
36
38
40
42
34
28
32
34
40
38
34
32
24
36
40
44
42
38
36
28
20
10
2
14
24
38
50
58
68
78
88
92
92
90
88
88
82
74
70
54
38
34
26
22
14
6
12
12
10
16
30
46
54
48
28
18
12
4
16
12
4
4
2
6
14
14
10
22
38
40
34
28
30
26
36
46
46
34
30
32
30
22
20
26
16
12
32
40
36
32
34
40
48
50
48
46
50
58
62
58
50
48
36
42
22
28
110
255
255
255
255
255
164
64
64
54
38
30
8
20
38
30
38
58
56
42
34
34
42
46
54
70
76
76
72
54
40
80
110
106
76
32
24
30
24
8
10
4
18
28
24
38
42
28
26
20
20
24
18
10
28
30
24
24
18
20
16
14
8
14
20
28
28
20
6
8
16
22
22
22
6
18
24
18
12
24
24
6
14
18
16
32
30
14
4
14
6
10
20
4
26
38
30
24
6
28
26
12
22
32
22
10
20
42
34
22
18
10
8
8
8
12
18
22
20
34
30
20
44
42
44
34
50
66
44
48
52
46
34
62
80
70
42
54
46
46
54
52
36
38
38
42
34
14
4
8
24
42
48
48
70
80
68
94
104
82
64
108
120
80
42
14
42
90
118
142
146
130
178
255
255
255
255
255
255
255
255
255
170
82
20
28
44
48
46
38
28
10
10
26
30
24
44
50
30
14
52
52
28
8
0
0
8
16
14
20
14
4
18
32
30
16
2
12
10
18
40
36
12
2
4
16
26
28
20
10
4
10
8
14
22
18
8
16
28
32
46
182
255
255
255
255
255
182
84
16
34
34
22
18
22
28
28
26
12
10
4
4
14
14
14
18
12
14
10
10
14
8
8
18
22
12
24
28
24
14
6
2
16
32
34
34
38
42
32
40
34
22
4
6
16
20
10
2
14
26
40
42
30
20
32
32
10
8
26
50
56
46
34
32
20
28
64
104
142
184
208
216
230
254
255
255
255
254
255
255
196
176
170
255
255
255
255
255
255
150
102
164
150
204
200
152
134
92
48
12
34
64
160
255
255
255
255
255
255
166
100
58
138
186
162
92
108
130
140
118
78
40
12
16
6
10
12
16
8
6
14
22
24
16
20
12
8
12
14
16
20
24
20
2
18
14
4
12
6
6
14
12
4
12
14
14
8
20
18
20
22
12
6
4
6
8
8
4
8
10
6
2
10
8
2
2
6
6
2
6
8
4
8
8
4
2
4
14
16
12
12
14
14
12
8
4
2
6
4
6
4
2
2
0
0
4
14
18
10
4
6
14
18
14
4
4
8
8
2
10
16
14
8
24
28
28
24
16
10
14
24
20
10
4
8
8
6
2
6
4
4
2
6
10
14
14
8
4
22
30
32
38
46
32
20
20
14
6
12
14
12
10
4
8
10
8
14
20
20
16
6
16
32
32
28
22
22
20
24
36
44
40
36
36
40
44
42
42
38
34
34
32
24
10
6
16
24
34
42
56
70
76
88
94
102
114
122
130
132
136
138
134
134
134
132
130
128
128
130
132
128
120
124
118
102
94
92
94
92
92
92
82
84
82
74
58
58
62
54
46
50
46
42
26
20
12
8
10
18
26
20
2
18
28
24
18
18
20
28
48
54
44
42
50
56
46
32
34
30
28
28
44
50
56
60
66
68
62
54
52
50
44
34
20
12
22
50
78
74
88
144
224
255
255
255
255
138
30
30
12
42
60
86
106
110
96
100
120
126
118
112
116
120
128
128
136
140
148
158
154
142
154
132
80
22
26
44
32
12
12
10
10
16
16
14
24
36
36
30
34
36
32
18
22
24
12
14
26
16
32
42
32
22
22
38
38
32
26
12
4
2
2
2
2
6
12
14
14
10
26
36
22
8
16
14
8
18
16
22
20
12
18
16
10
34
30
20
26
14
22
30
22
26
32
26
18
12
34
34
24
24
24
26
28
24
16
26
32
20
30
32
30
56
50
46
46
40
36
12
22
32
34
30
44
42
20
8
18
8
14
18
8
10
20
18
26
36
34
22
30
24
42
76
88
90
76
50
46
70
106
142
146
108
50
48
22
40
108
148
160
134
78
18
76
162
248
255
255
255
255
255
255
255
255
172
72
26
50
74
76
66
46
28
14
12
40
48
32
14
58
70
46
30
20
12
12
10
2
8
2
16
28
24
18
32
36
26
26
24
28
40
54
44
24
22
38
40
30
18
10
4
16
32
30
48
46
46
58
66
48
56
206
255
255
255
255
255
255
236
70
46
36
26
16
28
36
26
22
12
8
6
6
22
24
18
12
2
8
12
14
16
24
38
36
38
38
44
44
28
6
6
10
30
36
36
28
28
30
24
44
46
28
34
38
34
24
18
24
34
52
58
46
38
20
20
26
20
18
36
50
38
14
34
40
40
112
206
255
255
255
192
148
164
210
255
255
242
228
248
242
228
255
255
255
255
116
255
255
255
214
100
86
124
170
196
214
210
160
94
48
114
246
255
255
255
255
255
255
226
160
44
162
255
255
255
234
192
166
168
152
102
48
10
14
8
16
16
18
12
16
20
18
20
12
10
6
4
8
16
18
12
12
20
12
16
20
6
8
10
12
14
10
20
26
20
12
6
12
18
22
18
8
8
4
4
4
4
4
4
8
8
8
10
2
8
10
6
8
16
16
10
4
6
6
4
4
6
14
20
20
18
18
12
8
12
16
16
12
4
4
4
6
12
16
16
18
20
12
2
2
6
12
14
10
6
6
8
8
10
4
4
14
16
12
22
28
26
22
12
2
6
12
10
6
4
4
4
2
6
4
2
0
4
4
4
8
16
28
34
40
42
40
40
20
14
14
10
6
14
20
18
14
12
6
8
22
32
38
36
30
26
32
44
32
16
6
4
4
14
24
26
16
16
18
24
28
26
26
22
12
8
20
38
48
58
78
104
134
162
184
196
200
210
214
220
226
224
216
198
180
162
142
126
114
100
90
86
84
94
106
110
106
116
126
130
126
124
134
144
154
160
152
146
150
156
156
148
140
118
106
104
98
86
72
56
38
18
16
18
30
28
16
8
10
8
6
6
10
16
30
42
38
36
44
58
54
38
42
46
42
40
46
54
54
54
52
44
32
22
16
2
20
44
72
94
108
130
144
118
112
170
255
255
255
255
255
98
28
36
14
36
40
50
54
50
40
42
60
82
92
108
118
124
126
126
140
150
160
176
188
184
160
120
70
26
46
50
40
30
20
4
16
22
14
6
4
12
16
10
20
24
18
26
30
32
28
26
18
20
56
56
40
32
32
44
36
34
38
28
10
14
24
28
28
18
28
32
32
20
6
24
24
14
18
38
34
36
46
42
30
28
34
32
10
28
40
40
36
14
4
14
14
12
18
24
18
4
16
10
4
14
18
22
26
26
24
32
28
8
14
20
30
44
30
16
36
20
12
26
22
8
26
22
18
22
24
22
24
14
20
26
22
38
40
32
32
34
28
22
30
52
84
102
96
88
78
76
104
154
198
184
120
38
30
46
24
46
94
94
124
142
120
64
70
126
158
218
250
252
255
255
255
255
255
255
246
116
40
60
90
90
72
56
46
38
26
14
16
52
64
46
12
12
12
14
18
20
24
12
18
22
18
12
4
22
38
46
42
34
34
26
46
48
34
40
56
50
32
36
28
12
36
58
52
58
60
62
62
88
92
54
255
255
255
255
255
255
255
255
202
66
36
36
16
30
28
12
24
22
14
8
14
30
28
16
6
2
8
20
28
38
50
50
38
36
44
46
32
14
14
22
42
44
24
16
14
6
18
14
34
50
40
66
62
56
50
40
40
38
36
20
14
24
28
24
22
20
22
24
26
24
20
32
38
100
214
255
255
255
255
184
16
150
164
188
192
160
122
116
94
132
255
255
255
255
255
255
255
255
255
98
50
96
78
80
102
154
180
164
132
230
255
255
255
255
255
212
164
146
112
20
192
255
250
118
180
160
148
176
186
132
54
10
14
4
18
18
16
6
8
8
4
12
10
6
4
2
8
16
20
16
18
30
18
14
16
6
4
2
4
8
12
30
30
20
14
14
16
16
14
10
10
8
6
8
10
10
10
8
8
8
8
10
4
8
4
8
20
20
10
8
8
10
8
8
8
8
6
6
10
14
12
6
4
6
12
14
16
10
2
4
8
14
14
14
16
12
4
0
4
10
14
14
10
10
8
4
2
4
4
4
16
22
10
14
26
22
18
14
8
6
8
4
6
6
4
4
6
8
10
8
4
8
8
6
16
34
40
40
40
38
34
24
16
14
18
16
12
14
24
22
14
12
8
14
22
20
26
34
32
32
32
32
14
16
14
10
14
22
28
20
6
14
24
34
48
68
90
108
126
140
152
160
160
164
174
188
200
198
190
176
164
162
156
152
146
132
118
116
100
76
56
44
36
34
30
16
16
20
34
42
38
38
44
56
58
56
68
72
78
84
86
82
82
92
100
98
92
82
76
82
92
98
100
98
88
70
56
56
70
76
66
54
44
40
30
30
34
26
10
10
2
0
6
22
26
18
16
12
14
24
30
28
22
28
40
52
66
76
80
94
112
134
146
146
142
142
136
96
88
130
220
255
255
255
255
255
255
255
255
255
255
255
255
255
255
255
255
255
228
186
142
100
50
46
64
94
100
104
112
116
132
146
128
86
48
28
18
24
28
14
8
22
24
14
16
16
18
4
18
26
22
40
40
28
14
12
16
36
48
38
26
22
28
30
18
22
34
38
32
22
18
16
26
36
32
20
26
28
14
22
24
20
6
12
14
20
24
18
6
10
22
28
16
2
16
16
8
4
4
6
14
8
10
30
30
22
40
30
24
20
8
8
10
6
12
20
16
10
14
20
34
34
18
8
12
20
22
14
18
22
18
24
14
4
12
16
14
6
10
16
30
48
42
30
20
28
38
44
52
64
84
102
106
106
108
116
140
172
184
138
56
16
52
30
36
118
184
192
158
122
102
110
126
126
102
144
208
222
218
228
255
255
255
255
255
255
180
32
64
92
78
60
66
82
82
62
64
62
42
14
12
18
8
10
20
20
34
24
24
18
0
20
28
26
22
18
28
26
30
20
40
44
32
42
48
34
20
32
40
30
52
56
38
30
42
16
14
80
92
66
230
255
255
255
126
255
255
255
255
224
92
46
32
44
28
14
26
34
36
32
36
40
24
10
2
4
16
28
42
52
46
34
26
32
38
36
30
10
26
50
56
32
10
22
22
12
16
4
22
30
32
52
42
38
40
30
34
30
14
6
10
4
14
20
24
24
22
20
22
16
24
56
88
128
220
255
255
238
255
255
92
154
255
255
208
144
78
38
38
98
255
255
255
255
255
255
250
108
230
186
46
48
42
44
52
60
116
138
134
255
255
255
255
186
20
46
104
114
88
46
166
255
248
148
188
110
72
142
190
152
70
12
22
4
14
16
20
14
16
18
8
8
6
4
2
2
10
12
18
20
26
30
10
12
12
4
10
12
14
12
12
24
20
14
18
18
16
8
6
6
8
6
8
12
14
12
12
8
4
6
10
16
12
22
20
18
22
12
4
4
6
10
8
8
8
8
6
8
10
4
4
4
6
8
10
8
14
10
4
8
6
6
6
6
4
2
4
4
6
6
10
10
10
10
4
4
6
8
4
6
20
20
4
18
30
20
12
12
8
8
6
4
2
4
8
14
10
6
8
8
4
8
10
16
30
40
36
30
28
20
26
24
24
20
12
10
10
4
18
20
14
10
8
16
24
24
12
10
20
22
14
6
14
18
16
16
16
14
12
16
46
72
94
114
140
178
212
230
238
234
228
222
210
204
198
184
158
116
76
42
20
10
16
28
42
48
66
78
82
74
62
48
40
44
44
40
44
52
56
50
42
42
46
52
50
48
56
54
50
48
48
44
42
38
30
34
40
32
20
8
20
48
72
92
98
94
86
82
94
106
106
100
86
72
64
60
64
66
60
64
60
60
60
62
54
46
50
60
72
80
98
106
106
120
134
144
154
154
146
148
156
162
148
122
98
82
66
36
46
40
182
255
255
255
255
255
255
255
255
255
255
255
255
255
255
255
255
255
255
255
255
255
255
255
160
62
14
6
6
6
36
92
132
132
108
74
50
38
36
18
8
16
26
30
36
38
40
20
18
30
50
64
64
62
56
56
46
32
26
20
14
12
16
10
2
10
24
38
48
54
50
36
30
36
32
20
16
12
24
40
28
6
18
32
24
30
42
48
38
22
20
16
10
16
24
28
24
18
12
18
18
20
6
22
36
42
46
22
30
28
16
16
18
12
18
20
14
28
32
32
34
24
6
14
30
24
6
24
32
22
8
10
24
24
14
8
2
6
2
8
28
40
26
24
16
36
64
68
54
44
58
86
104
110
112
106
100
102
96
66
22
22
46
34
100
186
255
255
250
216
186
162
124
82
58
62
162
232
240
194
150
174
252
255
255
255
255
212
38
48
58
44
54
82
102
100
74
44
22
8
10
6
8
16
24
14
28
22
18
10
16
36
30
8
22
28
24
8
12
8
28
34
22
22
16
16
10
2
22
36
44
26
20
16
26
56
86
72
44
202
255
226
255
255
255
42
255
255
255
255
218
68
58
44
34
22
26
32
42
46
42
28
10
12
6
8
20
32
42
42
28
26
4
16
18
16
28
6
40
54
36
30
24
26
14
10
20
8
18
12
10
28
22
18
12
10
24
22
26
14
8
20
18
18
26
28
30
34
54
74
92
110
106
96
174
255
255
246
108
242
240
28
238
255
255
156
60
22
12
86
220
255
252
255
255
198
228
126
112
174
140
44
14
56
42
10
38
60
66
176
255
255
222
104
138
110
156
140
96
52
100
188
204
122
104
44
32
96
164
154
72
4
24
4
12
18
18
10
6
8
6
10
10
8
6
4
8
8
12
18
24
18
4
12
14
6
16
10
12
10
6
20
16
2
4
4
4
4
4
6
4
4
10
12
8
6
6
4
8
16
24
26
20
24
24
14
18
10
6
6
4
4
6
10
12
18
18
2
10
12
4
6
4
8
4
10
14
4
14
22
20
16
10
0
8
12
10
6
4
2
10
14
6
2
6
8
2
0
2
8
16
16
6
18
24
18
16
16
12
8
4
8
2
10
14
14
4
4
8
8
4
8
10
18
28
30
28
24
22
14
18
24
30
34
28
24
18
8
16
20
16
14
12
16
22
30
32
16
2
4
8
6
2
6
10
22
48
68
96
120
142
154
156
162
174
186
188
172
150
128
116
110
100
92
78
56
36
24
30
48
58
60
66
76
86
100
106
106
98
78
62
56
52
48
44
46
52
54
54
52
56
60
58
56
52
52
60
66
72
72
72
70
72
76
70
70
70
60
62
62
46
26
8
16
28
32
32
30
36
48
62
82
94
98
98
98
102
108
124
128
124
124
126
128
122
116
116
114
118
124
122
128
126
132
136
134
126
114
104
100
100
92
66
40
22
6
26
20
30
30
102
214
255
255
255
255
255
255
255
255
255
255
255
255
255
255
255
255
255
255
255
255
255
255
255
255
255
255
255
226
146
38
74
148
170
150
120
92
60
32
20
8
14
24
24
32
46
36
20
16
30
46
50
46
36
38
48
44
26
14
16
20
10
4
8
14
22
28
36
48
54
46
24
20
22
18
14
10
20
22
10
18
14
14
10
14
24
32
28
20
18
20
10
12
28
24
28
28
26
16
6
18
24
10
10
20
10
12
26
22
8
8
12
4
8
18
28
36
24
12
4
6
14
12
10
20
36
26
12
12
28
24
8
20
18
16
12
16
22
32
38
34
14
18
24
62
78
60
34
28
48
74
78
68
62
56
54
56
86
86
50
28
70
116
172
226
255
250
218
200
204
200
158
96
56
60
72
138
210
194
128
94
122
228
255
255
255
255
226
60
22
36
32
28
40
60
64
52
42
38
44
42
26
36
32
8
16
14
10
2
26
30
10
28
44
36
52
52
44
26
18
14
8
8
16
20
22
20
10
12
16
6
16
46
78
72
14
104
208
234
174
114
230
255
255
255
68
255
255
255
255
148
32
16
12
6
12
6
4
6
6
8
14
14
2
14
26
36
36
22
12
24
10
22
20
10
24
4
32
32
12
38
38
14
10
22
12
6
14
12
8
16
20
14
6
20
26
14
30
28
6
12
20
24
30
38
56
76
98
102
98
92
64
38
124
255
255
255
154
96
255
244
94
255
255
255
160
36
8
86
170
192
114
156
170
88
170
184
78
54
122
104
48
44
24
10
12
18
22
84
202
255
216
78
166
132
192
152
74
54
102
104
82
48
30
38
62
156
198
152
64
16
26
4
14
18
20
18
16
12
8
16
16
16
12
0
8
8
12
14
10
2
6
8
14
10
14
2
10
10
6
20
20
14
12
12
12
4
8
6
2
4
6
4
4
14
10
4
12
24
30
24
14
16
16
4
12
8
4
6
4
2
4
10
12
18
28
18
4
6
8
0
10
14
10
14
10
4
24
34
30
30
30
18
12
14
12
6
0
2
10
12
10
10
14
6
6
8
6
4
18
22
12
14
22
20
18
16
14
12
14
10
6
12
14
8
4
8
10
8
4
8
14
22
26
24
20
16
16
8
8
18
26
34
34
32
26
12
12
18
16
16
18
20
18
24
32
28
20
16
14
14
16
20
46
88
126
160
182
190
190
176
152
134
118
94
62
20
26
40
44
52
54
56
66
72
74
72
70
64
58
50
46
46
46
50
48
42
28
12
8
12
22
22
18
24
28
24
24
26
30
26
16
12
8
8
18
26
26
24
26
28
30
38
36
34
34
30
42
54
60
62
60
56
54
48
44
42
38
32
22
32
46
64
78
82
98
114
124
122
116
116
120
124
124
126
112
92
96
98
86
84
76
66
58
42
22
10
2
4
16
28
38
58
58
46
46
46
48
50
54
60
58
52
46
52
64
64
60
74
92
106
112
124
154
198
254
255
255
255
255
255
255
255
255
255
255
255
255
255
255
255
188
66
34
60
64
62
56
42
38
28
28
20
6
14
34
38
38
46
56
54
34
22
24
22
16
34
50
36
8
16
16
18
28
28
30
26
22
30
42
44
30
16
16
6
6
10
22
30
22
4
26
34
24
14
24
34
34
22
20
12
10
30
24
6
16
24
28
28
20
4
20
30
22
14
20
34
40
32
18
18
26
24
22
30
36
24
10
18
22
24
12
18
38
46
28
14
36
38
38
48
30
26
38
34
30
34
44
50
44
34
24
30
58
78
66
36
20
28
50
64
62
66
66
58
54
62
58
54
76
120
150
172
178
168
132
154
158
126
74
64
78
108
46
54
82
62
140
144
110
60
56
90
200
255
255
255
255
210
60
12
22
18
24
20
18
30
42
50
62
66
44
42
26
16
38
32
32
14
26
48
36
40
40
30
34
58
68
56
28
24
22
18
16
18
24
28
26
30
32
10
28
68
68
34
188
255
246
146
82
124
204
236
220
255
178
100
255
255
255
210
54
58
30
20
14
22
24
26
22
16
8
14
8
20
28
30
24
16
28
36
12
26
24
8
18
4
32
44
36
46
26
10
30
18
8
18
8
12
22
16
12
12
22
34
24
4
20
28
18
24
30
32
40
56
82
98
98
76
58
50
26
22
60
136
230
252
188
56
176
255
255
176
248
255
255
174
82
192
248
186
44
94
138
94
94
148
134
66
42
82
78
36
18
18
18
10
8
126
240
255
194
106
190
160
255
232
112
32
52
80
88
62
20
72
140
190
186
126
42
10
18
6
16
16
14
10
8
10
16
18
6
12
18
12
12
10
10
8
6
6
6
2
6
8
10
8
14
12
8
20
16
8
12
14
14
6
6
10
8
4
4
6
4
8
2
6
10
16
16
8
2
12
12
2
10
6
0
4
6
0
6
8
10
4
14
16
10
4
4
4
6
6
2
16
16
12
20
20
8
6
18
22
14
4
6
6
6
12
18
12
2
12
14
14
14
4
4
2
10
20
18
12
10
14
10
12
16
14
8
2
6
12
14
8
6
6
10
8
8
10
10
16
28
34
34
32
34
28
12
6
12
18
22
28
22
16
8
14
14
16
20
20
24
32
38
34
28
36
50
76
102
128
158
180
184
174
158
140
122
98
72
50
30
6
20
46
66
72
68
70
70
80
88
82
72
62
62
58
48
36
28
28
28
26
18
8
4
6
4
14
18
18
18
20
26
22
20
18
14
4
6
6
4
6
16
16
8
4
8
10
8
14
14
6
6
4
12
24
34
40
42
42
44
42
38
40
44
54
68
64
44
22
12
12
32
36
30
12
4
0
4
12
16
26
32
18
14
14
2
14
18
20
28
38
48
52
58
64
64
72
78
78
70
56
54
54
56
56
46
24
14
24
34
54
68
64
54
50
50
42
22
20
6
22
58
92
130
174
216
255
255
255
255
255
255
255
255
255
255
255
255
255
255
255
210
136
72
16
50
78
78
66
40
26
30
16
20
38
64
80
64
40
36
48
46
22
30
52
46
40
38
40
38
28
38
44
38
38
48
58
56
42
36
30
26
18
6
14
30
32
14
8
16
12
18
34
54
60
72
78
46
38
32
6
14
18
18
18
20
20
14
30
28
12
18
18
26
20
10
10
14
16
22
32
34
14
10
18
12
2
20
34
26
8
18
32
32
16
12
34
36
48
56
44
36
34
38
44
46
52
64
76
82
74
54
36
34
44
62
78
76
76
82
90
104
108
116
142
178
198
178
140
86
16
114
244
255
255
255
255
255
168
114
74
100
112
198
198
134
60
56
24
62
184
255
255
255
255
184
66
36
14
10
8
2
14
24
20
30
40
28
22
16
26
44
28
34
30
12
36
38
32
30
24
20
18
40
48
34
16
14
10
10
14
30
40
32
24
28
20
28
68
60
202
255
252
148
108
170
255
255
255
228
186
154
112
255
255
255
218
110
36
24
20
10
12
10
20
24
20
20
22
22
32
26
20
30
22
36
34
18
36
42
26
16
4
10
18
18
14
4
24
26
18
30
18
24
28
12
10
6
12
18
20
8
20
26
16
10
32
40
50
68
78
80
68
54
42
46
56
50
72
118
152
168
180
186
120
150
200
255
255
94
148
255
234
255
255
255
152
64
166
168
102
46
110
136
116
74
98
78
36
18
10
8
12
12
104
226
255
154
96
184
118
255
255
190
44
74
144
170
148
100
138
166
170
146
96
34
6
10
4
14
12
10
4
4
8
16
18
10
26
26
14
12
4
4
4
6
6
6
4
2
4
6
8
18
14
4
18
12
2
2
6
10
8
8
10
14
10
8
10
4
10
10
4
12
22
28
20
12
16
14
6
12
10
4
6
4
2
4
6
12
16
16
12
4
6
6
0
8
14
10
6
16
10
8
28
32
22
22
20
14
8
10
2
12
18
18
8
12
12
10
14
22
16
4
4
2
10
14
12
8
20
26
22
14
6
14
10
6
10
12
8
4
2
8
8
10
8
6
6
18
30
40
44
48
50
40
24
26
40
52
44
24
8
0
10
12
14
14
16
22
36
50
52
52
74
106
148
180
200
202
182
144
100
62
36
16
14
18
30
34
36
40
38
36
32
26
26
28
46
50
38
42
32
42
46
36
22
16
20
22
16
8
2
6
10
22
26
20
14
18
22
32
28
22
16
8
4
0
4
8
18
24
16
6
4
8
8
4
8
10
4
2
4
4
4
6
8
10
12
14
12
12
10
16
34
64
84
82
76
80
90
92
80
72
92
102
98
102
108
102
86
86
68
64
70
68
78
76
74
72
66
64
64
66
68
66
66
62
56
52
44
46
44
50
52
46
44
42
42
44
42
36
22
14
14
20
28
26
32
26
20
20
24
26
22
14
12
22
16
24
100
214
255
255
255
255
255
255
255
255
255
255
255
255
255
176
100
32
50
52
34
12
22
34
32
52
72
68
46
34
48
70
64
36
10
30
30
20
22
14
10
16
36
40
40
46
56
62
60
54
48
46
48
46
30
4
18
22
10
4
10
6
30
66
76
66
100
80
36
26
8
16
16
16
12
10
18
32
48
40
28
38
46
44
28
10
6
2
10
18
24
18
2
12
10
4
16
22
16
30
40
46
28
16
24
16
4
26
52
52
42
36
32
36
46
62
80
92
88
72
58
52
48
52
62
84
114
130
146
154
156
164
168
190
224
234
206
150
84
72
80
200
255
255
255
255
255
255
255
222
128
88
124
190
182
136
84
98
80
18
88
194
255
255
255
255
160
44
26
34
22
4
12
32
32
36
32
10
4
12
34
46
28
24
32
18
14
22
20
16
12
24
24
28
16
24
14
2
6
10
18
18
34
34
48
18
32
44
32
162
238
206
112
82
172
255
255
255
214
156
152
90
180
255
255
255
238
64
18
36
22
12
18
50
62
54
52
34
18
26
20
4
18
34
24
28
32
32
38
50
40
26
10
8
6
6
12
14
14
16
2
22
30
34
18
14
28
14
28
24
16
20
32
30
14
18
48
66
82
86
68
44
34
38
32
56
78
92
132
164
166
160
148
160
166
184
174
186
255
255
194
138
110
255
255
232
230
218
230
156
82
32
72
104
102
72
100
82
32
8
22
24
18
16
82
208
255
162
104
168
46
198
255
238
122
92
124
170
154
106
104
122
128
110
74
30
16
18
8
14
8
8
8
6
10
12
10
10
16
12
8
28
26
22
16
6
4
10
14
10
6
2
8
18
16
0
16
14
4
8
12
10
8
12
10
14
20
12
12
10
4
12
4
10
18
26
28
14
18
16
6
12
8
6
8
6
4
6
8
8
8
12
10
6
6
6
10
8
6
6
4
4
6
8
10
18
20
18
22
16
4
6
2
12
12
8
10
18
14
8
6
20
22
16
8
2
4
2
4
4
18
20
12
4
2
6
8
6
12
12
8
4
4
6
8
12
14
14
14
16
20
32
44
50
60
64
54
50
58
56
40
30
26
22
18
16
20
22
24
30
40
58
82
102
124
146
160
160
144
112
72
52
30
16
24
34
46
52
58
52
42
36
26
24
24
22
24
30
42
38
24
32
24
36
38
24
16
10
8
8
6
6
4
8
16
18
16
10
4
6
18
30
28
20
14
14
14
10
14
16
14
10
8
4
4
8
8
2
6
6
6
14
16
16
12
10
16
24
26
22
22
20
14
20
24
38
60
62
60
68
86
100
92
82
90
84
72
76
84
86
74
68
58
60
60
62
72
74
70
62
56
56
54
50
46
42
40
38
36
34
32
32
26
30
32
28
34
38
38
38
36
32
26
20
16
12
14
14
18
14
8
8
8
12
20
30
40
50
60
58
46
20
66
132
204
255
255
255
255
255
255
255
255
255
255
255
255
255
255
150
50
66
86
70
68
62
56
50
40
36
50
74
90
100
86
60
56
50
58
54
44
32
12
2
14
22
26
32
36
40
42
46
58
68
62
50
58
62
48
34
30
24
50
60
50
18
48
36
10
4
8
14
18
24
24
18
16
10
18
24
14
10
28
46
48
30
8
16
18
8
12
20
22
18
10
10
18
26
38
46
44
32
26
12
4
6
16
26
32
28
34
46
58
72
82
92
88
72
56
42
42
54
54
60
76
102
136
154
172
180
184
198
206
224
234
208
164
124
84
132
180
232
255
255
178
152
255
255
255
255
188
114
102
100
102
108
56
34
54
40
82
174
230
255
255
255
216
88
60
56
38
20
32
32
40
34
20
14
8
10
36
52
40
30
34
22
10
10
14
8
6
18
24
18
10
8
14
12
24
26
16
12
56
88
62
38
104
78
132
136
104
82
132
152
255
255
255
178
126
122
70
132
255
255
255
255
80
32
40
22
8
2
16
38
34
20
36
26
4
12
24
36
28
34
26
24
40
40
30
40
34
32
30
26
24
22
18
10
12
20
24
16
6
10
10
22
20
2
20
20
10
22
30
24
22
44
86
104
94
60
26
14
30
50
54
60
84
114
156
168
162
166
174
184
186
176
150
112
194
255
230
170
202
248
164
86
255
255
172
76
44
24
44
66
62
48
76
62
40
38
18
2
8
10
102
234
255
170
100
224
118
84
228
255
232
106
26
104
110
78
44
74
92
80
64
30
10
22
10
12
4
8
14
20
14
8
4
4
8
12
16
32
20
18
16
14
12
10
14
14
6
4
10
16
12
4
18
16
8
8
10
4
4
10
14
20
20
6
12
12
4
10
10
4
10
14
22
14
14
12
8
12
4
4
8
8
8
8
6
2
4
6
4
10
10
4
8
14
12
8
0
12
16
6
2
2
6
18
22
16
12
14
4
12
16
12
20
22
12
4
4
8
16
20
18
10
6
4
2
6
14
18
16
4
4
10
4
6
10
8
4
2
12
22
26
30
26
30
28
24
24
32
34
44
56
68
64
52
52
46
42
44
42
46
40
28
32
36
38
46
64
90
108
112
120
118
100
72
30
30
46
62
64
54
42
42
48
52
52
38
26
22
18
22
24
24
26
26
30
22
14
20
16
28
28
14
18
12
2
4
4
8
10
10
10
6
6
6
2
4
14
24
22
12
8
12
14
12
14
12
4
4
10
8
6
8
10
4
6
2
14
26
26
24
18
18
34
42
34
32
32
32
26
26
22
16
26
26
22
24
38
56
56
42
36
24
16
20
28
32
30
30
30
34
34
38
46
48
40
34
36
38
34
28
22
18
16
16
18
20
24
24
16
14
14
12
12
16
18
16
14
16
18
16
8
2
6
8
10
8
8
14
12
10
12
16
20
24
26
34
30
30
32
34
38
30
48
62
164
255
255
255
255
255
255
255
255
255
255
255
255
252
162
94
56
50
38
22
22
30
44
58
70
92
106
100
88
80
82
76
68
64
52
42
30
18
12
10
4
8
20
28
44
68
70
72
98
92
88
70
46
46
50
22
60
76
80
50
20
10
4
12
16
22
26
24
20
12
22
32
38
28
4
22
46
48
32
20
6
24
36
34
32
26
14
18
40
50
44
32
22
24
30
34
30
30
36
34
30
30
46
66
84
98
104
100
74
48
40
38
52
74
74
84
102
128
164
174
180
180
184
202
206
208
192
152
124
118
112
168
252
255
255
255
255
255
255
255
255
110
132
100
22
70
152
208
194
126
142
114
126
214
242
252
255
255
255
160
40
34
42
34
28
14
12
8
8
14
14
6
28
44
32
20
24
16
8
4
6
10
10
10
6
6
12
8
12
22
16
4
22
40
62
66
10
100
150
84
208
224
118
46
178
255
255
255
88
22
70
32
202
255
255
255
255
102
38
58
18
8
12
10
24
48
56
46
56
44
30
34
46
44
26
36
34
34
46
30
20
24
18
20
26
32
40
46
44
30
18
18
28
36
30
20
6
24
28
16
24
16
4
16
18
8
36
80
114
104
54
28
10
8
14
36
64
74
78
106
126
120
120
140
152
146
130
188
186
102
44
124
150
170
255
255
255
255
255
232
118
52
20
4
26
34
26
26
48
32
30
44
34
18
24
24
148
255
255
234
26
196
158
8
184
255
255
226
90
36
58
54
22
50
72
80
70
46
10
12
4
6
4
12
14
24
24
18
10
8
12
16
20
32
18
26
34
26
10
2
6
6
6
10
12
16
16
14
22
16
6
2
2
2
6
6
6
6
6
4
10
14
8
10
10
2
6
8
12
4
8
10
12
16
6
4
8
8
8
8
10
8
2
6
4
6
8
10
8
4
2
2
8
18
14
10
4
4
14
20
16
8
10
12
6
6
8
8
14
12
6
4
8
6
2
8
16
20
16
6
10
18
18
14
10
8
10
8
6
10
10
14
18
20
26
28
24
20
14
22
26
24
24
34
34
34
38
50
46
32
34
44
52
48
36
40
46
40
38
42
48
66
86
94
80
58
48
40
28
24
34
68
86
88
76
52
34
34
42
44
34
16
12
14
12
14
12
10
14
12
14
12
6
4
6
14
10
2
10
10
4
10
14
14
14
6
4
12
12
14
10
8
12
20
20
8
4
4
4
2
4
4
2
4
2
6
4
6
4
6
8
8
14
16
8
8
6
10
30
28
14
16
14
16
20
20
14
10
10
8
4
4
8
16
18
16
14
10
12
14
18
22
22
22
22
28
38
42
40
32
20
16
20
22
20
22
22
20
12
10
14
18
22
24
14
4
4
8
8
8
12
14
10
6
8
14
16
10
18
18
16
12
10
12
10
10
14
18
20
20
26
28
26
16
8
36
50
56
66
50
12
60
110
162
206
255
255
255
255
255
255
255
255
255
255
255
255
128
42
10
24
38
30
32
26
26
36
44
42
36
42
50
52
56
52
50
54
52
40
20
16
22
22
20
24
44
50
62
66
38
64
64
36
34
16
28
54
46
32
14
18
12
8
12
14
10
4
6
20
38
42
30
12
14
16
6
24
48
58
44
42
54
38
26
22
20
14
24
38
30
22
18
12
22
32
40
40
40
50
52
52
54
64
70
72
78
82
76
60
52
54
60
76
94
94
104
120
150
186
186
172
156
156
172
168
162
144
114
104
114
122
128
198
255
255
255
255
255
255
255
255
160
104
90
100
112
112
186
220
176
168
132
148
226
248
238
255
255
255
246
134
46
42
32
24
18
34
32
20
14
14
8
20
34
20
4
10
14
14
14
12
10
8
10
12
8
12
18
28
8
44
80
64
36
38
92
62
128
132
40
156
218
180
255
255
255
255
136
82
78
128
255
255
255
255
255
122
8
20
18
24
14
12
10
16
34
56
60
62
44
28
26
28
28
22
38
42
36
34
8
28
32
16
2
12
16
14
26
32
24
14
12
18
26
24
20
10
10
18
14
12
8
8
10
16
34
70
100
102
56
8
38
20
12
16
22
56
86
106
106
106
104
98
84
72
64
128
210
248
202
96
14
68
106
138
154
196
202
216
152
82
68
50
32
44
32
12
24
30
14
22
42
60
66
60
54
148
255
255
255
46
136
152
72
114
255
255
255
146
42
36
34
14
38
62
74
64
44
18
10
4
4
8
14
10
20
22
20
12
12
22
28
28
42
28
36
36
20
16
12
6
2
2
8
14
18
16
12
16
10
2
4
6
4
6
10
16
18
12
4
6
12
8
8
6
2
6
12
14
4
10
10
12
18
8
4
8
8
6
4
8
10
2
4
4
4
2
6
10
14
12
4
10
18
8
12
10
6
20
20
10
8
10
14
6
4
4
4
8
4
4
8
4
10
6
4
6
16
20
12
14
18
14
12
12
12
8
2
2
8
10
18
20
26
22
18
12
6
4
6
12
14
16
26
24
20
16
28
26
10
20
38
40
26
14
18
28
34
28
36
48
66
72
60
30
12
20
32
34
22
42
62
68
60
42
32
22
16
28
26
12
2
8
12
8
6
2
10
20
24
24
22
12
2
4
12
14
12
12
4
10
16
18
12
14
10
12
14
18
22
14
14
6
16
22
12
6
6
12
10
12
8
2
6
4
4
8
6
2
6
8
10
22
24
14
20
14
18
32
20
8
12
6
4
8
8
10
10
8
6
4
10
18
20
14
4
4
8
12
14
14
16
18
16
16
28
36
32
26
14
6
4
8
12
12
12
16
22
18
6
12
14
16
22
14
4
2
10
10
6
6
10
10
4
2
6
12
12
20
16
12
12
6
6
8
12
14
12
12
8
12
12
12
18
12
2
0
6
20
22
18
10
16
16
18
22
22
74
152
246
255
255
255
255
255
255
255
226
80
20
34
32
20
26
34
24
20
28
42
40
26
14
24
30
28
26
38
52
50
24
10
22
36
32
20
14
20
26
12
18
40
36
18
12
10
44
40
10
46
56
30
30
12
6
12
16
20
16
22
36
58
64
46
14
10
16
2
30
50
46
50
48
22
24
18
12
4
18
22
14
10
8
12
30
32
32
32
34
48
54
54
52
52
48
48
56
56
50
44
46
48
56
66
78
80
86
100
130
160
152
122
102
108
126
118
106
92
78
82
94
96
74
104
154
188
202
174
204
255
254
214
190
110
112
114
100
80
90
138
134
110
96
126
190
220
218
224
248
255
246
174
74
16
34
28
32
44
30
30
10
14
10
18
32
22
6
14
12
10
10
8
4
4
8
14
18
12
24
34
20
94
112
78
84
78
100
86
92
82
34
106
208
255
255
255
255
186
42
86
126
242
255
255
255
255
98
28
20
16
22
30
20
4
12
24
38
40
40
38
34
16
6
14
16
20
22
36
28
12
12
34
26
12
6
14
10
6
16
22
10
4
4
10
18
18
10
8
4
6
6
2
4
8
4
20
50
74
82
60
40
32
36
8
18
14
14
42
78
112
114
108
118
134
136
96
72
110
180
234
224
150
36
114
208
206
98
30
90
96
80
56
42
42
36
30
10
8
22
14
16
38
64
86
80
64
54
104
240
255
255
66
106
146
98
42
182
250
210
130
46
22
28
8
32
56
66
56
36
14
2
4
4
8
12
4
16
18
16
6
10
20
22
14
28
16
24
20
6
16
16
2
4
0
2
8
12
10
2
8
4
0
0
4
8
6
8
10
16
10
4
4
8
4
4
4
0
4
12
10
4
12
8
8
16
8
4
8
8
4
0
4
8
4
0
0
0
0
4
6
8
10
4
8
16
4
8
8
4
20
18
4
8
12
12
4
4
4
4
8
4
4
8
4
6
4
0
0
6
12
8
8
10
8
6
6
8
4
0
0
2
10
14
12
14
10
6
6
4
4
0
2
4
8
16
14
10
6
20
20
4
16
30
22
6
2
6
8
16
8
22
36
44
40
26
4
8
12
24
28
12
32
44
44
28
18
22
18
6
20
16
4
0
8
12
6
6
4
4
8
16
16
18
14
4
2
8
6
6
6
2
10
12
12
4
12
16
10
12
24
22
8
10
4
10
16
10
4
4
10
4
10
8
4
4
4
4
8
4
4
4
4
2
16
20
6
14
6
16
32
20
8
12
4
8
4
0
4
8
8
8
6
12
18
16
8
10
4
0
2
4
4
4
8
8
8
20
22
12
16
12
0
0
4
8
8
6
4
12
14
4
8
8
8
16
12
4
0
8
12
4
0
4
8
4
0
0
2
6
12
8
6
8
4
4
8
12
10
6
8
4
8
8
4
12
8
4
2
6
6
8
8
14
24
34
36
40
32
32
20
34
92
172
242
255
255
255
255
224
90
30
34
20
18
38
36
16
16
24
36
28
10
4
14
18
10
14
12
32
44
24
8
12
34
38
22
6
6
6
6
24
32
26
10
2
16
42
30
20
54
44
14
28
12
0
8
24
20
20
32
30
24
42
42
22
2
14
6
14
26
18
26
22
20
28
20
10
4
12
18
12
8
6
12
26
18
16
16
20
34
36
30
24
22
26
40
52
48
38
24
14
18
26
36
48
50
50
60
88
114
100
66
56
76
100
90
70
56
52
60
68
64
34
50
98
116
110
52
112
164
114
118
132
78
54
70
64
48
24
50
54
50
56
84
138
176
194
198
196
198
180
146
80
12
22
18
26
30
14
28
12
12
8
16
32
24
6
10
6
4
6
4
4
4
2
12
24
10
28
32
32
102
88
56
116
92
50
62
38
58
24
88
218
255
255
255
174
58
44
72
154
255
255
255
240
106
6
28
12
18
16
24
20
0
12
28
36
26
16
18
28
16
2
14
20
20
16
16
20
16
20
28
18
8
2
12
8
4
12
18
8
0
0
8
20
16
8
4
0
4
4
0
0
4
0
24
46
54
50
30
20
16
14
8
20
12
10
30
64
100
98
80
88
112
122
78
40
66
124
180
194
150
38
126
204
152
50
92
72
42
28
30
20
16
16
14
12
8
14
4
20
30
52
70
54
34
24
